; generated by Slic3r 1.2.9 on 2018-05-17 at 12:10:32

; external perimeters extrusion width = 0.40mm
; perimeters extrusion width = 0.62mm
; infill extrusion width = 0.33mm
; solid infill extrusion width = 0.62mm
; top infill extrusion width = 0.20mm

M106 S256; Turn on fan to 100% power
M104 S140; turn on extruder temperature at S value
M140 S60; turn on bed temperature at S value
G28; home all axes
M84; disable motors
G1 Z15 F15000; have Z move to 20mm at 15000 mm/min
M190 S55; turn on bed temperature at S value and wait
M140 S55; turn on bed temperature at S value (printing temperature)
M109 S200; turn on extruder temperature at S value and wait (printing temperature)
M104 S200; turn on extruder temperature at S value
G1 Z0 F12000; move Z back to home
G21 ; set units to millimeters
G90 ; use absolute coordinates
M82 ; use absolute distances for extrusion
G92 E0
M106 S255
;Layer change
G1 E-6.00000 F1800.00000
G92 E0
G1 Z0.300 F9000.000
G1 X116.604 Y27.500 F9000.000
G1 E6.00000 F1800.00000
G1 X117.277 Y25.840 E6.08715 F600.000
G1 X138.065 Y4.397 E7.54011
G1 X138.478 Y4.033 E7.56691
G1 X139.006 Y3.649 E7.59866
G1 X139.480 Y3.369 E7.62542
G1 X140.070 Y3.091 E7.65717
G1 X140.588 Y2.905 E7.68398
G1 X140.975 Y2.798 E7.70348
G1 X141.366 Y2.715 E7.72295
G1 X142.015 Y2.633 E7.75476
G1 X142.565 Y2.616 E7.78154
G1 X143.215 Y2.656 E7.81324 F600.000
G1 X143.614 Y2.715 E7.83282
G1 X144.005 Y2.798 E7.85229
G1 X144.517 Y2.945 E7.87821
G1 X177.292 Y14.463 E9.56834
G1 X178.056 Y14.738 E9.60784
G1 X178.870 Y15.085 E9.65089
G1 X179.800 Y15.548 E9.70143
G1 X180.756 Y16.114 E9.75551
G1 X181.549 Y16.658 E9.80229
G1 X182.306 Y17.252 E9.84909
G1 X183.025 Y17.891 E9.89588
G1 X183.701 Y18.575 E9.94267
G1 X184.334 Y19.299 E9.98946
G1 X184.920 Y20.062 E10.03625
G1 X185.456 Y20.860 E10.08305
G1 X185.942 Y21.690 E10.12983
G1 X186.374 Y22.549 E10.17662
G1 X186.697 Y23.295 E10.21614
G1 X187.027 Y24.198 E10.26293
G1 X187.300 Y25.120 E10.30972
G1 X187.514 Y26.058 E10.35651
G1 X187.669 Y27.007 E10.40329
G1 X187.764 Y27.964 E10.45010
G1 X187.799 Y28.925 E10.49688
G1 X187.764 Y30.036 E10.55095
G1 X187.688 Y30.844 E10.59045
G1 X187.542 Y31.795 E10.63726
G1 X187.300 Y32.880 E10.69133
G1 X187.073 Y33.660 E10.73084
G1 X186.752 Y34.566 E10.77762
G1 X186.276 Y35.655 E10.83543
G1 X185.870 Y36.441 E10.87848
G1 X185.376 Y37.267 E10.92528
G1 X184.832 Y38.059 E10.97206
G1 X184.334 Y38.701 E11.01158
G1 X183.701 Y39.425 E11.05837
G1 X183.001 Y40.132 E11.10680
G1 X152.590 Y69.695 E13.17017
G1 X151.808 Y70.382 E13.22078
G1 X151.197 Y70.856 E13.25845
G1 X150.435 Y71.379 E13.30341
G1 X149.511 Y71.926 E13.35565
G1 X148.821 Y72.278 E13.39333
G1 X147.975 Y72.649 E13.43828
G1 X146.886 Y73.035 E13.49449
G1 X146.076 Y73.266 E13.53547
G1 X145.173 Y73.463 E13.58042
G1 X144.408 Y73.584 E13.61810
G1 X143.488 Y73.676 E13.66307
G1 X142.415 Y73.709 E13.71530
G1 X141.492 Y73.676 E13.76025
G1 X140.721 Y73.603 E13.79792
G1 X139.660 Y73.435 E13.85017
G1 X138.904 Y73.266 E13.88784
G1 X138.016 Y73.013 E13.93281
G1 X137.005 Y72.649 E13.98504
G1 X136.295 Y72.341 E14.02272
G1 X135.469 Y71.926 E14.06767
G1 X134.671 Y71.460 E14.11263
G1 X133.905 Y70.944 E14.15758
G1 X133.056 Y70.286 E14.20983
G1 X132.366 Y69.671 E14.25479
G1 X131.819 Y69.124 E14.29246
G1 X131.109 Y68.319 E14.34469
G1 X130.546 Y67.585 E14.38966
G1 X130.030 Y66.819 E14.43461
G1 X129.564 Y66.021 E14.47957
G1 X129.212 Y65.331 E14.51725
G1 X116.839 Y39.532 E15.90929
G1 X116.604 Y38.500 E15.96076
G1 X116.604 Y27.560 E16.49300
G1 E10.49300 F1800.00000
G92 E0
G1 X150.787 Y65.987 F9000.000
G1 E6.00000 F1800.00000
G1 X150.867 Y66.208 E6.01144 F600.000
G1 X150.891 Y66.398 E6.02072
G1 X150.868 Y66.634 E6.03228
G1 X150.810 Y66.812 E6.04139
G1 X150.722 Y66.973 E6.05033
G1 X150.605 Y67.115 E6.05927
G1 X150.463 Y67.232 E6.06820
G1 X150.302 Y67.320 E6.07714
G1 X150.128 Y67.377 E6.08607
G1 X149.945 Y67.400 E6.09502
G1 X149.762 Y67.389 E6.10395
G1 X149.584 Y67.343 E6.11289
G1 X149.415 Y67.263 E6.12200
G1 X149.227 Y67.118 E6.13356
G1 X149.107 Y66.973 E6.14268
G1 X149.019 Y66.812 E6.15161
G1 X148.962 Y66.637 E6.16055
G1 X148.939 Y66.455 E6.16949
G1 X148.951 Y66.272 E6.17842
G1 X148.996 Y66.094 E6.18736
G1 X149.075 Y65.928 E6.19630
G1 X149.185 Y65.776 E6.20541
G1 X149.361 Y65.621 E6.21684
G1 X149.527 Y65.529 E6.22607
G1 X149.702 Y65.472 E6.23502
G1 X149.884 Y65.449 E6.24396 F600.000
G1 X150.067 Y65.461 E6.25290
G1 X150.245 Y65.506 E6.26183
G1 X150.411 Y65.585 E6.27077
G1 X150.560 Y65.692 E6.27970
G1 X150.686 Y65.827 E6.28865
G1 X150.755 Y65.936 E6.29497
G1 X151.021 Y66.012 F9000.000
G1 X148.108 Y61.566 F9000.000
G1 X148.501 Y62.041 E6.32497 F600.000
G1 X148.695 Y62.394 E6.34454
G1 X148.819 Y62.776 E6.36412
G1 X148.870 Y63.177 E6.38377
G1 X148.842 Y63.604 E6.40457
G1 X148.705 Y64.073 E6.42837
G1 X148.501 Y64.444 E6.44897
G1 X148.244 Y64.755 E6.46857
G1 X147.934 Y65.011 E6.48813
G1 X147.582 Y65.205 E6.50770
G1 X147.199 Y65.329 E6.52729
G1 X146.778 Y65.382 E6.54793
G1 X146.287 Y65.336 E6.57192
G1 X145.883 Y65.205 E6.59258
G1 X145.531 Y65.011 E6.61215
G1 X145.221 Y64.755 E6.63171
G1 X144.964 Y64.444 E6.65131
G1 X144.770 Y64.092 E6.67089
G1 X144.646 Y63.709 E6.69046
G1 X144.595 Y63.308 E6.71010
G1 X144.607 Y63.129 E6.71885
G1 X144.175 Y63.316 E6.74174
G1 X143.663 Y63.482 E6.76794
G1 X143.358 Y63.550 E6.78315
G1 X143.049 Y63.599 E6.79836
G1 X142.490 Y63.635 E6.82562
G1 X142.030 Y63.606 E6.84804
G1 X142.077 Y64.250 E6.87949
G1 X142.021 Y64.734 E6.90318
G1 X141.869 Y65.220 E6.92795
G1 X141.566 Y65.745 E6.95744
G1 X141.222 Y66.119 E6.98220
G1 X140.831 Y66.410 E7.00589
G1 X140.392 Y66.622 E7.02960
G1 X139.922 Y66.748 E7.05329
G1 X139.436 Y66.784 E7.07699
G1 X138.952 Y66.728 E7.10069
G1 X138.487 Y66.582 E7.12438
G1 X138.038 Y66.341 E7.14915
G1 X137.580 Y65.945 E7.17863
G1 X137.276 Y65.537 E7.20340
G1 X137.064 Y65.098 E7.22710
G1 X136.938 Y64.628 E7.25079
G1 X136.903 Y64.142 E7.27449
G1 X136.959 Y63.658 E7.29819
G1 X137.104 Y63.193 E7.32189
G1 X137.334 Y62.764 E7.34559
G1 X137.641 Y62.385 E7.36928
G1 X138.013 Y62.071 E7.39298
G1 X138.437 Y61.832 E7.41668
G1 X138.746 Y61.728 E7.43251
G1 X138.566 Y61.464 E7.44803
G1 X138.307 Y60.992 E7.47423
G1 X138.085 Y60.431 E7.50358
G1 X137.747 Y60.730 E7.52553
G1 X137.381 Y60.946 E7.54618
G1 X136.913 Y61.098 E7.57015
G1 X136.490 Y61.138 E7.59080
G1 X136.067 Y61.098 E7.61145
G1 X135.599 Y60.946 E7.63542
G1 X135.233 Y60.730 E7.65607
G1 X134.931 Y60.463 E7.67566
G1 X134.685 Y60.146 E7.69523
G1 X134.507 Y59.796 E7.71431
G1 X134.383 Y59.393 E7.73484
G1 X134.353 Y58.985 E7.75473
G1 X134.390 Y58.599 E7.77358
G1 X134.502 Y58.213 E7.79315
G1 X134.685 Y57.854 E7.81274
G1 X134.931 Y57.537 E7.83231
G1 X135.233 Y57.270 E7.85189
G1 X135.580 Y57.065 E7.87148
G1 X135.978 Y56.922 E7.89207
G1 X136.463 Y56.860 E7.91587
G1 X136.889 Y56.899 E7.93668
G1 X137.277 Y57.012 E7.95633
G1 X137.636 Y57.195 E7.97590
G1 X138.091 Y57.548 E8.00397
G1 X138.313 Y56.996 E8.03291
G1 X138.567 Y56.535 E8.05851
G1 X138.746 Y56.272 E8.07400
G1 X138.588 Y56.230 E8.08195
G1 X138.149 Y56.018 E8.10566
G1 X137.758 Y55.727 E8.12935
G1 X137.414 Y55.353 E8.15411
G1 X137.111 Y54.828 E8.18360
G1 X136.959 Y54.342 E8.20837
G1 X136.903 Y53.858 E8.23206
G1 X136.938 Y53.372 E8.25576
G1 X137.064 Y52.902 E8.27945
G1 X137.276 Y52.463 E8.30316
G1 X137.567 Y52.072 E8.32685
G1 X137.925 Y51.742 E8.35055
G1 X138.339 Y51.486 E8.37426
G1 X138.814 Y51.304 E8.39897
G1 X139.408 Y51.215 E8.42820
G1 X139.920 Y51.252 E8.45319
G1 X140.392 Y51.378 E8.47695
G1 X140.831 Y51.590 E8.50066
G1 X141.222 Y51.881 E8.52435
G1 X141.566 Y52.255 E8.54911
G1 X141.869 Y52.780 E8.57860
G1 X142.021 Y53.266 E8.60337
G1 X142.077 Y53.750 E8.62706
G1 X142.042 Y54.236 E8.65076
G1 X141.999 Y54.396 E8.65886
G1 X142.396 Y54.369 E8.67825
G1 X142.793 Y54.376 E8.69755
G1 X143.337 Y54.445 E8.72422
G1 X143.663 Y54.518 E8.74048
G1 X144.175 Y54.684 E8.76669
G1 X144.482 Y54.817 E8.78296
G1 X144.973 Y55.087 E8.81022
G1 X145.427 Y55.416 E8.83749
G1 X145.882 Y55.844 E8.86789
G1 X146.239 Y56.276 E8.89515
G1 X146.540 Y56.749 E8.92241
G1 X146.728 Y57.119 E8.94259
G1 X146.969 Y56.906 E8.95821
G1 X147.388 Y56.658 E8.98190
G1 X147.846 Y56.493 E9.00561
G1 X148.328 Y56.417 E9.02931
G1 X148.814 Y56.432 E9.05299
G1 X149.290 Y56.539 E9.07669
G1 X149.757 Y56.741 E9.10146
G1 X150.247 Y57.097 E9.13095
G1 X150.584 Y57.479 E9.15572
G1 X150.832 Y57.898 E9.17941
G1 X150.997 Y58.356 E9.20311
G1 X151.073 Y58.838 E9.22680
G1 X151.058 Y59.324 E9.25050
G1 X150.951 Y59.801 E9.27427
G1 X150.746 Y60.272 E9.29925
G1 X150.392 Y60.758 E9.32849
G1 X150.011 Y61.094 E9.35321
G1 X149.592 Y61.342 E9.37690
G1 X149.133 Y61.507 E9.40061
G1 X148.652 Y61.583 E9.42431
G1 X148.168 Y61.568 E9.44789
G1 X146.586 Y60.153 F9000.000
G1 X146.433 Y60.578 E9.46985 F600.000
G1 X146.219 Y61.032 E9.49428
G1 X145.916 Y61.511 E9.52186
G1 X146.015 Y61.643 E9.52991
G1 X146.351 Y61.534 E9.54709
G1 X146.693 Y61.491 E9.56389
G1 X147.099 Y61.529 E9.58373
G1 X147.428 Y61.636 E9.60053
G1 X147.717 Y61.795 E9.61657
G1 X147.971 Y62.005 E9.63260
G1 X148.181 Y62.259 E9.64863
G1 X148.339 Y62.547 E9.66466
G1 X148.441 Y62.861 E9.68069
G1 X148.483 Y63.189 E9.69677
G1 X148.460 Y63.536 E9.71372
G1 X148.347 Y63.925 E9.73340
G1 X148.181 Y64.227 E9.75017
G1 X147.970 Y64.481 E9.76621
G1 X147.717 Y64.690 E9.78223
G1 X147.428 Y64.849 E9.79825
G1 X147.114 Y64.951 E9.81430
G1 X146.772 Y64.994 E9.83109
G1 X146.366 Y64.956 E9.85094
G1 X146.037 Y64.849 E9.86775
G1 X145.749 Y64.690 E9.88378
G1 X145.495 Y64.481 E9.89980
G1 X145.285 Y64.227 E9.91584
G1 X145.126 Y63.938 E9.93187
G1 X145.024 Y63.624 E9.94790
G1 X144.983 Y63.297 E9.96398
G1 X145.005 Y62.949 E9.98092
G1 X145.132 Y62.515 E10.00294
G1 X144.997 Y62.419 E10.01099
G1 X144.766 Y62.587 E10.02484
G1 X144.313 Y62.836 E10.05003
G1 X144.039 Y62.955 E10.06454
G1 X143.561 Y63.110 E10.08897
G1 X143.286 Y63.171 E10.10270
G1 X143.007 Y63.216 E10.11644
G1 X142.490 Y63.248 E10.14164
G1 X141.973 Y63.216 E10.16684
G1 X141.389 Y63.103 E10.19579
G1 X141.510 Y63.320 E10.20787
G1 X141.659 Y63.814 E10.23297
G1 X141.690 Y64.242 E10.25387
G1 X141.643 Y64.654 E10.27401
G1 X141.514 Y65.064 E10.29494
G1 X141.254 Y65.515 E10.32028
G1 X140.963 Y65.832 E10.34120
G1 X140.630 Y66.079 E10.36135
G1 X140.257 Y66.259 E10.38150
G1 X139.857 Y66.366 E10.40165
G1 X139.444 Y66.396 E10.42180
G1 X139.032 Y66.349 E10.44195
G1 X138.637 Y66.225 E10.46210
G1 X138.258 Y66.022 E10.48302
G1 X137.864 Y65.681 E10.50836
G1 X137.608 Y65.336 E10.52928
G1 X137.427 Y64.963 E10.54943
G1 X137.320 Y64.563 E10.56958
G1 X137.290 Y64.150 E10.58974
G1 X137.337 Y63.739 E10.60988
G1 X137.461 Y63.343 E10.63004
G1 X137.657 Y62.978 E10.65019
G1 X137.918 Y62.656 E10.67034
G1 X138.234 Y62.389 E10.69049
G1 X138.595 Y62.186 E10.71065
G1 X139.002 Y62.049 E10.73153
G1 X139.468 Y61.999 E10.75436
G1 X139.063 Y61.509 E10.78531
G1 X138.896 Y61.262 E10.79981
G1 X138.654 Y60.823 E10.82423
G1 X138.442 Y60.286 E10.85229
G1 X138.317 Y59.796 E10.87691
G1 X138.299 Y59.649 E10.88408
G1 X138.130 Y59.620 E10.89240
G1 X137.968 Y59.938 E10.90976
G1 X137.766 Y60.198 E10.92579
G1 X137.519 Y60.416 E10.94183
G1 X137.222 Y60.592 E10.95863
G1 X136.834 Y60.718 E10.97846
G1 X136.490 Y60.751 E10.99527
G1 X136.146 Y60.718 E11.01207
G1 X135.758 Y60.592 E11.03191
G1 X135.461 Y60.416 E11.04871
G1 X135.214 Y60.198 E11.06475
G1 X135.012 Y59.938 E11.08078
G1 X134.866 Y59.651 E11.09645
G1 X134.765 Y59.321 E11.11322
G1 X134.740 Y58.989 E11.12943
G1 X134.770 Y58.672 E11.14493
G1 X134.862 Y58.356 E11.16096
G1 X135.012 Y58.062 E11.17700
G1 X135.214 Y57.802 E11.19302
G1 X135.461 Y57.584 E11.20906
G1 X135.745 Y57.416 E11.22510
G1 X136.069 Y57.299 E11.24186
G1 X136.470 Y57.248 E11.26154
G1 X136.817 Y57.280 E11.27849
G1 X137.135 Y57.372 E11.29457
G1 X137.428 Y57.522 E11.31060
G1 X137.701 Y57.733 E11.32739
G1 X137.961 Y58.048 E11.34724
G1 X138.130 Y58.380 E11.36538
G1 X138.299 Y58.351 E11.37369
G1 X138.317 Y58.204 E11.38088
G1 X138.446 Y57.702 E11.40607
G1 X138.659 Y57.167 E11.43413
G1 X138.896 Y56.737 E11.45798
G1 X139.063 Y56.491 E11.47247
G1 X139.470 Y55.999 E11.50351
G1 X139.123 Y55.974 E11.52043
G1 X138.723 Y55.867 E11.54058
G1 X138.350 Y55.686 E11.56074
G1 X138.017 Y55.439 E11.58089
G1 X137.726 Y55.123 E11.60180
G1 X137.466 Y54.672 E11.62715
G1 X137.337 Y54.261 E11.64807
G1 X137.290 Y53.850 E11.66822
G1 X137.320 Y53.437 E11.68837
G1 X137.427 Y53.037 E11.70852
G1 X137.608 Y52.664 E11.72867
G1 X137.855 Y52.331 E11.74882
G1 X138.159 Y52.051 E11.76898
G1 X138.512 Y51.833 E11.78913
G1 X138.912 Y51.679 E11.81002
G1 X139.423 Y51.603 E11.83512
G1 X139.856 Y51.634 E11.85625
G1 X140.257 Y51.741 E11.87645
G1 X140.630 Y51.921 E11.89661
G1 X140.963 Y52.168 E11.91676
G1 X141.254 Y52.485 E11.93767
G1 X141.514 Y52.936 E11.96302
G1 X141.643 Y53.346 E11.98394
G1 X141.690 Y53.758 E12.00408
G1 X141.660 Y54.171 E12.02424
G1 X141.553 Y54.571 E12.04439
G1 X141.397 Y54.892 E12.06175
G1 X141.955 Y54.786 E12.08936
G1 X142.406 Y54.755 E12.11137
G1 X142.765 Y54.761 E12.12884
G1 X143.270 Y54.825 E12.15361
G1 X143.561 Y54.890 E12.16811
G1 X144.039 Y55.045 E12.19254
G1 X144.313 Y55.164 E12.20705
G1 X144.766 Y55.413 E12.23224
G1 X145.185 Y55.718 E12.25744
G1 X145.397 Y55.904 E12.27118
G1 X145.597 Y56.104 E12.28491
G1 X145.927 Y56.503 E12.31011
G1 X146.204 Y56.940 E12.33530
G1 X146.340 Y57.206 E12.34980
G1 X146.604 Y57.874 E12.38478
G1 X146.874 Y57.503 E12.40710
G1 X147.197 Y57.220 E12.42799
G1 X147.553 Y57.009 E12.44814
G1 X147.943 Y56.868 E12.46830
G1 X148.352 Y56.804 E12.48845
G1 X148.766 Y56.817 E12.50859
G1 X149.170 Y56.907 E12.52874
G1 X149.565 Y57.078 E12.54966
G1 X149.986 Y57.384 E12.57501
G1 X150.270 Y57.707 E12.59593
G1 X150.481 Y58.063 E12.61608
G1 X150.622 Y58.453 E12.63623
G1 X150.686 Y58.862 E12.65638
G1 X150.673 Y59.276 E12.67653
G1 X150.583 Y59.681 E12.69673
G1 X150.409 Y60.079 E12.71786
G1 X150.106 Y60.497 E12.74297
G1 X149.783 Y60.780 E12.76386
G1 X149.427 Y60.991 E12.78401
G1 X149.037 Y61.132 E12.80417
G1 X148.628 Y61.196 E12.82432
G1 X148.214 Y61.183 E12.84446
G1 X147.810 Y61.093 E12.86461
G1 X147.415 Y60.922 E12.88553
G1 X146.994 Y60.616 E12.91088
G1 X146.626 Y60.198 E12.93797
G1 E6.93797 F1800.00000
G92 E0
G1 X141.037 Y63.265 F9000.000
G1 E6.00000 F1800.00000
G1 X141.153 Y63.471 E6.01153 F600.000
G1 X141.277 Y63.884 E6.03251
G1 X141.303 Y64.234 E6.04957
G1 X141.264 Y64.573 E6.06617
G1 X141.159 Y64.908 E6.08325
G1 X140.941 Y65.285 E6.10445
G1 X140.703 Y65.544 E6.12152
G1 X140.429 Y65.747 E6.13812
G1 X140.122 Y65.896 E6.15473
G1 X139.792 Y65.984 E6.17133
G1 X139.452 Y66.009 E6.18794
G1 X139.113 Y65.970 E6.20454
G1 X138.787 Y65.868 E6.22114
G1 X138.478 Y65.702 E6.23822
G1 X138.148 Y65.417 E6.25942
G1 X137.939 Y65.136 E6.27649
G1 X137.790 Y64.828 E6.29310
G1 X137.702 Y64.499 E6.30970
G1 X137.677 Y64.158 E6.32631
G1 X137.716 Y63.819 E6.34291
G1 X137.818 Y63.493 E6.35952
G1 X137.980 Y63.193 E6.37612
G1 X138.194 Y62.927 E6.39272
G1 X138.455 Y62.707 E6.40933
G1 X138.752 Y62.540 E6.42593
G1 X139.085 Y62.428 E6.44299
G1 X139.514 Y62.382 E6.46397 F600.000
G1 X139.866 Y62.422 E6.48125
G1 X140.193 Y62.524 E6.49788
G1 X140.494 Y62.686 E6.51449
G1 X140.759 Y62.901 E6.53110
G1 X141.008 Y63.212 E6.55051
G1 X140.701 Y63.453 F9000.000
G1 X140.796 Y63.623 E6.55998 F600.000
G1 X140.896 Y63.955 E6.57683
G1 X140.916 Y64.226 E6.59006
G1 X140.885 Y64.493 E6.60312
G1 X140.804 Y64.752 E6.61635
G1 X140.628 Y65.056 E6.63340
G1 X140.444 Y65.256 E6.64663
G1 X140.229 Y65.416 E6.65969
G1 X139.987 Y65.533 E6.67275
G1 X139.728 Y65.602 E6.68581
G1 X139.460 Y65.622 E6.69886
G1 X139.194 Y65.591 E6.71192
G1 X138.937 Y65.511 E6.72498
G1 X138.698 Y65.382 E6.73821
G1 X138.432 Y65.153 E6.75526
G1 X138.270 Y64.935 E6.76849
G1 X138.153 Y64.693 E6.78155
G1 X138.084 Y64.434 E6.79461
G1 X138.064 Y64.166 E6.80767
G1 X138.095 Y63.900 E6.82072
G1 X138.175 Y63.644 E6.83378
G1 X138.302 Y63.407 E6.84684
G1 X138.471 Y63.198 E6.85990
G1 X138.676 Y63.025 E6.87295
G1 X138.910 Y62.893 E6.88601
G1 X139.168 Y62.807 E6.89924
G1 X139.512 Y62.770 E6.91610 F600.000
G1 X139.786 Y62.801 E6.92952
G1 X140.043 Y62.882 E6.94258
G1 X140.279 Y63.008 E6.95564
G1 X140.488 Y63.177 E6.96870
G1 X140.672 Y63.401 E6.98279
