; generated by Slic3r 1.2.9 on 2018-05-15 at 11:14:49

; external perimeters extrusion width = 0.40mm
; perimeters extrusion width = 0.62mm
; infill extrusion width = 0.33mm
; solid infill extrusion width = 0.62mm
; top infill extrusion width = 0.20mm

M106 S256; Turn on fan to 100% power
M104 S140; turn on extruder temperature at S value
M140 S60; turn on bed temperature at S value
G28; home all axes
M84; disable motors
G1 Z15 F15000; have Z move to 20mm at 15000 mm/min
M190 S55; turn on bed temperature at S value and wait
M140 S55; turn on bed temperature at S value (printing temperature)
M109 S200; turn on extruder temperature at S value and wait (printing temperature)
M104 S200; turn on extruder temperature at S value
G1 Z0 F12000; move Z back to home
G21 ; set units to millimeters
G90 ; use absolute coordinates
M82 ; use absolute distances for extrusion
G92 E0
M106 S255
;Layer change
G1 E-6.00000 F1800.00000
G92 E0
G1 Z0.300 F9000.000
G1 X29.411 Y11.643 F9000.000
G1 E6.00000 F1800.00000
G1 X29.782 Y10.776 E6.04641 F600.000
G1 X30.225 Y9.895 E6.09492
G1 X30.722 Y9.044 E6.14344
G1 X31.272 Y8.225 E6.19198
G1 X31.871 Y7.443 E6.24050
G1 X32.519 Y6.700 E6.28903
G1 X33.213 Y5.999 E6.33755
G1 X33.949 Y5.342 E6.38607
G1 X34.724 Y4.734 E6.43460
G1 X35.537 Y4.175 E6.48312
G1 X36.383 Y3.668 E6.53165
G1 X37.259 Y3.216 E6.58019
G1 X38.162 Y2.819 E6.62871
G1 X39.087 Y2.480 E6.67723
G1 X40.033 Y2.200 E6.72575
G1 X40.994 Y1.979 E6.77429
G1 X42.139 Y1.798 E6.83137
G1 X43.121 Y1.711 E6.87988
G1 X44.020 Y1.684 E6.92414
G1 X74.107 Y1.685 E8.40488
G1 X75.092 Y1.722 E8.45339 F600.000
G1 X76.073 Y1.820 E8.50193
G1 X77.046 Y1.979 E8.55044
G1 X78.008 Y2.200 E8.59898
G1 X78.953 Y2.480 E8.64749
G1 X79.878 Y2.819 E8.69602
G1 X80.781 Y3.216 E8.74454
G1 X81.657 Y3.668 E8.79308
G1 X82.503 Y4.175 E8.84160
G1 X83.316 Y4.734 E8.89012
G1 X84.091 Y5.342 E8.93865
G1 X84.827 Y5.998 E8.98718
G1 X85.521 Y6.700 E9.03570
G1 X86.169 Y7.443 E9.08423
G1 X86.768 Y8.225 E9.13275
G1 X87.318 Y9.044 E9.18129
G1 X87.815 Y9.895 E9.22980
G1 X88.258 Y10.776 E9.27832
G1 X88.645 Y11.683 E9.32687
G1 X88.974 Y12.613 E9.37538
G1 X89.243 Y13.561 E9.42391
G1 X89.453 Y14.524 E9.47243
G1 X89.602 Y15.499 E9.52097
G1 X89.689 Y16.481 E9.56948
G1 X89.715 Y17.293 E9.60944
G1 X89.689 Y18.279 E9.65798
G1 X89.602 Y19.261 E9.70649
G1 X89.453 Y20.236 E9.75503
G1 X89.243 Y21.199 E9.80355
G1 X88.974 Y22.147 E9.85209
G1 X88.645 Y23.077 E9.90059
G1 X88.258 Y23.984 E9.94914
G1 X87.732 Y25.017 E10.00621
G1 X87.225 Y25.863 E10.05475
G1 X86.666 Y26.676 E10.10326
G1 X86.169 Y27.317 E10.14323
G1 X85.401 Y28.187 E10.20032
G1 X54.389 Y58.352 E12.32950
G1 X53.575 Y59.066 E12.38281
G1 X52.822 Y59.643 E12.42949
G1 X52.035 Y60.172 E12.47615
G1 X51.216 Y60.650 E12.52282
G1 X50.369 Y61.075 E12.56948
G1 X49.496 Y61.447 E12.61618
G1 X48.602 Y61.763 E12.66282
G1 X47.690 Y62.022 E12.70950
G1 X46.934 Y62.191 E12.74762
G1 X45.998 Y62.345 E12.79428
G1 X45.055 Y62.440 E12.84096
G1 X43.933 Y62.475 E12.89619
G1 X43.159 Y62.451 E12.93430
G1 X42.215 Y62.367 E12.98096
G1 X41.106 Y62.191 E13.03619
G1 X40.350 Y62.022 E13.07431
G1 X39.438 Y61.763 E13.12099
G1 X38.382 Y61.383 E13.17620
G1 X37.671 Y61.075 E13.21433
G1 X36.824 Y60.650 E13.26099
G1 X35.858 Y60.078 E13.31621
G1 X35.077 Y59.541 E13.36288
G1 X34.465 Y59.066 E13.40100
G1 X33.623 Y58.324 E13.45623
G1 X32.903 Y57.588 E13.50691
G1 X32.334 Y56.935 E13.54956
G1 X31.859 Y56.323 E13.58768
G1 X31.228 Y55.395 E13.64289
G1 X30.750 Y54.576 E13.68957
G1 X30.399 Y53.886 E13.72769
G1 X29.953 Y52.856 E13.78292
G1 X29.637 Y51.962 E13.82957
G1 X29.421 Y51.218 E13.86769
G1 X29.209 Y50.294 E13.91437
G1 X29.055 Y49.358 E13.96103
G1 X28.949 Y48.241 E14.01626
G1 X28.324 Y17.435 E15.53267
G1 X28.362 Y16.308 E15.58820
G1 X28.438 Y15.499 E15.62816
G1 X28.587 Y14.524 E15.67670
G1 X28.840 Y13.393 E15.73378
G1 X29.066 Y12.613 E15.77375
G1 X29.390 Y11.699 E15.82145
G1 X29.770 Y11.785 F9000.000
G1 X30.136 Y10.929 E15.86725 F600.000
G1 X30.568 Y10.070 E15.91458
G1 X31.054 Y9.240 E15.96191
G1 X31.590 Y8.442 E16.00925
G1 X32.176 Y7.679 E16.05658
G1 X32.809 Y6.955 E16.10392
G1 X33.485 Y6.271 E16.15125
G1 X34.204 Y5.632 E16.19858
G1 X34.961 Y5.038 E16.24592
G1 X35.753 Y4.494 E16.29324
G1 X36.579 Y4.000 E16.34058
G1 X37.434 Y3.559 E16.38793
G1 X38.315 Y3.173 E16.43526
G1 X39.218 Y2.843 E16.48259
G1 X40.140 Y2.570 E16.52992
G1 X41.078 Y2.356 E16.57726
G1 X42.176 Y2.182 E16.63196
G1 X43.133 Y2.096 E16.67928
G1 X44.020 Y2.069 E16.72294
G1 X74.095 Y2.071 E18.20308
G1 X75.056 Y2.106 E18.25041 F600.000
G1 X76.013 Y2.201 E18.29775
G1 X76.962 Y2.356 E18.34508
G1 X77.900 Y2.570 E18.39242
G1 X78.822 Y2.843 E18.43974
G1 X79.725 Y3.173 E18.48708
G1 X80.606 Y3.559 E18.53440
G1 X81.461 Y4.000 E18.58175
G1 X82.286 Y4.494 E18.62908
G1 X83.079 Y5.038 E18.67641
G1 X83.836 Y5.632 E18.72375
G1 X84.555 Y6.271 E18.77108
G1 X85.231 Y6.955 E18.81842
G1 X85.864 Y7.679 E18.86575
G1 X86.450 Y8.442 E18.91308
G1 X86.986 Y9.240 E18.96042
G1 X87.472 Y10.070 E19.00775
G1 X87.904 Y10.929 E19.05508
G1 X88.282 Y11.814 E19.10243
G1 X88.603 Y12.720 E19.14975
G1 X88.867 Y13.645 E19.19709
G1 X89.044 Y14.438 E19.23706
G1 X89.199 Y15.387 E19.28438
G1 X89.294 Y16.344 E19.33172
G1 X89.329 Y17.305 E19.37905
G1 X89.304 Y18.267 E19.42639
G1 X89.218 Y19.224 E19.47371
G1 X89.072 Y20.175 E19.52106
G1 X88.867 Y21.115 E19.56839
G1 X88.603 Y22.040 E19.61573
G1 X88.282 Y22.946 E19.66305
G1 X87.904 Y23.831 E19.71040
G1 X87.400 Y24.821 E19.76509
G1 X86.906 Y25.647 E19.81243
G1 X86.362 Y26.439 E19.85976
G1 X85.864 Y27.081 E19.89972
G1 X85.129 Y27.915 E19.95443
G1 X54.035 Y58.154 E22.08905
G1 X53.338 Y58.762 E22.13453
G1 X52.605 Y59.324 E22.18002
G1 X51.839 Y59.840 E22.22549
G1 X50.968 Y60.343 E22.27498
G1 X50.215 Y60.721 E22.31644
G1 X49.504 Y61.029 E22.35456
G1 X48.637 Y61.346 E22.40004
G1 X47.751 Y61.609 E22.44551
G1 X46.850 Y61.815 E22.49099
G1 X45.789 Y61.983 E22.54384
G1 X45.018 Y62.056 E22.58195
G1 X44.095 Y62.089 E22.62742
G1 X43.171 Y62.065 E22.67291
G1 X42.102 Y61.964 E22.72575
G1 X41.190 Y61.815 E22.77123
G1 X40.434 Y61.646 E22.80934
G1 X39.403 Y61.346 E22.86218
G1 X38.536 Y61.029 E22.90766
G1 X37.825 Y60.721 E22.94578
G1 X36.868 Y60.234 E22.99863
G1 X36.201 Y59.840 E23.03674
G1 X35.435 Y59.324 E23.08220
G1 X34.586 Y58.666 E23.13505
G1 X34.005 Y58.154 E23.17317
G1 X33.349 Y57.504 E23.21865
G1 X32.638 Y56.698 E23.27149
G1 X32.164 Y56.087 E23.30960
G1 X31.641 Y55.325 E23.35508
G1 X31.094 Y54.401 E23.40793
G1 X30.742 Y53.711 E23.44604
G1 X30.403 Y52.939 E23.48750
G1 X30.054 Y51.997 E23.53699
G1 X29.791 Y51.111 E23.58246
G1 X29.585 Y50.210 E23.62795
G1 X29.436 Y49.298 E23.67342
G1 X29.335 Y48.229 E23.72626
G1 X28.710 Y17.428 E25.24246
G1 X28.746 Y16.344 E25.29582
G1 X28.822 Y15.536 E25.33579
G1 X28.968 Y14.585 E25.38313
G1 X29.210 Y13.500 E25.43783
G1 X29.437 Y12.720 E25.47780
G1 X29.748 Y11.841 E25.52371
G1 E19.52371 F1800.00000
G92 E0
G1 X43.529 Y42.776 F9000.000
G1 E6.00000 F1800.00000
G1 X43.985 Y42.747 E6.02251 F600.000
G1 X44.331 Y42.757 E6.03951
G1 X44.867 Y42.825 E6.06610
G1 X45.193 Y42.898 E6.08256
G1 X45.705 Y43.064 E6.10907
G1 X46.012 Y43.197 E6.12553
G1 X46.503 Y43.467 E6.15310
G1 X46.957 Y43.796 E6.18069
G1 X47.412 Y44.224 E6.21144
G1 X47.769 Y44.656 E6.23902
G1 X48.070 Y45.129 E6.26659
G1 X48.258 Y45.499 E6.28701
G1 X48.499 Y45.286 E6.30281
G1 X48.918 Y45.038 E6.32678
G1 X49.377 Y44.873 E6.35076
G1 X49.858 Y44.797 E6.37473
G1 X50.344 Y44.812 E6.39869
G1 X50.820 Y44.919 E6.42266
G1 X51.287 Y45.121 E6.44772
G1 X51.777 Y45.477 E6.47755
G1 X52.114 Y45.859 E6.50261
G1 X52.362 Y46.278 E6.52657
G1 X52.527 Y46.736 E6.55055
G1 X52.603 Y47.218 E6.57452
G1 X52.588 Y47.704 E6.59849
G1 X52.481 Y48.180 E6.62246
G1 X52.279 Y48.647 E6.64751
G1 X51.923 Y49.137 E6.67734
G1 X51.541 Y49.474 E6.70239
G1 X51.122 Y49.722 E6.72636
G1 X50.663 Y49.887 E6.75034
G1 X50.182 Y49.963 E6.77431
G1 X49.696 Y49.948 E6.79827
G1 X49.220 Y49.841 E6.82224
G1 X48.753 Y49.639 E6.84731
G1 X48.256 Y49.278 E6.87757
G1 X47.943 Y49.845 E6.90942
G1 X47.756 Y50.121 E6.92586
G1 X47.399 Y50.553 E6.95343
G1 X46.974 Y50.951 E6.98208
G1 X46.503 Y51.293 E7.01072
G1 X46.012 Y51.563 E7.03829
G1 X45.705 Y51.696 E7.05476
G1 X45.193 Y51.862 E7.08127
G1 X44.579 Y51.979 E7.11202
G1 X44.020 Y52.015 E7.13960
G1 X43.560 Y51.986 E7.16228
G1 X43.607 Y52.630 E7.19409
G1 X43.551 Y53.114 E7.21806
G1 X43.399 Y53.600 E7.24311
G1 X43.096 Y54.125 E7.27294
G1 X42.752 Y54.499 E7.29799
G1 X42.361 Y54.790 E7.32196
G1 X41.922 Y55.002 E7.34594
G1 X41.452 Y55.128 E7.36991
G1 X40.966 Y55.164 E7.39388
G1 X40.482 Y55.108 E7.41785
G1 X40.017 Y54.962 E7.44182
G1 X39.568 Y54.721 E7.46688
G1 X39.110 Y54.325 E7.49670
G1 X38.806 Y53.917 E7.52175
G1 X38.594 Y53.478 E7.54573
G1 X38.468 Y53.008 E7.56970
G1 X38.433 Y52.522 E7.59368
G1 X38.489 Y52.038 E7.61764
G1 X38.634 Y51.573 E7.64162
G1 X38.864 Y51.144 E7.66560
G1 X39.171 Y50.765 E7.68956
G1 X39.543 Y50.451 E7.71353
G1 X39.967 Y50.212 E7.73751
G1 X40.276 Y50.108 E7.75352
G1 X40.096 Y49.844 E7.76923
G1 X39.837 Y49.372 E7.79573
G1 X39.607 Y48.791 E7.82650
G1 X39.468 Y48.248 E7.85407
G1 X39.397 Y47.693 E7.88164
G1 X39.387 Y47.380 E7.89703
G1 X39.397 Y47.067 E7.91243
G1 X39.468 Y46.512 E7.94000
G1 X39.607 Y45.969 E7.96757
G1 X39.843 Y45.376 E7.99897
G1 X40.097 Y44.915 E8.02487
G1 X40.270 Y44.660 E8.04003
G1 X39.821 Y44.477 E8.06388
G1 X39.394 Y44.200 E8.08894
G1 X38.970 Y43.767 E8.11876
G1 X38.702 Y43.335 E8.14381
G1 X38.527 Y42.880 E8.16778
G1 X38.441 Y42.400 E8.19176
G1 X38.446 Y41.913 E8.21573
G1 X38.547 Y41.414 E8.24079
G1 X38.793 Y40.861 E8.27061
G1 X39.097 Y40.452 E8.29566
G1 X39.455 Y40.122 E8.31963
G1 X39.869 Y39.866 E8.34361
G1 X40.324 Y39.691 E8.36758
G1 X40.803 Y39.605 E8.39154
G1 X41.290 Y39.610 E8.41552
G1 X41.768 Y39.706 E8.43950
G1 X42.219 Y39.890 E8.46346
G1 X42.627 Y40.156 E8.48744
G1 X42.979 Y40.493 E8.51141
G1 X43.274 Y40.908 E8.53646
G1 X43.509 Y41.466 E8.56629
G1 X43.599 Y41.967 E8.59134
G1 X43.594 Y42.454 E8.61532
G1 X43.541 Y42.717 E8.62852
G1 X42.929 Y43.272 F9000.000
G1 X43.487 Y43.165 E8.65647 F600.000
G1 X43.992 Y43.133 E8.68138
G1 X44.301 Y43.142 E8.69657
G1 X44.800 Y43.205 E8.72135
G1 X45.091 Y43.270 E8.73602
G1 X45.569 Y43.425 E8.76074
G1 X45.843 Y43.544 E8.77541
G1 X46.296 Y43.793 E8.80089
G1 X46.715 Y44.098 E8.82639
G1 X46.927 Y44.284 E8.84028
G1 X47.127 Y44.484 E8.85418
G1 X47.457 Y44.883 E8.87967
G1 X47.734 Y45.320 E8.90515
G1 X47.870 Y45.586 E8.91982
G1 X48.134 Y46.254 E8.95521
G1 X48.404 Y45.883 E8.97778
G1 X48.727 Y45.600 E8.99892
G1 X49.083 Y45.389 E9.01930
G1 X49.473 Y45.248 E9.03969
G1 X49.882 Y45.184 E9.06007
G1 X50.296 Y45.197 E9.08045
G1 X50.700 Y45.287 E9.10083
G1 X51.095 Y45.458 E9.12200
G1 X51.516 Y45.764 E9.14764
G1 X51.800 Y46.087 E9.16880
G1 X52.011 Y46.443 E9.18918
G1 X52.152 Y46.833 E9.20957
G1 X52.216 Y47.242 E9.22995
G1 X52.203 Y47.656 E9.25034
G1 X52.113 Y48.060 E9.27072
G1 X51.942 Y48.455 E9.29188
G1 X51.636 Y48.876 E9.31752
G1 X51.313 Y49.160 E9.33868
G1 X50.957 Y49.371 E9.35906
G1 X50.567 Y49.512 E9.37945
G1 X50.158 Y49.576 E9.39984
G1 X49.744 Y49.563 E9.42021
G1 X49.340 Y49.473 E9.44060
G1 X48.945 Y49.302 E9.46177
G1 X48.524 Y48.996 E9.48740
G1 X48.116 Y48.533 E9.51776
G1 X47.851 Y49.213 E9.55368
G1 X47.614 Y49.643 E9.57781
G1 X47.447 Y49.889 E9.59247
G1 X47.117 Y50.288 E9.61795
G1 X46.728 Y50.653 E9.64421
G1 X46.296 Y50.967 E9.67047
G1 X45.843 Y51.216 E9.69595
G1 X45.569 Y51.335 E9.71062
G1 X45.091 Y51.490 E9.73534
G1 X44.537 Y51.596 E9.76312
G1 X44.020 Y51.628 E9.78860
G1 X43.503 Y51.596 E9.81409
G1 X42.919 Y51.483 E9.84338
G1 X43.040 Y51.700 E9.85560
G1 X43.189 Y52.194 E9.88099
G1 X43.220 Y52.622 E9.90213
G1 X43.173 Y53.034 E9.92251
G1 X43.044 Y53.444 E9.94368
G1 X42.784 Y53.895 E9.96931
G1 X42.493 Y54.212 E9.99047
G1 X42.160 Y54.459 E10.01086
G1 X41.787 Y54.639 E10.03125
G1 X41.387 Y54.746 E10.05163
G1 X40.974 Y54.776 E10.07201
G1 X40.562 Y54.729 E10.09240
G1 X40.167 Y54.605 E10.11278
G1 X39.788 Y54.402 E10.13395
G1 X39.394 Y54.061 E10.15958
G1 X39.138 Y53.716 E10.18074
G1 X38.957 Y53.343 E10.20113
G1 X38.850 Y52.943 E10.22151
G1 X38.820 Y52.530 E10.24190
G1 X38.867 Y52.119 E10.26228
G1 X38.991 Y51.723 E10.28267
G1 X39.187 Y51.358 E10.30305
G1 X39.448 Y51.036 E10.32343
G1 X39.764 Y50.769 E10.34382
G1 X40.125 Y50.566 E10.36421
G1 X40.532 Y50.429 E10.38534
G1 X40.998 Y50.379 E10.40843
G1 X40.593 Y49.889 E10.43973
G1 X40.426 Y49.643 E10.45440
G1 X40.184 Y49.203 E10.47911
G1 X40.071 Y48.943 E10.49301
G1 X39.976 Y48.678 E10.50691
G1 X39.847 Y48.176 E10.53240
G1 X39.782 Y47.662 E10.55788
G1 X39.773 Y47.380 E10.57178
G1 X39.782 Y47.098 E10.58569
G1 X39.847 Y46.584 E10.61117
G1 X39.976 Y46.082 E10.63665
G1 X40.072 Y45.815 E10.65062
G1 X40.189 Y45.547 E10.66505
G1 X40.426 Y45.117 E10.68918
G1 X40.593 Y44.871 E10.70383
G1 X40.975 Y44.410 E10.73329
G1 X40.384 Y44.291 E10.76294
G1 X40.001 Y44.134 E10.78332
G1 X39.640 Y43.900 E10.80448
G1 X39.275 Y43.528 E10.83012
G1 X39.049 Y43.162 E10.85128
G1 X38.900 Y42.776 E10.87166
G1 X38.827 Y42.368 E10.89205
G1 X38.831 Y41.954 E10.91244
G1 X38.916 Y41.532 E10.93360
G1 X39.128 Y41.056 E10.95923
G1 X39.385 Y40.711 E10.98039
G1 X39.689 Y40.431 E11.00078
G1 X40.042 Y40.213 E11.02117
G1 X40.428 Y40.064 E11.04155
G1 X40.836 Y39.991 E11.06192
G1 X41.250 Y39.995 E11.08231
G1 X41.656 Y40.077 E11.10270
G1 X42.039 Y40.234 E11.12308
G1 X42.387 Y40.459 E11.14347
G1 X42.686 Y40.746 E11.16385
G1 X42.935 Y41.096 E11.18502
G1 X43.137 Y41.576 E11.21065
G1 X43.213 Y42.000 E11.23181
G1 X43.209 Y42.414 E11.25220
G1 X43.124 Y42.835 E11.27336
G1 X42.954 Y43.217 E11.29392
G1 E5.29392 F1800.00000
G92 E0
G1 X41.396 Y50.802 F9000.000
G1 E6.00000 F1800.00000
G1 X41.723 Y50.904 E6.01682 F600.000
G1 X42.024 Y51.066 E6.03363
G1 X42.289 Y51.281 E6.05043
G1 X42.509 Y51.542 E6.06725
G1 X42.683 Y51.851 E6.08473
G1 X42.807 Y52.264 E6.10595
G1 X42.833 Y52.614 E6.12321
G1 X42.794 Y52.953 E6.14000
G1 X42.689 Y53.288 E6.15728
G1 X42.471 Y53.665 E6.17872
G1 X42.233 Y53.924 E6.19599
G1 X41.959 Y54.127 E6.21279
G1 X41.652 Y54.276 E6.22959
G1 X41.322 Y54.364 E6.24638
G1 X40.982 Y54.389 E6.26318
G1 X40.643 Y54.350 E6.27998
G1 X40.317 Y54.248 E6.29677
G1 X40.008 Y54.082 E6.31405
G1 X39.678 Y53.797 E6.33549
G1 X39.469 Y53.516 E6.35276
G1 X39.320 Y53.208 E6.36956
G1 X39.232 Y52.879 E6.38636
G1 X39.207 Y52.538 E6.40316
G1 X39.246 Y52.199 E6.41995
G1 X39.348 Y51.873 E6.43675
G1 X39.510 Y51.573 E6.45355
G1 X39.724 Y51.307 E6.47034
G1 X39.985 Y51.087 E6.48714
G1 X40.282 Y50.920 E6.50394
G1 X40.615 Y50.808 E6.52119
G1 X41.044 Y50.762 E6.54242 F600.000
G1 X41.337 Y50.795 E6.55694
G1 X41.316 Y51.181 F9000.000
G1 X41.573 Y51.262 E6.57016 F600.000
G1 X41.809 Y51.388 E6.58337
G1 X42.018 Y51.557 E6.59658
G1 X42.191 Y51.762 E6.60980
G1 X42.326 Y52.003 E6.62338
G1 X42.426 Y52.335 E6.64043
G1 X42.446 Y52.606 E6.65381
G1 X42.415 Y52.873 E6.66701
G1 X42.334 Y53.132 E6.68040
G1 X42.158 Y53.436 E6.69765
G1 X41.974 Y53.636 E6.71103
G1 X41.759 Y53.796 E6.72424
G1 X41.517 Y53.913 E6.73745
G1 X41.258 Y53.982 E6.75066
G1 X40.990 Y54.002 E6.76387
G1 X40.724 Y53.971 E6.77708
G1 X40.467 Y53.891 E6.79029
G1 X40.228 Y53.762 E6.80367
G1 X39.962 Y53.533 E6.82092
G1 X39.800 Y53.315 E6.83431
G1 X39.683 Y53.073 E6.84752
G1 X39.614 Y52.814 E6.86073
G1 X39.594 Y52.546 E6.87394
G1 X39.625 Y52.280 E6.88714
G1 X39.705 Y52.024 E6.90036
G1 X39.832 Y51.787 E6.91356
G1 X40.001 Y51.578 E6.92677
G1 X40.206 Y51.405 E6.93998
G1 X40.440 Y51.273 E6.95319
G1 X40.698 Y51.187 E6.96657
G1 X41.042 Y51.150 E6.98362 F600.000
G1 X41.257 Y51.174 E6.99424
G1 X41.502 Y50.987 F9000.000
G1 X41.793 Y50.526 F9000.000
G1 X41.558 Y50.356 E7.00849 F600.000
G1 X41.205 Y50.024 E7.03236
G1 X40.902 Y49.657 E7.05575
G1 X40.755 Y49.441 E7.06864
G1 X40.530 Y49.033 E7.09155
G1 X40.430 Y48.801 E7.10397
G1 X40.345 Y48.564 E7.11637
G1 X40.227 Y48.104 E7.13977
G1 X40.167 Y47.632 E7.16316
G1 X40.167 Y47.128 E7.18797
G1 X40.227 Y46.656 E7.21137
G1 X40.345 Y46.196 E7.23476
G1 X40.536 Y45.717 E7.26013
G1 X40.755 Y45.319 E7.28250
G1 X40.902 Y45.103 E7.29537
G1 X41.205 Y44.736 E7.31876
G1 X41.551 Y44.411 E7.34216
G1 X41.751 Y44.256 E7.35457
G1 X41.959 Y44.115 E7.36698
