; generated by Slic3r 1.2.9 on 2018-05-15 at 13:02:45

; external perimeters extrusion width = 0.40mm
; perimeters extrusion width = 0.62mm
; infill extrusion width = 0.33mm
; solid infill extrusion width = 0.62mm
; top infill extrusion width = 0.20mm

M106 S256; Turn on fan to 100% power
M104 S140; turn on extruder temperature at S value
M140 S60; turn on bed temperature at S value
G28; home all axes
M84; disable motors
G1 Z15 F15000; have Z move to 20mm at 15000 mm/min
M190 S55; turn on bed temperature at S value and wait
M140 S55; turn on bed temperature at S value (printing temperature)
M109 S200; turn on extruder temperature at S value and wait (printing temperature)
M104 S200; turn on extruder temperature at S value
G1 Z0 F12000; move Z back to home
G21 ; set units to millimeters
G90 ; use absolute coordinates
M82 ; use absolute distances for extrusion
G92 E0
M106 S255
;Layer change
G1 E-6.00000 F1800.00000
G92 E0
G1 Z0.300 F9000.000
G1 X36.790 Y6.517 F9000.000
G1 E6.00000 F1800.00000
G1 X36.861 Y6.145 E6.01862 F600.000
G1 X37.051 Y5.500 E6.05172
G1 X37.323 Y4.879 E6.08509
G1 X37.668 Y4.299 E6.11831
G1 X37.845 Y4.056 E6.13310
G1 X38.290 Y3.547 E6.16635
G1 X38.565 Y3.290 E6.18489
G1 X38.795 Y3.099 E6.19963
G1 X39.352 Y2.717 E6.23287
G1 X39.954 Y2.407 E6.26618
G1 X40.588 Y2.176 E6.29939
G1 X40.955 Y2.082 E6.31800
G1 X41.248 Y2.026 E6.33271
G1 X41.847 Y1.961 E6.36235
G1 X175.259 Y1.959 E12.92823
G1 X175.931 Y2.020 E12.96146 F600.000
G1 X176.302 Y2.091 E12.98005
G1 X176.593 Y2.165 E12.99483
G1 X177.228 Y2.391 E13.02799
G1 X177.571 Y2.552 E13.04664
G1 X178.151 Y2.898 E13.07989
G1 X178.395 Y3.075 E13.09469
G1 X178.902 Y3.520 E13.12791
G1 X179.163 Y3.798 E13.14666
G1 X179.573 Y4.330 E13.17972
G1 X179.734 Y4.583 E13.19449
G1 X180.042 Y5.184 E13.22774
G1 X180.184 Y5.541 E13.24663
G1 X180.368 Y6.185 E13.27957
G1 X180.424 Y6.479 E13.29431
G1 X180.489 Y7.077 E13.32391
G1 X180.496 Y70.340 E16.43741
G1 X180.461 Y70.946 E16.46729
G1 X172.984 Y148.070 E20.28075
G1 X172.468 Y149.336 E20.34802
G1 X171.342 Y150.111 E20.41530
G1 X170.610 Y150.226 E20.45177
G1 X46.610 Y150.226 E26.55444
G1 X45.300 Y149.834 E26.62171
G1 X44.421 Y148.788 E26.68898
G1 X44.236 Y148.070 E26.72545
G1 X36.731 Y70.603 E30.55585
G1 X36.724 Y7.340 E33.66935
G1 X36.783 Y6.576 E33.70703
G1 E27.70703 F1800.00000
G92 E0
G1 X70.085 Y144.865 F9000.000
G1 E6.00000 F1800.00000
G1 X70.085 Y146.815 E6.09597 F600.000
G1 X67.135 Y146.815 E6.24115
G1 X67.135 Y144.865 E6.33712
G1 X70.025 Y144.865 E6.47935
G1 X69.469 Y142.458 F9000.000
G1 X69.308 Y142.499 E6.48754 F600.000
G1 X68.844 Y142.558 E6.51056
G1 X68.376 Y142.558 E6.53358
G1 X67.912 Y142.499 E6.55660
G1 X67.459 Y142.383 E6.57963
G1 X67.024 Y142.211 E6.60266
G1 X66.614 Y141.985 E6.62569
G1 X66.235 Y141.711 E6.64870
G1 X65.894 Y141.390 E6.67173
G1 X65.596 Y141.029 E6.69477
G1 X65.345 Y140.634 E6.71782
G1 X65.139 Y140.189 E6.74194
G1 X65.002 Y139.766 E6.76384
G1 X64.914 Y139.307 E6.78683
G1 X64.885 Y138.840 E6.80987
G1 X64.914 Y138.373 E6.83290
G1 X65.002 Y137.914 E6.85592
G1 X65.146 Y137.469 E6.87895
G1 X65.345 Y137.045 E6.90197
G1 X65.596 Y136.650 E6.92500
G1 X65.894 Y136.290 E6.94802
G1 X66.235 Y135.969 E6.97105
G1 X66.614 Y135.695 E6.99407
G1 X67.024 Y135.469 E7.01710
G1 X67.459 Y135.297 E7.04012
G1 X67.912 Y135.181 E7.06315
G1 X68.376 Y135.122 E7.08617
G1 X68.844 Y135.122 E7.10920 F600.000
G1 X69.308 Y135.181 E7.13222
G1 X69.761 Y135.297 E7.15525
G1 X70.196 Y135.469 E7.17827
G1 X70.606 Y135.695 E7.20130
G1 X70.985 Y135.969 E7.22432
G1 X71.326 Y136.290 E7.24735
G1 X71.624 Y136.650 E7.27037
G1 X71.875 Y137.045 E7.29340
G1 X72.074 Y137.469 E7.31643
G1 X72.218 Y137.913 E7.33941
G1 X72.304 Y138.347 E7.36122
G1 X72.335 Y138.840 E7.38551
G1 X72.306 Y139.307 E7.40855
G1 X72.218 Y139.766 E7.43154
G1 X72.074 Y140.211 E7.45456
G1 X71.875 Y140.635 E7.47760
G1 X71.624 Y141.029 E7.50062
G1 X71.326 Y141.390 E7.52366
G1 X70.985 Y141.711 E7.54669
G1 X70.606 Y141.985 E7.56970
G1 X70.196 Y142.211 E7.59273
G1 X69.761 Y142.383 E7.61576
G1 X69.527 Y142.443 E7.62766
G1 E1.62766 F1800.00000
G92 E0
G1 X70.085 Y132.815 F9000.000
G1 E6.00000 F1800.00000
G1 X67.135 Y132.815 E6.14518 F600.000
G1 X67.135 Y130.865 E6.24115
G1 X70.085 Y130.865 E6.38634
G1 X70.085 Y132.755 E6.47935
G1 X62.585 Y137.365 F9000.000
G1 X62.585 Y140.315 E6.62454 F600.000
G1 X60.635 Y140.315 E6.72051
G1 X60.635 Y137.365 E6.86569
G1 X62.525 Y137.365 E6.95871
G1 X52.368 Y138.618 F9000.000
G1 X52.368 Y139.062 E6.98055 F600.000
G1 X52.259 Y139.486 E7.00209
G1 X52.158 Y139.700 E7.01374
G1 X51.902 Y140.053 E7.03522
G1 X51.573 Y140.326 E7.05627
G1 X51.358 Y140.445 E7.06833
G1 X50.953 Y140.577 E7.08930
G1 X50.714 Y140.608 E7.10115
G1 X50.290 Y140.582 E7.12210
G1 X50.056 Y140.522 E7.13396
G1 X49.671 Y140.341 E7.15491
G1 X49.472 Y140.196 E7.16702
G1 X49.177 Y139.881 E7.18827
G1 X48.966 Y139.499 E7.20976
G1 X48.893 Y139.273 E7.22144
G1 X48.839 Y138.852 E7.24234
G1 X48.854 Y138.611 E7.25419
G1 X48.963 Y138.188 E7.27571
G1 X49.171 Y137.809 E7.29699
G1 X49.319 Y137.628 E7.30850
G1 X49.487 Y137.471 E7.31980
G1 X49.850 Y137.241 E7.34096
G1 X50.070 Y137.154 E7.35260
G1 X50.492 Y137.073 E7.37377 F600.000
G1 X50.734 Y137.074 E7.38565
G1 X51.151 Y137.154 E7.40657
G1 X51.375 Y137.243 E7.41845
G1 X51.739 Y137.475 E7.43970
G1 X52.039 Y137.793 E7.46120
G1 X52.161 Y137.987 E7.47249
G1 X52.259 Y138.195 E7.48378
G1 X52.353 Y138.560 E7.50233
G1 E1.50233 F1800.00000
G92 E0
G1 X74.635 Y137.365 F9000.000
G1 E6.00000 F1800.00000
G1 X76.585 Y137.365 E6.09597 F600.000
G1 X76.585 Y140.315 E6.24115
G1 X74.635 Y140.315 E6.33712
G1 X74.635 Y137.425 E6.47935
G1 X164.852 Y138.625 F9000.000
G1 X164.898 Y138.388 E6.49124 F600.000
G1 X165.057 Y137.986 E6.51248
G1 X165.311 Y137.636 E6.53376
G1 X165.486 Y137.471 E6.54561
G1 X165.850 Y137.241 E6.56678
G1 X166.070 Y137.154 E6.57843
G1 X166.492 Y137.073 E6.59960 F600.000
G1 X166.733 Y137.074 E6.61148
G1 X167.151 Y137.154 E6.63238
G1 X167.370 Y137.241 E6.64401
G1 X167.739 Y137.475 E6.66552
G1 X168.039 Y137.793 E6.68703
G1 X168.162 Y137.987 E6.69833
G1 X168.261 Y138.199 E6.70984
G1 X168.368 Y138.618 E6.73112
G1 X168.368 Y139.062 E6.75296
G1 X168.259 Y139.486 E6.77450
G1 X168.158 Y139.700 E6.78614
G1 X167.902 Y140.053 E6.80762
G1 X167.573 Y140.326 E6.82867
G1 X167.358 Y140.445 E6.84073
G1 X166.953 Y140.577 E6.86171
G1 X166.714 Y140.608 E6.87356
G1 X166.290 Y140.582 E6.89450
G1 X166.056 Y140.522 E6.90636
G1 X165.671 Y140.341 E6.92730
G1 X165.482 Y140.204 E6.93882
G1 X165.314 Y140.047 E6.95010
G1 X165.062 Y139.700 E6.97124
G1 X164.961 Y139.486 E6.98289
G1 X164.852 Y139.062 E7.00443
G1 X164.852 Y138.685 E7.02298
G1 X170.385 Y130.065 F9000.000
G1 X170.385 Y147.615 E7.88671 F600.000
G1 X46.835 Y147.615 E13.96723
G1 X46.835 Y130.065 E14.83095
G1 X170.325 Y130.065 E20.90852
G1 X170.101 Y130.552 F9000.000
G1 X169.898 Y130.349 E20.92274 F600.000
G1 X169.350 Y130.349 E20.94977
G1 X170.101 Y131.100 E21.00222
G1 X170.101 Y131.647 E21.02925
G1 X168.803 Y130.349 E21.11993
G1 X168.256 Y130.349 E21.14696
G1 X170.101 Y132.194 E21.27586
G1 X170.101 Y132.742 E21.30289
G1 X167.708 Y130.349 E21.47002
G1 X167.161 Y130.349 E21.49705
G1 X170.101 Y133.289 E21.70240
G1 X170.101 Y133.836 E21.72943
G1 X166.614 Y130.349 E21.97302
G1 X166.067 Y130.349 E22.00005
G1 X170.101 Y134.383 E22.28185
G1 X170.101 Y134.931 E22.30888
G1 X165.519 Y130.349 E22.62892
G1 X164.972 Y130.349 E22.65595
G1 X170.101 Y135.478 E23.01421
G1 X170.101 Y136.025 E23.04124
G1 X164.425 Y130.349 E23.43773
G1 X163.877 Y130.349 E23.46476
G1 X170.101 Y136.573 E23.89948
G1 X170.101 Y137.120 E23.92651
G1 X163.330 Y130.349 E24.39945
G1 X162.783 Y130.349 E24.42648
G1 X170.101 Y137.667 E24.93765
G1 X170.101 Y138.214 E24.96468
G1 X162.236 Y130.349 E25.51407
G1 X161.688 Y130.349 E25.54110
G1 X170.101 Y138.762 E26.12872
G1 X170.101 Y139.309 E26.15575
G1 X161.141 Y130.349 E26.78160
G1 X160.594 Y130.349 E26.80863
G1 X167.079 Y136.834 E27.26159
G1 X166.495 Y136.798 E27.29047
G1 X160.046 Y130.349 E27.74090
G1 X159.499 Y130.349 E27.76793
G1 X166.038 Y136.887 E28.22463
G1 X165.663 Y137.060 E28.24500
G1 X158.952 Y130.349 E28.71375
G1 X158.405 Y130.349 E28.74078
G1 X165.330 Y137.275 E29.22454
G1 X165.061 Y137.553 E29.24365
G1 X157.857 Y130.349 E29.74684
G1 X157.310 Y130.349 E29.77387
G1 X164.831 Y137.870 E30.29921
G1 X164.671 Y138.257 E30.31990
G1 X156.763 Y130.349 E30.87227
G1 X156.215 Y130.349 E30.89930
G1 X164.568 Y138.702 E31.48273
G1 X164.589 Y139.269 E31.51079
G1 X155.668 Y130.349 E32.13387
G1 X155.121 Y130.349 E32.16090
G1 X170.101 Y145.329 E33.20725
G1 X170.101 Y145.876 E33.23428
G1 X154.574 Y130.349 E34.31885
G1 X154.026 Y130.349 E34.34588
G1 X170.101 Y146.424 E35.46867
G1 X170.101 Y146.971 E35.49570
G1 X153.479 Y130.349 E36.65672
G1 X152.932 Y130.349 E36.68375
G1 X169.914 Y147.331 E37.86994
G1 X169.367 Y147.331 E37.89697
G1 X152.384 Y130.349 E39.08315
G1 X151.837 Y130.349 E39.11018
G1 X168.820 Y147.331 E40.29637
G1 X168.272 Y147.331 E40.32340
G1 X151.290 Y130.349 E41.50958
G1 X150.743 Y130.349 E41.53661
G1 X167.725 Y147.331 E42.72280
G1 X167.178 Y147.331 E42.74983
G1 X150.195 Y130.349 E43.93601
G1 X149.648 Y130.349 E43.96304
G1 X166.630 Y147.331 E45.14922
G1 X166.083 Y147.331 E45.17625
G1 X149.101 Y130.349 E46.36244
G1 X148.553 Y130.349 E46.38947
G1 X165.536 Y147.331 E47.57565
G1 X164.989 Y147.331 E47.60268
G1 X148.006 Y130.349 E48.78887
G1 X147.459 Y130.349 E48.81590
G1 X164.441 Y147.331 E50.00208
G1 X163.894 Y147.331 E50.02911
G1 X146.912 Y130.349 E51.21529
G1 X146.364 Y130.349 E51.24232
G1 X163.347 Y147.331 E52.42851
G1 X162.799 Y147.331 E52.45554
G1 X145.817 Y130.349 E53.64172
G1 X145.270 Y130.349 E53.66875
G1 X162.252 Y147.331 E54.85494
G1 X161.705 Y147.331 E54.88197
G1 X144.722 Y130.349 E56.06815
G1 X144.175 Y130.349 E56.09518
G1 X161.158 Y147.331 E57.28137
G1 X160.610 Y147.331 E57.30840
G1 X143.628 Y130.349 E58.49458
G1 X143.081 Y130.349 E58.52161
G1 X160.063 Y147.331 E59.70779
G1 X159.516 Y147.331 E59.73482
G1 X142.533 Y130.349 E60.92101
G1 X141.986 Y130.349 E60.94804
G1 X158.968 Y147.331 E62.13422
G1 X158.421 Y147.331 E62.16125
G1 X141.439 Y130.349 E63.34744
G1 X140.891 Y130.349 E63.37447
G1 X157.874 Y147.331 E64.56065
G1 X157.327 Y147.331 E64.58768
G1 X140.344 Y130.349 E65.77386
G1 X139.797 Y130.349 E65.80089
G1 X156.779 Y147.331 E66.98708
G1 X156.232 Y147.331 E67.01411
G1 X139.250 Y130.349 E68.20029
G1 X138.702 Y130.349 E68.22732
G1 X155.685 Y147.331 E69.41351
G1 X155.137 Y147.331 E69.44054
G1 X138.155 Y130.349 E70.62672
G1 X137.608 Y130.349 E70.65375
G1 X154.590 Y147.331 E71.83993
G1 X154.043 Y147.331 E71.86697
G1 X137.060 Y130.349 E73.05315
G1 X136.513 Y130.349 E73.08018
G1 X153.496 Y147.331 E74.26636
G1 X152.948 Y147.331 E74.29339
G1 X135.966 Y130.349 E75.47958
G1 X135.419 Y130.349 E75.50661
G1 X152.401 Y147.331 E76.69279
G1 X151.854 Y147.331 E76.71982
G1 X134.871 Y130.349 E77.90601
G1 X134.324 Y130.349 E77.93304
G1 X151.306 Y147.331 E79.11922
G1 X150.759 Y147.331 E79.14625
G1 X133.777 Y130.349 E80.33243
G1 X133.229 Y130.349 E80.35946
G1 X150.212 Y147.331 E81.54565
G1 X149.665 Y147.331 E81.57268
G1 X132.682 Y130.349 E82.75886
G1 X132.135 Y130.349 E82.78589
G1 X149.117 Y147.331 E83.97208
G1 X148.570 Y147.331 E83.99911
G1 X131.588 Y130.349 E85.18529
G1 X131.040 Y130.349 E85.21232
G1 X148.023 Y147.331 E86.39850
G1 X147.475 Y147.331 E86.42553
G1 X130.493 Y130.349 E87.61172
G1 X129.946 Y130.349 E87.63875
G1 X146.928 Y147.331 E88.82493
G1 X146.381 Y147.331 E88.85196
G1 X129.398 Y130.349 E90.03815
G1 X128.851 Y130.349 E90.06518
G1 X145.834 Y147.331 E91.25136
G1 X145.286 Y147.331 E91.27839
G1 X128.304 Y130.349 E92.46458
G1 X127.757 Y130.349 E92.49161
G1 X144.739 Y147.331 E93.67779
G1 X144.192 Y147.331 E93.70482
G1 X127.209 Y130.349 E94.89100
G1 X126.662 Y130.349 E94.91803
G1 X143.644 Y147.331 E96.10422
G1 X143.097 Y147.331 E96.13125
G1 X126.115 Y130.349 E97.31743
G1 X125.567 Y130.349 E97.34446
G1 X142.550 Y147.331 E98.53065
G1 X142.003 Y147.331 E98.55768
G1 X125.020 Y130.349 E99.74386
G1 X124.473 Y130.349 E99.77089
G1 X141.455 Y147.331 E100.95707
G1 X140.908 Y147.331 E100.98410
G1 X123.926 Y130.349 E102.17029
G1 X123.378 Y130.349 E102.19732
G1 X140.361 Y147.331 E103.38350
G1 X139.813 Y147.331 E103.41053
G1 X122.831 Y130.349 E104.59672
G1 X122.284 Y130.349 E104.62375
G1 X139.266 Y147.331 E105.80993
G1 X138.719 Y147.331 E105.83696
G1 X121.736 Y130.349 E107.02314
G1 X121.189 Y130.349 E107.05017
G1 X138.172 Y147.331 E108.23636
G1 X137.624 Y147.331 E108.26339
G1 X120.642 Y130.349 E109.44957
G1 X120.095 Y130.349 E109.47660
G1 X137.077 Y147.331 E110.66279
G1 X136.530 Y147.331 E110.68982
G1 X119.547 Y130.349 E111.87600
G1 X119.000 Y130.349 E111.90303
G1 X135.982 Y147.331 E113.08921
G1 X135.435 Y147.331 E113.11624
G1 X118.453 Y130.349 E114.30243
G1 X117.905 Y130.349 E114.32946
G1 X134.888 Y147.331 E115.51564
G1 X134.341 Y147.331 E115.54267
G1 X117.358 Y130.349 E116.72886
G1 X116.811 Y130.349 E116.75589
G1 X133.793 Y147.331 E117.94207
G1 X133.246 Y147.331 E117.96910
G1 X116.264 Y130.349 E119.15529
G1 X115.716 Y130.349 E119.18232
G1 X132.699 Y147.331 E120.36850
G1 X132.151 Y147.331 E120.39553
G1 X115.169 Y130.349 E121.58171
G1 X114.622 Y130.349 E121.60874
G1 X131.604 Y147.331 E122.79493
G1 X131.057 Y147.331 E122.82196
G1 X114.074 Y130.349 E124.00814
G1 X113.527 Y130.349 E124.03517
G1 X130.510 Y147.331 E125.22136
G1 X129.962 Y147.331 E125.24839
G1 X112.980 Y130.349 E126.43457
G1 X112.433 Y130.349 E126.46160
G1 X129.415 Y147.331 E127.64778
G1 X128.868 Y147.331 E127.67481
G1 X111.885 Y130.349 E128.86100
G1 X111.338 Y130.349 E128.88803
G1 X128.320 Y147.331 E130.07421
G1 X127.773 Y147.331 E130.10124
G1 X110.791 Y130.349 E131.28743
G1 X110.243 Y130.349 E131.31446
G1 X127.226 Y147.331 E132.50064
G1 X126.679 Y147.331 E132.52767
G1 X109.696 Y130.349 E133.71385
G1 X109.149 Y130.349 E133.74088
G1 X126.131 Y147.331 E134.92707
G1 X125.584 Y147.331 E134.95410
G1 X108.602 Y130.349 E136.14028
G1 X108.054 Y130.349 E136.16731
G1 X125.037 Y147.331 E137.35350
G1 X124.489 Y147.331 E137.38053
G1 X107.507 Y130.349 E138.56671
G1 X106.960 Y130.349 E138.59374
G1 X123.942 Y147.331 E139.77992
G1 X123.395 Y147.331 E139.80695
G1 X106.412 Y130.349 E140.99314
G1 X105.865 Y130.349 E141.02017
G1 X122.848 Y147.331 E142.20635
G1 X122.300 Y147.331 E142.23338
G1 X105.318 Y130.349 E143.41957
G1 X104.771 Y130.349 E143.44660
G1 X121.753 Y147.331 E144.63278
G1 X121.206 Y147.331 E144.65981
G1 X104.223 Y130.349 E145.84600
G1 X103.676 Y130.349 E145.87303
G1 X120.658 Y147.331 E147.05921
G1 X120.111 Y147.331 E147.08624
G1 X103.129 Y130.349 E148.27242
G1 X102.581 Y130.349 E148.29945
G1 X119.564 Y147.331 E149.48564
G1 X119.017 Y147.331 E149.51267
G1 X102.034 Y130.349 E150.69885
G1 X101.487 Y130.349 E150.72588
G1 X118.469 Y147.331 E151.91207
G1 X117.922 Y147.331 E151.93910
G1 X100.940 Y130.349 E153.12528
G1 X100.392 Y130.349 E153.15231
G1 X117.375 Y147.331 E154.33849
G1 X116.827 Y147.331 E154.36552
G1 X99.845 Y130.349 E155.55171
G1 X99.298 Y130.349 E155.57874
G1 X116.280 Y147.331 E156.76492
G1 X115.733 Y147.331 E156.79195
G1 X98.751 Y130.349 E157.97814
G1 X98.203 Y130.349 E158.00517
G1 X115.186 Y147.331 E159.19135
G1 X114.638 Y147.331 E159.21838
G1 X97.656 Y130.349 E160.40456
G1 X97.109 Y130.349 E160.43159
G1 X114.091 Y147.331 E161.61778
G1 X113.544 Y147.331 E161.64481
G1 X96.561 Y130.349 E162.83099
G1 X96.014 Y130.349 E162.85802
G1 X112.996 Y147.331 E164.04421
G1 X112.449 Y147.331 E164.07124
G1 X95.467 Y130.349 E165.25742
G1 X94.920 Y130.349 E165.28445
G1 X111.902 Y147.331 E166.47063
G1 X111.355 Y147.331 E166.49766
G1 X94.372 Y130.349 E167.68385
G1 X93.825 Y130.349 E167.71088
G1 X110.807 Y147.331 E168.89706
G1 X110.260 Y147.331 E168.92409
G1 X93.278 Y130.349 E170.11028
G1 X92.730 Y130.349 E170.13731
G1 X109.713 Y147.331 E171.32349
G1 X109.165 Y147.331 E171.35052
G1 X92.183 Y130.349 E172.53670
G1 X91.636 Y130.349 E172.56374
G1 X108.618 Y147.331 E173.74992
G1 X108.071 Y147.331 E173.77695
G1 X91.089 Y130.349 E174.96313
G1 X90.541 Y130.349 E174.99016
G1 X107.524 Y147.331 E176.17635
G1 X106.976 Y147.331 E176.20338
G1 X89.994 Y130.349 E177.38956
