; generated by Slic3r 1.2.9 on 2017-02-07 at 23:59:08

; external perimeters extrusion width = 0.40mm
; perimeters extrusion width = 0.56mm
; infill extrusion width = 0.38mm
; solid infill extrusion width = 0.56mm
; top infill extrusion width = 0.22mm

M106 S256; Turn on fan to 100% power
M104 S140; turn on extruder temperature at S value
M140 S60; turn on bed temperature at S value
G28; home all axes
M84; disable motors
G1 Z15 F15000; have Z move to 20mm at 15000 mm/min
M190 S55; turn on bed temperature at S value and wait
M140 S55; turn on bed temperature at S value (printing temperature)
M109 S200; turn on extruder temperature at S value and wait (printing temperature)
M104 S200; turn on extruder temperature at S value
G1 Z0 F12000; move Z back to home
G21 ; set units to millimeters
G90 ; use absolute coordinates
M82 ; use absolute distances for extrusion
G92 E0
M106 S255
;Layer change
G1 E-6.00000 F1800.00000
G92 E0
G1 Z0.300 F9000.000
G1 X32.950 Y22.392 F9000.000
G1 E6.00000 F1800.00000
G1 X33.484 Y21.698 E6.04361 F600.000
G1 X33.875 Y21.266 E6.07260
G1 X34.291 Y20.860 E6.10157
G1 X35.006 Y20.268 E6.14778
G1 X35.484 Y19.935 E6.17678
G1 X35.981 Y19.632 E6.20578
G1 X36.497 Y19.361 E6.23477
G1 X37.028 Y19.123 E6.26377
G1 X37.574 Y18.919 E6.29276
G1 X38.131 Y18.749 E6.32176
G1 X38.930 Y18.571 E6.36252
G1 X39.503 Y18.487 E6.39138
G1 X40.087 Y18.439 E6.42053
G1 X40.551 Y18.427 E6.44363
G1 X128.551 Y18.427 E10.82506
G1 X129.053 Y18.441 E10.85009 F600.000
G1 X129.633 Y18.491 E10.87909
G1 X130.209 Y18.577 E10.90807
G1 X130.776 Y18.699 E10.93692
G1 X131.339 Y18.857 E10.96605
G1 X131.889 Y19.050 E10.99508
G1 X132.425 Y19.276 E11.02405
G1 X132.946 Y19.536 E11.05306
G1 X133.448 Y19.827 E11.08194
G1 X133.935 Y20.151 E11.11104
G1 X134.398 Y20.505 E11.14005
G1 X134.838 Y20.886 E11.16903
G1 X135.253 Y21.294 E11.19803
G1 X135.643 Y21.728 E11.22706
G1 X136.003 Y22.184 E11.25601
G1 X136.335 Y22.663 E11.28502
G1 X136.635 Y23.162 E11.31402
G1 X136.904 Y23.679 E11.34300
G1 X137.140 Y24.211 E11.37199
G1 X137.342 Y24.758 E11.40104
G1 X137.509 Y25.315 E11.42997
G1 X137.641 Y25.883 E11.45901
G1 X137.737 Y26.457 E11.48797
G1 X137.797 Y27.036 E11.51699
G1 X137.820 Y27.617 E11.54594
G1 X137.807 Y28.201 E11.57500
G1 X137.757 Y28.780 E11.60394
G1 X137.671 Y29.357 E11.63300
G1 X137.549 Y29.925 E11.66192
G1 X137.391 Y30.487 E11.69097
G1 X137.199 Y31.036 E11.71995
G1 X136.972 Y31.572 E11.74893
G1 X136.712 Y32.094 E11.77794
G1 X136.483 Y32.497 E11.80104
G1 X92.314 Y105.491 E16.04888
G1 X92.003 Y105.937 E16.07597
G1 X91.641 Y106.396 E16.10506
G1 X91.251 Y106.830 E16.13410
G1 X90.838 Y107.236 E16.16295
G1 X90.212 Y107.764 E16.20372
G1 X89.741 Y108.104 E16.23267
G1 X89.252 Y108.413 E16.26144
G1 X88.736 Y108.695 E16.29073
G1 X88.212 Y108.940 E16.31953
G1 X87.667 Y109.154 E16.34868
G1 X87.116 Y109.332 E16.37750
G1 X86.558 Y109.474 E16.40619
G1 X85.977 Y109.583 E16.43559
G1 X85.054 Y109.680 E16.48184
G1 X84.471 Y109.693 E16.51084
G1 X83.888 Y109.670 E16.53989
G1 X83.310 Y109.610 E16.56882
G1 X82.509 Y109.466 E16.60936
G1 X81.941 Y109.318 E16.63859
G1 X81.386 Y109.137 E16.66764
G1 X80.847 Y108.921 E16.69655
G1 X80.325 Y108.674 E16.72531
G1 X79.811 Y108.390 E16.75456
G1 X79.319 Y108.076 E16.78363
G1 X78.852 Y107.735 E16.81241
G1 X78.401 Y107.360 E16.84161
G1 X77.977 Y106.960 E16.87061
G1 X77.580 Y106.535 E16.89959
G1 X77.210 Y106.085 E16.92858
G1 X76.870 Y105.613 E16.95754
G1 X76.618 Y105.223 E16.98068
G1 X32.618 Y32.497 E21.21274
G1 X32.214 Y31.752 E21.25496
G1 X31.975 Y31.219 E21.28403
G1 X31.772 Y30.675 E21.31295
G1 X31.602 Y30.118 E21.34195
G1 X31.467 Y29.550 E21.37103
G1 X31.369 Y28.976 E21.40000
G1 X31.307 Y28.397 E21.42898
G1 X31.281 Y27.579 E21.46971
G1 X31.307 Y26.998 E21.49871
G1 X31.369 Y26.419 E21.52771
G1 X31.468 Y25.845 E21.55670
G1 X31.698 Y24.946 E21.60289
G1 X31.976 Y24.176 E21.64367
G1 X32.214 Y23.644 E21.67267
G1 X32.485 Y23.128 E21.70166
G1 X32.916 Y22.442 E21.74203
G1 X33.269 Y22.609 F9000.000
G1 X33.773 Y21.953 E21.78323 F600.000
G1 X34.147 Y21.539 E21.81102
G1 X34.546 Y21.149 E21.83878
G1 X35.243 Y20.573 E21.88378
G1 X35.701 Y20.254 E21.91158
G1 X36.178 Y19.964 E21.93937
G1 X36.672 Y19.705 E21.96715
G1 X37.181 Y19.477 E21.99495
G1 X37.704 Y19.282 E22.02273
G1 X38.238 Y19.119 E22.05052
G1 X38.990 Y18.951 E22.08887
G1 X39.540 Y18.871 E22.11654
G1 X40.099 Y18.825 E22.14448
G1 X128.551 Y18.812 E26.54840
G1 X129.370 Y18.851 E26.58922 F600.000
G1 X129.923 Y18.920 E26.61701
G1 X130.472 Y19.023 E26.64479
G1 X131.013 Y19.161 E26.67259
G1 X131.544 Y19.333 E26.70036
G1 X132.064 Y19.537 E26.72817
G1 X132.569 Y19.774 E26.75594
G1 X133.058 Y20.042 E26.78374
G1 X133.530 Y20.340 E26.81154
G1 X133.982 Y20.667 E26.83931
G1 X134.413 Y21.022 E26.86711
G1 X134.821 Y21.403 E26.89489
G1 X135.204 Y21.809 E26.92268
G1 X135.562 Y22.242 E26.95066
G1 X135.889 Y22.690 E26.97825
G1 X136.190 Y23.163 E27.00618
G1 X136.462 Y23.654 E27.03412
G1 X136.698 Y24.155 E27.06169
G1 X136.904 Y24.672 E27.08941
G1 X137.079 Y25.209 E27.11752
G1 X137.218 Y25.746 E27.14514
G1 X137.323 Y26.291 E27.17281
G1 X137.394 Y26.847 E27.20071
G1 X137.431 Y27.408 E27.22868
G1 X137.431 Y27.959 E27.25613
G1 X137.397 Y28.517 E27.28398
G1 X137.329 Y29.071 E27.31174
G1 X137.223 Y29.627 E27.33992
G1 X137.086 Y30.163 E27.36749
G1 X136.916 Y30.691 E27.39513
G1 X136.711 Y31.211 E27.42291
G1 X136.475 Y31.716 E27.45067
G1 X136.153 Y32.297 E27.48377
G1 X91.988 Y105.284 E31.73119
G1 X91.689 Y105.713 E31.75728
G1 X91.341 Y106.153 E31.78515
G1 X90.968 Y106.568 E31.81298
G1 X90.571 Y106.957 E31.84064
G1 X90.149 Y107.322 E31.86841
G1 X89.705 Y107.660 E31.89620
G1 X89.241 Y107.969 E31.92395
G1 X88.757 Y108.249 E31.95177
G1 X88.257 Y108.498 E31.97960
G1 X87.743 Y108.714 E32.00735
G1 X87.010 Y108.961 E32.04586
G1 X86.481 Y109.096 E32.07308
G1 X85.925 Y109.201 E32.10122
G1 X85.370 Y109.270 E32.12907
G1 X84.813 Y109.304 E32.15687
G1 X84.261 Y109.303 E32.18435
G1 X83.698 Y109.267 E32.21243
G1 X83.143 Y109.196 E32.24029
G1 X82.601 Y109.091 E32.26780
G1 X82.056 Y108.951 E32.29580
G1 X81.525 Y108.777 E32.32364
G1 X81.007 Y108.571 E32.35135
G1 X80.507 Y108.334 E32.37893
G1 X80.014 Y108.062 E32.40694
G1 X79.542 Y107.762 E32.43481
G1 X79.094 Y107.435 E32.46240
G1 X78.662 Y107.076 E32.49038
G1 X78.256 Y106.693 E32.51817
G1 X77.875 Y106.286 E32.54594
G1 X77.520 Y105.855 E32.57373
G1 X77.193 Y105.404 E32.60148
G1 X76.948 Y105.023 E32.62402
G1 X32.948 Y32.297 E36.85608
G1 X32.557 Y31.577 E36.89690
G1 X32.329 Y31.066 E36.92475
G1 X32.134 Y30.544 E36.95248
G1 X31.972 Y30.010 E36.98027
G1 X31.844 Y29.466 E37.00813
G1 X31.750 Y28.916 E37.03590
G1 X31.691 Y28.361 E37.06368
G1 X31.667 Y27.592 E37.10201
G1 X31.691 Y27.034 E37.12980
G1 X31.750 Y26.479 E37.15759
G1 X31.844 Y25.929 E37.18538
G1 X32.069 Y25.054 E37.23036
G1 X32.251 Y24.526 E37.25815
G1 X32.558 Y23.819 E37.29652
G1 X32.817 Y23.325 E37.32431
G1 X33.235 Y22.659 E37.36347
G1 E31.36347 F1800.00000
G92 E0
G1 X51.718 Y54.850 F9000.000
G1 E6.00000 F1800.00000
G1 X36.610 Y29.876 E7.45323 F600.000
G1 X36.365 Y29.355 E7.48191
G1 X36.190 Y28.817 E7.51006
G1 X36.084 Y28.262 E7.53820
G1 X36.049 Y27.698 E7.56635
G1 X36.084 Y27.134 E7.59450
G1 X36.190 Y26.578 E7.62265
G1 X36.365 Y26.041 E7.65079
G1 X36.606 Y25.529 E7.67894
G1 X36.909 Y25.052 E7.70709
G1 X37.269 Y24.616 E7.73524
G1 X37.681 Y24.229 E7.76338
G1 X38.138 Y23.897 E7.79153
G1 X38.648 Y23.617 E7.82046
G1 X38.878 Y23.517 E7.83299
G1 X39.431 Y23.337 E7.86192
G1 X39.986 Y23.232 E7.89006
G1 X40.582 Y23.194 E7.91977
G1 X128.525 Y23.194 E12.29835
G1 X129.030 Y23.220 E12.32353 F600.000
G1 X129.284 Y23.255 E12.33632
G1 X129.850 Y23.388 E12.36525
G1 X130.380 Y23.584 E12.39340
G1 X130.881 Y23.846 E12.42154
G1 X131.345 Y24.169 E12.44969
G1 X131.766 Y24.547 E12.47784
G1 X132.135 Y24.974 E12.50598
G1 X132.448 Y25.445 E12.53413
G1 X132.707 Y25.966 E12.56306
G1 X132.797 Y26.200 E12.57559
G1 X132.953 Y26.758 E12.60443
G1 X133.036 Y27.319 E12.63267
G1 X133.049 Y27.884 E12.66081
G1 X132.990 Y28.447 E12.68896
G1 X132.861 Y28.997 E12.71711
G1 X132.664 Y29.527 E12.74526
G1 X132.389 Y30.054 E12.77487
G1 X88.305 Y102.908 E17.01456
G1 X87.949 Y103.378 E17.04390
G1 X87.777 Y103.564 E17.05652
G1 X87.334 Y103.963 E17.08622
G1 X87.132 Y104.113 E17.09875
G1 X86.621 Y104.422 E17.12846
G1 X86.395 Y104.531 E17.14098
G1 X85.835 Y104.739 E17.17069
G1 X85.315 Y104.861 E17.19730
G1 X84.722 Y104.923 E17.22700
G1 X84.468 Y104.925 E17.23961
G1 X83.876 Y104.875 E17.26922
G1 X83.626 Y104.830 E17.28184
G1 X83.053 Y104.670 E17.31146
G1 X82.817 Y104.579 E17.32408
G1 X82.298 Y104.321 E17.35292
G1 X81.827 Y104.008 E17.38108
G1 X81.399 Y103.638 E17.40922
G1 X81.021 Y103.218 E17.43737
G1 X80.681 Y102.728 E17.46708
G1 X51.749 Y54.901 E20.25013
G1 X51.388 Y55.050 F9000.000
G1 X36.270 Y30.059 E21.70436 F600.000
G1 X36.006 Y29.497 E21.73525
G1 X35.816 Y28.913 E21.76581
G1 X35.701 Y28.311 E21.79637
G1 X35.662 Y27.698 E21.82694
G1 X35.701 Y27.085 E21.85750
G1 X35.816 Y26.482 E21.88806
G1 X36.006 Y25.898 E21.91863
G1 X36.267 Y25.343 E21.94919
G1 X36.596 Y24.825 E21.97975
G1 X36.987 Y24.352 E22.01032
G1 X37.435 Y23.931 E22.04088
G1 X37.931 Y23.571 E22.07145
G1 X38.478 Y23.270 E22.10249
G1 X38.742 Y23.156 E22.11682
G1 X39.335 Y22.963 E22.14787
G1 X39.938 Y22.848 E22.17843
G1 X40.570 Y22.808 E22.20995
G1 X128.535 Y22.808 E26.58963
G1 X129.066 Y22.836 E26.61611 F600.000
G1 X129.354 Y22.876 E26.63061
G1 X129.961 Y23.018 E26.66165
G1 X130.537 Y23.231 E26.69222
G1 X131.081 Y23.516 E26.72278
G1 X131.585 Y23.866 E26.75334
G1 X132.042 Y24.276 E26.78391
G1 X132.443 Y24.741 E26.81447
G1 X132.783 Y25.252 E26.84504
G1 X133.060 Y25.810 E26.87608
G1 X133.164 Y26.079 E26.89042
G1 X133.331 Y26.678 E26.92137
G1 X133.421 Y27.287 E26.95202
G1 X133.435 Y27.900 E26.98258
G1 X133.371 Y28.511 E27.01315
G1 X133.231 Y29.109 E27.04371
G1 X133.017 Y29.684 E27.07427
G1 X132.725 Y30.244 E27.10570
G1 X88.625 Y103.125 E31.34701
G1 X88.245 Y103.625 E31.37827
G1 X88.049 Y103.839 E31.39269
G1 X87.578 Y104.262 E31.42421
G1 X87.347 Y104.434 E31.43855
G1 X86.805 Y104.761 E31.47007
G1 X86.546 Y104.886 E31.48440
G1 X85.952 Y105.107 E31.51593
G1 X85.373 Y105.242 E31.54554
G1 X84.744 Y105.308 E31.57706
G1 X84.454 Y105.311 E31.59149
G1 X83.825 Y105.258 E31.62291
G1 X83.540 Y105.206 E31.63734
G1 X82.932 Y105.036 E31.66877
G1 X82.661 Y104.932 E31.68320
G1 X82.105 Y104.656 E31.71415
G1 X81.594 Y104.316 E31.74472
G1 X81.129 Y103.914 E31.77528
G1 X80.718 Y103.458 E31.80585
G1 X80.357 Y102.938 E31.83737
G1 X51.419 Y55.101 E34.62102
G1 X51.058 Y55.249 F9000.000
G1 X35.930 Y30.241 E36.07625 F600.000
G1 X35.646 Y29.640 E36.10935
G1 X35.442 Y29.010 E36.14233
G1 X35.318 Y28.359 E36.17531
G1 X35.276 Y27.698 E36.20829
G1 X35.318 Y27.037 E36.24127
G1 X35.442 Y26.386 E36.27425
G1 X35.646 Y25.756 E36.30722
G1 X35.929 Y25.157 E36.34020
G1 X36.283 Y24.598 E36.37318
G1 X36.706 Y24.087 E36.40616
G1 X37.189 Y23.634 E36.43914
G1 X37.724 Y23.244 E36.47212
G1 X38.308 Y22.924 E36.50528
G1 X38.606 Y22.795 E36.52142
G1 X39.239 Y22.589 E36.55458
G1 X39.890 Y22.465 E36.58756
G1 X40.558 Y22.423 E36.62089
G1 X128.545 Y22.423 E41.00168
G1 X129.102 Y22.452 E41.02946 F600.000
G1 X129.424 Y22.496 E41.04567
G1 X130.073 Y22.648 E41.07882
G1 X130.694 Y22.878 E41.11180
G1 X131.281 Y23.185 E41.14478
G1 X131.825 Y23.563 E41.17776
G1 X132.318 Y24.006 E41.21074
G1 X132.751 Y24.507 E41.24372
G1 X133.117 Y25.059 E41.27670
G1 X133.414 Y25.655 E41.30986
G1 X133.530 Y25.958 E41.32600
G1 X133.709 Y26.597 E41.35907
G1 X133.806 Y27.254 E41.39214
G1 X133.821 Y27.916 E41.42512
G1 X133.752 Y28.575 E41.45810
G1 X133.601 Y29.220 E41.49108
G1 X133.370 Y29.841 E41.52406
G1 X133.061 Y30.433 E41.55729
G1 X88.944 Y103.342 E45.80022
G1 X88.541 Y103.873 E45.83340
G1 X88.320 Y104.113 E45.84964
G1 X87.822 Y104.561 E45.88297
G1 X87.562 Y104.754 E45.89911
G1 X86.989 Y105.101 E45.93244
G1 X86.697 Y105.242 E45.94859
G1 X86.070 Y105.475 E45.98193
G1 X85.431 Y105.624 E46.01456
G1 X84.766 Y105.694 E46.04788
G1 X84.440 Y105.697 E46.06412
G1 X83.774 Y105.641 E46.09736
G1 X83.453 Y105.583 E46.11360
G1 X82.810 Y105.403 E46.14684
G1 X82.506 Y105.286 E46.16308
G1 X81.911 Y104.990 E46.19615
G1 X81.360 Y104.623 E46.22913
G1 X80.859 Y104.190 E46.26211
G1 X80.416 Y103.698 E46.29508
G1 X80.034 Y103.148 E46.32842
G1 X51.089 Y55.301 E49.11267
G1 X51.251 Y54.899 F9000.000
G1 X51.864 Y54.438 F9000.000
G1 X92.655 Y95.230 E51.98960 F600.000
G1 X92.861 Y94.890 E52.00943
G1 X51.027 Y53.055 E54.95987
G1 X50.191 Y51.673 F9000.000
G1 X93.067 Y94.549 E57.98381 F600.000
G1 X93.273 Y94.209 E58.00365
G1 X49.354 Y50.290 E61.10111
G1 X48.518 Y48.907 F9000.000
G1 X93.479 Y93.869 E64.27208 F600.000
G1 X93.685 Y93.528 E64.29192
G1 X47.681 Y47.525 E67.53641
G1 X46.845 Y46.142 F9000.000
G1 X93.891 Y93.188 E70.85441 F600.000
G1 X94.097 Y92.848 E70.87425
G1 X46.009 Y44.759 E74.26576
G1 X45.172 Y43.377 F9000.000
G1 X94.303 Y92.507 E77.73079 F600.000
G1 X94.509 Y92.167 E77.75062
G1 X44.336 Y41.994 E81.28916
G1 X43.499 Y40.611 F9000.000
G1 X94.715 Y91.827 E84.90122 F600.000
G1 X94.921 Y91.486 E84.92105
G1 X42.663 Y39.229 E88.60662
G1 X41.826 Y37.846 F9000.000
G1 X95.126 Y91.146 E92.36570 F600.000
G1 X95.332 Y90.806 E92.38553
G1 X40.990 Y36.463 E96.21813
G1 X40.154 Y35.081 F9000.000
G1 X95.538 Y90.465 E100.12423 F600.000
G1 X95.744 Y90.125 E100.14407
G1 X39.317 Y33.698 E104.12369
G1 X38.481 Y32.315 F9000.000
G1 X95.950 Y89.785 E108.17682 F600.000
G1 X96.156 Y89.445 E108.19666
G1 X37.644 Y30.933 E112.32331
G1 X36.826 Y29.568 F9000.000
G1 X96.362 Y89.104 E116.52219 F600.000
G1 X96.568 Y88.764 E116.54202
G1 X36.470 Y28.666 E120.78051
G1 X36.358 Y28.008 E120.81383
G1 X96.774 Y88.424 E125.07476
G1 X96.980 Y88.083 E125.09460
G1 X36.344 Y27.447 E129.37105
G1 X36.394 Y26.951 E129.39592
G1 X97.186 Y87.743 E133.68337
G1 X97.392 Y87.403 E133.70321
G1 X36.491 Y26.502 E137.99833
G1 X36.625 Y26.090 E138.01993
G1 X97.598 Y87.062 E142.32010
G1 X97.803 Y86.722 E142.33994
G1 X36.800 Y25.719 E146.64230
G1 X37.003 Y25.375 E146.66220
G1 X98.009 Y86.382 E150.96480
G1 X98.215 Y86.041 E150.98464
G1 X37.230 Y25.056 E155.28573
G1 X37.494 Y24.774 E155.30500
G1 X98.421 Y85.701 E159.60201
G1 X98.627 Y85.361 E159.62185
G1 X37.767 Y24.501 E163.91412
G1 X38.070 Y24.257 E163.93350
G1 X98.833 Y85.020 E168.21892
G1 X99.039 Y84.680 E168.23876
G1 X38.402 Y24.043 E172.51533
G1 X38.756 Y23.851 E172.53543
G1 X99.245 Y84.340 E176.80150
G1 X99.451 Y84.000 E176.82134
G1 X39.155 Y23.703 E181.07384
G1 X39.581 Y23.584 E181.09593
G1 X99.657 Y83.659 E185.33287
G1 X99.863 Y83.319 E185.35270
G1 X40.051 Y23.507 E189.57105
G1 X40.568 Y23.478 E189.59689
G1 X100.069 Y82.979 E193.79328
G1 X100.275 Y82.638 E193.81312
G1 X41.114 Y23.478 E197.98551
G1 X41.660 Y23.478 E198.01275
G1 X100.480 Y82.298 E202.16114
G1 X100.686 Y81.958 E202.18097
G1 X42.207 Y23.478 E206.30536
G1 X42.753 Y23.478 E206.33260
G1 X100.892 Y81.617 E210.43299
G1 X101.098 Y81.277 E210.45283
G1 X43.299 Y23.478 E214.52921
G1 X43.845 Y23.478 E214.55646
G1 X101.304 Y80.937 E218.60884
G1 X101.510 Y80.596 E218.62868
G1 X44.392 Y23.478 E222.65706
G1 X44.938 Y23.478 E222.68430
G1 X101.716 Y80.256 E226.68869
G1 X101.922 Y79.916 E226.70852
G1 X45.484 Y23.478 E230.68890
G1 X46.030 Y23.478 E230.71614
G1 X102.128 Y79.575 E234.67252
G1 X102.334 Y79.235 E234.69236
G1 X46.577 Y23.478 E238.62474
G1 X47.123 Y23.478 E238.65198
G1 X102.540 Y78.895 E242.56036
G1 X102.746 Y78.554 E242.58020
G1 X47.669 Y23.478 E246.46457
G1 X48.215 Y23.478 E246.49181
G1 X102.951 Y78.214 E250.35219
G1 X103.157 Y77.874 E250.37203
G1 X48.761 Y23.478 E254.20840
G1 X49.308 Y23.478 E254.23564
G1 X103.363 Y77.534 E258.04801
G1 X103.569 Y77.193 E258.06785
G1 X49.854 Y23.478 E261.85622
G1 X50.400 Y23.478 E261.88346
G1 X103.775 Y76.853 E265.64783
G1 X103.981 Y76.513 E265.66767
G1 X50.946 Y23.478 E269.40804
G1 X51.493 Y23.478 E269.43528
G1 X104.187 Y76.172 E273.15165
G1 X104.393 Y75.832 E273.17149
G1 X52.039 Y23.478 E276.86385
G1 X52.585 Y23.478 E276.89109
G1 X104.599 Y75.492 E280.55946
G1 X104.805 Y75.151 E280.57930
G1 X53.131 Y23.478 E284.22366
G1 X53.678 Y23.478 E284.25090
G1 X105.011 Y74.811 E287.87126
G1 X105.217 Y74.471 E287.89110
