; generated by Slic3r 1.2.9 on 2017-02-24 at 21:36:34

; external perimeters extrusion width = 0.40mm
; perimeters extrusion width = 0.56mm
; infill extrusion width = 0.38mm
; solid infill extrusion width = 0.56mm
; top infill extrusion width = 0.22mm

M106 S256; Turn on fan to 100% power
M104 S140; turn on extruder temperature at S value
M140 S60; turn on bed temperature at S value
G28; home all axes
M84; disable motors
G1 Z15 F15000; have Z move to 20mm at 15000 mm/min
M190 S55; turn on bed temperature at S value and wait
M140 S55; turn on bed temperature at S value (printing temperature)
M109 S205; turn on extruder temperature at S value and wait (printing temperature)
M104 S205; turn on extruder temperature at S value
G1 Z0 F12000; move Z back to home
G21 ; set units to millimeters
G90 ; use absolute coordinates
M82 ; use absolute distances for extrusion
G92 E0
M106 S255
;Layer change
G1 E-6.00000 F1800.00000
G92 E0
G1 Z0.300 F9000.000
G1 X46.820 Y70.092 F9000.000
G1 E6.00000 F1800.00000
G1 X47.910 Y69.364 E6.06305 F600.000
G1 X50.005 Y68.729 E6.16834
G1 X130.005 Y68.729 E10.01606
G1 X132.101 Y69.365 E10.12140
G1 X147.405 Y79.600 E11.00690 F600.000
G1 X148.226 Y80.236 E11.05688
G1 X148.650 Y80.610 E11.08408
G1 X149.222 Y81.172 E11.12266
G1 X149.909 Y81.951 E11.17262
G1 X150.256 Y82.398 E11.19981
G1 X150.713 Y83.058 E11.23841
G1 X151.242 Y83.953 E11.28841
G1 X151.599 Y84.670 E11.32695
G1 X151.911 Y85.410 E11.36556
G1 X152.176 Y86.167 E11.40415
G1 X152.334 Y86.710 E11.43136
G1 X152.560 Y87.724 E11.48132
G1 X152.679 Y88.517 E11.51989
G1 X152.747 Y89.316 E11.55846
G1 X152.764 Y89.882 E11.58567
G1 X152.747 Y90.684 E11.62426
G1 X152.649 Y91.718 E11.67420
G1 X152.560 Y92.276 E11.70140
G1 X152.393 Y93.061 E11.74002
G1 X152.176 Y93.833 E11.77857
G1 X151.918 Y94.571 E11.81616
G1 X151.499 Y95.544 E11.86711
G1 X151.242 Y96.048 E11.89432
G1 X150.840 Y96.742 E11.93291
G1 X150.256 Y97.602 E11.98290
G1 X149.909 Y98.049 E12.01012
G1 X149.384 Y98.655 E12.04868
G1 X148.650 Y99.390 E12.09863
G1 X148.043 Y99.914 E12.13721
G1 X147.387 Y100.412 E12.17682
G1 X132.101 Y110.635 E13.06132
G1 X130.005 Y111.271 E13.16665
G1 X50.005 Y111.271 E17.01438
G1 X47.910 Y110.636 E17.11966
G1 X32.595 Y100.400 E18.00562
G1 X31.957 Y99.914 E18.04422
G1 X31.177 Y99.227 E18.09419
G1 X30.778 Y98.828 E18.12138
G1 X30.242 Y98.231 E18.15997
G1 X29.604 Y97.409 E18.20997
G1 X29.160 Y96.743 E18.24850
G1 X28.758 Y96.047 E18.28713
G1 X28.501 Y95.544 E18.31433
G1 X28.176 Y94.811 E18.35287
G1 X27.824 Y93.833 E18.40287
G1 X27.666 Y93.290 E18.43006
G1 X27.484 Y92.509 E18.46862
G1 X27.321 Y91.483 E18.51861
G1 X27.253 Y90.684 E18.55718
G1 X27.236 Y90.119 E18.58438
G1 X27.268 Y89.080 E18.63435
G1 X27.321 Y88.517 E18.66155
G1 X27.440 Y87.724 E18.70012
G1 X27.666 Y86.710 E18.75009
G1 X27.824 Y86.167 E18.77730
G1 X28.089 Y85.410 E18.81588
G1 X28.501 Y84.456 E18.86583
G1 X28.758 Y83.952 E18.89303
G1 X29.160 Y83.257 E18.93166
G1 X29.744 Y82.398 E18.98162
G1 X30.242 Y81.769 E19.02019
G1 X30.778 Y81.172 E19.05877
G1 X31.177 Y80.773 E19.08597
G1 X31.774 Y80.237 E19.12455
G1 X32.595 Y79.600 E19.17453
G1 X46.770 Y70.126 E19.99455
G1 X47.034 Y70.413 F9000.000
G1 X48.124 Y69.685 E20.05761 F600.000
G1 X50.005 Y69.114 E20.15212
G1 X130.005 Y69.114 E23.99985
G1 X131.886 Y69.685 E24.09442
G1 X147.188 Y79.919 E24.97978 F600.000
G1 X147.971 Y80.526 E25.02743
G1 X148.395 Y80.900 E25.05462
G1 X148.950 Y81.445 E25.09204
G1 X149.605 Y82.188 E25.13967
G1 X149.951 Y82.635 E25.16687
G1 X150.394 Y83.275 E25.20430
G1 X150.899 Y84.128 E25.25197
G1 X151.245 Y84.823 E25.28934
G1 X151.549 Y85.540 E25.32679
G1 X151.806 Y86.274 E25.36421
G1 X151.964 Y86.818 E25.39142
G1 X152.180 Y87.784 E25.43905
G1 X152.295 Y88.553 E25.47646
G1 X152.361 Y89.328 E25.51387
G1 X152.379 Y89.894 E25.54108
G1 X152.361 Y90.672 E25.57850
G1 X152.268 Y91.657 E25.62612
G1 X152.180 Y92.216 E25.65331
G1 X152.016 Y92.977 E25.69076
G1 X151.806 Y93.726 E25.72815
G1 X151.556 Y94.440 E25.76455
G1 X151.155 Y95.369 E25.81320
G1 X150.899 Y95.873 E25.84041
G1 X150.508 Y96.546 E25.87783
G1 X149.951 Y97.365 E25.92549
G1 X149.604 Y97.812 E25.95271
G1 X149.095 Y98.400 E25.99011
G1 X148.395 Y99.100 E26.03773
G1 X147.971 Y99.474 E26.06493
G1 X147.360 Y99.956 E26.10234
G1 X146.720 Y100.399 E26.13978
G1 X131.886 Y110.315 E26.99795
G1 X130.005 Y110.886 E27.09251
G1 X50.005 Y110.886 E30.94024
G1 X48.124 Y110.315 E31.03475
G1 X32.812 Y100.081 E31.92057
G1 X32.193 Y99.610 E31.95800
G1 X31.450 Y98.955 E32.00564
G1 X31.050 Y98.555 E32.03283
G1 X30.531 Y97.976 E32.07025
G1 X29.923 Y97.193 E32.11792
G1 X29.492 Y96.546 E32.15529
G1 X29.101 Y95.872 E32.19276
G1 X28.845 Y95.369 E32.21995
G1 X28.530 Y94.658 E32.25733
G1 X28.194 Y93.726 E32.30500
G1 X28.037 Y93.183 E32.33219
G1 X27.860 Y92.425 E32.36959
G1 X27.705 Y91.447 E32.41725
G1 X27.639 Y90.672 E32.45465
G1 X27.621 Y90.107 E32.48185
G1 X27.652 Y89.116 E32.52950
G1 X27.705 Y88.553 E32.55669
G1 X27.820 Y87.784 E32.59410
G1 X28.037 Y86.817 E32.64175
G1 X28.194 Y86.274 E32.66895
G1 X28.451 Y85.540 E32.70636
G1 X28.845 Y84.631 E32.75399
G1 X29.101 Y84.127 E32.78119
G1 X29.492 Y83.454 E32.81865
G1 X30.049 Y82.635 E32.86628
G1 X30.531 Y82.024 E32.90369
G1 X31.050 Y81.445 E32.94111
G1 X31.450 Y81.045 E32.96830
G1 X32.029 Y80.526 E33.00572
G1 X32.812 Y79.919 E33.05337
G1 X46.984 Y70.446 E33.87324
G1 E27.87324 F1800.00000
G92 E0
G1 X41.791 Y92.458 F9000.000
G1 E6.00000 F1800.00000
G1 X41.317 Y92.738 E6.02645 F600.000
G1 X40.943 Y92.886 E6.04581
G1 X40.558 Y92.985 E6.06495
G1 X40.006 Y93.038 E6.09160
G1 X39.436 Y92.984 E6.11916
G1 X38.887 Y92.825 E6.14666
G1 X38.397 Y92.575 E6.17311
G1 X38.071 Y92.338 E6.19248
G1 X37.777 Y92.062 E6.21186
G1 X37.440 Y91.628 E6.23832
G1 X37.180 Y91.118 E6.26581
G1 X37.021 Y90.569 E6.29331
G1 X36.967 Y90.000 E6.32082
G1 X37.021 Y89.431 E6.34832
G1 X37.180 Y88.881 E6.37583
G1 X37.440 Y88.372 E6.40332
G1 X37.790 Y87.920 E6.43083
G1 X38.219 Y87.542 E6.45833
G1 X38.712 Y87.251 E6.48583
G1 X39.229 Y87.065 E6.51228
G1 X39.624 Y86.989 E6.53164
G1 X40.021 Y86.964 E6.55078 F600.000
G1 X40.573 Y87.015 E6.57743
G1 X41.123 Y87.175 E6.60499
G1 X41.633 Y87.435 E6.63249
G1 X42.086 Y87.786 E6.66004
G1 X42.451 Y88.202 E6.68670
G1 X42.664 Y88.538 E6.70584
G1 X42.836 Y88.903 E6.72520
G1 X42.989 Y89.431 E6.75165
G1 X43.043 Y90.000 E6.77915
G1 X42.989 Y90.569 E6.80665
G1 X42.830 Y91.118 E6.83415
G1 X42.570 Y91.628 E6.86165
G1 X42.220 Y92.080 E6.88916
G1 X41.836 Y92.418 E6.91377
G1 X41.563 Y92.144 F9000.000
G1 X41.147 Y92.390 E6.93701 F600.000
G1 X40.824 Y92.518 E6.95375
G1 X40.491 Y92.604 E6.97027
G1 X40.006 Y92.651 E6.99371
G1 X39.508 Y92.604 E7.01775
G1 X39.029 Y92.465 E7.04174
G1 X38.599 Y92.245 E7.06498
G1 X38.317 Y92.041 E7.08172
G1 X38.063 Y91.802 E7.09848
G1 X37.767 Y91.420 E7.12172
G1 X37.541 Y90.976 E7.14571
G1 X37.401 Y90.497 E7.16971
G1 X37.354 Y90.000 E7.19370
G1 X37.401 Y89.503 E7.21770
G1 X37.541 Y89.024 E7.24170
G1 X37.767 Y88.580 E7.26569
G1 X38.073 Y88.185 E7.28968
G1 X38.447 Y87.856 E7.31368
G1 X38.876 Y87.602 E7.33768
G1 X39.331 Y87.438 E7.36091
G1 X39.673 Y87.373 E7.37765
G1 X40.016 Y87.351 E7.39418 F600.000
G1 X40.501 Y87.396 E7.41762
G1 X40.981 Y87.535 E7.44165
G1 X41.425 Y87.762 E7.46564
G1 X41.820 Y88.068 E7.48968
G1 X42.142 Y88.434 E7.51311
G1 X42.326 Y88.725 E7.52964
G1 X42.474 Y89.039 E7.54638
G1 X42.609 Y89.503 E7.56961
G1 X42.656 Y90.000 E7.59361
G1 X42.609 Y90.497 E7.61761
G1 X42.470 Y90.976 E7.64160
G1 X42.243 Y91.420 E7.66560
G1 X41.937 Y91.815 E7.68959
G1 X41.608 Y92.105 E7.71070
G1 X41.335 Y91.831 F9000.000
G1 X40.977 Y92.043 E7.73073 F600.000
G1 X40.704 Y92.151 E7.74484
G1 X40.424 Y92.223 E7.75876
G1 X40.005 Y92.263 E7.77898
G1 X39.581 Y92.223 E7.79949
G1 X39.172 Y92.104 E7.81998
G1 X38.801 Y91.915 E7.84000
G1 X38.563 Y91.743 E7.85412
G1 X38.349 Y91.542 E7.86825
G1 X38.094 Y91.213 E7.88828
G1 X37.901 Y90.833 E7.90876
G1 X37.782 Y90.424 E7.92925
G1 X37.742 Y90.000 E7.94974
G1 X37.782 Y89.576 E7.97023
G1 X37.901 Y89.167 E7.99073
G1 X38.094 Y88.787 E8.01121
G1 X38.355 Y88.451 E8.03170
G1 X38.675 Y88.169 E8.05219
G1 X39.041 Y87.952 E8.07268
G1 X39.433 Y87.811 E8.09270
G1 X39.721 Y87.756 E8.10682
G1 X40.010 Y87.738 E8.12073 F600.000
G1 X40.429 Y87.777 E8.14095
G1 X40.838 Y87.896 E8.16146
G1 X41.218 Y88.089 E8.18195
G1 X41.555 Y88.350 E8.20246
G1 X41.832 Y88.666 E8.22268
G1 X41.987 Y88.911 E8.23660
G1 X42.112 Y89.176 E8.25072
G1 X42.228 Y89.576 E8.27074
G1 X42.268 Y90.000 E8.29123
G1 X42.228 Y90.424 E8.31172
G1 X42.109 Y90.833 E8.33221
G1 X41.916 Y91.213 E8.35270
G1 X41.655 Y91.549 E8.37318
G1 X41.380 Y91.791 E8.39079
G1 X41.108 Y91.518 F9000.000
G1 X40.807 Y91.696 E8.40760 F600.000
G1 X40.585 Y91.784 E8.41909
G1 X40.357 Y91.842 E8.43040
G1 X40.005 Y91.876 E8.44740
G1 X39.653 Y91.843 E8.46439
G1 X39.314 Y91.744 E8.48137
G1 X39.003 Y91.586 E8.49818
G1 X38.810 Y91.445 E8.50968
G1 X38.635 Y91.281 E8.52118
G1 X38.421 Y91.005 E8.53799
G1 X38.261 Y90.691 E8.55497
G1 X38.162 Y90.352 E8.57196
G1 X38.129 Y90.000 E8.58894
G1 X38.162 Y89.648 E8.60592
G1 X38.261 Y89.309 E8.62291
G1 X38.421 Y88.995 E8.63989
G1 X38.637 Y88.716 E8.65687
G1 X38.902 Y88.482 E8.67385
G1 X39.206 Y88.303 E8.69084
G1 X39.535 Y88.184 E8.70765
G1 X39.770 Y88.139 E8.71914
G1 X40.004 Y88.124 E8.73044 F600.000
G1 X40.356 Y88.157 E8.74744
G1 X40.696 Y88.256 E8.76444
G1 X41.010 Y88.416 E8.78142
G1 X41.289 Y88.633 E8.79841
G1 X41.523 Y88.898 E8.81541
G1 X41.649 Y89.097 E8.82671
G1 X41.750 Y89.313 E8.83821
G1 X41.848 Y89.648 E8.85502
G1 X41.881 Y90.000 E8.87200
G1 X41.848 Y90.352 E8.88898
G1 X41.749 Y90.691 E8.90597
G1 X41.589 Y91.005 E8.92295
G1 X41.373 Y91.284 E8.93993
G1 X41.153 Y91.478 E8.95403
G1 X41.133 Y91.866 F9000.000
G1 X136.957 Y90.000 F9000.000
G1 X137.011 Y89.431 E8.98154 F600.000
G1 X137.170 Y88.882 E9.00904
G1 X137.430 Y88.372 E9.03653
G1 X137.780 Y87.920 E9.06404
G1 X138.209 Y87.542 E9.09154
G1 X138.701 Y87.251 E9.11904
G1 X139.219 Y87.065 E9.14549
G1 X139.614 Y86.989 E9.16485
G1 X140.011 Y86.964 E9.18399 F600.000
G1 X140.563 Y87.015 E9.21065
G1 X141.113 Y87.175 E9.23820
G1 X141.623 Y87.435 E9.26570
G1 X142.075 Y87.785 E9.29320
G1 X142.453 Y88.215 E9.32075
G1 X142.735 Y88.693 E9.34742
G1 X142.881 Y89.063 E9.36655
G1 X142.981 Y89.452 E9.38590
G1 X143.033 Y90.000 E9.41236
G1 X142.979 Y90.569 E9.43986
G1 X142.820 Y91.118 E9.46737
G1 X142.560 Y91.628 E9.49486
G1 X142.223 Y92.062 E9.52132
G1 X141.930 Y92.338 E9.54068
G1 X141.608 Y92.572 E9.55981
G1 X141.114 Y92.824 E9.58647
G1 X140.564 Y92.984 E9.61402
G1 X139.995 Y93.038 E9.64152
G1 X139.426 Y92.984 E9.66903
G1 X138.877 Y92.825 E9.69653
G1 X138.366 Y92.565 E9.72408
G1 X137.929 Y92.224 E9.75074
G1 X137.657 Y91.934 E9.76988
G1 X137.420 Y91.608 E9.78923
G1 X137.170 Y91.118 E9.81568
G1 X137.011 Y90.569 E9.84318
G1 X136.963 Y90.060 E9.86780
G1 X137.344 Y90.000 F9000.000
G1 X137.391 Y89.503 E9.89180 F600.000
G1 X137.531 Y89.024 E9.91580
G1 X137.757 Y88.580 E9.93979
G1 X138.063 Y88.185 E9.96378
G1 X138.437 Y87.856 E9.98778
G1 X138.866 Y87.602 E10.01177
G1 X139.321 Y87.438 E10.03501
G1 X139.663 Y87.373 E10.05175
G1 X140.006 Y87.351 E10.06828 F600.000
G1 X140.491 Y87.396 E10.09171
G1 X140.971 Y87.535 E10.11575
G1 X141.415 Y87.762 E10.13974
G1 X141.809 Y88.068 E10.16373
G1 X142.140 Y88.442 E10.18777
G1 X142.387 Y88.863 E10.21122
G1 X142.514 Y89.182 E10.22774
G1 X142.600 Y89.519 E10.24447
G1 X142.646 Y90.000 E10.26771
G1 X142.599 Y90.497 E10.29171
G1 X142.459 Y90.976 E10.31571
G1 X142.233 Y91.420 E10.33969
G1 X141.937 Y91.802 E10.36293
G1 X141.683 Y92.040 E10.37967
G1 X141.405 Y92.242 E10.39620
G1 X140.972 Y92.464 E10.41963
G1 X140.492 Y92.604 E10.44367
G1 X139.995 Y92.651 E10.46766
G1 X139.498 Y92.604 E10.49166
G1 X139.019 Y92.465 E10.51565
G1 X138.574 Y92.238 E10.53968
G1 X138.189 Y91.938 E10.56313
G1 X137.954 Y91.688 E10.57965
G1 X137.750 Y91.406 E10.59639
G1 X137.531 Y90.976 E10.61962
G1 X137.391 Y90.497 E10.64362
G1 X137.350 Y90.060 E10.66473
G1 X137.732 Y90.000 F9000.000
G1 X137.772 Y89.576 E10.68522 F600.000
G1 X137.891 Y89.167 E10.70571
G1 X138.084 Y88.787 E10.72620
G1 X138.345 Y88.451 E10.74669
G1 X138.665 Y88.169 E10.76718
G1 X139.031 Y87.952 E10.78766
G1 X139.423 Y87.811 E10.80769
G1 X139.711 Y87.756 E10.82180
G1 X140.000 Y87.738 E10.83572 F600.000
G1 X140.419 Y87.777 E10.85594
G1 X140.828 Y87.896 E10.87645
G1 X141.208 Y88.089 E10.89694
G1 X141.544 Y88.350 E10.91743
G1 X141.826 Y88.670 E10.93794
G1 X142.040 Y89.032 E10.95816
G1 X142.146 Y89.301 E10.97207
G1 X142.219 Y89.585 E10.98619
G1 X142.258 Y90.000 E11.00622
G1 X142.218 Y90.424 E11.02671
G1 X142.099 Y90.833 E11.04720
G1 X141.906 Y91.213 E11.06768
G1 X141.651 Y91.542 E11.08771
G1 X141.437 Y91.743 E11.10182
G1 X141.203 Y91.913 E11.11574
G1 X140.829 Y92.104 E11.13596
G1 X140.419 Y92.223 E11.15647
G1 X139.995 Y92.263 E11.17696
G1 X139.571 Y92.223 E11.19745
G1 X139.162 Y92.104 E11.21794
G1 X138.782 Y91.911 E11.23845
G1 X138.450 Y91.653 E11.25867
G1 X138.252 Y91.442 E11.27258
G1 X138.080 Y91.204 E11.28670
G1 X137.891 Y90.833 E11.30672
G1 X137.772 Y90.424 E11.32721
G1 X137.737 Y90.060 E11.34481
G1 X138.119 Y90.000 F9000.000
G1 X138.152 Y89.648 E11.36180 F600.000
G1 X138.251 Y89.309 E11.37878
G1 X138.411 Y88.995 E11.39576
G1 X138.627 Y88.716 E11.41274
G1 X138.892 Y88.482 E11.42973
G1 X139.196 Y88.303 E11.44671
G1 X139.525 Y88.184 E11.46352
G1 X139.760 Y88.139 E11.47502
G1 X139.994 Y88.124 E11.48632 F600.000
G1 X140.346 Y88.157 E11.50332
G1 X140.686 Y88.256 E11.52031
G1 X141.000 Y88.416 E11.53729
G1 X141.279 Y88.632 E11.55428
G1 X141.513 Y88.897 E11.57127
G1 X141.692 Y89.202 E11.58827
G1 X141.779 Y89.421 E11.59957
G1 X141.838 Y89.652 E11.61106
G1 X141.871 Y90.000 E11.62788
G1 X141.838 Y90.352 E11.64486
G1 X141.739 Y90.691 E11.66184
G1 X141.579 Y91.005 E11.67883
G1 X141.365 Y91.281 E11.69564
G1 X141.190 Y91.445 E11.70713
G1 X141.000 Y91.583 E11.71843
G1 X140.686 Y91.744 E11.73543
G1 X140.347 Y91.843 E11.75243
G1 X139.995 Y91.876 E11.76941
G1 X139.643 Y91.843 E11.78639
G1 X139.304 Y91.744 E11.80337
G1 X138.990 Y91.584 E11.82036
G1 X138.711 Y91.367 E11.83737
G1 X138.550 Y91.195 E11.84867
G1 X138.409 Y91.002 E11.86016
G1 X138.251 Y90.691 E11.87697
G1 X138.152 Y90.352 E11.89396
G1 X138.125 Y90.060 E11.90805
G1 X137.819 Y89.814 F9000.000
G1 X128.623 Y97.618 F9000.000
G1 X128.623 Y106.118 E12.31688 F600.000
G1 X51.387 Y106.118 E16.03168
G1 X51.387 Y97.618 E16.44050
G1 X40.027 Y97.618 E16.98688
G1 X39.528 Y97.602 E17.01087
G1 X39.031 Y97.554 E17.03490
G1 X38.578 Y97.483 E17.05697
G1 X38.111 Y97.378 E17.07999
G1 X37.651 Y97.245 E17.10301
G1 X37.201 Y97.083 E17.12602
G1 X36.762 Y96.892 E17.14904
G1 X36.335 Y96.675 E17.17205
G1 X35.923 Y96.432 E17.19507
G1 X35.528 Y96.163 E17.21809
G1 X35.149 Y95.869 E17.24110
G1 X34.791 Y95.553 E17.26412
G1 X34.452 Y95.215 E17.28713
G1 X34.136 Y94.855 E17.31015
G1 X33.842 Y94.477 E17.33317
G1 X33.573 Y94.082 E17.35618
G1 X33.330 Y93.670 E17.37920
G1 X33.113 Y93.243 E17.40221
G1 X32.922 Y92.804 E17.42523
G1 X32.760 Y92.354 E17.44824
G1 X32.627 Y91.894 E17.47126
G1 X32.522 Y91.427 E17.49428
G1 X32.448 Y90.955 E17.51729
G1 X32.403 Y90.478 E17.54031
G1 X32.388 Y90.000 E17.56333
G1 X32.403 Y89.522 E17.58634
G1 X32.446 Y89.065 E17.60842
G1 X32.523 Y88.571 E17.63245
G1 X32.627 Y88.106 E17.65539
G1 X32.760 Y87.646 E17.67841
G1 X32.922 Y87.196 E17.70142
G1 X33.113 Y86.757 E17.72444
G1 X33.330 Y86.330 E17.74745
G1 X33.573 Y85.918 E17.77047
G1 X33.842 Y85.523 E17.79349
G1 X34.136 Y85.144 E17.81650
G1 X34.452 Y84.785 E17.83952
G1 X34.791 Y84.447 E17.86254
G1 X35.149 Y84.131 E17.88555
G1 X35.528 Y83.837 E17.90857
G1 X35.923 Y83.568 E17.93159
G1 X36.335 Y83.325 E17.95460
G1 X36.762 Y83.108 E17.97762
G1 X37.201 Y82.917 E18.00064
G1 X37.651 Y82.755 E18.02365
G1 X38.111 Y82.622 E18.04666
G1 X38.578 Y82.517 E18.06968
G1 X39.050 Y82.443 E18.09270
G1 X39.527 Y82.398 E18.11571
G1 X40.027 Y82.382 E18.13977
G1 X51.387 Y82.382 E18.68616
G1 X51.387 Y73.882 E19.09498
G1 X128.623 Y73.882 E22.80978
G1 X128.623 Y82.382 E23.21860
G1 X139.973 Y82.382 E23.76451
G1 X140.472 Y82.398 E23.78849
G1 X140.969 Y82.446 E23.81252
G1 X141.422 Y82.517 E23.83460
G1 X141.889 Y82.622 E23.85761
