; generated by Slic3r 1.2.9 on 2017-02-07 at 12:29:56

; external perimeters extrusion width = 0.40mm
; perimeters extrusion width = 0.56mm
; infill extrusion width = 0.38mm
; solid infill extrusion width = 0.56mm
; top infill extrusion width = 0.22mm

M106 S256; Turn on fan to 100% power
M104 S140; turn on extruder temperature at S value
M140 S60; turn on bed temperature at S value
G28; home all axes
M84; disable motors
G1 Z15 F15000; have Z move to 20mm at 15000 mm/min
M190 S55; turn on bed temperature at S value and wait
M140 S55; turn on bed temperature at S value (printing temperature)
M109 S200; turn on extruder temperature at S value and wait (printing temperature)
M104 S200; turn on extruder temperature at S value
G1 Z0 F12000; move Z back to home
G21 ; set units to millimeters
G90 ; use absolute coordinates
M82 ; use absolute distances for extrusion
G92 E0
M106 S255
;Layer change
G1 E-6.00000 F1800.00000
G92 E0
G1 Z0.300 F9000.000
G1 X63.425 Y72.692 F9000.000
G1 E6.00000 F1800.00000
G1 X65.700 Y71.929 E6.11948 F600.000
G1 X114.300 Y71.929 E8.53923
G1 X115.980 Y72.323 E8.62513
G1 X117.308 Y73.425 E8.71104 F600.000
G1 X118.071 Y75.700 E8.83052
G1 X118.071 Y104.300 E10.25449
G1 X117.677 Y105.980 E10.34039
G1 X116.575 Y107.308 E10.42630
G1 X114.300 Y108.071 E10.54578
G1 X65.700 Y108.071 E12.96553
G1 X64.020 Y107.677 E13.05143
G1 X62.692 Y106.575 E13.13734
G1 X61.929 Y104.300 E13.25682
G1 X61.929 Y75.700 E14.68079
G1 X62.323 Y74.020 E14.76669
G1 X63.387 Y72.738 E14.84961
G1 X63.735 Y72.970 F9000.000
G1 X63.799 Y72.898 E14.85440 F600.000
G1 X65.700 Y72.314 E14.95342
G1 X114.300 Y72.314 E17.37316
G1 X115.885 Y72.708 E17.45450
G1 X117.102 Y73.799 E17.53583 F600.000
G1 X117.686 Y75.700 E17.63485
G1 X117.686 Y104.300 E19.05881
G1 X117.292 Y105.885 E19.14014
G1 X116.201 Y107.102 E19.22148
G1 X114.300 Y107.686 E19.32049
G1 X65.700 Y107.686 E21.74024
G1 X64.115 Y107.292 E21.82157
G1 X62.898 Y106.201 E21.90290
G1 X62.314 Y104.300 E22.00192
G1 X62.314 Y75.700 E23.42589
G1 X62.708 Y74.115 E23.50722
G1 X63.695 Y73.015 E23.58077
G1 E17.58077 F1800.00000
G92 E0
G1 X106.706 Y100.831 F9000.000
G1 E6.00000 F1800.00000
G1 X106.403 Y100.951 E6.01624 F600.000
G1 X106.087 Y101.032 E6.03250
G1 X105.763 Y101.073 E6.04875
G1 X105.437 Y101.073 E6.06498
G1 X105.113 Y101.032 E6.08122
G1 X104.797 Y100.951 E6.09748
G1 X104.494 Y100.831 E6.11372
G1 X104.208 Y100.674 E6.12996
G1 X103.944 Y100.482 E6.14621
G1 X103.706 Y100.259 E6.16245
G1 X103.498 Y100.007 E6.17869
G1 X103.323 Y99.732 E6.19495
G1 X103.184 Y99.436 E6.21120
G1 X103.083 Y99.126 E6.22743
G1 X103.022 Y98.806 E6.24368
G1 X103.002 Y98.480 E6.25993
G1 X103.022 Y98.154 E6.27617
G1 X103.083 Y97.834 E6.29242
G1 X103.184 Y97.524 E6.30866
G1 X103.323 Y97.228 E6.32490
G1 X103.498 Y96.953 E6.34116
G1 X103.706 Y96.701 E6.35740
G1 X103.944 Y96.478 E6.37364
G1 X104.208 Y96.286 E6.38990
G1 X104.494 Y96.129 E6.40613
G1 X104.797 Y96.009 E6.42237
G1 X105.113 Y95.928 E6.43863
G1 X105.437 Y95.887 E6.45488
G1 X105.763 Y95.887 E6.47111 F600.000
G1 X106.087 Y95.928 E6.48736
G1 X106.403 Y96.009 E6.50362
G1 X106.706 Y96.129 E6.51986
G1 X106.992 Y96.286 E6.53609
G1 X107.256 Y96.478 E6.55234
G1 X107.494 Y96.701 E6.56858
G1 X107.702 Y96.953 E6.58483
G1 X107.877 Y97.228 E6.60109
G1 X108.016 Y97.524 E6.61733
G1 X108.117 Y97.834 E6.63356
G1 X108.178 Y98.154 E6.64981
G1 X108.198 Y98.480 E6.66606
G1 X108.178 Y98.806 E6.68231
G1 X108.117 Y99.126 E6.69856
G1 X108.016 Y99.436 E6.71479
G1 X107.877 Y99.732 E6.73104
G1 X107.702 Y100.007 E6.74730
G1 X107.494 Y100.259 E6.76354
G1 X107.256 Y100.482 E6.77978
G1 X106.992 Y100.674 E6.79603
G1 X106.759 Y100.802 E6.80928
G1 X106.542 Y100.481 F9000.000
G1 X106.284 Y100.584 E6.82311 F600.000
G1 X106.014 Y100.653 E6.83694
G1 X105.739 Y100.687 E6.85077
G1 X105.461 Y100.687 E6.86460
G1 X105.186 Y100.653 E6.87842
G1 X104.916 Y100.584 E6.89226
G1 X104.658 Y100.481 E6.90609
G1 X104.415 Y100.348 E6.91991
G1 X104.190 Y100.184 E6.93375
G1 X103.988 Y99.994 E6.94757
G1 X103.811 Y99.780 E6.96140
G1 X103.662 Y99.546 E6.97524
G1 X103.544 Y99.294 E6.98907
G1 X103.458 Y99.030 E7.00289
G1 X103.406 Y98.757 E7.01672
G1 X103.388 Y98.480 E7.03055
G1 X103.406 Y98.203 E7.04438
G1 X103.458 Y97.930 E7.05822
G1 X103.544 Y97.666 E7.07204
G1 X103.662 Y97.414 E7.08587
G1 X103.811 Y97.180 E7.09971
G1 X103.988 Y96.966 E7.11353
G1 X104.190 Y96.776 E7.12736
G1 X104.415 Y96.612 E7.14119
G1 X104.658 Y96.479 E7.15502
G1 X104.916 Y96.376 E7.16884
G1 X105.186 Y96.307 E7.18268
G1 X105.461 Y96.273 E7.19651
G1 X105.739 Y96.273 E7.21033 F600.000
G1 X106.014 Y96.307 E7.22416
G1 X106.284 Y96.376 E7.23800
G1 X106.542 Y96.479 E7.25183
G1 X106.785 Y96.612 E7.26565
G1 X107.010 Y96.776 E7.27948
G1 X107.212 Y96.966 E7.29331
G1 X107.389 Y97.180 E7.30714
G1 X107.538 Y97.415 E7.32098
G1 X107.656 Y97.666 E7.33480
G1 X107.742 Y97.930 E7.34863
G1 X107.794 Y98.203 E7.36246
G1 X107.812 Y98.480 E7.37629
G1 X107.794 Y98.757 E7.39012
G1 X107.742 Y99.030 E7.40395
G1 X107.656 Y99.294 E7.41778
G1 X107.538 Y99.545 E7.43160
G1 X107.389 Y99.780 E7.44544
G1 X107.212 Y99.994 E7.45927
G1 X107.010 Y100.184 E7.47310
G1 X106.785 Y100.348 E7.48693
G1 X106.594 Y100.452 E7.49777
G1 X106.377 Y100.132 F9000.000
G1 X106.164 Y100.216 E7.50918 F600.000
G1 X105.942 Y100.273 E7.52060
G1 X105.715 Y100.302 E7.53201
G1 X105.485 Y100.302 E7.54342
G1 X105.258 Y100.273 E7.55483
G1 X105.036 Y100.216 E7.56625
G1 X104.823 Y100.132 E7.57766
G1 X104.622 Y100.021 E7.58907
G1 X104.436 Y99.887 E7.60049
G1 X104.269 Y99.730 E7.61190
G1 X104.123 Y99.553 E7.62331
G1 X104.000 Y99.359 E7.63473
G1 X103.903 Y99.152 E7.64614
G1 X103.832 Y98.934 E7.65756
G1 X103.789 Y98.709 E7.66897
G1 X103.775 Y98.480 E7.68038
G1 X103.789 Y98.251 E7.69180
G1 X103.832 Y98.026 E7.70321
G1 X103.903 Y97.808 E7.71463
G1 X104.000 Y97.601 E7.72604
G1 X104.123 Y97.407 E7.73746
G1 X104.269 Y97.230 E7.74887
G1 X104.436 Y97.073 E7.76028
G1 X104.622 Y96.939 E7.77170
G1 X104.823 Y96.828 E7.78311
G1 X105.036 Y96.744 E7.79452
G1 X105.258 Y96.687 E7.80594
G1 X105.485 Y96.658 E7.81735
G1 X105.715 Y96.658 E7.82876 F600.000
G1 X105.942 Y96.687 E7.84017
G1 X106.164 Y96.744 E7.85159
G1 X106.377 Y96.828 E7.86300
G1 X106.578 Y96.939 E7.87441
G1 X106.764 Y97.073 E7.88583
G1 X106.931 Y97.230 E7.89724
G1 X107.077 Y97.407 E7.90865
G1 X107.200 Y97.601 E7.92007
G1 X107.297 Y97.808 E7.93148
G1 X107.368 Y98.026 E7.94290
G1 X107.411 Y98.251 E7.95431
G1 X107.425 Y98.480 E7.96573
G1 X107.411 Y98.709 E7.97714
G1 X107.368 Y98.934 E7.98855
G1 X107.297 Y99.152 E7.99997
G1 X107.200 Y99.359 E8.01138
G1 X107.077 Y99.553 E8.02280
G1 X106.931 Y99.730 E8.03421
G1 X106.764 Y99.887 E8.04562
G1 X106.430 Y100.103 E8.06542
G1 X106.358 Y100.360 F9000.000
G1 E2.06542 F1800.00000
G92 E0
G1 X105.719 Y91.987 F9000.000
G1 E6.00000 F1800.00000
G1 X105.181 Y91.954 E6.02684 F600.000
G1 X104.829 Y91.863 E6.04497
G1 X104.340 Y91.633 E6.07184
G1 X104.071 Y91.438 E6.08839
G1 X103.829 Y91.210 E6.10495
G1 X103.512 Y90.774 E6.13180
G1 X103.357 Y90.444 E6.14993
G1 X103.215 Y89.891 E6.17836
G1 X103.215 Y89.289 E6.20837
G1 X103.357 Y88.736 E6.23681
G1 X103.512 Y88.406 E6.25493
G1 X103.847 Y87.944 E6.28335
G1 X104.287 Y87.580 E6.31179
G1 X104.607 Y87.405 E6.32992
G1 X105.120 Y87.238 E6.35678
G1 X105.481 Y87.193 E6.37490 F600.000
G1 X106.019 Y87.226 E6.40174
G1 X106.371 Y87.317 E6.41987
G1 X106.860 Y87.547 E6.44674
G1 X107.129 Y87.742 E6.46329
G1 X107.371 Y87.970 E6.47985
G1 X107.688 Y88.406 E6.50670
G1 X107.843 Y88.736 E6.52483
G1 X107.985 Y89.289 E6.55326
G1 X107.985 Y89.891 E6.58327
G1 X107.843 Y90.444 E6.61171
G1 X107.688 Y90.774 E6.62983
G1 X107.353 Y91.236 E6.65825
G1 X106.913 Y91.600 E6.68669
G1 X106.593 Y91.775 E6.70482
G1 X106.080 Y91.942 E6.73168
G1 X105.779 Y91.980 E6.74681
G1 X105.707 Y91.600 F9000.000
G1 X105.242 Y91.571 E6.77003 F600.000
G1 X104.960 Y91.499 E6.78453
G1 X104.537 Y91.300 E6.80776
G1 X104.318 Y91.140 E6.82130
G1 X104.119 Y90.954 E6.83483
G1 X103.845 Y90.577 E6.85805
G1 X103.721 Y90.313 E6.87255
G1 X103.600 Y89.843 E6.89674
G1 X103.600 Y89.337 E6.92190
G1 X103.721 Y88.867 E6.94609
G1 X103.845 Y88.603 E6.96059
G1 X104.131 Y88.210 E6.98477
G1 X104.505 Y87.901 E7.00896
G1 X104.760 Y87.760 E7.02347
G1 X105.204 Y87.616 E7.04669
G1 X105.493 Y87.580 E7.06119 F600.000
G1 X105.958 Y87.609 E7.08440
G1 X106.240 Y87.681 E7.09890
G1 X106.662 Y87.880 E7.12213
G1 X106.882 Y88.040 E7.13567
G1 X107.081 Y88.226 E7.14921
G1 X107.355 Y88.603 E7.17243
G1 X107.479 Y88.867 E7.18693
G1 X107.600 Y89.337 E7.21112
G1 X107.600 Y89.843 E7.23628
G1 X107.479 Y90.313 E7.26047
G1 X107.355 Y90.577 E7.27497
G1 X107.069 Y90.970 E7.29915
G1 X106.695 Y91.279 E7.32334
G1 X106.440 Y91.420 E7.33784
G1 X105.996 Y91.564 E7.36107
G1 X105.767 Y91.593 E7.37258
G1 X105.695 Y91.213 F9000.000
G1 X105.302 Y91.188 E7.39216 F600.000
G1 X105.091 Y91.134 E7.40303
G1 X104.735 Y90.967 E7.42263
G1 X104.564 Y90.842 E7.43315
G1 X104.410 Y90.698 E7.44366
G1 X104.179 Y90.380 E7.46325
G1 X104.086 Y90.182 E7.47412
G1 X103.986 Y89.794 E7.49407
G1 X103.986 Y89.386 E7.51438
G1 X104.086 Y88.998 E7.53432
G1 X104.179 Y88.800 E7.54520
G1 X104.414 Y88.476 E7.56514
G1 X104.723 Y88.221 E7.58509
G1 X104.914 Y88.116 E7.59596
G1 X105.288 Y87.994 E7.61555
G1 X105.505 Y87.967 E7.62642 F600.000
G1 X105.898 Y87.992 E7.64601
G1 X106.109 Y88.046 E7.65688
G1 X106.465 Y88.213 E7.67648
G1 X106.636 Y88.338 E7.68699
G1 X106.790 Y88.482 E7.69751
G1 X107.021 Y88.800 E7.71710
G1 X107.114 Y88.998 E7.72797
G1 X107.214 Y89.386 E7.74792
G1 X107.214 Y89.794 E7.76822
G1 X107.114 Y90.182 E7.78817
G1 X107.021 Y90.380 E7.79904
G1 X106.786 Y90.704 E7.81899
G1 X106.477 Y90.959 E7.83894
G1 X106.286 Y91.064 E7.84981
G1 X105.912 Y91.186 E7.86940
G1 X105.755 Y91.206 E7.87728
G1 X105.498 Y91.554 F9000.000
G1 E1.87728 F1800.00000
G92 E0
G1 X105.695 Y83.293 F9000.000
G1 E6.00000 F1800.00000
G1 X105.437 Y83.293 E6.01285 F600.000
G1 X105.113 Y83.252 E6.02910
G1 X104.797 Y83.171 E6.04534
G1 X104.494 Y83.051 E6.06159
G1 X104.208 Y82.894 E6.07783
G1 X103.944 Y82.702 E6.09408
G1 X103.706 Y82.479 E6.11033
G1 X103.498 Y82.227 E6.12656
G1 X103.323 Y81.952 E6.14282
G1 X103.184 Y81.656 E6.15906
G1 X103.083 Y81.346 E6.17530
G1 X103.022 Y81.026 E6.19155
G1 X103.002 Y80.700 E6.20780
G1 X103.022 Y80.374 E6.22405
G1 X103.083 Y80.054 E6.24029
G1 X103.184 Y79.744 E6.25653
G1 X103.323 Y79.448 E6.27278
G1 X103.498 Y79.173 E6.28903
G1 X103.706 Y78.921 E6.30527
G1 X103.944 Y78.698 E6.32151
G1 X104.208 Y78.506 E6.33777
G1 X104.494 Y78.349 E6.35401
G1 X104.797 Y78.229 E6.37025
G1 X105.113 Y78.148 E6.38650
G1 X105.437 Y78.107 E6.40274
G1 X105.763 Y78.107 E6.41899 F600.000
G1 X106.087 Y78.148 E6.43523
G1 X106.403 Y78.229 E6.45148
G1 X106.706 Y78.349 E6.46772
G1 X106.992 Y78.506 E6.48396
G1 X107.256 Y78.698 E6.50022
G1 X107.494 Y78.921 E6.51646
G1 X107.702 Y79.173 E6.53270
G1 X107.877 Y79.448 E6.54895
G1 X108.016 Y79.744 E6.56520
G1 X108.117 Y80.054 E6.58143
G1 X108.178 Y80.374 E6.59768
G1 X108.198 Y80.700 E6.61393
G1 X108.178 Y81.026 E6.63018
G1 X108.117 Y81.346 E6.64643
G1 X108.016 Y81.656 E6.66266
G1 X107.877 Y81.952 E6.67891
G1 X107.702 Y82.227 E6.69516
G1 X107.494 Y82.479 E6.71140
G1 X107.256 Y82.702 E6.72764
G1 X106.992 Y82.894 E6.74390
G1 X106.706 Y83.051 E6.76014
G1 X106.403 Y83.171 E6.77638
G1 X106.087 Y83.252 E6.79263
G1 X105.755 Y83.293 E6.80928
G1 X105.695 Y82.907 F9000.000
G1 X105.461 Y82.907 E6.82092 F600.000
G1 X105.186 Y82.873 E6.83475
G1 X104.917 Y82.804 E6.84858
G1 X104.658 Y82.701 E6.86241
G1 X104.415 Y82.568 E6.87624
G1 X104.190 Y82.404 E6.89007
G1 X103.988 Y82.214 E6.90390
G1 X103.811 Y82.000 E6.91772
G1 X103.662 Y81.766 E6.93156
G1 X103.544 Y81.514 E6.94539
G1 X103.458 Y81.250 E6.95921
G1 X103.406 Y80.977 E6.97304
G1 X103.388 Y80.700 E6.98688
G1 X103.406 Y80.423 E7.00071
G1 X103.458 Y80.150 E7.01454
G1 X103.544 Y79.886 E7.02836
G1 X103.662 Y79.634 E7.04219
G1 X103.811 Y79.400 E7.05603
G1 X103.988 Y79.186 E7.06985
G1 X104.190 Y78.996 E7.08368
G1 X104.415 Y78.832 E7.09752
G1 X104.658 Y78.699 E7.11134
G1 X104.917 Y78.596 E7.12517
G1 X105.186 Y78.527 E7.13900
G1 X105.461 Y78.493 E7.15283
G1 X105.739 Y78.493 E7.16666 F600.000
G1 X106.014 Y78.527 E7.18049
G1 X106.283 Y78.596 E7.19432
G1 X106.542 Y78.699 E7.20815
G1 X106.785 Y78.832 E7.22197
G1 X107.010 Y78.996 E7.23581
G1 X107.212 Y79.186 E7.24964
G1 X107.389 Y79.400 E7.26346
G1 X107.538 Y79.634 E7.27730
G1 X107.656 Y79.886 E7.29113
G1 X107.742 Y80.150 E7.30495
G1 X107.794 Y80.423 E7.31878
G1 X107.812 Y80.700 E7.33261
G1 X107.794 Y80.977 E7.34645
G1 X107.742 Y81.250 E7.36028
G1 X107.656 Y81.514 E7.37410
G1 X107.538 Y81.766 E7.38793
G1 X107.389 Y82.000 E7.40177
G1 X107.212 Y82.214 E7.41559
G1 X107.010 Y82.404 E7.42942
G1 X106.785 Y82.568 E7.44325
G1 X106.542 Y82.701 E7.45708
G1 X106.283 Y82.804 E7.47091
G1 X106.014 Y82.873 E7.48474
G1 X105.755 Y82.905 E7.49777
G1 X105.695 Y82.522 F9000.000
G1 X105.485 Y82.522 E7.50820 F600.000
G1 X105.258 Y82.493 E7.51962
G1 X105.036 Y82.436 E7.53103
G1 X104.823 Y82.352 E7.54244
G1 X104.622 Y82.241 E7.55385
G1 X104.436 Y82.107 E7.56527
G1 X104.269 Y81.950 E7.57668
G1 X104.123 Y81.773 E7.58809
G1 X104.000 Y81.579 E7.59951
G1 X103.903 Y81.372 E7.61092
G1 X103.832 Y81.154 E7.62234
G1 X103.789 Y80.929 E7.63375
G1 X103.775 Y80.700 E7.64517
G1 X103.789 Y80.471 E7.65658
G1 X103.832 Y80.246 E7.66799
G1 X103.903 Y80.028 E7.67941
G1 X104.000 Y79.821 E7.69082
G1 X104.123 Y79.627 E7.70224
G1 X104.269 Y79.450 E7.71365
G1 X104.436 Y79.293 E7.72506
G1 X104.622 Y79.159 E7.73648
G1 X104.823 Y79.048 E7.74789
G1 X105.036 Y78.964 E7.75930
G1 X105.258 Y78.907 E7.77072
G1 X105.485 Y78.878 E7.78213
G1 X105.715 Y78.878 E7.79354 F600.000
G1 X105.942 Y78.907 E7.80496
G1 X106.164 Y78.964 E7.81637
G1 X106.377 Y79.048 E7.82778
G1 X106.578 Y79.159 E7.83919
G1 X106.764 Y79.293 E7.85061
G1 X106.931 Y79.450 E7.86202
G1 X107.077 Y79.627 E7.87344
G1 X107.200 Y79.821 E7.88485
G1 X107.297 Y80.028 E7.89627
G1 X107.368 Y80.246 E7.90768
G1 X107.411 Y80.471 E7.91909
G1 X107.425 Y80.700 E7.93051
G1 X107.411 Y80.929 E7.94192
G1 X107.368 Y81.154 E7.95334
G1 X107.297 Y81.372 E7.96475
G1 X107.200 Y81.579 E7.97616
G1 X107.077 Y81.773 E7.98758
G1 X106.931 Y81.950 E7.99899
G1 X106.764 Y82.107 E8.01040
G1 X106.578 Y82.241 E8.02182
G1 X106.377 Y82.352 E8.03323
G1 X106.164 Y82.436 E8.04464
G1 X105.942 Y82.493 E8.05606
G1 X105.755 Y82.517 E8.06546
G1 X105.597 Y82.707 F9000.000
G1 X98.246 Y82.522 F9000.000
G1 X98.246 Y96.931 E8.78289 F600.000
G1 X98.217 Y97.401 E8.80633
G1 X98.123 Y97.894 E8.83133
G1 X97.967 Y98.372 E8.85633
G1 X97.754 Y98.826 E8.88133
G1 X97.485 Y99.250 E8.90633
G1 X97.165 Y99.637 E8.93133
G1 X96.799 Y99.981 E8.95632
G1 X96.392 Y100.276 E8.98132
G1 X95.952 Y100.518 E9.00632
G1 X95.486 Y100.703 E9.03132
G1 X94.999 Y100.827 E9.05632
G1 X94.501 Y100.890 E9.08130
G1 X85.004 Y100.897 E9.55418
G1 X85.004 Y100.829 E9.55755
G1 X84.513 Y100.702 E9.58277
G1 X84.048 Y100.518 E9.60772
G1 X83.608 Y100.276 E9.63272
G1 X83.201 Y99.981 E9.65772
G1 X82.835 Y99.637 E9.68271
G1 X82.515 Y99.250 E9.70771
G1 X82.246 Y98.826 E9.73271
G1 X82.033 Y98.372 E9.75771
G1 X81.877 Y97.894 E9.78271
G1 X81.783 Y97.401 E9.80771
G1 X81.754 Y96.931 E9.83115
G1 X81.754 Y81.669 E10.59106
G1 X81.783 Y81.199 E10.61449
G1 X81.877 Y80.706 E10.63949
G1 X82.033 Y80.228 E10.66449
G1 X82.246 Y79.774 E10.68949
G1 X82.515 Y79.350 E10.71449
G1 X82.835 Y78.963 E10.73949
G1 X83.201 Y78.619 E10.76449
G1 X83.608 Y78.324 E10.78949
G1 X84.048 Y78.082 E10.81449
G1 X84.514 Y77.897 E10.83949
G1 X85.004 Y77.772 E10.86464
G1 X85.004 Y77.704 E10.86803
G1 X94.996 Y77.704 E11.36554 F600.000
G1 X94.996 Y77.772 E11.36893
G1 X95.486 Y77.897 E11.39408
G1 X95.952 Y78.082 E11.41908
G1 X96.392 Y78.324 E11.44408
G1 X96.799 Y78.619 E11.46908
G1 X97.165 Y78.963 E11.49408
G1 X97.485 Y79.350 E11.51908
G1 X97.754 Y79.774 E11.54408
G1 X97.970 Y80.233 E11.56936
G1 X98.131 Y80.748 E11.59622
G1 X98.217 Y81.199 E11.61906
G1 X98.246 Y81.669 E11.64250
G1 X98.246 Y82.462 E11.68199
G1 X97.861 Y82.522 F9000.000
G1 X97.861 Y96.919 E12.39882 F600.000
G1 X97.833 Y97.353 E12.42044
G1 X97.748 Y97.798 E12.44303
G1 X97.608 Y98.230 E12.46561
G1 X97.415 Y98.640 E12.48820
