; generated by Slic3r 1.2.9 on 2017-02-16 at 08:15:47

; external perimeters extrusion width = 0.40mm
; perimeters extrusion width = 0.56mm
; infill extrusion width = 0.38mm
; solid infill extrusion width = 0.56mm
; top infill extrusion width = 0.22mm

M106 S256; Turn on fan to 100% power
M104 S140; turn on extruder temperature at S value
M140 S60; turn on bed temperature at S value
G28; home all axes
M84; disable motors
G1 Z15 F15000; have Z move to 20mm at 15000 mm/min
M190 S55; turn on bed temperature at S value and wait
M140 S55; turn on bed temperature at S value (printing temperature)
M109 S205; turn on extruder temperature at S value and wait (printing temperature)
M104 S205; turn on extruder temperature at S value
G1 Z0 F12000; move Z back to home
G21 ; set units to millimeters
G90 ; use absolute coordinates
M82 ; use absolute distances for extrusion
G92 E0
M106 S255
;Layer change
G1 E-6.00000 F1800.00000
G92 E0
G1 Z0.300 F9000.000
G1 X34.540 Y40.312 F9000.000
G1 E6.00000 F1800.00000
G1 X35.534 Y39.541 E6.06264 F600.000
G1 X36.384 Y38.972 E6.11357
G1 X37.267 Y38.458 E6.16446
G1 X37.967 Y38.102 E6.20355
G1 X39.122 Y37.602 E6.26618
G1 X40.089 Y37.262 E6.31722
G1 X41.070 Y36.985 E6.36799
G1 X41.837 Y36.813 E6.40711
G1 X42.845 Y36.646 E6.45801
G1 X44.097 Y36.528 E6.52061
G1 X45.001 Y36.501 E6.56567
G1 X135.079 Y36.502 E11.05053
G1 X135.786 Y36.522 E11.08576 F600.000
G1 X136.569 Y36.578 E11.12486
G1 X137.817 Y36.748 E11.18754
G1 X138.820 Y36.957 E11.23855
G1 X139.803 Y37.227 E11.28929
G1 X140.548 Y37.477 E11.32842
G1 X141.713 Y37.951 E11.39106
G1 X142.633 Y38.404 E11.44213
G1 X143.518 Y38.910 E11.49287
G1 X144.177 Y39.337 E11.53197
G1 X145.188 Y40.086 E11.59464
G1 X145.789 Y40.593 E11.63374
G1 X146.532 Y41.294 E11.68463
G1 X147.230 Y42.041 E11.73553
G1 X148.024 Y43.019 E11.79824
G1 X148.609 Y43.853 E11.84896
G1 X149.025 Y44.523 E11.88822
G1 X149.619 Y45.629 E11.95076
G1 X149.948 Y46.344 E11.98993
G1 X150.322 Y47.296 E12.04087
G1 X150.636 Y48.271 E12.09185
G1 X150.936 Y49.490 E12.15436
G1 X151.111 Y50.498 E12.20530
G1 X151.222 Y51.513 E12.25615
G1 X151.270 Y52.533 E12.30696
G1 X151.261 Y53.410 E12.35066
G1 X149.757 Y98.401 E14.59194
G1 X149.667 Y99.405 E14.64213
G1 X149.582 Y99.964 E14.67028
G1 X149.421 Y100.744 E14.70994
G1 X149.209 Y101.521 E14.75005
G1 X148.864 Y102.501 E14.80177
G1 X148.543 Y103.236 E14.84171
G1 X148.178 Y103.950 E14.88163
G1 X147.768 Y104.640 E14.92158
G1 X147.453 Y105.109 E14.94973
G1 X146.985 Y105.734 E14.98861
G1 X146.451 Y106.362 E15.02963
G1 X145.893 Y106.938 E15.06959
G1 X145.300 Y107.478 E15.10949
G1 X144.674 Y107.980 E15.14944
G1 X99.326 Y140.564 E17.92968
G1 X98.315 Y141.216 E17.98956
G1 X97.422 Y141.710 E18.04040
G1 X96.499 Y142.146 E18.09122
G1 X95.770 Y142.443 E18.13043
G1 X94.803 Y142.776 E18.18135
G1 X93.587 Y143.100 E18.24401
G1 X92.583 Y143.294 E18.29489
G1 X91.572 Y143.424 E18.34565
G1 X90.550 Y143.491 E18.39666
G1 X89.525 Y143.493 E18.44770
G1 X88.512 Y143.432 E18.49821
G1 X87.728 Y143.341 E18.53754
G1 X86.493 Y143.118 E18.59998
G1 X85.498 Y142.865 E18.65112
G1 X84.525 Y142.551 E18.70202
G1 X83.575 Y142.177 E18.75287
G1 X82.860 Y141.849 E18.79201
G1 X81.752 Y141.254 E18.85462
G1 X80.887 Y140.707 E18.90559
G1 X80.168 Y140.194 E18.94954
G1 X37.329 Y107.980 E21.61825
G1 X36.703 Y107.478 E21.65819
G1 X36.281 Y107.101 E21.68636
G1 X35.713 Y106.536 E21.72627
G1 X35.181 Y105.935 E21.76623
G1 X34.550 Y105.110 E21.81796
G1 X34.110 Y104.439 E21.85791
G1 X33.825 Y103.950 E21.88606
G1 X33.360 Y103.021 E21.93779
G1 X33.053 Y102.280 E21.97772
G1 X32.794 Y101.521 E22.01767
G1 X32.640 Y100.977 E22.04582
G1 X32.463 Y100.194 E22.08576
G1 X32.308 Y99.167 E22.13749
G1 X28.766 Y53.851 E24.40061
G1 X28.732 Y52.654 E24.46023
G1 X28.757 Y51.869 E24.49933
G1 X28.846 Y50.851 E24.55021
G1 X28.998 Y49.840 E24.60108
G1 X29.213 Y48.844 E24.65182
G1 X29.565 Y47.632 E24.71466
G1 X29.831 Y46.893 E24.75381
G1 X30.231 Y45.951 E24.80471
G1 X30.687 Y45.038 E24.85554
G1 X31.199 Y44.158 E24.90625
G1 X31.909 Y43.114 E24.96910
G1 X32.390 Y42.493 E25.00820
G1 X33.061 Y41.722 E25.05909
G1 X33.778 Y40.994 E25.10998
G1 X34.495 Y40.352 E25.15788
G1 X34.795 Y40.601 F9000.000
G1 X35.751 Y39.860 E25.21811 F600.000
G1 X36.580 Y39.304 E25.26783
G1 X37.256 Y38.904 E25.30693
G1 X38.142 Y38.446 E25.35661
G1 X39.252 Y37.965 E25.41684
G1 X40.196 Y37.632 E25.46667
G1 X41.154 Y37.361 E25.51623
G1 X41.921 Y37.190 E25.55534
G1 X42.905 Y37.027 E25.60503
G1 X44.109 Y36.913 E25.66524
G1 X45.001 Y36.887 E25.70968
G1 X135.071 Y36.888 E30.19415
G1 X135.758 Y36.906 E30.22838 F600.000
G1 X136.542 Y36.963 E30.26749
G1 X137.741 Y37.126 E30.32775
G1 X138.720 Y37.330 E30.37756
G1 X139.680 Y37.593 E30.42710
G1 X140.425 Y37.843 E30.46622
G1 X141.545 Y38.299 E30.52645
G1 X142.444 Y38.740 E30.57632
G1 X143.308 Y39.233 E30.62585
G1 X143.967 Y39.660 E30.66495
G1 X144.940 Y40.381 E30.72521
G1 X145.540 Y40.887 E30.76431
G1 X146.265 Y41.573 E30.81399
G1 X146.947 Y42.302 E30.86369
G1 X147.709 Y43.243 E30.92398
G1 X148.281 Y44.057 E30.97351
G1 X148.698 Y44.726 E31.01276
G1 X149.269 Y45.790 E31.07290
G1 X149.597 Y46.505 E31.11206
G1 X149.962 Y47.435 E31.16179
G1 X150.268 Y48.387 E31.21156
G1 X150.557 Y49.559 E31.27167
G1 X150.728 Y50.543 E31.32140
G1 X150.837 Y51.534 E31.37105
G1 X150.884 Y52.529 E31.42066
G1 X150.875 Y53.398 E31.46389
G1 X149.371 Y98.388 E33.70517
G1 X149.286 Y99.347 E33.75311
G1 X149.163 Y100.110 E33.79158
G1 X149.044 Y100.663 E33.81974
G1 X148.838 Y101.416 E33.85862
G1 X148.509 Y102.350 E33.90794
G1 X148.199 Y103.064 E33.94667
G1 X147.844 Y103.756 E33.98539
G1 X147.447 Y104.425 E34.02413
G1 X147.133 Y104.895 E34.05228
G1 X146.679 Y105.500 E34.08995
G1 X146.160 Y106.109 E34.12977
G1 X145.618 Y106.668 E34.16852
G1 X145.043 Y107.191 E34.20722
G1 X144.436 Y107.677 E34.24596
G1 X99.101 Y140.251 E37.02537
G1 X98.126 Y140.880 E37.08312
G1 X97.254 Y141.362 E37.13276
G1 X96.354 Y141.789 E37.18238
G1 X95.625 Y142.086 E37.22158
G1 X94.680 Y142.410 E37.27129
G1 X93.511 Y142.722 E37.33154
G1 X92.531 Y142.912 E37.38121
G1 X91.544 Y143.040 E37.43078
G1 X90.546 Y143.105 E37.48057
G1 X89.545 Y143.108 E37.53041
G1 X88.556 Y143.049 E37.57974
G1 X87.772 Y142.958 E37.61904
G1 X86.585 Y142.743 E37.67910
G1 X85.614 Y142.497 E37.72901
G1 X84.663 Y142.191 E37.77870
G1 X83.735 Y141.827 E37.82834
G1 X83.021 Y141.499 E37.86748
G1 X81.956 Y140.926 E37.92769
G1 X81.110 Y140.393 E37.97744
G1 X80.400 Y139.886 E38.02090
G1 X37.567 Y107.677 E40.68918
G1 X36.960 Y107.191 E40.72792
G1 X36.538 Y106.814 E40.75608
G1 X35.843 Y106.109 E40.80539
G1 X35.337 Y105.517 E40.84413
G1 X34.870 Y104.895 E40.88286
G1 X34.443 Y104.245 E40.92161
G1 X34.158 Y103.756 E40.94976
G1 X33.715 Y102.870 E40.99908
G1 X33.417 Y102.152 E41.03780
G1 X33.165 Y101.416 E41.07654
G1 X33.011 Y100.872 E41.10469
G1 X32.840 Y100.113 E41.14343
G1 X32.692 Y99.133 E41.19275
G1 X29.151 Y53.821 E43.45569
G1 X29.118 Y52.666 E43.51321
G1 X29.142 Y51.881 E43.55231
G1 X29.230 Y50.887 E43.60198
G1 X29.379 Y49.901 E43.65165
G1 X29.589 Y48.929 E43.70117
G1 X29.928 Y47.763 E43.76161
G1 X30.194 Y47.023 E43.80075
G1 X30.584 Y46.105 E43.85045
G1 X31.031 Y45.214 E43.90008
G1 X31.531 Y44.354 E43.94957
G1 X32.214 Y43.350 E44.01002
G1 X32.830 Y42.566 E44.05971
G1 X33.350 Y41.977 E44.09881
G1 X34.051 Y41.266 E44.14849
G1 X34.750 Y40.641 E44.19519
G1 E38.19519 F1800.00000
G92 E0
G1 X47.054 Y96.099 F9000.000
G1 E6.00000 F1800.00000
G1 X47.256 Y96.382 E6.01733 F600.000
G1 X47.473 Y96.814 E6.04139
G1 X47.609 Y97.294 E6.06623
G1 X47.652 Y97.791 E6.09107
G1 X47.602 Y98.287 E6.11592
G1 X47.459 Y98.765 E6.14076
G1 X47.237 Y99.194 E6.16481
G1 X47.030 Y99.474 E6.18213
G1 X46.794 Y99.723 E6.19924
G1 X46.407 Y100.020 E6.22351
G1 X45.960 Y100.244 E6.24839
G1 X45.480 Y100.380 E6.27322
G1 X44.983 Y100.423 E6.29806
G1 X44.487 Y100.373 E6.32290
G1 X44.024 Y100.235 E6.34696
G1 X43.709 Y100.084 E6.36430
G1 X43.417 Y99.896 E6.38164
G1 X43.057 Y99.573 E6.40570
G1 X42.754 Y99.177 E6.43054
G1 X42.530 Y98.731 E6.45538
G1 X42.394 Y98.251 E6.48021
G1 X42.351 Y97.754 E6.50506
G1 X42.401 Y97.258 E6.52990
G1 X42.544 Y96.779 E6.55474
G1 X42.773 Y96.337 E6.57958
G1 X43.082 Y95.944 E6.60442
G1 X43.459 Y95.617 E6.62926
G1 X43.890 Y95.366 E6.65409
G1 X44.345 Y95.206 E6.67815
G1 X44.688 Y95.143 E6.69547
G1 X45.031 Y95.123 E6.71258 F600.000
G1 X45.516 Y95.172 E6.73685
G1 X45.995 Y95.315 E6.76173
G1 X46.437 Y95.544 E6.78657
G1 X46.817 Y95.843 E6.81062
G1 X47.013 Y96.055 E6.82498
G1 X46.754 Y96.343 F9000.000
G1 X46.925 Y96.582 E6.83959 F600.000
G1 X47.112 Y96.954 E6.86033
G1 X47.228 Y97.364 E6.88153
G1 X47.265 Y97.788 E6.90275
G1 X47.222 Y98.212 E6.92396
G1 X47.100 Y98.620 E6.94517
G1 X46.908 Y98.990 E6.96589
G1 X46.734 Y99.226 E6.98051
G1 X46.535 Y99.436 E6.99491
G1 X46.201 Y99.692 E7.01585
G1 X45.820 Y99.883 E7.03708
G1 X45.410 Y99.999 E7.05828
G1 X44.986 Y100.036 E7.07950
G1 X44.562 Y99.993 E7.10071
G1 X44.163 Y99.874 E7.12144
G1 X43.898 Y99.747 E7.13606
G1 X43.651 Y99.588 E7.15068
G1 X43.341 Y99.310 E7.17141
G1 X43.082 Y98.972 E7.19262
G1 X42.891 Y98.591 E7.21383
G1 X42.775 Y98.181 E7.23504
G1 X42.738 Y97.757 E7.25625
G1 X42.781 Y97.333 E7.27746
G1 X42.903 Y96.925 E7.29867
G1 X43.099 Y96.546 E7.31988
G1 X43.362 Y96.212 E7.34109
G1 X43.684 Y95.932 E7.36230
G1 X44.052 Y95.718 E7.38351
G1 X44.445 Y95.580 E7.40424
G1 X44.733 Y95.527 E7.41885
G1 X45.022 Y95.510 E7.43326 F600.000
G1 X45.441 Y95.552 E7.45419
G1 X45.849 Y95.674 E7.47543
G1 X46.228 Y95.870 E7.49664
G1 X46.555 Y96.127 E7.51736
G1 X46.714 Y96.299 E7.52900
G1 X46.455 Y96.587 F9000.000
G1 X46.594 Y96.781 E7.54090 F600.000
G1 X46.751 Y97.094 E7.55830
G1 X46.847 Y97.434 E7.57588
G1 X46.877 Y97.786 E7.59346
G1 X46.842 Y98.137 E7.61104
G1 X46.741 Y98.475 E7.62862
G1 X46.580 Y98.786 E7.64603
G1 X46.438 Y98.978 E7.65793
G1 X46.276 Y99.148 E7.66963
G1 X45.996 Y99.363 E7.68723
G1 X45.680 Y99.521 E7.70481
G1 X45.340 Y99.618 E7.72239
G1 X44.988 Y99.648 E7.73998
G1 X44.637 Y99.613 E7.75756
G1 X44.302 Y99.513 E7.77496
G1 X44.087 Y99.410 E7.78686
G1 X43.886 Y99.280 E7.79876
G1 X43.625 Y99.047 E7.81617
G1 X43.411 Y98.767 E7.83375
G1 X43.252 Y98.451 E7.85133
G1 X43.156 Y98.111 E7.86891
G1 X43.126 Y97.759 E7.88649
G1 X43.161 Y97.408 E7.90407
G1 X43.262 Y97.070 E7.92165
G1 X43.425 Y96.756 E7.93923
G1 X43.643 Y96.479 E7.95681
G1 X43.909 Y96.247 E7.97439
G1 X44.215 Y96.069 E7.99197
G1 X44.544 Y95.953 E8.00937
G1 X44.779 Y95.910 E8.02127
G1 X45.014 Y95.897 E8.03297 F600.000
G1 X45.366 Y95.932 E8.05057
G1 X45.704 Y96.033 E8.06816
G1 X46.018 Y96.196 E8.08575
G1 X46.292 Y96.412 E8.10315
G1 X46.414 Y96.543 E8.11206
G1 X46.692 Y96.554 F9000.000
G1 X134.351 Y97.791 F9000.000
G1 X134.394 Y97.294 E8.13691 F600.000
G1 X134.530 Y96.814 E8.16174
G1 X134.754 Y96.368 E8.18658
G1 X135.057 Y95.971 E8.21142
G1 X135.429 Y95.639 E8.23627
G1 X135.856 Y95.382 E8.26110
G1 X136.310 Y95.215 E8.28516
G1 X136.651 Y95.148 E8.30249
G1 X136.994 Y95.123 E8.31959 F600.000
G1 X137.479 Y95.165 E8.34386
G1 X137.960 Y95.301 E8.36873
G1 X138.406 Y95.524 E8.39357
G1 X138.803 Y95.828 E8.41845
G1 X139.127 Y96.192 E8.44272
G1 X139.313 Y96.481 E8.45982
G1 X139.464 Y96.794 E8.47715
G1 X139.602 Y97.258 E8.50120
G1 X139.652 Y97.754 E8.52605
G1 X139.609 Y98.251 E8.55089
G1 X139.473 Y98.731 E8.57573
G1 X139.249 Y99.178 E8.60060
G1 X138.953 Y99.564 E8.62487
G1 X138.703 Y99.801 E8.64199
G1 X138.423 Y100.008 E8.65930
G1 X137.995 Y100.230 E8.68335
G1 X137.516 Y100.373 E8.70820
G1 X137.020 Y100.423 E8.73304
G1 X136.523 Y100.380 E8.75788
G1 X136.043 Y100.244 E8.78272
G1 X135.597 Y100.020 E8.80755
G1 X135.200 Y99.717 E8.83244
G1 X134.876 Y99.353 E8.85670
G1 X134.690 Y99.064 E8.87380
G1 X134.539 Y98.750 E8.89113
G1 X134.401 Y98.287 E8.91519
G1 X134.357 Y97.851 E8.93704
G1 X134.738 Y97.788 F9000.000
G1 X134.775 Y97.364 E8.95826 F600.000
G1 X134.891 Y96.954 E8.97946
G1 X135.082 Y96.573 E9.00067
G1 X135.341 Y96.235 E9.02188
G1 X135.659 Y95.951 E9.04310
G1 X136.024 Y95.731 E9.06430
G1 X136.414 Y95.587 E9.08503
G1 X136.702 Y95.531 E9.09965
G1 X136.991 Y95.510 E9.11405 F600.000
G1 X137.410 Y95.546 E9.13498
G1 X137.820 Y95.662 E9.15621
G1 X138.201 Y95.853 E9.17742
G1 X138.540 Y96.112 E9.19866
G1 X138.819 Y96.426 E9.21959
G1 X138.976 Y96.669 E9.23399
G1 X139.103 Y96.934 E9.24860
G1 X139.222 Y97.333 E9.26933
G1 X139.265 Y97.757 E9.29055
G1 X139.228 Y98.181 E9.31176
G1 X139.112 Y98.591 E9.33297
G1 X138.921 Y98.972 E9.35420
G1 X138.665 Y99.306 E9.37513
G1 X138.455 Y99.505 E9.38954
G1 X138.219 Y99.679 E9.40415
G1 X137.849 Y99.871 E9.42487
G1 X137.441 Y99.993 E9.44609
G1 X137.017 Y100.036 E9.46730
G1 X136.593 Y99.999 E9.48851
G1 X136.183 Y99.883 E9.50972
G1 X135.802 Y99.692 E9.53093
G1 X135.463 Y99.433 E9.55216
G1 X135.184 Y99.119 E9.57310
G1 X135.027 Y98.876 E9.58749
G1 X134.900 Y98.611 E9.60211
G1 X134.781 Y98.212 E9.62284
G1 X134.744 Y97.848 E9.64106
G1 X135.126 Y97.786 F9000.000
G1 X135.156 Y97.434 E9.65865 F600.000
G1 X135.252 Y97.094 E9.67623
G1 X135.411 Y96.778 E9.69380
G1 X135.625 Y96.498 E9.71138
G1 X135.888 Y96.262 E9.72897
G1 X136.191 Y96.081 E9.74655
G1 X136.519 Y95.960 E9.76395
G1 X136.753 Y95.913 E9.77585
G1 X136.988 Y95.897 E9.78755 F600.000
G1 X137.340 Y95.927 E9.80515
G1 X137.680 Y96.023 E9.82274
G1 X137.996 Y96.181 E9.84032
G1 X138.276 Y96.396 E9.85791
G1 X138.512 Y96.660 E9.87551
G1 X138.639 Y96.858 E9.88720
G1 X138.742 Y97.073 E9.89911
G1 X138.842 Y97.408 E9.91651
G1 X138.878 Y97.759 E9.93409
G1 X138.847 Y98.111 E9.95167
G1 X138.750 Y98.451 E9.96925
G1 X138.592 Y98.767 E9.98684
G1 X138.377 Y99.047 E10.00444
G1 X138.207 Y99.209 E10.01614
G1 X138.015 Y99.351 E10.02804
G1 X137.704 Y99.512 E10.04544
G1 X137.366 Y99.613 E10.06302
G1 X137.015 Y99.648 E10.08061
G1 X136.663 Y99.618 E10.09819
G1 X136.323 Y99.521 E10.11577
G1 X136.007 Y99.363 E10.13334
G1 X135.727 Y99.149 E10.15093
G1 X135.492 Y98.885 E10.16854
G1 X135.364 Y98.687 E10.18023
G1 X135.261 Y98.472 E10.19213
G1 X135.161 Y98.137 E10.20954
G1 X135.132 Y97.845 E10.22413
G1 X134.824 Y97.602 F9000.000
G1 X121.425 Y97.477 F9000.000
G1 X99.574 Y133.610 E12.32655 F600.000
G1 X99.158 Y134.194 E12.36223
G1 X98.702 Y134.755 E12.39821
G1 X98.213 Y135.286 E12.43419
G1 X97.691 Y135.786 E12.47017
G1 X97.138 Y136.252 E12.50615
G1 X96.558 Y136.682 E12.54213
G1 X95.951 Y137.075 E12.57811
G1 X95.322 Y137.430 E12.61409
G1 X94.671 Y137.744 E12.65007
G1 X94.001 Y138.016 E12.68605
G1 X93.316 Y138.246 E12.72203
G1 X92.618 Y138.432 E12.75801
G1 X91.909 Y138.574 E12.79399
G1 X91.193 Y138.672 E12.82997
G1 X90.473 Y138.724 E12.86594
G1 X89.747 Y138.731 E12.90211
G1 X89.028 Y138.692 E12.93791
G1 X88.311 Y138.609 E12.97389
G1 X87.600 Y138.480 E13.00987
G1 X86.898 Y138.307 E13.04585
G1 X86.208 Y138.090 E13.08183
G1 X85.534 Y137.831 E13.11781
G1 X84.877 Y137.529 E13.15379
G1 X84.241 Y137.187 E13.18977
G1 X83.627 Y136.806 E13.22575
G1 X83.038 Y136.387 E13.26173
G1 X82.477 Y135.932 E13.29771
G1 X81.946 Y135.442 E13.33369
G1 X81.446 Y134.920 E13.36968
G1 X80.980 Y134.367 E13.40565
G1 X80.550 Y133.787 E13.44163
G1 X80.148 Y133.167 E13.47839
G1 X59.126 Y98.384 E15.50193
G1 X49.256 Y104.552 E16.08140
G1 X48.808 Y104.812 E16.10721
G1 X48.358 Y105.038 E16.13225
G1 X47.896 Y105.234 E16.15728
G1 X47.421 Y105.401 E16.18231
G1 X46.938 Y105.538 E16.20734
G1 X46.446 Y105.644 E16.23238
G1 X45.949 Y105.719 E16.25741
G1 X45.448 Y105.763 E16.28244
G1 X44.946 Y105.776 E16.30748
G1 X44.443 Y105.756 E16.33251
G1 X43.943 Y105.705 E16.35754
G1 X43.447 Y105.623 E16.38258
G1 X42.957 Y105.510 E16.40761
G1 X42.475 Y105.367 E16.43264
G1 X42.003 Y105.193 E16.45767
G1 X41.543 Y104.990 E16.48270
G1 X41.097 Y104.759 E16.50774
G1 X40.666 Y104.500 E16.53277
G1 X40.252 Y104.214 E16.55781
G1 X39.857 Y103.903 E16.58284
G1 X39.482 Y103.568 E16.60787
G1 X39.129 Y103.210 E16.63290
G1 X38.799 Y102.831 E16.65793
G1 X38.494 Y102.431 E16.68297
G1 X38.214 Y102.014 E16.70800
G1 X37.961 Y101.579 E16.73304
G1 X37.736 Y101.129 E16.75807
G1 X37.540 Y100.667 E16.78310
G1 X37.380 Y100.211 E16.80713
G1 X37.236 Y99.708 E16.83322
G1 X37.130 Y99.217 E16.85819
G1 X37.055 Y98.720 E16.88323
G1 X37.011 Y98.219 E16.90826
G1 X36.998 Y97.717 E16.93329
G1 X37.018 Y97.214 E16.95833
