; generated by Slic3r 1.2.9 on 2017-01-17 at 20:25:08

; external perimeters extrusion width = 0.40mm
; perimeters extrusion width = 0.56mm
; infill extrusion width = 0.31mm
; solid infill extrusion width = 0.56mm
; top infill extrusion width = 0.22mm

M107
M106 S256; Turn on fan to 100% power
M104 S141; turn on extruder temperature at S value
M140 S45; turn on bed temperature at S value
G28; home all axes
M84; disable motors
G1 Z15 F15000; have Z move to 20mm at 15000 mm/min
M190 S50; turn on bed temperature at S value and wait
M140 S55; turn on bed temperature at S value (printing temperature)
M109 S205; turn on extruder temperature at S value and wait (printing temperature)
M104 S201; turn on extruder temperature at S value
G1 Z0 F12000; move Z back to home
G21 ; set units to millimeters
G90 ; use absolute coordinates
M82 ; use absolute distances for extrusion
G92 E0
;Layer change
G1 E-6.00000 F1800.00000
G92 E0
G1 Z0.300 F10800.000
G1 X50.300 Y44.046 F10800.000
G1 E6.00000 F1800.00000
G1 X52.210 Y41.897 E6.14315 F900.000
G1 X54.251 Y39.873 E6.28625
G1 X56.136 Y38.210 E6.41142
G1 X58.401 Y36.439 E6.55458
G1 X60.773 Y34.814 E6.69773
G1 X63.242 Y33.340 E6.84089
G1 X66.127 Y31.870 E7.00208
G1 X68.433 Y30.872 E7.12720
G1 X71.134 Y29.888 E7.27036
G1 X73.892 Y29.075 E7.41352
G1 X76.696 Y28.436 E7.55667
G1 X79.534 Y27.975 E7.69983
G1 X82.395 Y27.693 E7.84298
G1 X85.269 Y27.592 E7.98614
G1 X85.820 Y27.598 E8.01357
G1 X88.505 Y27.693 E8.14735 F900.000
G1 X91.006 Y27.930 E8.27246
G1 X94.204 Y28.436 E8.43366
G1 X97.008 Y29.075 E8.57680
G1 X99.421 Y29.776 E8.70192
G1 X102.130 Y30.739 E8.84508
G1 X105.101 Y32.025 E9.00628
G1 X107.340 Y33.166 E9.13139
G1 X108.964 Y34.113 E9.22500
G1 X110.127 Y34.814 E9.29259
G1 X112.205 Y36.226 E9.41770
G1 X114.764 Y38.210 E9.57891
G1 X116.649 Y39.872 E9.70402
G1 X118.556 Y41.764 E9.83779
G1 X118.938 Y42.161 E9.86522
G1 X120.600 Y44.046 E9.99033
G1 X122.584 Y46.604 E10.15151
G1 X124.191 Y48.989 E10.29469
G1 X125.470 Y51.152 E10.41981
G1 X126.785 Y53.709 E10.56295
G1 X127.938 Y56.343 E10.70612
G1 X129.034 Y59.389 E10.86732
G1 X129.735 Y61.802 E10.99243
G1 X130.374 Y64.606 E11.13558
G1 X130.835 Y67.444 E11.27874
G1 X131.139 Y70.667 E11.43994
G1 X131.218 Y73.179 E11.56505
G1 X131.178 Y74.841 E11.64783
G1 X131.117 Y76.415 E11.72625
G1 X130.880 Y78.916 E11.85137
G1 X130.374 Y82.114 E12.01257
G1 X129.826 Y84.567 E12.13768
G1 X129.034 Y87.331 E12.28082
G1 X128.071 Y90.040 E12.42399
G1 X126.785 Y93.011 E12.58519
G1 X125.470 Y95.568 E12.72834
G1 X124.191 Y97.731 E12.85346
G1 X122.371 Y100.409 E13.01465
G1 X120.600 Y102.674 E13.15781
G1 X118.938 Y104.559 E13.28293
G1 X116.913 Y106.600 E13.42609
G1 X114.764 Y108.510 E13.56924
G1 X112.205 Y110.494 E13.73044
G1 X110.127 Y111.906 E13.85555
G1 X107.658 Y113.380 E13.99871
G1 X104.773 Y114.850 E14.15989
G1 X102.467 Y115.848 E14.28501
G1 X99.766 Y116.832 E14.42817
G1 X97.008 Y117.645 E14.57133
G1 X93.848 Y118.352 E14.73253
G1 X91.366 Y118.745 E14.85764
G1 X88.505 Y119.027 E15.00079
G1 X85.450 Y119.131 E15.15297
G1 X82.395 Y119.027 E15.30516
G1 X79.893 Y118.790 E15.43027
G1 X77.052 Y118.352 E15.57343
G1 X73.892 Y117.645 E15.73462
G1 X71.134 Y116.832 E15.87778
G1 X68.770 Y115.981 E16.00289
G1 X65.799 Y114.696 E16.16406
G1 X63.560 Y113.554 E16.28921
G1 X61.935 Y112.607 E16.38282
G1 X60.773 Y111.906 E16.45040
G1 X58.695 Y110.494 E16.57552
G1 X56.416 Y108.741 E16.71868
G1 X53.987 Y106.600 E16.87987
G1 X52.210 Y104.823 E17.00498
G1 X50.300 Y102.674 E17.14814
G1 X48.529 Y100.409 E17.29130
G1 X46.904 Y98.037 E17.43446
G1 X45.256 Y95.250 E17.59565
G1 X44.115 Y93.011 E17.72076
G1 X42.962 Y90.377 E17.86392
G1 X41.978 Y87.676 E18.00708
G1 X41.074 Y84.567 E18.16827
G1 X40.526 Y82.114 E18.29339
G1 X40.095 Y79.462 E18.42716
G1 X40.020 Y78.916 E18.45459
G1 X39.783 Y76.415 E18.57971
G1 X39.682 Y73.179 E18.74089
G1 X39.783 Y70.305 E18.88406
G1 X40.020 Y67.803 E19.00918
G1 X40.458 Y64.962 E19.15233
G1 X41.165 Y61.802 E19.31352
G1 X41.866 Y59.389 E19.43863
G1 X42.829 Y56.680 E19.58180
G1 X43.960 Y54.037 E19.72496
G1 X45.430 Y51.152 E19.88615
G1 X46.709 Y48.989 E20.01127
G1 X48.316 Y46.605 E20.15442
G1 X50.262 Y44.093 E20.31264
G1 X50.590 Y44.301 F10800.000
G1 X52.483 Y42.170 E20.45459 F900.000
G1 X54.506 Y40.162 E20.59648
G1 X56.392 Y38.500 E20.72165
G1 X58.638 Y36.744 E20.86360
G1 X60.990 Y35.133 E21.00555
G1 X63.438 Y33.672 E21.14750
G1 X66.280 Y32.224 E21.30629
G1 X68.586 Y31.226 E21.43140
G1 X71.265 Y30.250 E21.57335
G1 X74.000 Y29.445 E21.71531
G1 X76.780 Y28.813 E21.85725
G1 X79.594 Y28.356 E21.99920
G1 X82.432 Y28.077 E22.14115
G1 X85.281 Y27.977 E22.28311
G1 X85.807 Y27.983 E22.30933
G1 X88.468 Y28.077 E22.44190 F900.000
G1 X90.970 Y28.314 E22.56701
G1 X94.120 Y28.813 E22.72580
G1 X96.900 Y29.445 E22.86774
G1 X99.313 Y30.146 E22.99285
G1 X101.999 Y31.102 E23.13481
G1 X104.926 Y32.368 E23.29360
G1 X107.165 Y33.509 E23.41871
G1 X108.768 Y34.445 E23.51111
G1 X109.910 Y35.133 E23.57750
G1 X111.989 Y36.545 E23.70261
G1 X114.509 Y38.500 E23.86141
G1 X116.394 Y40.162 E23.98652
G1 X118.284 Y42.037 E24.11908
G1 X118.648 Y42.416 E24.14530
G1 X120.310 Y44.301 E24.27042
G1 X122.265 Y46.821 E24.42919
G1 X123.859 Y49.185 E24.57116
G1 X125.138 Y51.348 E24.69627
G1 X126.442 Y53.884 E24.83822
G1 X127.584 Y56.496 E24.98017
G1 X128.664 Y59.497 E25.13897
G1 X129.365 Y61.910 E25.26408
G1 X129.997 Y64.690 E25.40602
G1 X130.454 Y67.504 E25.54798
G1 X130.754 Y70.679 E25.70676
G1 X130.833 Y73.191 E25.83188
G1 X130.792 Y74.829 E25.91345
G1 X130.733 Y76.378 E25.99067
G1 X130.496 Y78.880 E26.11578
G1 X129.997 Y82.030 E26.27457
G1 X129.449 Y84.482 E26.39968
G1 X128.664 Y87.223 E26.54162
G1 X127.708 Y89.909 E26.68358
G1 X126.442 Y92.836 E26.84237
G1 X125.301 Y95.075 E26.96748
G1 X123.859 Y97.535 E27.10943
G1 X122.066 Y100.172 E27.26821
G1 X120.310 Y102.419 E27.41017
G1 X118.648 Y104.304 E27.53529
G1 X116.640 Y106.327 E27.67724
G1 X114.509 Y108.220 E27.81918
G1 X111.989 Y110.175 E27.97797
G1 X109.910 Y111.587 E28.10308
G1 X107.462 Y113.048 E28.24503
G1 X104.620 Y114.496 E28.40381
G1 X102.314 Y115.494 E28.52893
G1 X99.635 Y116.470 E28.67088
G1 X96.900 Y117.275 E28.81284
G1 X93.788 Y117.971 E28.97162
G1 X91.306 Y118.364 E29.09673
G1 X88.469 Y118.643 E29.23868
G1 X85.450 Y118.746 E29.38906
G1 X82.432 Y118.643 E29.53943
G1 X79.930 Y118.406 E29.66455
G1 X77.112 Y117.971 E29.80649
G1 X74.000 Y117.275 E29.96527
G1 X71.587 Y116.574 E30.09039
G1 X68.901 Y115.618 E30.23234
G1 X65.974 Y114.352 E30.39110
G1 X63.735 Y113.211 E30.51624
G1 X62.132 Y112.275 E30.60864
G1 X60.990 Y111.587 E30.67503
G1 X58.911 Y110.175 E30.80014
G1 X56.652 Y108.436 E30.94210
G1 X54.260 Y106.327 E31.10089
G1 X52.483 Y104.550 E31.22599
G1 X50.590 Y102.419 E31.36794
G1 X48.834 Y100.172 E31.50990
G1 X47.222 Y97.820 E31.65185
G1 X45.599 Y95.075 E31.81064
G1 X44.458 Y92.836 E31.93575
G1 X43.316 Y90.224 E32.07770
G1 X42.340 Y87.545 E32.21965
G1 X41.451 Y84.483 E32.37843
G1 X40.903 Y82.030 E32.50355
G1 X40.476 Y79.402 E32.63612
G1 X40.404 Y78.880 E32.66234
G1 X40.167 Y76.378 E32.78746
G1 X40.067 Y73.191 E32.94623
G1 X40.167 Y70.342 E33.08819
G1 X40.404 Y67.840 E33.21331
G1 X40.839 Y65.022 E33.35526
G1 X41.535 Y61.910 E33.51404
G1 X42.236 Y59.497 E33.63915
G1 X43.192 Y56.811 E33.78111
G1 X44.314 Y54.190 E33.92306
G1 X45.762 Y51.348 E34.08184
G1 X47.041 Y49.185 E34.20696
G1 X48.635 Y46.821 E34.34891
G1 X50.551 Y44.348 E34.50471
G1 E28.50471 F1800.00000
G92 E0
G1 X87.973 Y74.547 F10800.000
G1 E6.00000 F1800.00000
G1 X87.706 Y74.999 E6.02613 F900.000
G1 X87.359 Y75.392 E6.05225
G1 X86.944 Y75.714 E6.07838
G1 X86.476 Y75.952 E6.10451
G1 X85.972 Y76.099 E6.13063
G1 X85.450 Y76.148 E6.15676
G1 X84.906 Y76.097 E6.18396
G1 X84.284 Y75.895 E6.21650
G1 X83.812 Y75.616 E6.24383
G1 X83.418 Y75.269 E6.26999
G1 X83.096 Y74.854 E6.29612
G1 X82.858 Y74.386 E6.32224
G1 X82.711 Y73.882 E6.34837
G1 X82.662 Y73.360 E6.37450
G1 X82.711 Y72.838 E6.40062
G1 X82.858 Y72.334 E6.42675
G1 X83.096 Y71.866 E6.45288
G1 X83.418 Y71.451 E6.47900
G1 X83.811 Y71.104 E6.50513
G1 X84.263 Y70.837 E6.53126
G1 X84.777 Y70.652 E6.55846
G1 X85.425 Y70.570 E6.59100 F900.000
G1 X85.972 Y70.621 E6.61833
G1 X86.476 Y70.768 E6.64448
G1 X86.944 Y71.006 E6.67061
G1 X87.376 Y71.341 E6.69783
G1 X87.794 Y71.847 E6.73050
G1 X88.042 Y72.334 E6.75771
G1 X88.189 Y72.838 E6.78384
G1 X88.240 Y73.382 E6.81106
G1 X88.158 Y74.033 E6.84372
G1 X87.993 Y74.491 E6.86796
G1 X87.622 Y74.382 F10800.000
G1 X87.392 Y74.771 E6.89045 F900.000
G1 X87.093 Y75.110 E6.91295
G1 X86.736 Y75.387 E6.93545
G1 X86.334 Y75.592 E6.95794
G1 X85.900 Y75.718 E6.98044
G1 X85.450 Y75.761 E7.00294
G1 X84.985 Y75.717 E7.02621
G1 X84.444 Y75.541 E7.05452
G1 X84.039 Y75.302 E7.07791
G1 X83.700 Y75.003 E7.10043
G1 X83.423 Y74.646 E7.12293
G1 X83.218 Y74.244 E7.14542
G1 X83.092 Y73.810 E7.16792
G1 X83.049 Y73.360 E7.19042
G1 X83.092 Y72.910 E7.21291
G1 X83.218 Y72.476 E7.23541
G1 X83.423 Y72.074 E7.25791
G1 X83.700 Y71.717 E7.28040
G1 X84.039 Y71.418 E7.30290
G1 X84.428 Y71.188 E7.32540
G1 X84.868 Y71.029 E7.34867
G1 X85.432 Y70.958 E7.37698 F900.000
G1 X85.899 Y71.002 E7.40037
G1 X86.334 Y71.128 E7.42289
G1 X86.736 Y71.333 E7.44539
G1 X87.106 Y71.620 E7.46867
G1 X87.470 Y72.060 E7.49710
G1 X87.682 Y72.476 E7.52038
G1 X87.808 Y72.910 E7.54288
G1 X87.852 Y73.376 E7.56616
G1 X87.781 Y73.942 E7.59459
G1 X87.643 Y74.326 E7.61488
G1 X87.272 Y74.217 F10800.000
G1 X87.079 Y74.543 E7.63375 F900.000
G1 X86.828 Y74.828 E7.65262
G1 X86.529 Y75.060 E7.67148
G1 X86.191 Y75.232 E7.69035
G1 X85.827 Y75.338 E7.70922
G1 X85.450 Y75.373 E7.72809
G1 X85.063 Y75.337 E7.74743
G1 X84.603 Y75.188 E7.77151
G1 X84.267 Y74.989 E7.79096
G1 X83.982 Y74.738 E7.80984
G1 X83.750 Y74.439 E7.82871
G1 X83.578 Y74.101 E7.84757
G1 X83.472 Y73.737 E7.86644
G1 X83.437 Y73.360 E7.88531
G1 X83.472 Y72.983 E7.90417
G1 X83.578 Y72.619 E7.92304
G1 X83.750 Y72.281 E7.94191
G1 X83.982 Y71.982 E7.96078
G1 X84.267 Y71.731 E7.97964
G1 X84.593 Y71.538 E7.99851
G1 X84.958 Y71.407 E8.01785
G1 X85.438 Y71.346 E8.04193 F900.000
G1 X85.827 Y71.382 E8.06138
G1 X86.191 Y71.488 E8.08026
G1 X86.529 Y71.660 E8.09913
G1 X86.836 Y71.898 E8.11848
G1 X87.146 Y72.273 E8.14267
G1 X87.322 Y72.619 E8.16202
G1 X87.428 Y72.983 E8.18088
G1 X87.464 Y73.370 E8.20023
G1 X87.403 Y73.852 E8.22442
G1 X87.292 Y74.161 E8.24078
G1 X86.921 Y74.052 F10800.000
G1 X86.765 Y74.316 E8.25602 F900.000
G1 X86.563 Y74.545 E8.27126
G1 X86.321 Y74.733 E8.28649
G1 X86.049 Y74.872 E8.30173
G1 X85.755 Y74.957 E8.31697
G1 X85.450 Y74.986 E8.33221
G1 X85.142 Y74.957 E8.34762
G1 X84.763 Y74.834 E8.36747
G1 X84.494 Y74.676 E8.38298
G1 X84.265 Y74.473 E8.39822
G1 X84.077 Y74.231 E8.41346
G1 X83.938 Y73.959 E8.42869
G1 X83.853 Y73.665 E8.44393
G1 X83.824 Y73.360 E8.45917
G1 X83.853 Y73.055 E8.47441
G1 X83.938 Y72.761 E8.48964
G1 X84.077 Y72.489 E8.50488
G1 X84.265 Y72.247 E8.52012
G1 X84.494 Y72.045 E8.53536
G1 X84.758 Y71.889 E8.55059
G1 X85.049 Y71.784 E8.56601
G1 X85.444 Y71.734 E8.58585 F900.000
G1 X85.755 Y71.763 E8.60137
G1 X86.049 Y71.848 E8.61661
G1 X86.321 Y71.987 E8.63185
G1 X86.566 Y72.177 E8.64726
G1 X86.821 Y72.486 E8.66721
G1 X86.962 Y72.761 E8.68262
G1 X87.047 Y73.055 E8.69786
G1 X87.076 Y73.364 E8.71327
G1 X87.026 Y73.761 E8.73322
G1 X86.942 Y73.996 E8.74565
G1 X87.088 Y74.309 F10800.000
G1 X113.373 Y80.980 F10800.000
G1 X112.317 Y83.912 E8.90081 F900.000
G1 X111.569 Y85.653 E8.99515
G1 X110.747 Y87.267 E9.08535
G1 X109.824 Y88.828 E9.17565
G1 X108.027 Y91.471 E9.33477
G1 X115.845 Y97.151 E9.81589
G1 X115.205 Y97.976 E9.86785
G1 X113.601 Y99.795 E9.98864
G1 X111.885 Y101.511 E10.10943
G1 X110.066 Y103.115 E10.23021
G1 X109.241 Y103.755 E10.28216
G1 X103.561 Y95.937 E10.76328
G1 X100.918 Y97.734 E10.92241
G1 X99.357 Y98.657 E11.01270
G1 X97.741 Y99.480 E11.10299
G1 X96.077 Y100.200 E11.19328
G1 X93.070 Y101.283 E11.35241
G1 X96.056 Y110.473 E11.83353
G1 X95.054 Y110.764 E11.88548
G1 X92.686 Y111.293 E12.00627
G1 X90.290 Y111.673 E12.12706
G1 X87.875 Y111.901 E12.24785
G1 X86.832 Y111.934 E12.29980
G1 X86.832 Y102.271 E12.78092
G1 X83.637 Y102.170 E12.94005
G1 X81.832 Y102.000 E13.03034
G1 X80.041 Y101.716 E13.12063
G1 X78.271 Y101.320 E13.21093
G1 X75.202 Y100.429 E13.37005
G1 X72.216 Y109.619 E13.85117
G1 X71.234 Y109.266 E13.90312
G1 X69.007 Y108.302 E14.02391
G1 X66.846 Y107.201 E14.14469
G1 X64.758 Y105.966 E14.26549
G1 X63.895 Y105.379 E14.31744
G1 X69.575 Y97.562 E14.79855
G1 X67.049 Y95.603 E14.95768
G1 X65.689 Y94.403 E15.04798
G1 X64.463 Y93.178 E15.13430
G1 X63.206 Y91.759 E15.22864
G1 X61.248 Y89.235 E15.38768
G1 X53.431 Y94.915 E15.86879
G1 X52.844 Y94.052 E15.92074
G1 X51.609 Y91.964 E16.04154
G1 X50.508 Y89.803 E16.16232
G1 X49.544 Y87.576 E16.28311
G1 X49.191 Y86.594 E16.33506
G1 X58.381 Y83.608 E16.81618
G1 X57.490 Y80.539 E16.97531
G1 X57.094 Y78.769 E17.06560
G1 X56.810 Y76.978 E17.15589
G1 X56.640 Y75.173 E17.24618
G1 X56.539 Y71.978 E17.40531
G1 X46.876 Y71.978 E17.88643
G1 X46.909 Y70.935 E17.93838
G1 X47.137 Y68.520 E18.05917
G1 X47.517 Y66.124 E18.17996
G1 X48.046 Y63.756 E18.30075
G1 X48.337 Y62.754 E18.35270
G1 X57.527 Y65.740 E18.83382
G1 X58.610 Y62.733 E18.99295
G1 X59.298 Y61.142 E19.07927
G1 X60.154 Y59.451 E19.17361
G1 X61.076 Y57.892 E19.26382
G1 X62.873 Y55.249 E19.42294
G1 X55.055 Y49.569 E19.90406
G1 X55.695 Y48.744 E19.95602
G1 X57.299 Y46.925 E20.07680
G1 X59.015 Y45.209 E20.19759
G1 X60.834 Y43.605 E20.31838
G1 X61.659 Y42.965 E20.37033
G1 X67.339 Y50.783 E20.85145
G1 X69.982 Y48.986 E21.01058
G1 X71.543 Y48.063 E21.10087
G1 X73.164 Y47.238 E21.19143
G1 X74.823 Y46.520 E21.28145
G1 X77.830 Y45.437 E21.44058
G1 X74.844 Y36.247 E21.92170
G1 X75.846 Y35.956 E21.97365
G1 X78.214 Y35.427 E22.09444
G1 X80.610 Y35.047 E22.21523
G1 X83.022 Y34.819 E22.33587
G1 X84.068 Y34.791 E22.38796
G1 X84.068 Y44.449 E22.86885
G1 X87.263 Y44.550 E23.02797
G1 X89.068 Y44.720 E23.11827
G1 X90.859 Y45.004 E23.20856
G1 X92.629 Y45.400 E23.29885
G1 X95.698 Y46.291 E23.45798
G1 X98.684 Y37.101 E23.93909
G1 X99.666 Y37.454 E23.99104
G1 X101.893 Y38.418 E24.11183
G1 X104.054 Y39.519 E24.23262
G1 X106.142 Y40.754 E24.35341
G1 X107.005 Y41.341 E24.40536
G1 X101.325 Y49.158 E24.88648
G1 X103.851 Y51.117 E25.04561
G1 X105.211 Y52.317 E25.13590
G1 X106.493 Y53.599 E25.22619
G1 X107.693 Y54.959 E25.31648
G1 X109.652 Y57.485 E25.47561
G1 X117.469 Y51.805 E25.95673
G1 X118.056 Y52.668 E26.00868
G1 X119.291 Y54.756 E26.12947
G1 X120.392 Y56.917 E26.25026
G1 X121.356 Y59.144 E26.37105
G1 X121.709 Y60.126 E26.42300
G1 X112.519 Y63.112 E26.90411
G1 X113.410 Y66.181 E27.06324
G1 X113.806 Y67.951 E27.15353
G1 X114.090 Y69.742 E27.24382
G1 X114.260 Y71.547 E27.33412
G1 X114.361 Y74.742 E27.49324
G1 X124.024 Y74.742 E27.97436
G1 X123.991 Y75.785 E28.02632
G1 X123.763 Y78.200 E28.14710
G1 X123.383 Y80.596 E28.26789
G1 X122.854 Y82.964 E28.38868
G1 X122.563 Y83.966 E28.44064
G1 X113.430 Y80.998 E28.91876
G1 X113.609 Y81.462 F10800.000
G1 X112.676 Y84.053 E29.05590 F900.000
G1 X111.919 Y85.817 E29.15144
G1 X111.085 Y87.453 E29.24288
G1 X110.149 Y89.035 E29.33438
G1 X108.556 Y91.379 E29.47550
G1 X116.393 Y97.073 E29.95783
G1 X115.503 Y98.222 E30.03020
G1 X113.882 Y100.060 E30.15219
G1 X112.150 Y101.792 E30.27419
G1 X110.312 Y103.412 E30.39618
G1 X109.163 Y104.303 E30.46855
G1 X103.469 Y96.466 E30.95088
G1 X101.125 Y98.059 E31.09200
G1 X99.543 Y98.995 E31.18350
G1 X97.905 Y99.829 E31.27500
G1 X96.219 Y100.559 E31.36650
G1 X93.552 Y101.519 E31.50762
G1 X96.546 Y110.732 E31.98995
G1 X95.150 Y111.138 E32.06232
G1 X92.758 Y111.672 E32.18431
G1 X90.338 Y112.056 E32.30631
G1 X87.899 Y112.286 E32.42830
