; generated by Slic3r 1.2.9 on 2017-01-17 at 09:54:24

; external perimeters extrusion width = 0.40mm
; perimeters extrusion width = 0.56mm
; infill extrusion width = 0.31mm
; solid infill extrusion width = 0.56mm
; top infill extrusion width = 0.22mm

M107
M106 S256; Turn on fan to 100% power
M104 S141; turn on extruder temperature at S value
M140 S45; turn on bed temperature at S value
G28; home all axes
M84; disable motors
G1 Z15 F15000; have Z move to 20mm at 15000 mm/min
M190 S50; turn on bed temperature at S value and wait
M140 S55; turn on bed temperature at S value (printing temperature)
M109 S205; turn on extruder temperature at S value and wait (printing temperature)
M104 S201; turn on extruder temperature at S value
G1 Z0 F12000; move Z back to home
G21 ; set units to millimeters
G90 ; use absolute coordinates
M82 ; use absolute distances for extrusion
G92 E0
;Layer change
G1 E-6.00000 F1800.00000
G92 E0
G1 Z0.300 F10800.000
G1 X73.603 Y32.770 F10800.000
G1 E6.00000 F1800.00000
G1 X73.672 Y32.614 E6.00851 F900.000
G1 X75.885 Y28.781 E6.22886
G1 X76.594 Y27.805 E6.28893
G1 X79.556 Y24.516 E6.50929
G1 X80.452 Y23.708 E6.56936
G1 X83.675 Y21.367 E6.76768
G1 X84.033 Y21.107 E6.78971
G1 X85.078 Y20.504 E6.84979
G1 X89.121 Y18.704 E7.07014
G1 X90.268 Y18.331 E7.13021
G1 X94.597 Y17.411 E7.35057
G1 X95.797 Y17.285 E7.41064
G1 X100.223 Y17.285 E7.63099
G1 X101.423 Y17.411 E7.69106
G1 X105.752 Y18.331 E7.91142 F900.000
G1 X106.899 Y18.704 E7.97149
G1 X110.942 Y20.504 E8.19184
G1 X111.987 Y21.107 E8.25192
G1 X115.568 Y23.708 E8.47227
G1 X116.464 Y24.516 E8.53234
G1 X119.426 Y27.805 E8.75270
G1 X120.135 Y28.781 E8.81277
G1 X122.348 Y32.614 E9.03312
G1 X122.839 Y33.716 E9.09320
G1 X124.206 Y37.925 E9.31355
G1 X124.457 Y39.105 E9.37362
G1 X124.920 Y43.507 E9.59397
G1 X124.920 Y44.713 E9.65404
G1 X124.457 Y49.115 E9.87440
G1 X124.206 Y50.295 E9.93447
G1 X122.839 Y54.504 E10.15482
G1 X122.348 Y55.606 E10.21490
G1 X120.135 Y59.439 E10.43525
G1 X119.426 Y60.415 E10.49532
G1 X116.464 Y63.704 E10.71567
G1 X115.568 Y64.512 E10.77575
G1 X111.987 Y67.113 E10.99610
G1 X110.942 Y67.716 E11.05617
G1 X106.899 Y69.516 E11.27653
G1 X105.752 Y69.889 E11.33660
G1 X101.423 Y70.809 E11.55695
G1 X100.223 Y70.935 E11.61702
G1 X95.797 Y70.935 E11.83738
G1 X94.597 Y70.809 E11.89745
G1 X90.268 Y69.889 E12.11781
G1 X89.121 Y69.516 E12.17787
G1 X85.078 Y67.716 E12.39823
G1 X84.033 Y67.113 E12.45830
G1 X80.452 Y64.512 E12.67866
G1 X79.556 Y63.704 E12.73873
G1 X76.594 Y60.415 E12.95908
G1 X75.885 Y59.439 E13.01915
G1 X73.672 Y55.606 E13.23951
G1 X73.181 Y54.504 E13.29958
G1 X71.814 Y50.295 E13.51994
G1 X71.563 Y49.115 E13.58001
G1 X71.100 Y44.713 E13.80036
G1 X71.100 Y43.507 E13.86043
G1 X71.563 Y39.105 E14.08078
G1 X71.814 Y37.925 E14.14085
G1 X73.181 Y33.716 E14.36121
G1 X73.578 Y32.825 E14.40979
G1 X73.953 Y32.926 F10800.000
G1 X74.006 Y32.807 E14.41629 F900.000
G1 X76.219 Y28.974 E14.63664
G1 X76.881 Y28.063 E14.69270
G1 X79.842 Y24.774 E14.91305
G1 X80.679 Y24.020 E14.96911
G1 X83.901 Y21.679 E15.16743
G1 X84.259 Y21.419 E15.18946
G1 X85.234 Y20.856 E15.24552
G1 X89.278 Y19.056 E15.46588
G1 X90.348 Y18.708 E15.52193
G1 X94.677 Y17.788 E15.74229
G1 X95.797 Y17.670 E15.79835
G1 X100.223 Y17.670 E16.01870
G1 X101.343 Y17.788 E16.07476
G1 X105.672 Y18.708 E16.29512 F900.000
G1 X106.742 Y19.056 E16.35117
G1 X110.786 Y20.856 E16.57153
G1 X111.761 Y21.419 E16.62759
G1 X115.341 Y24.020 E16.84794
G1 X116.178 Y24.774 E16.90400
G1 X119.139 Y28.063 E17.12435
G1 X119.801 Y28.974 E17.18041
G1 X122.014 Y32.807 E17.40076
G1 X122.472 Y33.835 E17.45682
G1 X123.840 Y38.044 E17.67718
G1 X124.074 Y39.146 E17.73323
G1 X124.536 Y43.547 E17.95359
G1 X124.536 Y44.673 E18.00964
G1 X124.074 Y49.074 E18.23000
G1 X123.840 Y50.176 E18.28605
G1 X122.472 Y54.385 E18.50641
G1 X122.014 Y55.413 E18.56247
G1 X119.801 Y59.246 E18.78282
G1 X119.139 Y60.157 E18.83888
G1 X116.178 Y63.446 E19.05923
G1 X115.341 Y64.200 E19.11529
G1 X111.761 Y66.801 E19.33564
G1 X110.786 Y67.364 E19.39170
G1 X106.742 Y69.164 E19.61206
G1 X105.672 Y69.512 E19.66811
G1 X101.343 Y70.432 E19.88847
G1 X100.223 Y70.550 E19.94453
G1 X95.797 Y70.550 E20.16488
G1 X94.677 Y70.432 E20.22094
G1 X90.348 Y69.512 E20.44130
G1 X89.278 Y69.164 E20.49735
G1 X85.234 Y67.364 E20.71771
G1 X84.259 Y66.801 E20.77377
G1 X80.679 Y64.200 E20.99412
G1 X79.842 Y63.446 E21.05018
G1 X76.881 Y60.157 E21.27053
G1 X76.219 Y59.246 E21.32659
G1 X74.006 Y55.414 E21.54694
G1 X73.548 Y54.385 E21.60300
G1 X72.180 Y50.176 E21.82336
G1 X71.946 Y49.074 E21.87941
G1 X71.484 Y44.673 E22.09977
G1 X71.484 Y43.547 E22.15582
G1 X71.946 Y39.146 E22.37618
G1 X72.180 Y38.044 E22.43223
G1 X73.548 Y33.835 E22.65259
G1 X73.929 Y32.981 E22.69916
G1 E16.69916 F1800.00000
G92 E0
G1 X99.796 Y59.949 F10800.000
G1 E6.00000 F1800.00000
G1 X100.232 Y64.376 E6.22146 F900.000
G1 X99.291 Y64.465 E6.26855
G1 X97.785 Y64.512 E6.34355
G1 X97.785 Y60.062 E6.56512
G1 X99.011 Y60.023 E6.62620
G1 X99.736 Y59.955 E6.66247
G1 X100.194 Y59.911 F10800.000
G1 X100.901 Y59.799 F10800.000
G1 X102.097 Y59.522 E6.72355 F900.000
G1 X102.852 Y59.296 E6.76281
G1 X104.143 Y63.553 E6.98427
G1 X103.237 Y63.824 E7.03135
G1 X101.770 Y64.164 E7.10635
G1 X100.913 Y59.858 E7.32494
G1 X100.815 Y59.409 F10800.000
G1 X103.907 Y58.934 F10800.000
G1 X105.025 Y58.429 E7.38602 F900.000
G1 X105.722 Y58.060 E7.42527
G1 X107.818 Y61.983 E7.64674
G1 X106.983 Y62.425 E7.69382
G1 X105.610 Y63.045 E7.76883
G1 X103.930 Y58.989 E7.98741
G1 X103.746 Y58.567 F10800.000
G1 X106.685 Y57.499 F10800.000
G1 X107.683 Y56.785 E8.04850 F900.000
G1 X108.295 Y56.288 E8.08775
G1 X111.117 Y59.726 E8.30921
G1 X110.383 Y60.323 E8.35630
G1 X109.158 Y61.199 E8.43130
G1 X106.719 Y57.549 E8.64988
G1 X106.456 Y57.171 F10800.000
G1 X109.131 Y55.549 F10800.000
G1 X109.970 Y54.655 E8.71096 F900.000
G1 X110.473 Y54.047 E8.75021
G1 X113.911 Y56.869 E8.97167
G1 X113.309 Y57.598 E9.01876
G1 X112.277 Y58.696 E9.09376
G1 X109.173 Y55.591 E9.31234
G1 X108.842 Y55.272 F10800.000
G1 X111.149 Y53.160 F10800.000
G1 X111.798 Y52.119 E9.37342 F900.000
G1 X112.172 Y51.425 E9.41267
G1 X116.095 Y53.521 E9.63414
G1 X115.646 Y54.354 E9.68122
G1 X114.849 Y55.632 E9.75623
G1 X111.199 Y53.193 E9.97481
G1 X110.811 Y52.944 F10800.000
G1 X112.662 Y50.422 F10800.000
G1 X113.095 Y49.275 E10.03589 F900.000
G1 X113.327 Y48.521 E10.07514
G1 X117.584 Y49.812 E10.29661
G1 X117.305 Y50.716 E10.34369
G1 X116.773 Y52.125 E10.41869
G1 X112.717 Y50.445 E10.63728
G1 X112.289 Y50.277 F10800.000
G1 X113.612 Y47.443 F10800.000
G1 X113.813 Y46.233 E10.69836 F900.000
G1 X113.893 Y45.448 E10.73762
G1 X118.320 Y45.884 E10.95908
G1 X118.224 Y46.825 E11.00617
G1 X117.976 Y48.311 E11.08117
G1 X113.670 Y47.454 E11.29975
G1 X113.218 Y47.373 F10800.000
G1 X113.962 Y44.335 F10800.000
G1 X113.923 Y43.109 E11.36083 F900.000
G1 X113.849 Y42.324 E11.40008
G1 X118.276 Y41.888 E11.62155
G1 X118.365 Y42.829 E11.66863
G1 X118.412 Y44.335 E11.74363
G1 X114.022 Y44.335 E11.96222
G1 X113.562 Y44.343 F10800.000
G1 X113.699 Y41.219 F10800.000
G1 X113.422 Y40.023 E12.02330 F900.000
G1 X113.196 Y39.268 E12.06256
G1 X117.453 Y37.977 E12.28402
G1 X117.724 Y38.883 E12.33110
G1 X118.064 Y40.350 E12.40610
G1 X113.758 Y41.207 E12.62469
G1 X113.309 Y41.305 F10800.000
G1 X112.834 Y38.213 F10800.000
G1 X112.329 Y37.095 E12.68577 F900.000
G1 X111.960 Y36.398 E12.72502
G1 X115.883 Y34.302 E12.94649
G1 X116.325 Y35.137 E12.99357
G1 X116.945 Y36.510 E13.06857
G1 X112.889 Y38.190 E13.28716
G1 X112.467 Y38.374 F10800.000
G1 X111.399 Y35.435 F10800.000
G1 X110.685 Y34.437 E13.34825 F900.000
G1 X110.188 Y33.825 E13.38750
G1 X113.626 Y31.003 E13.60896
G1 X114.223 Y31.737 E13.65605
G1 X115.099 Y32.962 E13.73105
G1 X111.449 Y35.401 E13.94963
G1 X111.071 Y35.664 F10800.000
G1 X109.449 Y32.989 F10800.000
G1 X108.555 Y32.150 E14.01071 F900.000
G1 X107.947 Y31.647 E14.04996
G1 X110.769 Y28.209 E14.27142
G1 X111.498 Y28.811 E14.31851
G1 X112.596 Y29.843 E14.39351
G1 X109.491 Y32.947 E14.61209
G1 X109.172 Y33.278 F10800.000
G1 X107.060 Y30.971 F10800.000
G1 X106.019 Y30.322 E14.67317 F900.000
G1 X105.325 Y29.948 E14.71242
G1 X107.421 Y26.025 E14.93389
G1 X108.254 Y26.474 E14.98097
G1 X109.532 Y27.271 E15.05598
G1 X107.093 Y30.921 E15.27456
G1 X106.844 Y31.309 F10800.000
G1 X104.322 Y29.458 F10800.000
G1 X103.175 Y29.025 E15.33564 F900.000
G1 X102.421 Y28.793 E15.37489
G1 X103.712 Y24.536 E15.59636
G1 X104.616 Y24.815 E15.64344
G1 X106.025 Y25.347 E15.71844
G1 X104.345 Y29.403 E15.93703
G1 X104.177 Y29.831 F10800.000
G1 X101.343 Y28.508 F10800.000
G1 X100.133 Y28.307 E15.99811 F900.000
G1 X99.348 Y28.227 E16.03737
G1 X99.784 Y23.800 E16.25883
G1 X100.725 Y23.896 E16.30592
G1 X102.211 Y24.144 E16.38092
G1 X101.354 Y28.450 E16.59950
G1 X101.273 Y28.902 F10800.000
G1 X98.235 Y28.158 F10800.000
G1 X97.009 Y28.197 E16.66058 F900.000
G1 X96.224 Y28.271 E16.69983
G1 X95.788 Y23.844 E16.92130
G1 X96.729 Y23.755 E16.96838
G1 X98.235 Y23.708 E17.04338
G1 X98.235 Y28.098 E17.26197
G1 X98.243 Y28.558 F10800.000
G1 X95.119 Y28.421 F10800.000
G1 X93.923 Y28.698 E17.32305 F900.000
G1 X93.168 Y28.924 E17.36231
G1 X91.877 Y24.667 E17.58377
G1 X92.783 Y24.396 E17.63085
G1 X94.250 Y24.056 E17.70585
G1 X95.107 Y28.362 E17.92444
G1 X95.205 Y28.811 F10800.000
G1 X92.113 Y29.286 F10800.000
G1 X90.995 Y29.791 E17.98552 F900.000
G1 X90.298 Y30.160 E18.02477
G1 X88.202 Y26.237 E18.24624
G1 X89.037 Y25.795 E18.29332
G1 X90.410 Y25.175 E18.36832
G1 X92.090 Y29.231 E18.58691
G1 X92.274 Y29.653 F10800.000
G1 X89.335 Y30.721 F10800.000
G1 X88.337 Y31.435 E18.64800 F900.000
G1 X87.725 Y31.932 E18.68725
G1 X84.903 Y28.494 E18.90871
G1 X85.637 Y27.897 E18.95580
G1 X86.862 Y27.021 E19.03080
G1 X89.301 Y30.671 E19.24938
G1 X89.564 Y31.049 F10800.000
G1 X86.889 Y32.671 F10800.000
G1 X86.050 Y33.565 E19.31046 F900.000
G1 X85.547 Y34.173 E19.34971
G1 X82.109 Y31.351 E19.57117
G1 X82.711 Y30.622 E19.61826
G1 X83.743 Y29.524 E19.69326
G1 X86.847 Y32.629 E19.91184
G1 X87.178 Y32.948 F10800.000
G1 X84.871 Y35.060 F10800.000
G1 X84.222 Y36.101 E19.97292 F900.000
G1 X83.848 Y36.795 E20.01217
G1 X79.925 Y34.699 E20.23364
G1 X80.374 Y33.866 E20.28072
G1 X81.171 Y32.588 E20.35573
G1 X84.822 Y35.027 E20.57431
G1 X85.209 Y35.276 F10800.000
G1 X83.358 Y37.798 F10800.000
G1 X82.925 Y38.945 E20.63539 F900.000
G1 X82.693 Y39.699 E20.67464
G1 X78.436 Y38.408 E20.89611
G1 X78.715 Y37.504 E20.94319
G1 X79.247 Y36.095 E21.01819
G1 X83.303 Y37.775 E21.23678
G1 X83.731 Y37.943 F10800.000
G1 X82.408 Y40.777 F10800.000
G1 X82.207 Y41.987 E21.29786 F900.000
G1 X82.127 Y42.772 E21.33712
G1 X77.700 Y42.336 E21.55858
G1 X77.796 Y41.395 E21.60567
G1 X78.044 Y39.909 E21.68067
G1 X82.350 Y40.766 E21.89925
G1 X82.802 Y40.847 F10800.000
G1 X82.058 Y43.885 F10800.000
G1 X82.097 Y45.111 E21.96033 F900.000
G1 X82.171 Y45.896 E21.99958
G1 X77.744 Y46.332 E22.22105
G1 X77.655 Y45.391 E22.26813
G1 X77.608 Y43.885 E22.34313
G1 X81.998 Y43.885 E22.56172
G1 X82.458 Y43.877 F10800.000
G1 X82.321 Y47.001 F10800.000
G1 X82.598 Y48.197 E22.62280 F900.000
G1 X82.824 Y48.952 E22.66206
G1 X78.567 Y50.243 E22.88352
G1 X78.296 Y49.337 E22.93060
G1 X77.956 Y47.870 E23.00560
G1 X82.262 Y47.013 E23.22419
G1 X82.711 Y46.915 F10800.000
G1 X85.638 Y46.653 F10800.000
G1 X85.371 Y44.110 E23.35149 F900.000
G1 X85.647 Y41.482 E23.48305
G1 X86.463 Y38.969 E23.61461
G1 X87.784 Y36.681 E23.74617
G1 X89.553 Y34.717 E23.87773
G1 X91.690 Y33.164 E24.00929
G1 X94.104 Y32.089 E24.14085
G1 X96.689 Y31.540 E24.27241
G1 X99.331 Y31.540 E24.40398 F900.000
G1 X101.916 Y32.089 E24.53554
G1 X104.330 Y33.164 E24.66710
G1 X106.467 Y34.717 E24.79866
G1 X108.236 Y36.681 E24.93022
G1 X109.557 Y38.969 E25.06178
G1 X110.373 Y41.482 E25.19334
G1 X110.649 Y44.110 E25.32490
G1 X110.373 Y46.738 E25.45646
G1 X109.557 Y49.251 E25.58803
G1 X108.236 Y51.539 E25.71959
G1 X106.467 Y53.503 E25.85115
G1 X104.330 Y55.056 E25.98271
G1 X101.916 Y56.131 E26.11427
G1 X99.331 Y56.680 E26.24583
G1 X96.689 Y56.680 E26.37739
G1 X94.104 Y56.131 E26.50895
G1 X91.690 Y55.056 E26.64051
G1 X89.553 Y53.503 E26.77208
G1 X87.784 Y51.539 E26.90364
G1 X86.462 Y49.249 E27.03531
G1 X85.647 Y46.712 E27.16799
G1 X86.021 Y46.613 F10800.000
G1 X85.758 Y44.110 E27.29327 F900.000
G1 X86.026 Y41.563 E27.42080
G1 X86.817 Y39.127 E27.54832
G1 X88.098 Y36.909 E27.67585
G1 X89.812 Y35.005 E27.80337
G1 X91.884 Y33.500 E27.93090
G1 X94.224 Y32.458 E28.05842
G1 X96.729 Y31.925 E28.18595
G1 X99.291 Y31.925 E28.31347 F900.000
G1 X101.796 Y32.458 E28.44100
G1 X104.136 Y33.500 E28.56852
G1 X106.208 Y35.005 E28.69605
G1 X107.922 Y36.909 E28.82357
G1 X109.203 Y39.127 E28.95110
G1 X109.994 Y41.563 E29.07862
G1 X110.262 Y44.110 E29.20615
G1 X109.994 Y46.657 E29.33367
G1 X109.203 Y49.093 E29.46120
G1 X107.922 Y51.311 E29.58872
G1 X106.208 Y53.215 E29.71625
G1 X104.136 Y54.720 E29.84377
G1 X101.796 Y55.762 E29.97130
G1 X99.291 Y56.295 E30.09882
G1 X96.729 Y56.295 E30.22635
G1 X94.224 Y55.762 E30.35388
G1 X91.884 Y54.720 E30.48140
G1 X89.812 Y53.215 E30.60893
G1 X88.098 Y51.311 E30.73645
G1 X86.817 Y49.092 E30.86406
G1 X86.039 Y46.670 E30.99071
G1 X86.401 Y46.537 F10800.000
G1 X86.146 Y44.110 E31.11220 F900.000
G1 X86.405 Y41.643 E31.23569
G1 X87.172 Y39.284 E31.35918
G1 X88.412 Y37.137 E31.48266
G1 X90.071 Y35.293 E31.60615
G1 X92.078 Y33.835 E31.72964
G1 X94.344 Y32.827 E31.85313
G1 X96.770 Y32.311 E31.97662
G1 X99.250 Y32.311 E32.10011 F900.000
G1 X101.676 Y32.827 E32.22360
G1 X103.942 Y33.835 E32.34709
G1 X105.949 Y35.293 E32.47058
G1 X107.608 Y37.137 E32.59407
G1 X108.848 Y39.284 E32.71756
G1 X109.615 Y41.643 E32.84105
G1 X109.874 Y44.110 E32.96454
G1 X109.615 Y46.577 E33.08802
G1 X108.848 Y48.936 E33.21151
G1 X107.608 Y51.083 E33.33500
G1 X105.949 Y52.927 E33.45849
G1 X103.942 Y54.385 E33.58198
G1 X101.676 Y55.393 E33.70547
G1 X99.250 Y55.909 E33.82896
G1 X96.770 Y55.909 E33.95245
G1 X94.344 Y55.393 E34.07594
G1 X92.078 Y54.385 E34.19943
G1 X90.071 Y52.927 E34.32292
G1 X88.412 Y51.083 E34.44641
G1 X87.171 Y48.935 E34.56995
G1 X86.419 Y46.594 E34.69236
G1 X86.780 Y46.457 F10800.000
G1 X86.534 Y44.110 E34.80984 F900.000
G1 X86.785 Y41.724 E34.92929
G1 X87.526 Y39.442 E35.04875
G1 X88.726 Y37.364 E35.16820
G1 X90.331 Y35.581 E35.28765
G1 X92.272 Y34.171 E35.40711
G1 X94.464 Y33.195 E35.52656
G1 X96.810 Y32.697 E35.64601
G1 X99.210 Y32.697 E35.76547 F900.000
G1 X101.556 Y33.195 E35.88492
G1 X103.748 Y34.171 E36.00437
G1 X105.689 Y35.581 E36.12383
G1 X107.294 Y37.364 E36.24328
G1 X108.494 Y39.442 E36.36273
G1 X109.235 Y41.724 E36.48219
G1 X109.486 Y44.110 E36.60164
G1 X109.235 Y46.496 E36.72109
G1 X108.494 Y48.778 E36.84055
G1 X107.294 Y50.856 E36.96000
G1 X105.689 Y52.639 E37.07945
G1 X103.748 Y54.049 E37.19891
G1 X101.556 Y55.025 E37.31836
G1 X99.210 Y55.523 E37.43781
G1 X96.810 Y55.523 E37.55727
G1 X94.464 Y55.025 E37.67672
G1 X92.272 Y54.049 E37.79617
G1 X90.331 Y52.639 E37.91563
G1 X88.726 Y50.856 E38.03508
G1 X87.526 Y48.777 E38.15455
G1 X86.799 Y46.514 E38.27293
G1 X86.405 Y46.319 F10800.000
G1 X83.555 Y47.204 F10800.000
G1 X83.389 Y46.485 E38.30968 F900.000
G1 X83.252 Y45.038 E38.38203
G1 X83.206 Y43.587 E38.45433
G1 X83.354 Y42.141 E38.52668
G1 X83.593 Y40.709 E38.59900
G1 X84.020 Y39.320 E38.67134
G1 X84.533 Y37.961 E38.74365
G1 X85.223 Y36.683 E38.81599
G1 X85.992 Y35.450 E38.88832
G1 X86.918 Y34.331 E38.96064
G1 X87.913 Y33.271 E39.03303
G1 X89.039 Y32.355 E39.10529
G1 X90.220 Y31.511 E39.17756
G1 X91.504 Y30.830 E39.24995
G1 X92.829 Y30.233 E39.32229
G1 X94.220 Y29.816 E39.39460
G1 X95.635 Y29.489 E39.46690
G1 X97.082 Y29.352 E39.53926
