; generated by Slic3r 1.2.9 on 2018-05-13 at 20:03:29

; external perimeters extrusion width = 0.40mm
; perimeters extrusion width = 0.62mm
; infill extrusion width = 0.33mm
; solid infill extrusion width = 0.62mm
; top infill extrusion width = 0.20mm

M106 S256; Turn on fan to 100% power
M104 S140; turn on extruder temperature at S value
M140 S60; turn on bed temperature at S value
G28; home all axes
M84; disable motors
G1 Z15 F15000; have Z move to 20mm at 15000 mm/min
M190 S55; turn on bed temperature at S value and wait
M140 S55; turn on bed temperature at S value (printing temperature)
M109 S200; turn on extruder temperature at S value and wait (printing temperature)
M104 S200; turn on extruder temperature at S value
G1 Z0 F12000; move Z back to home
G21 ; set units to millimeters
G90 ; use absolute coordinates
M82 ; use absolute distances for extrusion
G92 E0
M106 S255
;Layer change
G1 E-6.00000 F1800.00000
G92 E0
G1 Z0.300 F9000.000
G1 X35.732 Y39.685 F9000.000
G1 E6.00000 F1800.00000
G1 X48.262 Y28.403 E6.82977 F600.000
G1 X65.643 Y18.368 E7.81751
G1 X84.730 Y12.166 E8.80525 F600.000
G1 X104.690 Y10.068 E9.79299
G1 X124.650 Y12.166 E10.78072
G1 X143.737 Y18.368 E11.76846
G1 X161.118 Y28.403 E12.75620
G1 X176.033 Y41.832 E13.74394
G1 X187.830 Y58.069 E14.73168
G1 X195.993 Y76.404 E15.71942
G1 X200.166 Y96.035 E16.70715
G1 X200.166 Y116.105 E17.69489
G1 X195.993 Y135.736 E18.68263
G1 X187.830 Y154.071 E19.67037
G1 X176.033 Y170.308 E20.65810
G1 X161.118 Y183.737 E21.64584
G1 X143.737 Y193.772 E22.63358
G1 X124.650 Y199.974 E23.62132
G1 X104.690 Y202.072 E24.60906
G1 X84.730 Y199.974 E25.59679
G1 X65.643 Y193.772 E26.58453
G1 X48.262 Y183.737 E27.57227
G1 X33.347 Y170.308 E28.56001
G1 X21.550 Y154.071 E29.54774
G1 X13.387 Y135.736 E30.53548
G1 X9.214 Y116.105 E31.52322
G1 X9.214 Y96.035 E32.51096
G1 X13.387 Y76.404 E33.49870
G1 X21.550 Y58.069 E34.48643
G1 X33.347 Y41.832 E35.47417
G1 X35.687 Y39.725 E35.62918
G1 X35.990 Y39.971 F9000.000
G1 X48.490 Y28.717 E36.45696 F600.000
G1 X65.800 Y18.722 E37.44071
G1 X84.811 Y12.545 E38.42446
G1 X86.356 Y12.383 E38.50093
G1 X104.690 Y10.456 E39.40821 F600.000
G1 X124.569 Y12.545 E40.39196
G1 X143.580 Y18.722 E41.37571
G1 X160.890 Y28.717 E42.35945
G1 X175.745 Y42.092 E43.34320
G1 X187.494 Y58.263 E44.32695
G1 X195.624 Y76.524 E45.31070
G1 X199.780 Y96.076 E46.29445
G1 X199.780 Y116.064 E47.27820
G1 X195.624 Y135.616 E48.26194
G1 X187.494 Y153.877 E49.24569
G1 X175.745 Y170.048 E50.22944
G1 X160.890 Y183.423 E51.21319
G1 X143.580 Y193.418 E52.19694
G1 X124.569 Y199.595 E53.18069
G1 X104.690 Y201.684 E54.16444
G1 X84.811 Y199.595 E55.14818
G1 X65.800 Y193.418 E56.13193
G1 X48.490 Y183.423 E57.11568
G1 X33.635 Y170.048 E58.09943
G1 X21.886 Y153.877 E59.08318
G1 X13.756 Y135.616 E60.06693
G1 X9.600 Y116.064 E61.05067
G1 X9.600 Y96.076 E62.03442
G1 X13.756 Y76.524 E63.01817
G1 X21.886 Y58.263 E64.00192
G1 X33.635 Y42.092 E64.98567
G1 X35.945 Y40.011 E65.13869
G1 X36.248 Y40.258 F9000.000
G1 X48.717 Y29.030 E65.96447 F600.000
G1 X65.958 Y19.077 E66.94423
G1 X84.891 Y12.925 E67.92399 F600.000
G1 X104.690 Y10.844 E68.90375
G1 X124.489 Y12.925 E69.88351
G1 X143.422 Y19.077 E70.86327
G1 X160.663 Y29.030 E71.84302
G1 X175.457 Y42.351 E72.82279
G1 X187.158 Y58.457 E73.80254
G1 X195.256 Y76.643 E74.78230
G1 X199.395 Y96.116 E75.76206
G1 X199.395 Y116.024 E76.74182
G1 X195.256 Y135.497 E77.72158
G1 X187.158 Y153.683 E78.70134
G1 X175.457 Y169.789 E79.68110
G1 X160.663 Y183.110 E80.66086
G1 X143.422 Y193.063 E81.64061
G1 X124.489 Y199.215 E82.62038
G1 X104.690 Y201.296 E83.60013
G1 X84.891 Y199.215 E84.57989
G1 X65.958 Y193.063 E85.55965
G1 X48.717 Y183.110 E86.53941
G1 X33.923 Y169.789 E87.51917
G1 X22.222 Y153.683 E88.49893
G1 X14.124 Y135.497 E89.47869
G1 X9.985 Y116.024 E90.45845
G1 X9.985 Y96.116 E91.43821
G1 X14.124 Y76.643 E92.41797
G1 X22.222 Y58.457 E93.39773
G1 X33.923 Y42.351 E94.37748
G1 X36.204 Y40.298 E94.52851
G1 X36.165 Y39.866 F9000.000
G1 X16.400 Y18.213 F9000.000
G1 X16.307 Y18.296 E94.53465 F600.000
G1 X15.809 Y18.584 E94.56296
G1 X15.262 Y18.762 E94.59128
G1 X14.690 Y18.822 E94.61958
G1 X14.118 Y18.762 E94.64789
G1 X13.571 Y18.584 E94.67621
G1 X13.073 Y18.296 E94.70452
G1 X12.645 Y17.911 E94.73283
G1 X12.307 Y17.446 E94.76114
G1 X12.073 Y16.920 E94.78945
G1 X11.953 Y16.357 E94.81777
G1 X11.953 Y15.782 E94.84607
G1 X12.073 Y15.220 E94.87439
G1 X12.307 Y14.694 E94.90271
G1 X12.645 Y14.229 E94.93101
G1 X13.073 Y13.844 E94.95933
G1 X13.571 Y13.556 E94.98764
G1 X14.118 Y13.378 E95.01595
G1 X14.690 Y13.318 E95.04426 F600.000
G1 X15.262 Y13.378 E95.07257
G1 X15.809 Y13.556 E95.10089
G1 X16.307 Y13.844 E95.12920
G1 X16.735 Y14.229 E95.15751
G1 X17.073 Y14.694 E95.18582
G1 X17.307 Y15.220 E95.21413
G1 X17.427 Y15.782 E95.24245
G1 X17.427 Y16.357 E95.27075
G1 X17.307 Y16.920 E95.29907
G1 X17.073 Y17.446 E95.32739
G1 X16.735 Y17.911 E95.35569
G1 X16.445 Y18.173 E95.37491
G1 X16.142 Y17.926 F9000.000
G1 X16.079 Y17.983 E95.37906 F600.000
G1 X15.652 Y18.230 E95.40338
G1 X15.181 Y18.382 E95.42771
G1 X14.690 Y18.434 E95.45203
G1 X14.199 Y18.382 E95.47635
G1 X13.728 Y18.230 E95.50067
G1 X13.301 Y17.983 E95.52499
G1 X12.933 Y17.652 E95.54932
G1 X12.643 Y17.252 E95.57364
G1 X12.442 Y16.801 E95.59796
G1 X12.339 Y16.317 E95.62229
G1 X12.339 Y15.823 E95.64660
G1 X12.442 Y15.339 E95.67093
G1 X12.643 Y14.888 E95.69525
G1 X12.933 Y14.488 E95.71957
G1 X13.301 Y14.157 E95.74390
G1 X13.728 Y13.910 E95.76822
G1 X14.199 Y13.758 E95.79254
G1 X14.690 Y13.706 E95.81686 F600.000
G1 X15.181 Y13.758 E95.84118
G1 X15.652 Y13.910 E95.86551
G1 X16.079 Y14.157 E95.88983
G1 X16.447 Y14.488 E95.91415
G1 X16.737 Y14.888 E95.93847
G1 X16.938 Y15.339 E95.96280
G1 X17.041 Y15.823 E95.98713
G1 X17.041 Y16.317 E96.01144
G1 X16.938 Y16.801 E96.03577
G1 X16.737 Y17.252 E96.06009
G1 X16.447 Y17.652 E96.08441
G1 X16.187 Y17.886 E96.10163
G1 X15.884 Y17.640 F9000.000
G1 X15.494 Y17.875 E96.12408 F600.000
G1 X15.101 Y18.003 E96.14441
G1 X14.690 Y18.046 E96.16474
G1 X14.279 Y18.003 E96.18507
G1 X13.886 Y17.875 E96.20541
G1 X13.528 Y17.669 E96.22574
G1 X13.221 Y17.392 E96.24608
G1 X12.979 Y17.058 E96.26641
G1 X12.810 Y16.681 E96.28674
G1 X12.725 Y16.277 E96.30708
G1 X12.725 Y15.863 E96.32741
G1 X12.810 Y15.459 E96.34774
G1 X12.979 Y15.082 E96.36808
G1 X13.221 Y14.748 E96.38841
G1 X13.528 Y14.471 E96.40874
G1 X13.886 Y14.265 E96.42907
G1 X14.279 Y14.137 E96.44941
G1 X14.690 Y14.094 E96.46974 F600.000
G1 X15.101 Y14.137 E96.49007
G1 X15.494 Y14.265 E96.51041
G1 X15.852 Y14.471 E96.53074
G1 X16.159 Y14.748 E96.55107
G1 X16.401 Y15.082 E96.57140
G1 X16.570 Y15.459 E96.59174
G1 X16.655 Y15.863 E96.61207
G1 X16.655 Y16.277 E96.63240
G1 X16.570 Y16.681 E96.65274
G1 X16.401 Y17.058 E96.67307
G1 X16.159 Y17.392 E96.69340
G1 X15.929 Y17.599 E96.70863
G1 X15.917 Y18.038 F9000.000
G1 E90.70863 F1800.00000
G92 E0
G1 X14.690 Y193.318 F9000.000
G1 E6.00000 F1800.00000
G1 X15.262 Y193.378 E6.02831 F600.000
G1 X15.809 Y193.556 E6.05663
G1 X16.307 Y193.844 E6.08493
G1 X16.735 Y194.229 E6.11325
G1 X17.073 Y194.694 E6.14156
G1 X17.307 Y195.220 E6.16987
G1 X17.427 Y195.782 E6.19819
G1 X17.427 Y196.357 E6.22649
G1 X17.307 Y196.920 E6.25481
G1 X17.073 Y197.446 E6.28312
G1 X16.755 Y197.883 E6.30972
G1 X16.314 Y198.293 E6.33936
G1 X15.809 Y198.584 E6.36803
G1 X15.262 Y198.762 E6.39634
G1 X14.690 Y198.822 E6.42465
G1 X14.118 Y198.762 E6.45296
G1 X13.571 Y198.584 E6.48128
G1 X13.073 Y198.296 E6.50958
G1 X12.645 Y197.911 E6.53790
G1 X12.307 Y197.446 E6.56621
G1 X12.073 Y196.920 E6.59452
G1 X11.953 Y196.357 E6.62284
G1 X11.953 Y195.782 E6.65114
G1 X12.073 Y195.220 E6.67946
G1 X12.307 Y194.694 E6.70778
G1 X12.645 Y194.229 E6.73608
G1 X13.073 Y193.844 E6.76440
G1 X13.577 Y193.553 E6.79307
G1 X14.152 Y193.375 E6.82271
G1 X14.630 Y193.325 E6.84635 F600.000
G1 X14.690 Y193.706 F9000.000
G1 X15.181 Y193.758 E6.87067 F600.000
G1 X15.652 Y193.910 E6.89500
G1 X16.079 Y194.157 E6.91932
G1 X16.447 Y194.488 E6.94364
G1 X16.737 Y194.888 E6.96796
G1 X16.938 Y195.339 E6.99229
G1 X17.041 Y195.823 E7.01661
G1 X17.041 Y196.317 E7.04093
G1 X16.938 Y196.801 E7.06526
G1 X16.737 Y197.252 E7.08958
G1 X16.466 Y197.626 E7.11233
G1 X16.083 Y197.980 E7.13798
G1 X15.652 Y198.230 E7.16252
G1 X15.181 Y198.382 E7.18684
G1 X14.690 Y198.434 E7.21116
G1 X14.199 Y198.382 E7.23548
G1 X13.728 Y198.230 E7.25981
G1 X13.301 Y197.983 E7.28413
G1 X12.933 Y197.652 E7.30845
G1 X12.643 Y197.252 E7.33277
G1 X12.442 Y196.801 E7.35710
G1 X12.339 Y196.317 E7.38142
G1 X12.339 Y195.823 E7.40574
G1 X12.442 Y195.339 E7.43007
G1 X12.643 Y194.888 E7.45439
G1 X12.933 Y194.488 E7.47871
G1 X13.301 Y194.157 E7.50303
G1 X13.732 Y193.908 E7.52757
G1 X14.230 Y193.754 E7.55322
G1 X14.630 Y193.712 E7.57302 F600.000
G1 X14.690 Y194.094 F9000.000
G1 X15.101 Y194.137 E7.59335 F600.000
G1 X15.494 Y194.265 E7.61369
G1 X15.852 Y194.471 E7.63402
G1 X16.159 Y194.748 E7.65435
G1 X16.401 Y195.082 E7.67468
G1 X16.570 Y195.459 E7.69502
G1 X16.655 Y195.863 E7.71535
G1 X16.655 Y196.277 E7.73568
G1 X16.570 Y196.681 E7.75602
G1 X16.401 Y197.058 E7.77635
G1 X16.176 Y197.369 E7.79525
G1 X15.853 Y197.668 E7.81691
G1 X15.494 Y197.875 E7.83732
G1 X15.101 Y198.003 E7.85766
G1 X14.690 Y198.046 E7.87799
G1 X14.279 Y198.003 E7.89832
G1 X13.886 Y197.875 E7.91866
G1 X13.528 Y197.669 E7.93899
G1 X13.221 Y197.392 E7.95932
G1 X12.979 Y197.058 E7.97965
G1 X12.810 Y196.681 E7.99999
G1 X12.725 Y196.277 E8.02032
G1 X12.725 Y195.863 E8.04065
G1 X12.810 Y195.459 E8.06099
G1 X12.979 Y195.082 E8.08132
G1 X13.221 Y194.748 E8.10165
G1 X13.528 Y194.471 E8.12199
G1 X13.888 Y194.264 E8.14240
G1 X14.308 Y194.134 E8.16406
G1 X14.630 Y194.100 E8.18001 F600.000
G1 X14.902 Y193.755 F9000.000
G1 E2.18001 F1800.00000
G92 E0
G1 X191.953 Y195.782 F9000.000
G1 E6.00000 F1800.00000
G1 X192.073 Y195.220 E6.02832 F600.000
G1 X192.307 Y194.694 E6.05663
G1 X192.645 Y194.229 E6.08494
G1 X193.073 Y193.844 E6.11326
G1 X193.566 Y193.559 E6.14130
G1 X194.095 Y193.381 E6.16878
G1 X194.690 Y193.318 E6.19821 F600.000
G1 X195.262 Y193.378 E6.22652
G1 X195.809 Y193.556 E6.25484
G1 X196.307 Y193.844 E6.28314
G1 X196.735 Y194.229 E6.31146
G1 X197.073 Y194.694 E6.33977
G1 X197.307 Y195.220 E6.36808
G1 X197.427 Y195.782 E6.39640
G1 X197.427 Y196.357 E6.42470
G1 X197.307 Y196.920 E6.45302
G1 X197.073 Y197.446 E6.48133
G1 X196.735 Y197.911 E6.50964
G1 X196.307 Y198.296 E6.53796
G1 X195.809 Y198.584 E6.56626
G1 X195.262 Y198.762 E6.59458
G1 X194.690 Y198.822 E6.62289
G1 X194.118 Y198.762 E6.65120
G1 X193.571 Y198.584 E6.67951
G1 X193.073 Y198.296 E6.70782
G1 X192.645 Y197.911 E6.73614
G1 X192.307 Y197.446 E6.76444
G1 X192.073 Y196.920 E6.79276
G1 X191.953 Y196.357 E6.82108
G1 X191.953 Y195.842 E6.84642
G1 X192.339 Y195.823 F9000.000
G1 X192.442 Y195.339 E6.87075 F600.000
G1 X192.643 Y194.888 E6.89508
G1 X192.933 Y194.488 E6.91940
G1 X193.301 Y194.157 E6.94372
G1 X193.726 Y193.912 E6.96788
G1 X194.178 Y193.760 E6.99137
G1 X194.690 Y193.706 E7.01671 F600.000
G1 X195.181 Y193.758 E7.04103
G1 X195.652 Y193.910 E7.06535
G1 X196.079 Y194.157 E7.08967
G1 X196.447 Y194.488 E7.11400
G1 X196.737 Y194.888 E7.13832
G1 X196.938 Y195.339 E7.16264
G1 X197.041 Y195.823 E7.18697
G1 X197.041 Y196.317 E7.21128
G1 X196.938 Y196.801 E7.23561
G1 X196.737 Y197.252 E7.25994
G1 X196.447 Y197.652 E7.28425
G1 X196.079 Y197.983 E7.30858
G1 X195.652 Y198.230 E7.33290
G1 X195.181 Y198.382 E7.35722
G1 X194.690 Y198.434 E7.38155
G1 X194.199 Y198.382 E7.40587
G1 X193.728 Y198.230 E7.43019
G1 X193.301 Y197.983 E7.45451
G1 X192.933 Y197.652 E7.47884
G1 X192.643 Y197.252 E7.50315
G1 X192.442 Y196.801 E7.52748
G1 X192.339 Y196.317 E7.55181
G1 X192.339 Y195.883 E7.57317
G1 X192.725 Y195.863 F9000.000
G1 X192.810 Y195.459 E7.59350 F600.000
G1 X192.979 Y195.082 E7.61384
G1 X193.221 Y194.748 E7.63417
G1 X193.528 Y194.471 E7.65450
G1 X193.885 Y194.265 E7.67478
G1 X194.261 Y194.139 E7.69427
G1 X194.690 Y194.094 E7.71552 F600.000
G1 X195.101 Y194.137 E7.73585
G1 X195.494 Y194.265 E7.75619
G1 X195.852 Y194.471 E7.77652
G1 X196.159 Y194.748 E7.79685
G1 X196.401 Y195.082 E7.81719
G1 X196.570 Y195.459 E7.83752
G1 X196.655 Y195.863 E7.85786
G1 X196.655 Y196.277 E7.87818
G1 X196.570 Y196.681 E7.89852
G1 X196.401 Y197.058 E7.91886
G1 X196.159 Y197.392 E7.93919
G1 X195.852 Y197.669 E7.95952
G1 X195.494 Y197.875 E7.97985
G1 X195.101 Y198.003 E8.00019
G1 X194.690 Y198.046 E8.02052
G1 X194.279 Y198.003 E8.04085
G1 X193.886 Y197.875 E8.06119
G1 X193.528 Y197.669 E8.08152
G1 X193.221 Y197.392 E8.10185
G1 X192.979 Y197.058 E8.12218
G1 X192.810 Y196.681 E8.14252
G1 X192.725 Y196.277 E8.16285
G1 X192.725 Y195.923 E8.18023
G1 X192.409 Y195.617 F9000.000
G1 E2.18023 F1800.00000
G92 E0
G1 X194.690 Y18.822 F9000.000
G1 E6.00000 F1800.00000
G1 X194.118 Y18.762 E6.02831 F600.000
G1 X193.571 Y18.584 E6.05663
G1 X193.073 Y18.296 E6.08493
G1 X192.645 Y17.911 E6.11325
G1 X192.307 Y17.446 E6.14156
G1 X192.073 Y16.920 E6.16987
G1 X191.953 Y16.357 E6.19819
G1 X191.953 Y15.782 E6.22649
G1 X192.073 Y15.220 E6.25481
G1 X192.307 Y14.694 E6.28312
G1 X192.645 Y14.229 E6.31143
G1 X193.073 Y13.844 E6.33975
G1 X193.577 Y13.553 E6.36841
G1 X194.152 Y13.375 E6.39805
G1 X194.690 Y13.318 E6.42465 F600.000
G1 X195.262 Y13.378 E6.45296
G1 X195.809 Y13.556 E6.48128
G1 X196.307 Y13.844 E6.50959
G1 X196.735 Y14.229 E6.53790
G1 X197.073 Y14.694 E6.56621
G1 X197.307 Y15.220 E6.59452
G1 X197.427 Y15.782 E6.62284
G1 X197.427 Y16.357 E6.65114
G1 X197.307 Y16.920 E6.67946
G1 X197.073 Y17.446 E6.70778
G1 X196.731 Y17.917 E6.73644
G1 X196.277 Y18.314 E6.76608
G1 X195.809 Y18.584 E6.79268
G1 X195.262 Y18.762 E6.82100
G1 X194.750 Y18.815 E6.84635
G1 X194.690 Y18.434 F9000.000
G1 X194.199 Y18.382 E6.87067 F600.000
G1 X193.728 Y18.230 E6.89500
G1 X193.301 Y17.983 E6.91932
G1 X192.933 Y17.652 E6.94364
G1 X192.643 Y17.252 E6.96796
G1 X192.442 Y16.801 E6.99229
G1 X192.339 Y16.317 E7.01661
G1 X192.339 Y15.823 E7.04093
G1 X192.442 Y15.339 E7.06525
G1 X192.643 Y14.888 E7.08958
G1 X192.933 Y14.488 E7.11390
G1 X193.301 Y14.157 E7.13823
G1 X193.732 Y13.908 E7.16276
G1 X194.230 Y13.754 E7.18841
G1 X194.690 Y13.706 E7.21116 F600.000
G1 X195.181 Y13.758 E7.23548
G1 X195.652 Y13.910 E7.25981
G1 X196.079 Y14.157 E7.28413
G1 X196.447 Y14.488 E7.30845
G1 X196.737 Y14.888 E7.33277
G1 X196.938 Y15.339 E7.35710
G1 X197.041 Y15.823 E7.38142
G1 X197.041 Y16.317 E7.40574
G1 X196.938 Y16.801 E7.43007
G1 X196.737 Y17.252 E7.45439
G1 X196.444 Y17.655 E7.47893
G1 X196.052 Y17.998 E7.50458
G1 X195.652 Y18.230 E7.52733
G1 X195.181 Y18.382 E7.55165
G1 X194.750 Y18.428 E7.57302
G1 X194.690 Y18.046 F9000.000
G1 X194.279 Y18.003 E7.59335 F600.000
G1 X193.886 Y17.875 E7.61369
G1 X193.528 Y17.669 E7.63402
G1 X193.221 Y17.392 E7.65435
G1 X192.979 Y17.058 E7.67469
G1 X192.810 Y16.681 E7.69502
G1 X192.725 Y16.277 E7.71536
G1 X192.725 Y15.863 E7.73568
G1 X192.810 Y15.459 E7.75602
G1 X192.979 Y15.082 E7.77635
G1 X193.221 Y14.748 E7.79669
G1 X193.528 Y14.471 E7.81702
G1 X193.888 Y14.264 E7.83743
G1 X194.308 Y14.134 E7.85909
G1 X194.690 Y14.094 E7.87799 F600.000
G1 X195.101 Y14.137 E7.89832
G1 X195.494 Y14.265 E7.91866
G1 X195.852 Y14.471 E7.93899
G1 X196.159 Y14.748 E7.95932
G1 X196.401 Y15.082 E7.97965
G1 X196.570 Y15.459 E7.99999
G1 X196.655 Y15.863 E8.02032
G1 X196.655 Y16.277 E8.04065
G1 X196.570 Y16.681 E8.06099
G1 X196.401 Y17.058 E8.08132
G1 X196.158 Y17.394 E8.10174
G1 X195.826 Y17.683 E8.12339
G1 X195.494 Y17.875 E8.14229
G1 X195.101 Y18.003 E8.16263
G1 X194.750 Y18.040 E8.18001
G1 X194.478 Y18.385 F9000.000
G1 E2.18001 F1800.00000
G92 E0
G1 X203.694 Y7.066 F9000.000
G1 E6.00000 F1800.00000
G1 X203.694 Y205.074 E15.74495 F600.000
G1 X5.686 Y205.074 E25.48991
G1 X5.686 Y7.066 E35.23486
G1 X203.634 Y7.066 E44.97686
G1 X204.079 Y6.681 F9000.000
G1 X204.079 Y205.459 E54.75977 F600.000
G1 X5.301 Y205.459 E64.54269
G1 X5.301 Y6.681 E74.32560
G1 X204.019 Y6.681 E84.10555
G1 X204.465 Y6.295 F9000.000
G1 X204.465 Y205.845 E93.92642 F600.000
G1 X4.915 Y205.845 E103.74729
G1 X4.915 Y6.295 E113.56816
G1 X204.405 Y6.295 E123.38607
G1 X204.265 Y6.641 F9000.000
G1 X203.410 Y7.554 F9000.000
