; generated by Slic3r 1.2.9 on 2017-01-16 at 16:16:43

; external perimeters extrusion width = 0.40mm
; perimeters extrusion width = 0.56mm
; infill extrusion width = 0.31mm
; solid infill extrusion width = 0.56mm
; top infill extrusion width = 0.22mm

M107
M106 S256; Turn on fan to 100% power
M104 S141; turn on extruder temperature at S value
M140 S45; turn on bed temperature at S value
G28; home all axes
M84; disable motors
G1 Z15 F15000; have Z move to 20mm at 15000 mm/min
M190 S50; turn on bed temperature at S value and wait
M140 S55; turn on bed temperature at S value (printing temperature)
M109 S205; turn on extruder temperature at S value and wait (printing temperature)
M104 S203; turn on extruder temperature at S value
G1 Z0 F12000; move Z back to home
G21 ; set units to millimeters
G90 ; use absolute coordinates
M82 ; use absolute distances for extrusion
G92 E0
;Layer change
G1 E-6.00000 F1800.00000
G92 E0
G1 Z0.300 F10800.000
G1 X40.352 Y51.849 F10800.000
G1 E6.00000 F1800.00000
G1 X60.459 Y36.200 E7.26859 F900.000
G1 X60.745 Y35.991 E7.28622
G1 X61.740 Y35.445 E7.34273
G1 X68.128 Y32.719 E7.68854
G1 X101.566 Y19.686 E9.47534
G1 X101.984 Y19.541 E9.49738
G1 X103.485 Y19.085 E9.57549
G1 X104.600 Y18.864 E9.63207
G1 X106.161 Y18.711 E9.71017
G1 X107.286 Y18.711 E9.76622
G1 X108.848 Y18.864 E9.84432 F900.000
G1 X109.962 Y19.085 E9.90090
G1 X111.463 Y19.541 E9.97900
G1 X112.504 Y19.973 E10.03509
G1 X113.888 Y20.712 E10.11321
G1 X114.627 Y21.181 E10.15679
G1 X124.737 Y28.744 E10.78542
G1 X129.952 Y32.923 E11.11819
G1 X135.024 Y37.403 E11.45508
G1 X139.921 Y42.172 E11.79543
G1 X144.482 Y47.067 E12.12854
G1 X148.847 Y52.230 E12.46517
G1 X153.121 Y57.824 E12.81566
G1 X156.878 Y63.273 E13.14520
G1 X159.707 Y67.597 E13.40247
G1 X159.968 Y68.038 E13.42801
G1 X160.707 Y69.422 E13.50613
G1 X161.139 Y70.463 E13.56222
G1 X161.595 Y71.964 E13.64033
G1 X161.816 Y73.079 E13.69691
G1 X161.969 Y74.640 E13.77500
G1 X161.969 Y75.765 E13.83106
G1 X161.816 Y77.326 E13.90915
G1 X161.707 Y78.013 E13.94377
G1 X152.255 Y120.627 E16.11705
G1 X151.969 Y121.546 E16.16497
G1 X149.455 Y127.746 E16.49807
G1 X148.880 Y128.821 E16.55878
G1 X145.128 Y134.342 E16.89113
G1 X144.371 Y135.243 E16.94971
G1 X139.587 Y139.879 E17.28139
G1 X138.695 Y140.587 E17.33808
G1 X133.104 Y144.187 E17.66917
G1 X132.126 Y144.692 E17.72396
G1 X125.964 Y147.161 E18.05447
G1 X125.360 Y147.365 E18.08620
G1 X76.380 Y160.954 E20.61698
G1 X75.400 Y161.136 E20.66661
G1 X73.839 Y161.289 E20.74470
G1 X72.714 Y161.289 E20.80076
G1 X71.153 Y161.136 E20.87885
G1 X70.038 Y160.915 E20.93544
G1 X68.537 Y160.459 E21.01354
G1 X67.496 Y160.027 E21.06963
G1 X66.112 Y159.288 E21.14774
G1 X65.418 Y158.852 E21.18856
G1 X60.605 Y155.323 E21.48571
G1 X55.405 Y151.462 E21.80818
G1 X50.175 Y147.177 E22.14483
G1 X45.159 Y142.646 E22.48136
G1 X40.367 Y137.872 E22.81815
G1 X35.811 Y132.874 E23.15488
G1 X31.501 Y127.659 E23.49173
G1 X27.407 Y122.183 E23.83211
G1 X20.458 Y112.641 E24.41985
G1 X20.032 Y111.962 E24.45978
G1 X19.293 Y110.578 E24.53790
G1 X18.861 Y109.537 E24.59399
G1 X18.405 Y108.036 E24.67209
G1 X18.184 Y106.921 E24.72867
G1 X18.031 Y105.360 E24.80677
G1 X18.003 Y104.797 E24.83483
G1 X18.031 Y104.235 E24.86289
G1 X18.210 Y102.452 E24.95208
G1 X22.828 Y68.786 E26.64397
G1 X23.139 Y67.551 E26.70740
G1 X23.305 Y67.145 E26.72923
G1 X23.787 Y66.136 E26.78489
G1 X24.081 Y65.661 E26.81270
G1 X24.421 Y65.209 E26.84087
G1 X25.840 Y63.516 E26.95085
G1 X26.144 Y63.198 E26.97278
G1 X27.419 Y61.953 E27.06149
G1 X27.871 Y61.562 E27.09124
G1 X40.304 Y51.886 E27.87567
G1 X40.589 Y52.153 F10800.000
G1 X60.696 Y36.504 E29.14426 F900.000
G1 X60.963 Y36.309 E29.16073
G1 X61.891 Y35.799 E29.21346
G1 X68.268 Y33.078 E29.55866
G1 X101.706 Y20.046 E31.34546
G1 X102.096 Y19.910 E31.36602
G1 X103.597 Y19.454 E31.44413
G1 X104.637 Y19.248 E31.49693
G1 X106.198 Y19.095 E31.57503
G1 X107.249 Y19.095 E31.62734
G1 X108.810 Y19.248 E31.70543 F900.000
G1 X109.850 Y19.454 E31.75823
G1 X111.351 Y19.910 E31.83634
G1 X112.322 Y20.313 E31.88868
G1 X113.706 Y21.052 E31.96680
G1 X114.396 Y21.490 E32.00747
G1 X124.506 Y29.053 E32.63609
G1 X129.711 Y33.224 E32.96822
G1 X134.769 Y37.691 E33.30418
G1 X139.649 Y42.444 E33.64336
G1 X144.200 Y47.329 E33.97578
G1 X148.553 Y52.479 E34.31148
G1 X152.804 Y58.042 E34.66010
G1 X156.555 Y63.484 E34.98918
G1 X159.384 Y67.808 E35.24645
G1 X159.628 Y68.220 E35.27028
G1 X160.367 Y69.604 E35.34840
G1 X160.770 Y70.575 E35.40074
G1 X161.226 Y72.076 E35.47885
G1 X161.432 Y73.116 E35.53165
G1 X161.585 Y74.677 E35.60974
G1 X161.585 Y75.728 E35.66205
G1 X161.432 Y77.289 E35.74015
G1 X161.330 Y77.930 E35.77246
G1 X151.878 Y120.544 E37.94573
G1 X151.611 Y121.401 E37.99045
G1 X149.097 Y127.601 E38.32355
G1 X148.561 Y128.605 E38.38020
G1 X144.809 Y134.126 E38.71256
G1 X144.102 Y134.966 E38.76722
G1 X139.318 Y139.602 E39.09890
G1 X138.486 Y140.263 E39.15181
G1 X132.895 Y143.863 E39.48289
G1 X131.983 Y144.334 E39.53402
G1 X125.821 Y146.803 E39.86453
G1 X125.257 Y146.993 E39.89414
G1 X76.277 Y160.582 E42.42492
G1 X75.363 Y160.752 E42.47123
G1 X73.802 Y160.905 E42.54933
G1 X72.751 Y160.905 E42.60164
G1 X71.190 Y160.752 E42.67973
G1 X70.150 Y160.546 E42.73253
G1 X68.649 Y160.090 E42.81064
G1 X67.678 Y159.687 E42.86298
G1 X66.294 Y158.948 E42.94109
G1 X65.646 Y158.541 E42.97919
G1 X60.835 Y155.014 E43.27622
G1 X55.635 Y151.153 E43.59869
G1 X50.419 Y146.879 E43.93440
G1 X45.418 Y142.360 E44.27000
G1 X40.639 Y137.599 E44.60586
G1 X36.096 Y132.614 E44.94166
G1 X31.799 Y127.413 E45.27758
G1 X27.719 Y121.956 E45.61681
G1 X20.769 Y112.414 E46.20455
G1 X20.372 Y111.780 E46.24181
G1 X19.633 Y110.396 E46.31993
G1 X19.230 Y109.425 E46.37227
G1 X18.774 Y107.924 E46.45038
G1 X18.568 Y106.884 E46.50318
G1 X18.415 Y105.323 E46.58127
G1 X18.389 Y104.797 E46.60746
G1 X18.415 Y104.272 E46.63365
G1 X18.592 Y102.505 E46.72209
G1 X23.210 Y68.839 E48.41398
G1 X23.500 Y67.686 E48.47317
G1 X23.656 Y67.305 E48.49368
G1 X24.124 Y66.324 E48.54777
G1 X24.400 Y65.878 E48.57390
G1 X24.718 Y65.456 E48.60019
G1 X26.129 Y63.772 E48.70958
G1 X27.686 Y62.231 E48.81864
G1 X28.108 Y61.866 E48.84641
G1 X40.541 Y52.190 E49.63084
G1 E43.63084 F1800.00000
G92 E0
G1 X71.975 Y142.069 F10800.000
G1 E6.00000 F1800.00000
G1 X72.303 Y142.040 E6.01639 F900.000
G1 X73.472 Y141.936 E6.07485 F900.000
G1 X74.950 Y142.213 E6.14969
G1 X76.299 Y142.878 E6.22458
G1 X77.416 Y143.883 E6.29941
G1 X78.222 Y145.151 E6.37421
G1 X78.657 Y146.591 E6.44911
G1 X78.687 Y148.095 E6.52400
G1 X78.308 Y149.550 E6.59883
G1 X77.552 Y150.850 E6.67370
G1 X76.474 Y151.896 E6.74854
G1 X75.153 Y152.613 E6.82336
G1 X73.688 Y152.948 E6.89816
G1 X72.187 Y152.876 E6.97302
G1 X70.760 Y152.399 E7.04790
G1 X69.516 Y151.557 E7.12271
G1 X68.544 Y150.409 E7.19761
G1 X67.919 Y149.043 E7.27240
G1 X67.685 Y147.558 E7.34724
G1 X67.860 Y146.065 E7.42210
G1 X68.432 Y144.674 E7.49696
G1 X69.358 Y143.490 E7.57183
G1 X70.569 Y142.600 E7.64665
G1 X71.919 Y142.090 E7.71848
G1 X72.061 Y142.448 F10800.000
G1 X72.337 Y142.424 E7.73223 F900.000
G1 X73.453 Y142.325 E7.78805 F900.000
G1 X74.826 Y142.583 E7.85761
G1 X76.080 Y143.201 E7.92722
G1 X77.119 Y144.135 E7.99677
G1 X77.869 Y145.313 E8.06631
G1 X78.273 Y146.652 E8.13592
G1 X78.300 Y148.049 E8.20552
G1 X77.948 Y149.401 E8.27507
G1 X77.246 Y150.610 E8.34467
G1 X76.243 Y151.583 E8.41423
G1 X75.016 Y152.249 E8.48377
G1 X73.654 Y152.560 E8.55331
G1 X72.258 Y152.493 E8.62288
G1 X70.932 Y152.050 E8.69248
G1 X69.776 Y151.268 E8.76201
G1 X68.873 Y150.200 E8.83163
G1 X68.292 Y148.931 E8.90115
G1 X68.074 Y147.550 E8.97072
G1 X68.237 Y146.162 E9.04030
G1 X68.768 Y144.870 E9.10987
G1 X69.629 Y143.769 E9.17946
G1 X70.755 Y142.942 E9.24901
G1 X72.005 Y142.469 E9.31557
G1 X72.148 Y142.828 F10800.000
G1 X72.371 Y142.808 E9.32669 F900.000
G1 X73.434 Y142.714 E9.37986 F900.000
G1 X74.703 Y142.952 E9.44414
G1 X75.862 Y143.523 E9.50847
G1 X76.822 Y144.386 E9.57274
G1 X77.515 Y145.476 E9.63701
G1 X77.888 Y146.712 E9.70134
G1 X77.914 Y148.004 E9.76565
G1 X77.588 Y149.253 E9.82993
G1 X76.939 Y150.370 E9.89425
G1 X76.013 Y151.269 E9.95853
G1 X74.878 Y151.885 E10.02280
G1 X73.620 Y152.172 E10.08707
G1 X72.330 Y152.110 E10.15136
G1 X71.105 Y151.701 E10.21567
G1 X70.036 Y150.978 E10.27993
G1 X69.201 Y149.992 E10.34426
G1 X68.664 Y148.818 E10.40851
G1 X68.463 Y147.543 E10.47281
G1 X68.614 Y146.260 E10.53711
G1 X69.105 Y145.066 E10.60140
G1 X69.900 Y144.048 E10.66571
G1 X70.940 Y143.284 E10.72997
G1 X72.092 Y142.849 E10.79127
G1 X72.235 Y143.207 F10800.000
G1 X72.405 Y143.192 E10.79975 F900.000
G1 X73.416 Y143.103 E10.85028 F900.000
G1 X74.580 Y143.321 E10.90928
G1 X75.644 Y143.845 E10.96832
G1 X76.525 Y144.638 E11.02732
G1 X77.161 Y145.638 E11.08633
G1 X77.504 Y146.773 E11.14537
G1 X77.527 Y147.958 E11.20439
G1 X77.228 Y149.105 E11.26339
G1 X76.632 Y150.130 E11.32244
G1 X75.782 Y150.955 E11.38144
G1 X74.741 Y151.521 E11.44043
G1 X73.585 Y151.785 E11.49943
G1 X72.402 Y151.728 E11.55844
G1 X71.277 Y151.352 E11.61748
G1 X70.296 Y150.689 E11.67646
G1 X69.530 Y149.783 E11.73550
G1 X69.037 Y148.706 E11.79448
G1 X68.852 Y147.535 E11.85350
G1 X68.991 Y146.358 E11.91253
G1 X69.441 Y145.261 E11.97154
G1 X70.171 Y144.328 E12.03056
G1 X71.126 Y143.626 E12.08955
G1 X72.179 Y143.228 E12.14557
G1 X72.292 Y143.047 F10800.000
G1 X73.039 Y140.736 F10800.000
G1 X70.746 Y141.433 E12.26492 F900.000
G1 X69.602 Y142.044 E12.32951
G1 X68.599 Y142.866 E12.39405
G1 X67.777 Y143.869 E12.45859
G1 X67.166 Y145.013 E12.52317
G1 X66.528 Y147.112 E12.63243
G1 X61.515 Y143.475 E12.94084
G1 X56.623 Y139.545 E13.25322
G1 X51.933 Y135.379 E13.56559
G1 X47.452 Y130.989 E13.87793
G1 X43.194 Y126.381 E14.19029
G1 X39.167 Y121.570 E14.50266
G1 X35.382 Y116.567 E14.81502
G1 X32.001 Y111.608 E15.11384
G1 X34.307 Y110.908 E15.23386
G1 X35.451 Y110.297 E15.29844
G1 X36.454 Y109.475 E15.36298
G1 X37.275 Y108.474 E15.42743
G1 X37.892 Y107.309 E15.49307
G1 X38.537 Y105.186 E15.60353
G1 X43.438 Y108.742 E15.90500
G1 X48.330 Y112.672 E16.21739
G1 X53.020 Y116.838 E16.52976
G1 X57.501 Y121.228 E16.84209
G1 X61.759 Y125.836 E17.15445
G1 X65.786 Y130.647 E17.46682
G1 X69.571 Y135.650 E17.77918
G1 X73.006 Y140.687 E18.08272
G1 X72.425 Y140.520 F10800.000
G1 X70.598 Y141.075 E18.17782 F900.000
G1 X69.386 Y141.722 E18.24618
G1 X68.325 Y142.592 E18.31451
G1 X67.455 Y143.653 E18.38284
G1 X66.808 Y144.865 E18.45120
G1 X66.317 Y146.483 E18.53539
G1 X61.749 Y143.168 E18.81638
G1 X56.872 Y139.251 E19.12782
G1 X52.196 Y135.097 E19.43924
G1 X47.729 Y130.720 E19.75064
G1 X43.483 Y126.127 E20.06205
G1 X39.469 Y121.330 E20.37347
G1 X35.695 Y116.342 E20.68488
G1 X32.615 Y111.825 E20.95710
G1 X34.455 Y111.266 E21.05287
G1 X35.667 Y110.619 E21.12123
G1 X36.728 Y109.749 E21.18956
G1 X37.597 Y108.689 E21.25782
G1 X38.251 Y107.457 E21.32723
G1 X38.749 Y105.816 E21.41261
G1 X43.204 Y109.049 E21.68666
G1 X48.081 Y112.966 E21.99810
G1 X52.757 Y117.120 E22.30952
G1 X57.224 Y121.497 E22.62091
G1 X61.470 Y126.090 E22.93232
G1 X65.484 Y130.887 E23.24375
G1 X69.258 Y135.875 E23.55516
G1 X72.391 Y140.471 E23.83210
G1 X71.811 Y140.304 F10800.000
G1 X70.449 Y140.717 E23.90295 F900.000
G1 X69.171 Y141.400 E23.97509
G1 X68.051 Y142.318 E24.04720
G1 X67.133 Y143.438 E24.11932
G1 X66.450 Y144.716 E24.19145
G1 X66.105 Y145.853 E24.25058
G1 X61.983 Y142.862 E24.50415
G1 X57.121 Y138.956 E24.81464
G1 X52.459 Y134.815 E25.12512
G1 X48.005 Y130.451 E25.43557
G1 X43.773 Y125.872 E25.74603
G1 X39.771 Y121.090 E26.05651
G1 X36.008 Y116.117 E26.36698
G1 X33.229 Y112.041 E26.61259
G1 X34.604 Y111.624 E26.68411
G1 X35.882 Y110.941 E26.75625
G1 X37.002 Y110.023 E26.82836
G1 X37.920 Y108.903 E26.90044
G1 X38.609 Y107.605 E26.97363
G1 X38.961 Y106.446 E27.03391
G1 X42.970 Y109.355 E27.28055
G1 X47.832 Y113.261 E27.59104
G1 X52.494 Y117.402 E27.90152
G1 X56.948 Y121.766 E28.21196
G1 X61.180 Y126.345 E28.52243
G1 X65.182 Y131.127 E28.83290
G1 X68.945 Y136.100 E29.14337
G1 X71.777 Y140.254 E29.39371
G1 X71.197 Y140.087 F10800.000
G1 X70.301 Y140.359 E29.44031 F900.000
G1 X68.956 Y141.078 E29.51622
G1 X67.777 Y142.044 E29.59212
G1 X66.811 Y143.223 E29.66803
G1 X66.092 Y144.568 E29.74394
G1 X65.894 Y145.223 E29.77800
G1 X62.217 Y142.555 E30.00415
G1 X57.370 Y138.661 E30.31370
G1 X52.722 Y134.533 E30.62323
G1 X48.282 Y130.182 E30.93273
G1 X44.063 Y125.617 E31.24225
G1 X40.072 Y120.850 E31.55178
G1 X36.322 Y115.892 E31.86131
G1 X33.844 Y112.258 E32.08031
G1 X34.752 Y111.982 E32.12758
G1 X36.097 Y111.263 E32.20350
G1 X37.276 Y110.297 E32.27940
G1 X38.242 Y109.118 E32.35529
G1 X38.967 Y107.753 E32.43225
G1 X39.172 Y107.076 E32.46745
G1 X42.736 Y109.662 E32.68666
G1 X47.583 Y113.556 E32.99621
G1 X52.231 Y117.684 E33.30574
G1 X56.671 Y122.035 E33.61524
G1 X60.890 Y126.600 E33.92476
G1 X64.881 Y131.367 E34.23429
G1 X68.631 Y136.325 E34.54382
G1 X71.163 Y140.038 E34.76754
G1 X71.351 Y140.456 F10800.000
G1 X74.674 Y137.688 F10800.000
G1 X75.945 Y139.530 E34.87896 F900.000
G1 X78.202 Y143.169 E35.09213
G1 X78.776 Y143.869 E35.13719
G1 X79.387 Y145.013 E35.20178
G1 X79.764 Y146.253 E35.26633
G1 X79.890 Y147.544 E35.33087
G1 X79.764 Y148.834 E35.39541
G1 X79.387 Y150.074 E35.45996
G1 X78.776 Y151.218 E35.52455
G1 X77.954 Y152.221 E35.58909
G1 X76.951 Y153.043 E35.65362
G1 X75.807 Y153.654 E35.71821
G1 X74.567 Y154.031 E35.78276
G1 X73.276 Y154.157 E35.84730
G1 X71.986 Y154.031 E35.91185
G1 X70.746 Y153.654 E35.97640
G1 X69.602 Y153.043 E36.04099
G1 X68.599 Y152.221 E36.10552
G1 X68.390 Y151.965 E36.12198
G1 X64.845 Y149.562 E36.33517
G1 X59.696 Y145.739 E36.65449
G1 X54.739 Y141.670 E36.97381
G1 X49.985 Y137.366 E37.29311
G1 X45.443 Y132.833 E37.61258
G1 X41.125 Y128.085 E37.93210
G1 X37.041 Y123.133 E38.25171
G1 X33.200 Y117.986 E38.57148
G1 X29.609 Y112.656 E38.89145
G1 X28.225 Y110.398 E39.02332
G1 X27.099 Y109.475 E39.09581
G1 X26.277 Y108.472 E39.16035
G1 X25.666 Y107.328 E39.22493
G1 X25.289 Y106.088 E39.28948
G1 X25.163 Y104.797 E39.35403
G1 X25.289 Y103.507 E39.41857
G1 X25.666 Y102.267 E39.48312
G1 X26.277 Y101.123 E39.54771
G1 X27.099 Y100.120 E39.61224
G1 X28.102 Y99.298 E39.67678
G1 X29.246 Y98.687 E39.74137
G1 X30.486 Y98.310 E39.80592
G1 X31.777 Y98.184 E39.87046
G1 X33.067 Y98.310 E39.93500
G1 X34.307 Y98.687 E39.99955 F900.000
G1 X35.451 Y99.298 E40.06414
G1 X36.454 Y100.120 E40.12868
G1 X37.160 Y100.981 E40.18412
G1 X40.295 Y103.033 E40.37065
G1 X45.494 Y106.805 E40.69048
G1 X50.504 Y110.824 E41.01024
G1 X55.312 Y115.078 E41.32988
G1 X59.905 Y119.559 E41.64938
G1 X64.276 Y124.256 E41.96884
G1 X68.412 Y129.158 E42.28816
G1 X72.305 Y134.254 E42.60745
G1 X74.640 Y137.639 E42.81221
G1 X74.992 Y137.469 F10800.000
G1 X76.268 Y139.319 E42.92409 F900.000
G1 X78.516 Y142.944 E43.13646
G1 X79.098 Y143.653 E43.18215
G1 X79.745 Y144.865 E43.25051
G1 X80.144 Y146.178 E43.31884
G1 X80.277 Y147.544 E43.38717
G1 X80.144 Y148.909 E43.45549
G1 X79.745 Y150.222 E43.52382
G1 X79.098 Y151.434 E43.59218
G1 X78.228 Y152.495 E43.66051
G1 X77.167 Y153.365 E43.72884
G1 X75.955 Y154.012 E43.79720
G1 X74.642 Y154.411 E43.86553
G1 X73.276 Y154.544 E43.93386
G1 X71.911 Y154.411 E44.00218
G1 X70.598 Y154.012 E44.07051
G1 X69.386 Y153.365 E44.13888
G1 X68.325 Y152.495 E44.20720
G1 X68.127 Y152.253 E44.22277
G1 X64.622 Y149.877 E44.43359
G1 X59.459 Y146.043 E44.75378
G1 X54.487 Y141.962 E45.07404
G1 X49.719 Y137.645 E45.39427
G1 X45.164 Y133.099 E45.71467
G1 X40.834 Y128.338 E46.03512
G1 X36.737 Y123.371 E46.35566
G1 X32.885 Y118.209 E46.67637
G1 X29.285 Y112.865 E46.99721
G1 X27.930 Y110.655 E47.12625
G1 X26.825 Y109.749 E47.19740
G1 X25.955 Y108.688 E47.26573
