; generated by Slic3r 1.2.9 on 2017-01-16 at 08:25:13

; external perimeters extrusion width = 0.40mm
; perimeters extrusion width = 0.56mm
; infill extrusion width = 0.31mm
; solid infill extrusion width = 0.56mm
; top infill extrusion width = 0.22mm

M107
M106 S256; Turn on fan to 100% power
M104 S141; turn on extruder temperature at S value
M140 S45; turn on bed temperature at S value
G28; home all axes
M84; disable motors
G1 Z15 F15000; have Z move to 20mm at 15000 mm/min
M190 S50; turn on bed temperature at S value and wait
M140 S55; turn on bed temperature at S value (printing temperature)
M109 S199; turn on extruder temperature at S value and wait (printing temperature)
M104 S195; turn on extruder temperature at S value
G1 Z0 F12000; move Z back to home
G21 ; set units to millimeters
G90 ; use absolute coordinates
M82 ; use absolute distances for extrusion
G92 E0
;Layer change
G1 E-6.00000 F1800.00000
G92 E0
G1 Z0.400 F10800.000
G1 X51.142 Y35.184 F10800.000
G1 E6.00000 F1800.00000
G1 X51.995 Y34.146 E6.11488 F900.000
G1 X53.207 Y32.970 E6.25929
G1 X54.269 Y32.147 E6.37417
G1 X55.712 Y31.270 E6.51860
G1 X56.931 Y30.704 E6.63348
G1 X58.533 Y30.170 E6.77789
G1 X59.765 Y29.908 E6.88560
G1 X61.528 Y29.726 E7.03715
G1 X62.872 Y29.745 E7.15203
G1 X64.547 Y29.959 E7.29645 F900.000
G1 X65.853 Y30.277 E7.41134
G1 X67.378 Y30.828 E7.55001
G1 X68.489 Y31.371 E7.65577
G1 X69.209 Y31.773 E7.72624
G1 X74.662 Y35.360 E8.28435
G1 X79.975 Y39.230 E8.84635
G1 X85.445 Y43.644 E9.44740
G1 X90.150 Y47.832 E9.98598
G1 X94.914 Y52.492 E10.55579
G1 X99.446 Y57.378 E11.12560
G1 X103.736 Y62.477 E11.69541
G1 X107.989 Y68.074 E12.29646
G1 X111.702 Y73.498 E12.85847
G1 X115.129 Y79.053 E13.41657
G1 X115.509 Y79.784 E13.48703
G1 X116.019 Y80.911 E13.59280
G1 X116.526 Y82.452 E13.73149
G1 X116.806 Y83.766 E13.84637
G1 X116.970 Y85.447 E13.99078
G1 X116.951 Y86.790 E14.10567
G1 X116.737 Y88.466 E14.25008
G1 X116.439 Y89.690 E14.35779
G1 X115.838 Y91.357 E14.50934
G1 X115.237 Y92.559 E14.62422
G1 X114.318 Y93.976 E14.76863
G1 X113.465 Y95.014 E14.88352
G1 X112.253 Y96.190 E15.02793
G1 X111.191 Y97.013 E15.14282
G1 X109.748 Y97.890 E15.28723
G1 X108.529 Y98.456 E15.40212
G1 X106.927 Y98.990 E15.54653
G1 X105.612 Y99.270 E15.66142
G1 X103.932 Y99.434 E15.80583
G1 X102.588 Y99.415 E15.92072
G1 X100.913 Y99.201 E16.06513
G1 X99.607 Y98.883 E16.18001
G1 X98.082 Y98.332 E16.31868
G1 X96.971 Y97.789 E16.42446
G1 X96.251 Y97.387 E16.49492
G1 X95.941 Y97.191 E16.52630
G1 X90.798 Y93.800 E17.05303
G1 X85.196 Y89.707 E17.64627
G1 X80.293 Y85.752 E18.18485
G1 X75.310 Y81.328 E18.75466
G1 X70.494 Y76.617 E19.33068
G1 X65.772 Y71.508 E19.92553
G1 X61.724 Y66.683 E20.46410
G1 X57.685 Y61.382 E21.03392
G1 X53.758 Y55.662 E21.62716
G1 X50.519 Y50.422 E22.15389
G1 X50.331 Y50.107 E22.18527
G1 X49.951 Y49.376 E22.25573
G1 X49.441 Y48.249 E22.36150
G1 X48.934 Y46.708 E22.50018
G1 X48.654 Y45.394 E22.61507
G1 X48.489 Y43.823 E22.75012
G1 X48.509 Y42.370 E22.87442
G1 X48.723 Y40.694 E23.01883
G1 X49.041 Y39.389 E23.13371
G1 X49.622 Y37.803 E23.27813
G1 X50.223 Y36.601 E23.39301
G1 X51.109 Y35.235 E23.53230
G1 X51.539 Y35.511 F10800.000
G1 X52.392 Y34.473 E23.64718 F900.000
G1 X53.521 Y33.376 E23.78175
G1 X54.584 Y32.554 E23.89663
G1 X55.929 Y31.736 E24.03121
G1 X57.148 Y31.171 E24.14609
G1 X58.640 Y30.673 E24.28066
G1 X59.872 Y30.410 E24.38836
G1 X61.521 Y30.240 E24.53007
G1 X62.864 Y30.259 E24.64496
G1 X64.426 Y30.458 E24.77953 F900.000
G1 X65.731 Y30.776 E24.89441
G1 X67.152 Y31.290 E25.02363
G1 X68.264 Y31.833 E25.12940
G1 X68.934 Y32.207 E25.19506
G1 X74.374 Y35.786 E25.75184
G1 X79.671 Y39.645 E26.31224
G1 X85.104 Y44.028 E26.90903
G1 X90.057 Y48.448 E27.47672
G1 X94.791 Y53.103 E28.04440
G1 X99.069 Y57.727 E28.58297
G1 X103.343 Y62.808 E29.15066
G1 X107.365 Y68.089 E29.71834
G1 X111.268 Y73.773 E30.30786
G1 X114.686 Y79.315 E30.86463
G1 X115.041 Y79.996 E30.93029
G1 X115.551 Y81.123 E31.03605
G1 X116.023 Y82.559 E31.16529
G1 X116.303 Y83.873 E31.28017
G1 X116.456 Y85.439 E31.41473
G1 X116.436 Y86.783 E31.52963
G1 X116.237 Y88.344 E31.66419
G1 X115.939 Y89.568 E31.77189
G1 X115.378 Y91.127 E31.91360
G1 X114.777 Y92.329 E32.02849
G1 X113.921 Y93.649 E32.16306
G1 X113.068 Y94.687 E32.27794
G1 X111.939 Y95.784 E32.41251
G1 X110.876 Y96.606 E32.52740
G1 X109.531 Y97.424 E32.66196
G1 X108.312 Y97.989 E32.77685
G1 X106.820 Y98.487 E32.91142
G1 X105.505 Y98.767 E33.02630
G1 X103.939 Y98.920 E33.16087
G1 X102.596 Y98.901 E33.27576
G1 X101.034 Y98.702 E33.41032
G1 X99.729 Y98.384 E33.52521
G1 X98.308 Y97.870 E33.65442
G1 X97.196 Y97.327 E33.76020
G1 X96.526 Y96.953 E33.82586
G1 X96.221 Y96.760 E33.85671
G1 X91.086 Y93.374 E34.38264
G1 X85.518 Y89.307 E34.97216
G1 X80.616 Y85.352 E35.51073
G1 X75.651 Y80.944 E36.07841
G1 X70.858 Y76.253 E36.65188
G1 X66.166 Y71.178 E37.24289
G1 X62.117 Y66.352 E37.78147
G1 X58.095 Y61.071 E38.34915
G1 X54.192 Y55.387 E38.93867
G1 X50.958 Y50.155 E39.46460
G1 X50.774 Y49.845 E39.49545
G1 X50.419 Y49.164 E39.56110
G1 X49.909 Y48.037 E39.66687
G1 X49.437 Y46.601 E39.79610
G1 X49.157 Y45.287 E39.91099
G1 X49.003 Y43.823 E40.03683
G1 X49.024 Y42.377 E40.16049
G1 X49.223 Y40.816 E40.29506
G1 X49.541 Y39.511 E40.40994
G1 X50.082 Y38.033 E40.54451
G1 X50.683 Y36.831 E40.65939
G1 X51.507 Y35.561 E40.78884
G1 X51.937 Y35.837 F10800.000
G1 X52.790 Y34.799 E40.90372 F900.000
G1 X53.836 Y33.783 E41.02844
G1 X54.899 Y32.961 E41.14332
G1 X56.145 Y32.203 E41.26805
G1 X57.364 Y31.637 E41.38294
G1 X58.748 Y31.176 E41.50766
G1 X59.980 Y30.913 E41.61536
G1 X61.513 Y30.754 E41.74723
G1 X62.857 Y30.773 E41.86211
G1 X64.304 Y30.958 E41.98684 F900.000
G1 X65.609 Y31.276 E42.10173
G1 X66.927 Y31.752 E42.22149
G1 X68.038 Y32.295 E42.32725
G1 X68.659 Y32.642 E42.38811
G1 X74.087 Y36.212 E42.94356
G1 X79.368 Y40.061 E43.50237
G1 X84.762 Y44.412 E44.09490
G1 X89.697 Y48.815 E44.66045
G1 X94.414 Y53.453 E45.22601
G1 X98.691 Y58.076 E45.76458
G1 X102.949 Y63.138 E46.33013
G1 X106.956 Y68.400 E46.89569
G1 X110.834 Y74.048 E47.48148
G1 X114.244 Y79.577 E48.03692
G1 X114.572 Y80.208 E48.09778
G1 X115.083 Y81.335 E48.20354
G1 X115.520 Y82.666 E48.32332
G1 X115.800 Y83.980 E48.43820
G1 X115.942 Y85.432 E48.56292
G1 X115.922 Y86.775 E48.67781
G1 X115.738 Y88.222 E48.80253
G1 X115.440 Y89.446 E48.91024
G1 X114.918 Y90.897 E49.04210
G1 X114.317 Y92.099 E49.15699
G1 X113.523 Y93.323 E49.28171
G1 X112.670 Y94.361 E49.39659
G1 X111.624 Y95.377 E49.52132
G1 X110.561 Y96.200 E49.63621
G1 X109.315 Y96.957 E49.76093
G1 X108.096 Y97.523 E49.87581
G1 X106.712 Y97.984 E50.00054
G1 X105.398 Y98.264 E50.11542
G1 X103.947 Y98.406 E50.24015
G1 X102.603 Y98.387 E50.35504
G1 X101.156 Y98.202 E50.47976
G1 X99.851 Y97.884 E50.59464
G1 X98.533 Y97.408 E50.71440
G1 X97.422 Y96.865 E50.82018
G1 X96.800 Y96.518 E50.88104
G1 X96.501 Y96.328 E50.91135
G1 X91.373 Y92.948 E51.43648
G1 X85.841 Y88.907 E52.02227
G1 X80.939 Y84.952 E52.56085
G1 X75.993 Y80.560 E53.12640
G1 X71.222 Y75.890 E53.69732
G1 X66.560 Y70.847 E54.28449
G1 X62.511 Y66.022 E54.82306
G1 X58.504 Y60.760 E55.38862
G1 X54.626 Y55.112 E55.97441
G1 X51.397 Y49.888 E56.49954
G1 X51.216 Y49.583 E56.52986
G1 X50.888 Y48.952 E56.59071
G1 X50.377 Y47.825 E56.69648
G1 X49.940 Y46.494 E56.81625
G1 X49.660 Y45.180 E56.93114
G1 X49.517 Y43.823 E57.04777
G1 X49.538 Y42.385 E57.17079
G1 X49.722 Y40.938 E57.29552
G1 X50.040 Y39.632 E57.41040
G1 X50.542 Y38.263 E57.53512
G1 X51.143 Y37.061 E57.65001
G1 X51.904 Y35.887 E57.76961
G1 E51.76961 F1800.00000
G92 E0
G1 X104.858 Y81.721 F10800.000
G1 E6.00000 F1800.00000
G1 X105.939 Y82.255 E6.10311 F900.000
G1 X106.836 Y83.060 E6.20621
G1 X107.483 Y84.078 E6.30932
G1 X107.831 Y85.233 E6.41242
G1 X107.855 Y86.438 E6.51553
G1 X107.552 Y87.606 E6.61863
G1 X106.951 Y88.639 E6.72085
G1 X106.540 Y89.096 E6.77338
G1 X106.072 Y89.493 E6.82591
G1 X105.021 Y90.064 E6.92813
G1 X103.845 Y90.332 E7.03124
G1 X102.641 Y90.273 E7.13434
G1 X101.497 Y89.892 E7.23745
G1 X100.499 Y89.216 E7.34055
G1 X99.719 Y88.295 E7.44366
G1 X99.624 Y88.088 E7.46319
G1 X99.218 Y87.199 E7.54676
G1 X99.030 Y86.008 E7.64987
G1 X99.171 Y84.810 E7.75297
G1 X99.258 Y84.599 E7.77251
G1 X99.630 Y83.695 E7.85608
G1 X100.372 Y82.745 E7.95919
G1 X101.343 Y82.031 E8.06229
G1 X102.472 Y81.605 E8.16540
G1 X102.753 Y81.580 E8.18959
G1 X103.673 Y81.499 E8.26850 F900.000
G1 X104.799 Y81.710 E8.36648
G1 X105.169 Y81.470 F10800.000
G1 X102.683 Y80.233 F10800.000
G1 X101.662 Y80.512 E8.45700 F900.000
G1 X100.496 Y81.053 E8.56684
G1 X99.487 Y81.834 E8.67594
G1 X98.677 Y82.820 E8.78505
G1 X98.103 Y83.969 E8.89488
G1 X97.794 Y84.981 E8.98541
G1 X92.425 Y81.086 E9.55262
G1 X87.576 Y77.190 E10.08449
G1 X82.924 Y73.060 E10.61636
G1 X78.482 Y68.706 E11.14824
G1 X74.259 Y64.138 E11.68011
G1 X70.267 Y59.368 E12.21198
G1 X66.514 Y54.407 E12.74385
G1 X62.777 Y48.927 E13.31106
G1 X63.798 Y48.648 E13.40158
G1 X64.964 Y48.107 E13.51142
G1 X65.973 Y47.326 E13.62052
G1 X66.783 Y46.340 E13.72963
G1 X67.357 Y45.191 E13.83946
G1 X67.666 Y44.179 E13.92999
G1 X73.035 Y48.074 E14.49720
G1 X77.884 Y51.970 E15.02907
G1 X82.536 Y56.100 E15.56094
G1 X86.978 Y60.454 E16.09281
G1 X91.201 Y65.022 E16.62469
G1 X95.193 Y69.792 E17.15656
G1 X98.946 Y74.753 E17.68843
G1 X102.649 Y80.184 E18.25051
G1 X102.830 Y80.605 F10800.000
G1 X103.514 Y80.539 F10800.000
G1 X99.364 Y74.452 E18.88044 F900.000
G1 X95.596 Y69.471 E19.41448
G1 X91.587 Y64.682 E19.94851
G1 X87.347 Y60.096 E20.48255
G1 X82.887 Y55.724 E21.01659
G1 X78.216 Y51.577 E21.55063
G1 X73.347 Y47.665 E22.08467
G1 X67.384 Y43.339 E22.71460
G1 X66.878 Y45.000 E22.86307
G1 X66.349 Y46.059 E22.96427
G1 X65.612 Y46.955 E23.06346
G1 X64.695 Y47.665 E23.16266
G1 X63.621 Y48.163 E23.26385
G1 X61.946 Y48.621 E23.41233
G1 X66.096 Y54.708 E24.04225
G1 X69.864 Y59.689 E24.57629
G1 X73.873 Y64.478 E25.11033
G1 X78.113 Y69.064 E25.64437
G1 X82.573 Y73.436 E26.17841
G1 X87.244 Y77.583 E26.71245
G1 X92.113 Y81.495 E27.24649
G1 X98.076 Y85.821 E27.87642
G1 X98.362 Y84.883 E27.96028
G1 X98.638 Y84.941 E27.98439
G1 X98.511 Y86.018 E28.07715
G1 X98.721 Y87.349 E28.19234
G1 X99.281 Y88.574 E28.30753
G1 X100.221 Y89.684 E28.43192
G1 X100.044 Y89.884 E28.45478
G1 X95.484 Y86.881 E28.92168
G1 X90.427 Y83.191 E29.45689
G1 X85.556 Y79.261 E29.99209
G1 X80.880 Y75.099 E30.52729
G1 X76.412 Y70.716 E31.06249
G1 X72.161 Y66.122 E31.59769
G1 X68.138 Y61.327 E32.13289
G1 X64.352 Y56.343 E32.66805
G1 X60.699 Y51.004 E33.22118
G1 X57.542 Y45.881 E33.73571
G1 X57.089 Y44.882 E33.82951
G1 X56.847 Y43.743 E33.92902
G1 X56.864 Y42.583 E34.02822
G1 X57.139 Y41.456 E34.12741
G1 X57.657 Y40.419 E34.22660
G1 X58.394 Y39.522 E34.32580
G1 X59.311 Y38.812 E34.42499
G1 X60.363 Y38.324 E34.52419
G1 X61.498 Y38.083 E34.62339
G1 X62.658 Y38.100 E34.72258
G1 X63.789 Y38.375 E34.82209
G1 X64.774 Y38.857 E34.91588
G1 X69.976 Y42.279 E35.44832
G1 X75.033 Y45.969 E35.98352
G1 X79.904 Y49.899 E36.51872
G1 X84.580 Y54.061 E37.05392
G1 X89.048 Y58.444 E37.58912
G1 X93.299 Y63.038 E38.12432
G1 X97.322 Y67.833 E38.65952
G1 X101.108 Y72.818 E39.19472
G1 X104.649 Y77.979 E39.72992
G1 X107.512 Y82.620 E40.19619
G1 X107.307 Y82.792 E40.21904
G1 X106.230 Y81.825 E40.34275
G1 X105.022 Y81.229 E40.45794
G1 X103.698 Y80.980 E40.57313
G1 X102.617 Y81.076 E40.66590
G1 X102.568 Y80.798 E40.69002
G1 X103.456 Y80.555 E40.76875
G1 X105.918 Y79.057 F10800.000
G1 X108.373 Y83.037 E41.16865 F900.000
G1 X108.862 Y84.117 E41.27000
G1 X109.128 Y85.366 E41.37921
G1 X109.109 Y86.642 E41.48832
G1 X108.807 Y87.882 E41.59742
G1 X108.237 Y89.023 E41.70652
G1 X107.427 Y90.009 E41.81562
G1 X106.418 Y90.790 E41.92472
G1 X105.260 Y91.327 E42.03383
G1 X104.012 Y91.592 E42.14293
G1 X102.736 Y91.574 E42.25203
G1 X101.495 Y91.271 E42.36125
G1 X100.429 Y90.750 E42.46275
G1 X95.191 Y87.303 E42.99891
G1 X90.114 Y83.599 E43.53624
G1 X85.223 Y79.653 E44.07357
G1 X80.529 Y75.475 E44.61091
G1 X76.043 Y71.074 E45.14824
G1 X71.775 Y66.462 E45.68557
G1 X67.736 Y61.648 E46.22290
G1 X63.935 Y56.644 E46.76021
G1 X60.268 Y51.284 E47.31548
G1 X57.087 Y46.123 E47.83386
G1 X56.598 Y45.043 E47.93521
G1 X56.332 Y43.794 E48.04443
G1 X56.351 Y42.518 E48.15353
G1 X56.653 Y41.278 E48.26263
G1 X57.223 Y40.137 E48.37173
G1 X58.033 Y39.151 E48.48084
G1 X59.042 Y38.370 E48.58994
G1 X60.200 Y37.833 E48.69904
G1 X61.448 Y37.568 E48.80814
G1 X62.673 Y37.586 E48.91295
G1 X63.965 Y37.889 E49.02636 F900.000
G1 X65.030 Y38.409 E49.12771
G1 X70.269 Y41.857 E49.66402
G1 X75.346 Y45.561 E50.20135
G1 X80.237 Y49.507 E50.73868
G1 X84.931 Y53.685 E51.27601
G1 X89.417 Y58.086 E51.81334
G1 X93.685 Y62.698 E52.35067
G1 X97.724 Y67.512 E52.88800
G1 X101.525 Y72.516 E53.42534
G1 X105.080 Y77.699 E53.96267
G1 X105.886 Y79.006 E54.09395
G1 X105.728 Y79.409 F10800.000
G1 X105.881 Y81.034 F10800.000
G1 X106.419 Y81.523 E54.15608 F900.000
G1 X106.779 Y81.952 E54.20395
G1 X107.536 Y82.935 F10800.000
G1 X107.794 Y83.345 E54.29371 F900.000
G1 X108.026 Y83.775 E54.38425
G1 X108.238 Y84.322 E54.49289
G1 X108.435 Y85.088 E54.63940
G1 X108.481 Y85.429 E54.70330
G1 X108.477 Y86.561 E54.91302
G1 X108.201 Y87.659 E55.12282
G1 X108.108 Y87.888 E55.16857
G1 X107.688 Y88.667 E55.33248
G1 X107.429 Y89.033 E55.41555
G1 X106.983 Y89.551 E55.54233
G1 X106.451 Y89.982 E55.66911
G1 X106.078 Y90.230 E55.75217
G1 X105.287 Y90.628 E55.91608
G1 X105.056 Y90.714 E55.96183
G1 X103.950 Y90.958 E56.17163
G1 X102.819 Y90.929 E56.38136
G1 X102.478 Y90.873 E56.44525
G1 X101.719 Y90.654 E56.59177
G1 X101.178 Y90.426 E56.70040
G1 X100.751 Y90.178 E56.79202
G1 X100.357 Y89.919 E56.87932
G1 X99.396 Y89.131 F10800.000
G1 X98.973 Y88.754 E56.92779 F900.000
G1 X98.502 Y88.204 E56.98971
G1 X98.551 Y84.660 F10800.000
G1 X98.711 Y84.212 E57.07792 F900.000
G1 X99.116 Y83.338 E57.25621
G1 X99.221 Y83.172 E57.29259
G1 X99.930 Y82.290 E57.50239
G1 X100.833 Y81.607 E57.71218
G1 X101.002 Y81.507 E57.74856
G1 X101.887 Y81.128 E57.92686
G1 X102.339 Y80.981 E58.01505
G1 X102.921 Y78.890 F10800.000
G1 X104.838 Y80.806 E58.24937 F900.000
G1 X105.612 Y80.845 F10800.000
G1 X101.346 Y76.579 E58.77097 F900.000
G1 X102.288 Y75.316 F10800.000
G1 X94.878 Y67.905 E59.67698 F900.000
G1 X95.252 Y66.074 F10800.000
G1 X78.630 Y49.452 E61.70923 F900.000
G1 X76.963 Y49.991 F10800.000
G1 X69.388 Y42.415 E62.63543 F900.000
G1 X68.014 Y43.247 F10800.000
G1 X63.462 Y38.695 E63.19197 F900.000
G1 X65.089 Y39.587 F10800.000
G1 X70.692 Y45.190 E63.87697 F900.000
G1 X72.052 Y44.344 F10800.000
G1 X82.270 Y54.562 E65.12628 F900.000
G1 X87.119 Y57.206 F10800.000
G1 X89.171 Y59.258 E65.37709 F900.000
G1 X90.096 Y62.388 F10800.000
G1 X100.613 Y72.906 E66.66301 F900.000
G1 X99.771 Y74.269 F10800.000
G1 X105.201 Y79.699 E67.32697 F900.000
G1 X103.894 Y77.656 F10800.000
G1 X97.547 Y71.310 E68.10288 F900.000
G1 X98.290 Y69.847 F10800.000
G1 X74.825 Y46.382 E70.97174 F900.000
G1 X73.370 Y47.132 F10800.000
G1 X67.238 Y41.001 E71.72136 F900.000
G1 X67.115 Y43.083 F10800.000
G1 X62.490 Y38.458 E72.28684 F900.000
G1 X61.744 Y38.447 E72.35135
G1 X66.943 Y43.647 E72.98706
G1 X66.771 Y44.210 E73.03799
G1 X61.080 Y38.518 E73.73388
G1 X60.473 Y38.647 E73.78746
G1 X66.600 Y44.774 E74.53646
G1 X66.376 Y45.285 E74.58471
G1 X59.959 Y38.868 E75.36920
G1 X59.457 Y39.101 E75.41707
G1 X66.131 Y45.775 E76.23302
G1 X65.823 Y46.203 E76.27856
G1 X59.041 Y39.420 E77.10779
G1 X58.639 Y39.754 E77.15293
G1 X65.491 Y46.606 E77.99074
G1 X65.102 Y46.952 E78.03577
G1 X58.292 Y40.142 E78.86834
G1 X57.960 Y40.546 E78.91350
G1 X64.687 Y47.272 E79.73594
G1 X64.212 Y47.532 E79.78276
G1 X57.711 Y41.031 E80.57760
G1 X57.469 Y41.524 E80.62508
