; generated by Slic3r 1.2.9 on 2017-02-02 at 20:27:35

; external perimeters extrusion width = 0.40mm
; perimeters extrusion width = 0.56mm
; infill extrusion width = 0.38mm
; solid infill extrusion width = 0.56mm
; top infill extrusion width = 0.22mm
; support material extrusion width = 0.40mm

M106 S256; Turn on fan to 100% power
M104 S140; turn on extruder temperature at S value
M140 S60; turn on bed temperature at S value
G28; home all axes
M84; disable motors
G1 Z15 F15000; have Z move to 20mm at 15000 mm/min
M190 S55; turn on bed temperature at S value and wait
M140 S55; turn on bed temperature at S value (printing temperature)
M109 S200; turn on extruder temperature at S value and wait (printing temperature)
M104 S200; turn on extruder temperature at S value
G1 Z0 F12000; move Z back to home
G21 ; set units to millimeters
G90 ; use absolute coordinates
M82 ; use absolute distances for extrusion
G92 E0
M106 S255
;Layer change
G1 E-6.00000 F1800.00000
G92 E0
G1 Z0.300 F9000.000
G1 X68.991 Y58.071 F9000.000
G1 E6.00000 F1800.00000
G1 X71.257 Y57.315 E6.11895 F600.000
G1 X82.624 Y57.315 E6.68491
G1 X97.624 Y57.315 E7.43174 F600.000
G1 X99.304 Y57.710 E7.51765
G1 X100.545 Y58.701 E7.59672
G1 X100.788 Y58.999 E7.61584
G1 X101.638 Y61.384 E7.74193
G1 X101.638 Y92.667 E9.29947
G1 X101.536 Y112.689 E10.29638
G1 X101.137 Y114.360 E10.38190
G1 X101.016 Y114.600 E10.39527
G1 X99.911 Y115.925 E10.48117
G1 X97.645 Y116.681 E10.60010
G1 X71.374 Y116.683 E11.90813
G1 X69.694 Y116.288 E11.99404
G1 X68.440 Y115.281 E12.07411
G1 X68.200 Y114.984 E12.09312
G1 X67.363 Y112.615 E12.21824
G1 X67.362 Y61.334 E14.77147
G1 X67.761 Y59.644 E14.85793
G1 X67.885 Y59.396 E14.87173
G1 X68.953 Y58.117 E14.95465
G1 X69.292 Y58.329 F9000.000
G1 X71.257 Y57.700 E15.05737 F600.000
G1 X82.624 Y57.700 E15.62334
G1 X97.624 Y57.701 E16.37016 F600.000
G1 X99.209 Y58.095 E16.45149
G1 X100.246 Y58.945 E16.51824
G1 X100.489 Y59.243 E16.53736
G1 X101.252 Y61.384 E16.65056
G1 X101.252 Y92.667 E18.20810
G1 X101.151 Y112.687 E19.20491
G1 X100.792 Y114.187 E19.28169
G1 X100.672 Y114.427 E19.29505
G1 X99.609 Y115.668 E19.37638
G1 X97.645 Y116.296 E19.47904
G1 X71.374 Y116.297 E20.78706
G1 X69.789 Y115.903 E20.86839
G1 X68.740 Y115.039 E20.93605
G1 X68.500 Y114.742 E20.95505
G1 X67.748 Y112.615 E21.06737
G1 X67.747 Y61.334 E23.62061
G1 X68.106 Y59.817 E23.69823
G1 X68.230 Y59.569 E23.71202
G1 X69.253 Y58.375 E23.79030
G1 E17.79030 F1800.00000
G92 E0
G1 X71.133 Y61.334 F9000.000
G1 E6.00000 F1800.00000
G1 X71.257 Y61.086 E6.01201 F600.000
G1 X71.649 Y61.086 E6.02899
G1 X71.133 Y62.116 E6.07891
G1 X71.133 Y62.898 E6.11280
G1 X72.041 Y61.086 E6.20063
G1 X72.433 Y61.086 E6.21761
G1 X71.133 Y63.680 E6.34335
G1 X71.133 Y64.462 E6.37723
G1 X72.825 Y61.086 E6.54088
G1 X73.217 Y61.086 E6.55786
G1 X71.133 Y65.244 E6.75941
G1 X71.133 Y66.026 E6.79330
G1 X73.609 Y61.086 E7.03276
G1 X74.001 Y61.086 E7.04974
G1 X71.133 Y66.808 E7.32711
G1 X71.133 Y67.590 E7.36100
G1 X74.393 Y61.086 E7.67627
G1 X74.785 Y61.086 E7.69326
G1 X71.133 Y68.372 E8.04644
G1 X71.133 Y69.154 E8.08033
G1 X75.177 Y61.086 E8.47142
G1 X75.569 Y61.086 E8.48841
G1 X71.133 Y69.936 E8.91741
G1 X71.133 Y70.719 E8.95129
G1 X75.961 Y61.086 E9.41820
G1 X76.353 Y61.086 E9.43519
G1 X71.133 Y71.501 E9.94000
G1 X71.133 Y72.283 E9.97389
G1 X76.745 Y61.086 E10.51661
G1 X77.137 Y61.086 E10.53360
G1 X71.133 Y73.065 E11.11423
G1 X71.133 Y73.847 E11.14812
G1 X77.529 Y61.086 E11.76666
G1 X77.921 Y61.086 E11.78365
G1 X71.133 Y74.629 E12.44009
G1 X71.133 Y75.411 E12.47398
G1 X78.313 Y61.086 E13.16834
G1 X78.705 Y61.086 E13.18532
G1 X71.133 Y76.193 E13.91759
G1 X71.133 Y76.975 E13.95148
G1 X79.097 Y61.086 E14.72165
G1 X79.488 Y61.086 E14.73863
G1 X71.133 Y77.757 E15.54671
G1 X71.133 Y78.539 E15.58060
G1 X79.880 Y61.086 E16.42659
G1 X80.272 Y61.086 E16.44358
G1 X71.133 Y79.321 E17.32747
G1 X71.133 Y80.103 E17.36136
G1 X80.664 Y61.086 E18.28317
G1 X81.056 Y61.086 E18.30015
G1 X71.133 Y80.885 E19.25986
G1 X71.133 Y81.668 E19.29375
G1 X81.448 Y61.086 E20.29137
G1 X81.840 Y61.086 E20.30836
G1 X71.133 Y82.450 E21.34389
G1 X71.133 Y83.232 E21.37778
G1 X82.232 Y61.086 E22.45122
G1 X82.624 Y61.086 E22.46820
G1 X71.133 Y84.014 E23.57955
G1 X71.133 Y84.796 E23.61344
G1 X82.867 Y61.383 E24.74827
G1 X82.867 Y62.165 E24.78216
G1 X71.133 Y85.578 E25.91700
G1 X71.133 Y86.360 E25.95089
G1 X82.867 Y62.947 E27.08573
G1 X82.867 Y63.730 E27.11962
G1 X71.133 Y87.142 E28.25445
G1 X71.133 Y87.924 E28.28834
G1 X82.867 Y64.512 E29.42318
G1 X82.867 Y65.294 E29.45707
G1 X71.133 Y88.706 E30.59191
G1 X71.133 Y89.488 E30.62580
G1 X82.867 Y66.076 E31.76063
G1 X82.867 Y66.858 E31.79452
G1 X71.133 Y90.270 E32.92936
G1 X71.133 Y91.052 E32.96325
G1 X82.867 Y67.640 E34.09809
G1 X82.867 Y68.422 E34.13198
G1 X71.133 Y91.834 E35.26681
G1 X71.133 Y92.617 E35.30070
G1 X82.867 Y69.204 E36.43554
G1 X82.867 Y69.986 E36.46943
G1 X71.376 Y92.914 E37.58078
G1 X71.768 Y92.914 E37.59777
G1 X82.867 Y70.768 E38.67121
G1 X82.867 Y71.550 E38.70510
G1 X72.160 Y92.914 E39.74063
G1 X72.552 Y92.914 E39.75762
G1 X82.867 Y72.332 E40.75525
G1 X82.867 Y73.114 E40.78914
G1 X72.944 Y92.914 E41.74885
G1 X73.336 Y92.914 E41.76584
G1 X82.867 Y73.896 E42.68765
G1 X82.867 Y74.679 E42.72154
G1 X73.728 Y92.914 E43.60544
G1 X74.119 Y92.914 E43.62243
G1 X82.867 Y75.461 E44.46842
G1 X82.867 Y76.243 E44.50231
G1 X74.511 Y92.914 E45.31040
G1 X74.903 Y92.914 E45.32738
G1 X82.867 Y77.025 E46.09756
G1 X82.867 Y77.807 E46.13145
G1 X75.295 Y92.914 E46.86372
G1 X75.687 Y92.914 E46.88070
G1 X82.867 Y78.589 E47.57507
G1 X82.867 Y79.371 E47.60896
G1 X76.079 Y92.914 E48.26541
G1 X76.471 Y92.914 E48.28239
G1 X82.867 Y80.153 E48.90094
G1 X82.867 Y80.935 E48.93483
G1 X76.863 Y92.914 E49.51547
G1 X77.255 Y92.914 E49.53245
G1 X82.867 Y81.717 E50.07518
G1 X82.867 Y82.499 E50.10907
G1 X77.647 Y92.914 E50.61389
G1 X78.039 Y92.914 E50.63088
G1 X82.867 Y83.281 E51.09779
G1 X82.867 Y84.063 E51.13168
G1 X78.431 Y92.914 E51.56068
G1 X78.823 Y92.914 E51.57767
G1 X82.867 Y84.845 E51.96876
G1 X82.867 Y85.628 E52.00265
G1 X79.215 Y92.914 E52.35584
G1 X79.607 Y92.914 E52.37283
G1 X82.867 Y86.410 E52.68811
G1 X82.867 Y87.192 E52.72200
G1 X79.999 Y92.914 E52.99937
G1 X80.391 Y92.914 E53.01635
G1 X82.867 Y87.974 E53.25582
G1 X82.867 Y88.756 E53.28971
G1 X80.783 Y92.914 E53.49126
G1 X81.175 Y92.914 E53.50825
G1 X82.867 Y89.538 E53.67190
G1 X82.867 Y90.320 E53.70579
G1 X81.567 Y92.914 E53.83153
G1 X81.959 Y92.914 E53.84851
G1 X82.867 Y91.102 E53.93634
G1 X82.867 Y91.884 E53.97023
G1 X82.351 Y92.914 E54.02015
G1 X82.867 Y92.666 E54.04497
G1 X82.743 Y92.914 E54.05698
G1 E48.05698 F1800.00000
G92 E0
G1 X86.133 Y92.616 F9000.000
G1 E6.00000 F1800.00000
G1 X97.867 Y69.205 E7.13476 F600.000
G1 X97.867 Y69.987 F9000.000
G1 X86.376 Y92.913 E8.24603 F600.000
G1 X86.768 Y92.913 E8.26302
G1 X97.867 Y70.769 E9.33638
G1 X97.867 Y71.551 F9000.000
G1 X87.160 Y92.913 E10.37184 F600.000
G1 X87.552 Y92.913 E10.38883
G1 X97.867 Y72.333 E11.38637
G1 X97.867 Y73.115 F9000.000
G1 X87.944 Y92.913 E12.34601 F600.000
G1 X88.336 Y92.913 E12.36300
G1 X97.867 Y73.897 E13.28473
G1 X97.867 Y74.679 F9000.000
G1 X88.728 Y92.913 E14.16856 F600.000
G1 X89.120 Y92.913 E14.18554
G1 X97.867 Y75.461 E15.03146
G1 X97.867 Y76.244 F9000.000
G1 X89.512 Y92.913 E15.83947 F600.000
G1 X89.904 Y92.913 E15.85645
G1 X97.867 Y77.026 E16.62655
G1 X97.867 Y77.808 F9000.000
G1 X90.296 Y92.913 E17.35874 F600.000
G1 X90.688 Y92.913 E17.37573
G1 X97.867 Y78.590 E18.07001
G1 X97.867 Y79.372 F9000.000
G1 X91.080 Y92.913 E18.72639 F600.000
G1 X91.472 Y92.913 E18.74337
G1 X97.867 Y80.154 E19.36184
G1 X97.867 Y80.936 F9000.000
G1 X91.864 Y92.913 E19.94240 F600.000
G1 X92.256 Y92.913 E19.95938
G1 X97.867 Y81.718 E20.50204
G1 X97.867 Y82.500 F9000.000
G1 X92.648 Y92.913 E21.00678 F600.000
G1 X93.040 Y92.913 E21.02376
G1 X97.867 Y83.282 E21.49060
G1 X97.867 Y84.064 F9000.000
G1 X93.432 Y92.913 E21.91952 F600.000
G1 X93.824 Y92.913 E21.93651
G1 X97.867 Y84.846 E22.32753
G1 X97.867 Y85.628 F9000.000
G1 X94.216 Y92.913 E22.68064 F600.000
G1 X94.608 Y92.913 E22.69762
G1 X97.867 Y86.410 E23.01283
G1 X97.867 Y87.193 F9000.000
G1 X95.000 Y92.913 E23.29012 F600.000
G1 X95.392 Y92.913 E23.30711
G1 X97.867 Y87.975 E23.54649
G1 X97.867 Y88.757 F9000.000
G1 X95.783 Y92.913 E23.74797 F600.000
G1 X96.175 Y92.913 E23.76496
G1 X97.867 Y89.539 E23.92853
G1 X97.867 Y90.321 F9000.000
G1 X96.567 Y92.913 E24.05419 F600.000
G1 X96.959 Y92.913 E24.07117
G1 X97.867 Y91.103 E24.15893
G1 X97.867 Y91.885 F9000.000
G1 X97.351 Y92.913 E24.20877 F600.000
G1 X97.867 Y92.667 E24.23352
G1 X97.743 Y92.913 E24.24546
G1 E18.24546 F1800.00000
G92 E0
G1 X97.765 Y97.460 F9000.000
G1 E6.00000 F1800.00000
G1 X90.022 Y112.910 E6.74887 F600.000
G1 X89.641 Y112.910 E6.76539
G1 X97.765 Y96.700 E7.55112
G1 X97.690 Y96.090 E7.57775
G1 X89.259 Y112.910 E8.39305
G1 X88.878 Y112.910 E8.40957
G1 X97.309 Y96.090 E9.22487
G1 X96.927 Y96.090 E9.24139
G1 X88.497 Y112.910 E10.05669
G1 X88.116 Y112.910 E10.07321
G1 X96.546 Y96.090 E10.88851
G1 X96.165 Y96.090 E10.90502
G1 X87.735 Y112.910 E11.72032
G1 X87.354 Y112.910 E11.73684
G1 X95.784 Y96.090 E12.55214
G1 X95.403 Y96.090 E12.56866
G1 X86.972 Y112.910 E13.38396
G1 X86.591 Y112.910 E13.40047
G1 X95.022 Y96.090 E14.21577
G1 X94.641 Y96.090 E14.23229
G1 X86.210 Y112.910 E15.04759
G1 X86.135 Y112.300 E15.07423
G1 X94.259 Y96.090 E15.85996
G1 X93.878 Y96.090 E15.87647
G1 X86.135 Y111.540 E16.62534
G1 X86.135 Y110.779 F9000.000
G1 X93.497 Y96.090 E17.33735 F600.000
G1 X93.116 Y96.090 E17.35386
G1 X86.135 Y110.019 E18.02901
G1 X86.135 Y109.258 F9000.000
G1 X92.735 Y96.090 E18.66729 F600.000
G1 X92.354 Y96.090 E18.68381
G1 X86.135 Y108.498 E19.28522
G1 X86.135 Y107.737 F9000.000
G1 X91.972 Y96.090 E19.84978 F600.000
G1 X91.591 Y96.090 E19.86630
G1 X86.135 Y106.977 E20.39399
G1 X86.135 Y106.216 F9000.000
G1 X91.210 Y96.090 E20.88483 F600.000
G1 X90.829 Y96.090 E20.90134
G1 X86.135 Y105.456 E21.35532
G1 X86.135 Y104.695 F9000.000
G1 X90.448 Y96.090 E21.77242 F600.000
G1 X90.067 Y96.090 E21.78894
G1 X86.135 Y103.935 E22.16919
G1 X86.135 Y103.174 F9000.000
G1 X89.685 Y96.090 E22.51257 F600.000
G1 X89.304 Y96.090 E22.52909
G1 X86.135 Y102.414 E22.83561
G1 X86.135 Y101.653 F9000.000
G1 X88.923 Y96.090 E23.10527 F600.000
G1 X88.542 Y96.090 E23.12179
G1 X86.135 Y100.893 E23.35459
G1 X86.135 Y100.132 F9000.000
G1 X88.161 Y96.090 E23.55053 F600.000
G1 X87.780 Y96.090 E23.56705
G1 X86.135 Y99.372 E23.72612
G1 X86.135 Y98.611 F9000.000
G1 X87.398 Y96.090 E23.84833 F600.000
G1 X87.017 Y96.090 E23.86485
G1 X86.135 Y97.851 E23.95020
G1 X86.135 Y97.090 F9000.000
G1 X86.636 Y96.090 E23.99869 F600.000
G1 X86.255 Y96.090 E24.01521
G1 X86.135 Y96.330 E24.02683
G1 E18.02683 F1800.00000
G92 E0
G1 X82.766 Y97.161 F9000.000
G1 E6.00000 F1800.00000
G1 X74.872 Y112.911 E6.76346 F600.000
G1 X74.483 Y112.911 E6.78030
G1 X82.766 Y96.385 E7.58134
G1 X82.526 Y96.089 E7.59788
G1 X74.094 Y112.911 E8.41332
G1 X73.706 Y112.911 E8.43016
G1 X82.137 Y96.089 E9.24559
G1 X81.749 Y96.089 E9.26243
G1 X73.317 Y112.911 E10.07786
G1 X72.928 Y112.911 E10.09470
G1 X81.360 Y96.089 E10.91014
G1 X80.972 Y96.089 E10.92698
G1 X72.540 Y112.911 E11.74241
G1 X72.151 Y112.911 E11.75925
G1 X80.583 Y96.089 E12.57469
G1 X80.194 Y96.089 E12.59153
G1 X71.763 Y112.911 E13.40696
G1 X71.374 Y112.911 E13.42380
G1 X79.806 Y96.089 E14.23924
G1 X79.417 Y96.089 E14.25608
G1 X71.134 Y112.615 E15.05712
G1 X71.134 Y111.839 F9000.000
G1 X79.028 Y96.089 E15.82058 F600.000
G1 X78.640 Y96.089 E15.83742
G1 X71.134 Y111.064 E16.56329
G1 X71.134 Y110.288 F9000.000
G1 X78.251 Y96.089 E17.25158 F600.000
G1 X77.862 Y96.089 E17.26842
G1 X71.134 Y109.513 E17.91912
G1 X71.134 Y108.738 F9000.000
G1 X77.474 Y96.089 E18.53224 F600.000
G1 X77.085 Y96.089 E18.54908
G1 X71.134 Y107.962 E19.12461
G1 X71.134 Y107.187 F9000.000
G1 X76.697 Y96.089 E19.66256 F600.000
G1 X76.308 Y96.089 E19.67940
G1 X71.134 Y106.411 E20.17976
G1 X71.134 Y105.636 F9000.000
G1 X75.919 Y96.089 E20.64254 F600.000
G1 X75.531 Y96.089 E20.65938
G1 X71.134 Y104.861 E21.08458
G1 X71.134 Y104.085 F9000.000
G1 X75.142 Y96.089 E21.47219 F600.000
G1 X74.753 Y96.089 E21.48903
G1 X71.134 Y103.310 E21.83905
G1 X71.134 Y102.534 F9000.000
G1 X74.365 Y96.089 E22.15149 F600.000
G1 X73.976 Y96.089 E22.16833
G1 X71.134 Y101.759 E22.44319
G1 X71.134 Y100.984 F9000.000
G1 X73.588 Y96.089 E22.68046 F600.000
G1 X73.199 Y96.089 E22.69730
G1 X71.134 Y100.208 E22.89698
G1 X71.134 Y99.433 F9000.000
G1 X72.810 Y96.089 E23.05908 F600.000
G1 X72.422 Y96.089 E23.07592
G1 X71.134 Y98.657 E23.20044
G1 X71.134 Y97.882 F9000.000
G1 X72.033 Y96.089 E23.28737 F600.000
G1 X71.644 Y96.089 E23.30421
G1 X71.134 Y97.107 E23.35356
G1 X71.134 Y96.331 F9000.000
G1 X71.256 Y96.089 E23.36532 F600.000
G1 E17.36532 F1800.00000
G92 E0
G1 X82.766 Y97.936 F9000.000
G1 E6.00000 F1800.00000
G1 X75.260 Y112.911 E6.72587 F600.000
G1 X75.649 Y112.911 E6.74271
G1 X82.766 Y98.712 E7.43100
G1 X82.766 Y99.487 F9000.000
G1 X76.038 Y112.911 E8.08171 F600.000
G1 X76.426 Y112.911 E8.09855
G1 X82.766 Y100.262 E8.71167
G1 X82.766 Y101.038 F9000.000
G1 X76.815 Y112.911 E9.28720 F600.000
G1 X77.203 Y112.911 E9.30405
G1 X82.766 Y101.813 E9.84200
G1 X82.766 Y102.589 F9000.000
G1 X77.592 Y112.911 E10.34236 F600.000
G1 X77.981 Y112.911 E10.35920
G1 X82.766 Y103.364 E10.82198
G1 X82.766 Y104.139 F9000.000
G1 X78.369 Y112.911 E11.24718 F600.000
G1 X78.758 Y112.911 E11.26402
G1 X82.766 Y104.915 E11.65163
G1 X82.766 Y105.690 F9000.000
G1 X79.147 Y112.911 E12.00166 F600.000
G1 X79.535 Y112.911 E12.01850
G1 X82.766 Y106.466 E12.33094
G1 X82.766 Y107.241 F9000.000
G1 X79.924 Y112.911 E12.60580 F600.000
G1 X80.312 Y112.911 E12.62264
G1 X82.766 Y108.016 E12.85991
G1 X82.766 Y108.792 F9000.000
G1 X80.701 Y112.911 E13.05960 F600.000
G1 X81.090 Y112.911 E13.07644
G1 X82.766 Y109.567 E13.23854
G1 X82.766 Y110.343 F9000.000
G1 X81.478 Y112.911 E13.36306 F600.000
G1 X81.867 Y112.911 E13.37990
G1 X82.766 Y111.118 E13.46683
G1 X82.766 Y111.893 F9000.000
G1 X82.256 Y112.911 E13.51618 F600.000
G1 X82.766 Y112.669 E13.54066
G1 X82.644 Y112.911 E13.55243
G1 E7.55243 F1800.00000
G92 E0
G1 X97.645 Y112.910 F9000.000
G1 E6.00000 F1800.00000
G1 X97.765 Y112.670 E6.01163 F600.000
G1 X97.264 Y112.910 E6.03572
G1 X97.765 Y111.910 E6.08421
G1 X97.765 Y111.149 F9000.000
G1 X96.883 Y112.910 E6.16956 F600.000
G1 X96.501 Y112.910 E6.18608
G1 X97.765 Y110.389 E6.30830
G1 X97.765 Y109.628 F9000.000
G1 X96.120 Y112.910 E6.46737 F600.000
G1 X95.739 Y112.910 E6.48389
G1 X97.765 Y108.868 E6.67983
G1 X97.765 Y108.107 F9000.000
G1 X95.358 Y112.910 E6.91263 F600.000
G1 X94.977 Y112.910 E6.92915
G1 X97.765 Y107.347 E7.19881
G1 X97.765 Y106.586 F9000.000
G1 X94.596 Y112.910 E7.50534 F600.000
G1 X94.215 Y112.910 E7.52186
G1 X97.765 Y105.826 E7.86524
G1 X97.765 Y105.065 F9000.000
G1 X93.833 Y112.910 E8.24549 F600.000
G1 X93.452 Y112.910 E8.26201
G1 X97.765 Y104.305 E8.67912
G1 X97.765 Y103.544 F9000.000
G1 X93.071 Y112.910 E9.13310 F600.000
G1 X92.690 Y112.910 E9.14961
G1 X97.765 Y102.784 E9.64045
G1 X97.765 Y102.023 F9000.000
G1 X92.309 Y112.910 E10.16815 F600.000
G1 X91.928 Y112.910 E10.18466
G1 X97.765 Y101.263 E10.74922
G1 X97.765 Y100.502 F9000.000
G1 X91.546 Y112.910 E11.35065 F600.000
G1 X91.165 Y112.910 E11.36716
G1 X97.765 Y99.742 E12.00545
G1 X97.765 Y98.981 F9000.000
G1 X90.784 Y112.910 E12.68059 F600.000
G1 X90.403 Y112.910 E12.69711
G1 X97.765 Y98.221 E13.40912
G1 E7.40912 F1800.00000
G92 E0
G1 X86.133 Y91.834 F9000.000
G1 E6.00000 F1800.00000
G1 X97.867 Y68.423 E7.13476 F600.000
G1 X97.867 Y67.641 F9000.000
G1 X86.133 Y91.052 E8.26952 F600.000
G1 X86.133 Y90.270 F9000.000
G1 X97.867 Y66.859 E9.40428 F600.000
G1 X97.867 Y66.077 F9000.000
G1 X86.133 Y89.487 E10.53904 F600.000
G1 X86.133 Y88.705 F9000.000
G1 X97.867 Y65.294 E11.67380 F600.000
G1 X97.867 Y64.512 F9000.000
G1 X86.133 Y87.923 E12.80856 F600.000
G1 X86.133 Y87.141 F9000.000
G1 X97.867 Y63.730 E13.94332 F600.000
G1 X97.867 Y62.948 F9000.000
G1 X86.133 Y86.359 E15.07807 F600.000
G1 X86.133 Y85.577 F9000.000
