; generated by Slic3r 1.2.9 on 2017-02-02 at 16:48:01

; external perimeters extrusion width = 0.40mm
; perimeters extrusion width = 0.56mm
; infill extrusion width = 0.38mm
; solid infill extrusion width = 0.56mm
; top infill extrusion width = 0.22mm
; support material extrusion width = 0.40mm

M106 S256; Turn on fan to 100% power
M104 S140; turn on extruder temperature at S value
M140 S60; turn on bed temperature at S value
G28; home all axes
M84; disable motors
G1 Z15 F15000; have Z move to 20mm at 15000 mm/min
M190 S55; turn on bed temperature at S value and wait
M140 S55; turn on bed temperature at S value (printing temperature)
M109 S200; turn on extruder temperature at S value and wait (printing temperature)
M104 S200; turn on extruder temperature at S value
G1 Z0 F12000; move Z back to home
G21 ; set units to millimeters
G90 ; use absolute coordinates
M82 ; use absolute distances for extrusion
G92 E0
M106 S255
;Layer change
G1 E-6.00000 F1800.00000
G92 E0
G1 Z0.300 F9000.000
G1 X64.291 Y58.332 F9000.000
G1 E6.00000 F1800.00000
G1 X66.255 Y57.704 E6.10266 F600.000
G1 X109.526 Y57.703 E8.25708
G1 X111.111 Y58.097 E8.33841
G1 X112.160 Y58.961 E8.40605 F600.000
G1 X112.400 Y59.258 E8.42505
G1 X113.152 Y61.385 E8.53740
G1 X113.151 Y97.670 E10.34395
G1 X112.792 Y99.186 E10.42156
G1 X112.671 Y99.428 E10.43500
G1 X112.122 Y100.218 E10.48292
G1 X97.223 Y116.217 E11.57144
G1 X95.854 Y117.109 E11.65277
G1 X94.745 Y117.296 E11.70875
G1 X66.261 Y117.296 E13.12694
G1 X64.676 Y116.902 E13.20827
G1 X63.460 Y115.812 E13.28960
G1 X62.978 Y114.739 E13.34814
G1 X62.852 Y114.237 E13.37392
G1 X62.749 Y113.409 E13.41548
G1 X62.749 Y61.330 E16.00841
G1 X63.108 Y59.813 E16.08603
G1 X63.229 Y59.572 E16.09945
G1 X64.252 Y58.377 E16.17780
G1 E10.17780 F1800.00000
G92 E0
G1 X66.255 Y61.089 F9000.000
G1 E6.00000 F1800.00000
G1 X66.134 Y61.330 E6.01169 F600.000
G1 X66.134 Y62.085 E6.04439
G1 X66.634 Y61.089 E6.09267
G1 X67.012 Y61.089 E6.10906
G1 X66.134 Y62.840 E6.19391
G1 X66.134 Y63.595 E6.22662
G1 X67.390 Y61.089 E6.34806
G1 X67.768 Y61.089 E6.36445
G1 X66.134 Y64.349 E6.52248
G1 X66.134 Y65.104 E6.55518
G1 X68.147 Y61.089 E6.74979
G1 X68.525 Y61.089 E6.76619
G1 X66.134 Y65.859 E6.99738
G1 X66.134 Y66.614 E7.03008
G1 X68.903 Y61.089 E7.29786
G1 X69.282 Y61.089 E7.31425
G1 X66.134 Y67.368 E7.61862
G1 X66.134 Y68.123 E7.65132
G1 X69.660 Y61.089 E7.99227
G1 X70.038 Y61.089 E8.00866
G1 X66.134 Y68.878 E8.38619
G1 X66.134 Y69.633 E8.41890
G1 X70.416 Y61.089 E8.83301
G1 X70.795 Y61.089 E8.84941
G1 X66.134 Y70.387 E9.30010
G1 X66.134 Y71.142 E9.33281
G1 X71.173 Y61.089 E9.82009
G1 X71.551 Y61.089 E9.83649
G1 X66.134 Y71.897 E10.36035
G1 X66.134 Y72.652 E10.39306
G1 X71.930 Y61.089 E10.95351
G1 X72.308 Y61.089 E10.96990
G1 X66.134 Y73.406 E11.56694
G1 X66.134 Y74.161 E11.59965
G1 X72.686 Y61.089 E12.23327
G1 X73.064 Y61.089 E12.24966
G1 X66.134 Y74.916 E12.91986
G1 X66.134 Y75.671 E12.95257
G1 X73.443 Y61.089 E13.65936
G1 X73.821 Y61.089 E13.67575
G1 X66.134 Y76.426 E14.41913
G1 X66.134 Y77.180 E14.45183
G1 X74.199 Y61.089 E15.23179
G1 X74.578 Y61.089 E15.24818
G1 X66.134 Y77.935 E16.06472
G1 X66.134 Y78.690 E16.09743
G1 X74.956 Y61.089 E16.95056
G1 X75.334 Y61.089 E16.96695
G1 X66.134 Y79.445 E17.85666
G1 X66.134 Y80.199 E17.88937
G1 X75.712 Y61.089 E18.81566
G1 X76.091 Y61.089 E18.83205
G1 X66.134 Y80.954 E19.79493
G1 X66.134 Y81.709 E19.82764
G1 X76.469 Y61.089 E20.82710
G1 X76.847 Y61.089 E20.84350
G1 X66.134 Y82.464 E21.87954
G1 X66.134 Y83.218 E21.91225
G1 X77.226 Y61.089 E22.98488
G1 X77.604 Y61.089 E23.00127
G1 X66.134 Y83.973 E24.11049
G1 X66.134 Y84.728 E24.14320
G1 X77.982 Y61.089 E25.28900
G1 X78.361 Y61.089 E25.30539
G1 X66.134 Y85.483 E26.48778
G1 X66.134 Y86.237 E26.52048
G1 X78.739 Y61.089 E27.73945
G1 X78.866 Y61.591 E27.76188
G1 X66.134 Y86.992 E28.99311
G1 X66.134 Y87.747 E29.02582
G1 X78.866 Y62.346 E30.25704
G1 X78.866 Y63.101 E30.28975
G1 X66.134 Y88.502 E31.52098
G1 X66.134 Y89.256 E31.55369
G1 X78.866 Y63.855 E32.78492
G1 X78.866 Y64.610 E32.81762
G1 X66.134 Y90.011 E34.04885
G1 X66.134 Y90.766 E34.08156
G1 X78.866 Y65.365 E35.31279
G1 X78.866 Y66.120 E35.34549
G1 X66.134 Y91.521 E36.57672
G1 X66.134 Y92.275 E36.60943
G1 X78.866 Y66.874 E37.84066
G1 X78.866 Y67.629 E37.87336
G1 X66.134 Y93.030 E39.10459
G1 X66.134 Y93.785 E39.13730
G1 X78.866 Y68.384 E40.36853
G1 X78.866 Y69.139 E40.40123
G1 X66.134 Y94.540 E41.63246
G1 X66.134 Y95.295 E41.66517
G1 X78.866 Y69.893 E42.89640
G1 X78.866 Y70.648 E42.92910
G1 X66.134 Y96.049 E44.16033
G1 X66.134 Y96.804 E44.19304
G1 X78.866 Y71.403 E45.42427
G1 X78.866 Y72.158 E45.45697
G1 X66.134 Y97.559 E46.68820
G1 X66.134 Y98.314 E46.72091
G1 X78.866 Y72.912 E47.95214
G1 X78.866 Y73.667 E47.98485
G1 X66.134 Y99.068 E49.21607
G1 X66.134 Y99.823 E49.24878
G1 X78.866 Y74.422 E50.48001
G1 X78.866 Y75.177 E50.51272
G1 X66.134 Y100.578 E51.74395
G1 X66.134 Y101.333 E51.77665
G1 X78.866 Y75.931 E53.00788
G1 X78.866 Y76.686 E53.04059
G1 X66.134 Y102.087 E54.27182
G1 X66.134 Y102.842 E54.30452
G1 X78.866 Y77.441 E55.53575
G1 X78.866 Y78.196 E55.56846
G1 X66.134 Y103.597 E56.79969
G1 X66.134 Y104.352 E56.83239
G1 X78.866 Y78.951 E58.06362
G1 X78.866 Y79.705 E58.09633
G1 X66.134 Y105.106 E59.32756
G1 X66.134 Y105.861 E59.36026
G1 X78.866 Y80.460 E60.59149
G1 X78.866 Y81.215 E60.62420
G1 X66.134 Y106.616 E61.85543
G1 X66.134 Y107.371 E61.88813
G1 X78.866 Y81.970 E63.11936
G1 X78.866 Y82.724 E63.15207
G1 X66.134 Y108.125 E64.38330
G1 X66.134 Y108.880 E64.41600
G1 X78.866 Y83.479 E65.64723
G1 X78.866 Y84.234 E65.67994
G1 X66.134 Y109.635 E66.91117
G1 X66.134 Y110.390 E66.94388
G1 X78.866 Y84.989 E68.17510
G1 X78.866 Y85.743 E68.20781
G1 X66.134 Y111.144 E69.43904
G1 X66.134 Y111.899 E69.47175
G1 X78.866 Y86.498 E70.70298
G1 X78.866 Y87.253 E70.73568
G1 X66.134 Y112.654 E71.96691
G1 X66.134 Y113.409 E71.99962
G1 X78.866 Y88.008 E73.23085
G1 X78.866 Y88.762 E73.26355
G1 X66.261 Y113.911 E74.48253
G1 X66.639 Y113.911 E74.49892
G1 X78.866 Y89.517 E75.68132
G1 X78.866 Y90.272 E75.71402
G1 X67.018 Y113.911 E76.85983
G1 X67.396 Y113.911 E76.87623
G1 X78.866 Y91.027 E77.98545
G1 X78.866 Y91.781 E78.01816
G1 X67.774 Y113.911 E79.09080
G1 X68.153 Y113.911 E79.10719
G1 X78.866 Y92.536 E80.14325
G1 X78.866 Y93.291 E80.17596
G1 X68.531 Y113.911 E81.17543
G1 X68.909 Y113.911 E81.19182
G1 X78.866 Y94.046 E82.15471
G1 X78.866 Y94.800 E82.18742
G1 X69.287 Y113.911 E83.11372
G1 X69.666 Y113.911 E83.13011
G1 X78.866 Y95.555 E84.01983
G1 X78.866 Y96.310 E84.05254
G1 X70.044 Y113.911 E84.90567
G1 X70.422 Y113.911 E84.92207
G1 X78.866 Y97.065 E85.73862
G1 X78.866 Y97.820 E85.77132
G1 X70.801 Y113.911 E86.55129
G1 X71.179 Y113.911 E86.56768
G1 X78.866 Y98.574 E87.31107
G1 X78.866 Y99.329 E87.34377
G1 X71.557 Y113.911 E88.05057
G1 X71.935 Y113.911 E88.06696
G1 X78.866 Y100.084 E88.73718
G1 X78.866 Y100.839 E88.76988
G1 X72.314 Y113.911 E89.40351
G1 X72.692 Y113.911 E89.41990
G1 X78.866 Y101.593 E90.01695
G1 X78.866 Y102.348 E90.04966
G1 X73.070 Y113.911 E90.61012
G1 X73.449 Y113.911 E90.62651
G1 X78.866 Y103.103 E91.15039
G1 X78.866 Y103.858 E91.18309
G1 X73.827 Y113.911 E91.67039
G1 X74.205 Y113.911 E91.68678
G1 X78.866 Y104.612 E92.13749
G1 X78.866 Y105.367 E92.17019
G1 X74.583 Y113.911 E92.58432
G1 X74.962 Y113.911 E92.60071
G1 X78.866 Y106.122 E92.97825
G1 X78.866 Y106.877 E93.01095
G1 X75.340 Y113.911 E93.35191
G1 X75.718 Y113.911 E93.36830
G1 X78.866 Y107.631 E93.67267
G1 X78.866 Y108.386 E93.70538
G1 X76.097 Y113.911 E93.97317
G1 X76.475 Y113.911 E93.98956
G1 X78.866 Y109.141 E94.22076
G1 X78.866 Y109.896 E94.25347
G1 X76.853 Y113.911 E94.44809
G1 X77.231 Y113.911 E94.46448
G1 X78.866 Y110.650 E94.62251
G1 X78.866 Y111.405 E94.65522
G1 X77.610 Y113.911 E94.77667
G1 X77.988 Y113.911 E94.79306
G1 X78.866 Y112.160 E94.87793
G1 X78.866 Y112.915 E94.91063
G1 X78.366 Y113.911 E94.95891
G1 X78.866 Y113.669 E94.98294
G1 X78.745 Y113.911 E94.99464
G1 E88.99464 F1800.00000
G92 E0
G1 X82.135 Y113.408 F9000.000
G1 E6.00000 F1800.00000
G1 X94.865 Y88.008 E7.23116 F600.000
G1 X94.865 Y87.254 F9000.000
G1 X82.135 Y112.653 E8.46232 F600.000
G1 X82.135 Y111.899 F9000.000
G1 X94.865 Y86.499 E9.69349 F600.000
G1 X94.865 Y85.744 F9000.000
G1 X82.135 Y111.144 E10.92465 F600.000
G1 X82.135 Y110.389 F9000.000
G1 X94.865 Y84.989 E12.15581 F600.000
G1 X94.865 Y84.235 F9000.000
G1 X82.135 Y109.634 E13.38697 F600.000
G1 X82.135 Y108.880 F9000.000
G1 X94.865 Y83.480 E14.61814 F600.000
G1 X94.865 Y82.725 F9000.000
G1 X82.135 Y108.125 E15.84930 F600.000
G1 X82.135 Y107.370 F9000.000
G1 X94.865 Y81.970 E17.08046 F600.000
G1 X94.865 Y81.216 F9000.000
G1 X82.135 Y106.615 E18.31162 F600.000
G1 X82.135 Y105.861 F9000.000
G1 X94.865 Y80.461 E19.54278 F600.000
G1 X94.865 Y79.706 F9000.000
G1 X82.135 Y105.106 E20.77395 F600.000
G1 X82.135 Y104.351 F9000.000
G1 X94.865 Y78.951 E22.00511 F600.000
G1 X94.865 Y78.196 F9000.000
G1 X82.135 Y103.596 E23.23627 F600.000
G1 X82.135 Y102.841 F9000.000
G1 X94.865 Y77.442 E24.46743 F600.000
G1 X94.865 Y76.687 F9000.000
G1 X82.135 Y102.087 E25.69860 F600.000
G1 X82.135 Y101.332 F9000.000
G1 X94.865 Y75.932 E26.92976 F600.000
G1 X94.865 Y75.177 F9000.000
G1 X82.135 Y100.577 E28.16092 F600.000
G1 X82.135 Y99.822 F9000.000
G1 X94.865 Y74.423 E29.39208 F600.000
G1 X94.865 Y73.668 F9000.000
G1 X82.135 Y99.068 E30.62324 F600.000
G1 X82.135 Y98.313 F9000.000
G1 X94.865 Y72.913 E31.85441 F600.000
G1 X94.865 Y72.158 F9000.000
G1 X82.135 Y97.558 E33.08557 F600.000
G1 X82.135 Y96.803 F9000.000
G1 X94.865 Y71.404 E34.31673 F600.000
G1 X94.865 Y70.649 F9000.000
G1 X82.135 Y96.049 E35.54789 F600.000
G1 X82.135 Y95.294 F9000.000
G1 X94.865 Y69.894 E36.77906 F600.000
G1 X94.865 Y69.139 F9000.000
G1 X82.135 Y94.539 E38.01022 F600.000
G1 X82.135 Y93.784 F9000.000
G1 X94.865 Y68.385 E39.24138 F600.000
G1 X94.865 Y67.630 F9000.000
G1 X82.135 Y93.030 E40.47254 F600.000
G1 X82.135 Y92.275 F9000.000
G1 X94.865 Y66.875 E41.70370 F600.000
G1 X94.865 Y66.120 F9000.000
G1 X82.135 Y91.520 E42.93487 F600.000
G1 X82.135 Y90.765 F9000.000
G1 X94.865 Y65.366 E44.16603 F600.000
G1 X94.865 Y64.611 F9000.000
G1 X82.135 Y90.011 E45.39719 F600.000
G1 X82.135 Y89.256 F9000.000
G1 X94.865 Y63.856 E46.62835 F600.000
G1 X94.865 Y63.101 F9000.000
G1 X82.135 Y88.501 E47.85952 F600.000
G1 X82.135 Y87.746 F9000.000
G1 X94.865 Y62.347 E49.09068 F600.000
G1 E43.09068 F1800.00000
G92 E0
G1 X98.134 Y62.107 F9000.000
G1 E6.00000 F1800.00000
G1 X98.644 Y61.089 E6.04935 F600.000
G1 X99.033 Y61.089 E6.06619
G1 X98.134 Y62.882 E6.15312
G1 X98.134 Y63.657 F9000.000
G1 X99.422 Y61.089 E6.27764 F600.000
G1 X99.810 Y61.089 E6.29448
G1 X98.134 Y64.433 E6.45658
G1 X98.134 Y65.208 F9000.000
G1 X100.199 Y61.089 E6.65627 F600.000
G1 X100.588 Y61.089 E6.67311
G1 X98.134 Y65.984 E6.91038
G1 X98.134 Y66.759 F9000.000
G1 X100.976 Y61.089 E7.18524 F600.000
G1 X101.365 Y61.089 E7.20208
G1 X98.134 Y67.534 E7.51452
G1 X98.134 Y68.310 F9000.000
G1 X101.753 Y61.089 E7.86454 F600.000
G1 X102.142 Y61.089 E7.88138
G1 X98.134 Y69.085 E8.26900
G1 X98.134 Y69.861 F9000.000
G1 X102.531 Y61.089 E8.69419 F600.000
G1 X102.919 Y61.089 E8.71103
G1 X98.134 Y70.636 E9.17381
G1 X98.134 Y71.411 F9000.000
G1 X103.308 Y61.089 E9.67418 F600.000
G1 X103.697 Y61.089 E9.69102
G1 X98.134 Y72.187 E10.22897
G1 X98.134 Y72.962 F9000.000
G1 X104.085 Y61.089 E10.80450 F600.000
G1 X104.474 Y61.089 E10.82134
G1 X98.134 Y73.738 E11.43446
G1 X98.134 Y74.513 F9000.000
G1 X104.862 Y61.089 E12.08516 F600.000
G1 X105.251 Y61.089 E12.10200
G1 X98.134 Y75.288 E12.79029
G1 X98.134 Y76.064 F9000.000
G1 X105.640 Y61.089 E13.51617 F600.000
G1 X106.028 Y61.089 E13.53301
G1 X98.134 Y76.839 E14.29646
G1 X98.134 Y77.615 F9000.000
G1 X106.417 Y61.089 E15.09751 F600.000
G1 X106.806 Y61.089 E15.11435
G1 X98.374 Y77.911 E15.92978
G1 X98.763 Y77.911 E15.94662
G1 X107.194 Y61.089 E16.76206
G1 X107.583 Y61.089 E16.77890
G1 X99.151 Y77.911 E17.59433
G1 X99.540 Y77.911 E17.61117
G1 X107.972 Y61.089 E18.42661
G1 X108.360 Y61.089 E18.44345
G1 X99.928 Y77.911 E19.25888
G1 X100.317 Y77.911 E19.27572
G1 X108.749 Y61.089 E20.09115
G1 X109.137 Y61.089 E20.10799
G1 X100.706 Y77.911 E20.92343
G1 X101.094 Y77.911 E20.94027
G1 X109.526 Y61.089 E21.75570
G1 X109.766 Y61.385 E21.77224
G1 X101.483 Y77.911 E22.57328
G1 X101.872 Y77.911 E22.59013
G1 X109.766 Y62.161 E23.35358
G1 X109.766 Y62.936 F9000.000
G1 X102.260 Y77.911 E24.07946 F600.000
G1 X102.649 Y77.911 E24.09630
G1 X109.766 Y63.712 E24.78459
G1 X109.766 Y64.487 F9000.000
G1 X103.038 Y77.911 E25.43529 F600.000
G1 X103.426 Y77.911 E25.45213
G1 X109.766 Y65.262 E26.06525
G1 X109.766 Y66.038 F9000.000
G1 X103.815 Y77.911 E26.64078 F600.000
G1 X104.203 Y77.911 E26.65763
G1 X109.766 Y66.813 E27.19558
G1 X109.766 Y67.589 F9000.000
G1 X104.592 Y77.911 E27.69594 F600.000
G1 X104.981 Y77.911 E27.71278
G1 X109.766 Y68.364 E28.17556
G1 X109.766 Y69.139 F9000.000
G1 X105.369 Y77.911 E28.60076 F600.000
G1 X105.758 Y77.911 E28.61760
G1 X109.766 Y69.915 E29.00521
G1 X109.766 Y70.690 F9000.000
G1 X106.147 Y77.911 E29.35523 F600.000
G1 X106.535 Y77.911 E29.37207
G1 X109.766 Y71.466 E29.68452
G1 X109.766 Y72.241 F9000.000
G1 X106.924 Y77.911 E29.95937 F600.000
G1 X107.312 Y77.911 E29.97621
G1 X109.766 Y73.016 E30.21349
G1 X109.766 Y73.792 F9000.000
G1 X107.701 Y77.911 E30.41317 F600.000
G1 X108.090 Y77.911 E30.43001
G1 X109.766 Y74.567 E30.59212
G1 X109.766 Y75.343 F9000.000
G1 X108.478 Y77.911 E30.71663 F600.000
G1 X108.867 Y77.911 E30.73347
G1 X109.766 Y76.118 E30.82041
G1 X109.766 Y76.893 F9000.000
G1 X109.256 Y77.911 E30.86975 F600.000
G1 X109.766 Y77.669 E30.89424
G1 X109.644 Y77.911 E30.90600
G1 E24.90600 F1800.00000
G92 E0
G1 X109.766 Y82.460 F9000.000
G1 E6.00000 F1800.00000
G1 X102.021 Y97.911 E6.74894 F600.000
G1 X101.640 Y97.911 E6.76545
G1 X109.766 Y81.699 E7.55125
G1 X109.690 Y81.089 E7.57789
G1 X101.259 Y97.911 E8.39325
G1 X100.878 Y97.911 E8.40977
G1 X109.309 Y81.089 E9.22514
G1 X108.928 Y81.089 E9.24165
G1 X100.497 Y97.911 E10.05702
G1 X100.116 Y97.911 E10.07354
G1 X108.547 Y81.089 E10.88891
G1 X108.166 Y81.089 E10.90542
G1 X99.734 Y97.911 E11.72079
G1 X99.353 Y97.911 E11.73731
G1 X107.784 Y81.089 E12.55267
G1 X107.403 Y81.089 E12.56919
G1 X98.972 Y97.911 E13.38456
G1 X98.591 Y97.911 E13.40107
G1 X107.022 Y81.089 E14.21644
G1 X106.641 Y81.089 E14.23296
G1 X98.210 Y97.911 E15.04832
G1 X98.134 Y97.301 E15.07496
G1 X106.260 Y81.089 E15.86076
G1 X105.879 Y81.089 E15.87727
G1 X98.134 Y96.540 E16.62621
G1 X98.134 Y95.780 F9000.000
G1 X105.497 Y81.089 E17.33828 F600.000
G1 X105.116 Y81.089 E17.35480
G1 X98.134 Y95.019 E18.03001
G1 X98.134 Y94.259 F9000.000
G1 X104.735 Y81.089 E18.66836 F600.000
G1 X104.354 Y81.089 E18.68488
G1 X98.134 Y93.498 E19.28636
G1 X98.134 Y92.738 F9000.000
G1 X103.973 Y81.089 E19.85099 F600.000
G1 X103.592 Y81.089 E19.86751
G1 X98.134 Y91.977 E20.39527
G1 X98.134 Y91.217 F9000.000
G1 X103.210 Y81.089 E20.88617 F600.000
G1 X102.829 Y81.089 E20.90269
G1 X98.134 Y90.456 E21.35673
G1 X98.134 Y89.696 F9000.000
G1 X102.448 Y81.089 E21.77390 F600.000
G1 X102.067 Y81.089 E21.79042
G1 X98.134 Y88.935 E22.17074
G1 X98.134 Y88.175 F9000.000
G1 X101.686 Y81.089 E22.51419 F600.000
G1 X101.305 Y81.089 E22.53071
G1 X98.134 Y87.414 E22.83730
G1 X98.134 Y86.654 F9000.000
G1 X100.923 Y81.089 E23.10703 F600.000
G1 X100.542 Y81.089 E23.12354
G1 X98.134 Y85.893 E23.35641
G1 X98.134 Y85.133 F9000.000
G1 X100.161 Y81.089 E23.55242 F600.000
G1 X99.780 Y81.089 E23.56893
G1 X98.134 Y84.372 E23.72808
G1 X98.134 Y83.612 F9000.000
G1 X99.399 Y81.089 E23.85036 F600.000
G1 X99.018 Y81.089 E23.86687
G1 X98.134 Y82.851 E23.95229
G1 X98.134 Y82.091 F9000.000
G1 X98.637 Y81.089 E24.00085 F600.000
G1 X98.255 Y81.089 E24.01737
G1 X98.134 Y81.330 E24.02906
G1 E18.02906 F1800.00000
G92 E0
G1 X94.865 Y88.763 F9000.000
G1 E6.00000 F1800.00000
G1 X82.261 Y113.910 E7.21891 F600.000
G1 X82.640 Y113.910 E7.23530
G1 X94.865 Y89.518 E8.41763
G1 X94.865 Y90.273 F9000.000
G1 X83.018 Y113.910 E9.56337 F600.000
G1 X83.396 Y113.910 E9.57976
G1 X94.865 Y91.027 E10.68892
G1 X94.865 Y91.782 F9000.000
