; generated by Slic3r 1.2.9 on 2017-01-30 at 12:58:57

; external perimeters extrusion width = 0.40mm
; perimeters extrusion width = 0.56mm
; infill extrusion width = 0.38mm
; solid infill extrusion width = 0.56mm
; top infill extrusion width = 0.22mm
; support material extrusion width = 0.40mm

M106 S256; Turn on fan to 100% power
M104 S140; turn on extruder temperature at S value
M140 S60; turn on bed temperature at S value
G28; home all axes
M84; disable motors
G1 Z15 F15000; have Z move to 20mm at 15000 mm/min
M190 S55; turn on bed temperature at S value and wait
M140 S55; turn on bed temperature at S value (printing temperature)
M109 S200; turn on extruder temperature at S value and wait (printing temperature)
M104 S200; turn on extruder temperature at S value
G1 Z0 F12000; move Z back to home
G21 ; set units to millimeters
G90 ; use absolute coordinates
M82 ; use absolute distances for extrusion
G92 E0
M106 S255
;Layer change
G1 E-6.00000 F1800.00000
G92 E0
G1 Z0.300 F9000.000
G1 X128.903 Y49.650 F9000.000
G1 E6.00000 F1800.00000
G1 X129.023 Y49.410 E6.01335 F600.000
G1 X130.129 Y48.085 E6.09926
G1 X132.395 Y47.329 E6.21821
G1 X143.692 Y47.329 E6.78069
G1 X144.818 Y47.500 E6.83737 F600.000
G1 X153.933 Y50.350 E7.31290
G1 X155.419 Y51.228 E7.39880
G1 X156.112 Y52.131 E7.45546
G1 X156.309 Y52.489 E7.47580
G1 X156.656 Y53.362 E7.52258
G1 X159.654 Y64.957 E8.11890
G1 X168.703 Y110.017 E10.40718
G1 X168.776 Y110.760 E10.44433
G1 X168.776 Y122.030 E11.00546
G1 X168.377 Y123.720 E11.09192
G1 X168.256 Y123.960 E11.10528
G1 X167.151 Y125.285 E11.19118
G1 X165.986 Y125.877 E11.25626
G1 X156.649 Y128.727 E11.74229
G1 X155.548 Y128.891 E11.79772
G1 X144.628 Y128.891 E12.34145
G1 X144.125 Y128.858 E12.36651
G1 X143.773 Y128.810 E12.38423
G1 X142.160 Y128.196 E12.47014
G1 X141.357 Y127.461 E12.52435
G1 X129.445 Y112.909 E13.46068
G1 X128.635 Y111.092 E13.55969
G1 X128.547 Y110.517 E13.58867
G1 X128.504 Y109.945 E13.61724
G1 X128.504 Y51.340 E16.53514
G1 X128.889 Y49.708 E16.61860
G1 X129.248 Y49.823 F9000.000
G1 X129.368 Y49.583 E16.63196 F600.000
G1 X130.431 Y48.342 E16.71329
G1 X132.395 Y47.714 E16.81595
G1 X143.692 Y47.714 E17.37844
G1 X144.703 Y47.869 E17.42932 F600.000
G1 X153.818 Y50.719 E17.90485
G1 X155.214 Y51.568 E17.98619
G1 X155.774 Y52.317 E18.03276
G1 X155.971 Y52.675 E18.05311
G1 X156.283 Y53.459 E18.09510
G1 X159.276 Y65.033 E18.69035
G1 X168.325 Y110.093 E20.97863
G1 X168.391 Y110.760 E21.01198
G1 X168.391 Y122.030 E21.57312
G1 X168.032 Y123.547 E21.65073
G1 X167.912 Y123.787 E21.66410
G1 X166.849 Y125.028 E21.74543
G1 X165.873 Y125.508 E21.79957
G1 X156.537 Y128.358 E22.28561
G1 X155.548 Y128.506 E22.33537
G1 X144.628 Y128.506 E22.87910
G1 X144.177 Y128.476 E22.90160
G1 X143.824 Y128.428 E22.91932
G1 X142.305 Y127.827 E23.00066
G1 X141.655 Y127.217 E23.04503
G1 X129.743 Y112.665 E23.98136
G1 X129.017 Y111.034 E24.07025
G1 X128.928 Y110.459 E24.09922
G1 X128.889 Y109.945 E24.12487
G1 X128.889 Y51.340 E27.04277
G1 X129.234 Y49.881 E27.11740
G1 E21.11740 F1800.00000
G92 E0
G1 X132.275 Y51.340 F9000.000
G1 E6.00000 F1800.00000
G1 X132.395 Y51.100 E6.01162 F600.000
G1 X132.275 Y52.091 F9000.000
G1 X132.772 Y51.100 E6.05966 F600.000
G1 X133.148 Y51.100 E6.07598
G1 X132.275 Y52.842 E6.16044
G1 X132.275 Y53.594 F9000.000
G1 X133.525 Y51.100 E6.28132 F600.000
G1 X133.901 Y51.100 E6.29763
G1 X132.275 Y54.345 E6.45493
G1 X132.275 Y55.096 F9000.000
G1 X134.278 Y51.100 E6.64865 F600.000
G1 X134.654 Y51.100 E6.66497
G1 X132.275 Y55.848 E6.89510
G1 X132.275 Y56.599 F9000.000
G1 X135.031 Y51.100 E7.16165 F600.000
G1 X135.408 Y51.100 E7.17797
G1 X132.275 Y57.350 E7.48095
G1 X132.275 Y58.102 F9000.000
G1 X135.784 Y51.100 E7.82034 F600.000
G1 X136.161 Y51.100 E7.83666
G1 X132.275 Y58.853 E8.21247
G1 X132.275 Y59.604 F9000.000
G1 X136.537 Y51.100 E8.62470 F600.000
G1 X136.914 Y51.100 E8.64101
G1 X132.275 Y60.356 E9.08966
G1 X132.275 Y61.107 F9000.000
G1 X137.290 Y51.100 E9.57473 F600.000
G1 X137.667 Y51.100 E9.59105
G1 X132.275 Y61.859 E10.11254
G1 X132.275 Y62.610 F9000.000
G1 X138.044 Y51.100 E10.67044 F600.000
G1 X138.420 Y51.100 E10.68676
G1 X132.275 Y63.361 E11.28108
G1 X132.275 Y64.113 F9000.000
G1 X138.797 Y51.100 E11.91183 F600.000
G1 X139.173 Y51.100 E11.92815
G1 X132.275 Y64.864 E12.59531
G1 X132.275 Y65.615 F9000.000
G1 X139.550 Y51.100 E13.29889 F600.000
G1 X139.927 Y51.100 E13.31521
G1 X132.275 Y66.367 E14.05521
G1 X132.275 Y67.118 F9000.000
G1 X140.303 Y51.100 E14.83163 F600.000
G1 X140.680 Y51.100 E14.84795
G1 X132.275 Y67.869 E15.66079
G1 X132.275 Y68.621 F9000.000
G1 X141.056 Y51.100 E16.51004 F600.000
G1 X141.433 Y51.100 E16.52636
G1 X132.275 Y69.372 E17.41204
G1 X132.275 Y70.123 F9000.000
G1 X141.809 Y51.100 E18.33414 F600.000
G1 X142.186 Y51.100 E18.35045
G1 X132.275 Y70.875 E19.30897
G1 X132.275 Y71.626 F9000.000
G1 X142.563 Y51.100 E20.30390 F600.000
G1 X142.939 Y51.100 E20.32022
G1 X132.275 Y72.377 E21.35157
G1 X132.275 Y73.129 F9000.000
G1 X143.316 Y51.100 E22.41934 F600.000
G1 X143.692 Y51.100 E22.43566
G1 X132.275 Y73.880 E23.53985
G1 X132.275 Y74.631 F9000.000
G1 X144.005 Y51.227 E24.67431 F600.000
G1 X144.005 Y51.978 F9000.000
G1 X132.275 Y75.383 E25.80876 F600.000
G1 X132.275 Y76.134 F9000.000
G1 X144.005 Y52.730 E26.94321 F600.000
G1 X144.005 Y53.481 F9000.000
G1 X132.275 Y76.886 E28.07766 F600.000
G1 X132.275 Y77.637 F9000.000
G1 X144.147 Y53.950 E29.22580 F600.000
G1 X144.523 Y53.950 E29.24212
G1 X132.275 Y78.388 E30.42668
G1 X132.275 Y79.140 F9000.000
G1 X144.900 Y53.950 E31.64766 F600.000
G1 X145.277 Y53.950 E31.66398
G1 X132.275 Y79.891 E32.92138
G1 X132.275 Y80.642 F9000.000
G1 X145.653 Y53.950 E34.21520 F600.000
G1 X146.030 Y53.950 E34.23152
G1 X132.275 Y81.394 E35.56175
G1 X132.275 Y82.145 F9000.000
G1 X146.406 Y53.950 E36.92841 F600.000
G1 X146.783 Y53.950 E36.94473
G1 X132.275 Y82.896 E38.34780
G1 X132.275 Y83.648 F9000.000
G1 X147.159 Y53.950 E39.78730 F600.000
G1 X147.536 Y53.950 E39.80362
G1 X132.275 Y84.399 E41.27953
G1 X132.275 Y85.150 F9000.000
G1 X147.913 Y53.950 E42.79186 F600.000
G1 X148.289 Y53.950 E42.80818
G1 X132.275 Y85.902 E44.35693
G1 X132.275 Y86.653 F9000.000
G1 X148.666 Y53.950 E45.94210 F600.000
G1 X149.042 Y53.950 E45.95842
G1 X132.275 Y87.404 E47.58001
G1 X132.275 Y88.156 F9000.000
G1 X149.419 Y53.950 E49.23802 F600.000
G1 X149.795 Y53.950 E49.25433
G1 X132.275 Y88.907 E50.94876
G1 X132.275 Y89.658 F9000.000
G1 X150.172 Y53.950 E52.67961 F600.000
G1 X150.549 Y53.950 E52.69593
G1 X132.275 Y90.410 E54.46319
G1 X132.275 Y91.161 F9000.000
G1 X150.925 Y53.950 E56.26687 F600.000
G1 X151.302 Y53.950 E56.28319
G1 X132.275 Y91.913 E58.12330
G1 X132.275 Y92.664 F9000.000
G1 X151.678 Y53.950 E59.99982 F600.000
G1 X152.055 Y53.950 E60.01614
G1 X132.275 Y93.415 E61.92908
G1 X132.275 Y94.167 F9000.000
G1 X152.432 Y53.950 E63.87844 F600.000
G1 X152.808 Y53.950 E63.89476
G1 X132.275 Y94.918 E65.88053
G1 X132.275 Y95.669 F9000.000
G1 X153.005 Y54.308 E67.88538 F600.000
G1 X153.005 Y55.059 F9000.000
G1 X132.275 Y96.421 E69.89022 F600.000
G1 X132.275 Y97.172 F9000.000
G1 X153.005 Y55.811 E71.89507 F600.000
G1 X153.005 Y56.562 F9000.000
G1 X132.275 Y97.923 E73.89991 F600.000
G1 X132.275 Y98.675 F9000.000
G1 X153.005 Y57.313 E75.90475 F600.000
G1 X153.005 Y58.065 F9000.000
G1 X132.275 Y99.426 E77.90960 F600.000
G1 X132.275 Y100.177 F9000.000
G1 X153.005 Y58.816 E79.91444 F600.000
G1 X153.005 Y59.567 F9000.000
G1 X132.275 Y100.929 E81.91929 F600.000
G1 X132.275 Y101.680 F9000.000
G1 X153.005 Y60.319 E83.92413 F600.000
G1 X153.005 Y61.070 F9000.000
G1 X132.275 Y102.431 E85.92897 F600.000
G1 X132.275 Y103.183 F9000.000
G1 X153.005 Y61.821 E87.93382 F600.000
G1 X153.005 Y62.573 F9000.000
G1 X132.275 Y103.934 E89.93866 F600.000
G1 X132.275 Y104.685 F9000.000
G1 X153.005 Y63.324 E91.94350 F600.000
G1 X153.005 Y64.075 F9000.000
G1 X132.275 Y105.437 E93.94835 F600.000
G1 X132.275 Y106.188 F9000.000
G1 X153.005 Y64.827 E95.95319 F600.000
G1 X153.005 Y65.578 F9000.000
G1 X132.275 Y106.940 E97.95804 F600.000
G1 X132.275 Y107.691 F9000.000
G1 X153.321 Y65.700 E99.99340 F600.000
G1 X153.697 Y65.700 E100.00972
G1 X132.275 Y108.442 E102.08150
G1 X132.275 Y109.194 F9000.000
G1 X154.074 Y65.700 E104.18970 F600.000
G1 X154.451 Y65.700 E104.20602
G1 X132.275 Y109.945 E106.35064
G1 X132.363 Y110.520 E106.37585
G1 X154.827 Y65.700 E108.54835
G1 X155.204 Y65.700 E108.56467
G1 X132.740 Y110.520 E110.73717
G1 X133.116 Y110.520 E110.75349
G1 X155.580 Y65.700 E112.92599
G1 X155.957 Y65.700 E112.94231
G1 X133.493 Y110.520 E115.11481
G1 X133.869 Y110.520 E115.13113
G1 X156.005 Y66.355 E117.27189
G1 X156.005 Y67.106 F9000.000
G1 X134.246 Y110.520 E119.37623 F600.000
G1 X134.623 Y110.520 E119.39255
G1 X156.005 Y67.857 E121.46047
G1 X156.005 Y68.609 F9000.000
G1 X134.999 Y110.520 E123.49197 F600.000
G1 X135.376 Y110.520 E123.50829
G1 X156.005 Y69.360 E125.50337
G1 X156.005 Y70.111 F9000.000
G1 X135.752 Y110.520 E127.46204 F600.000
G1 X136.129 Y110.520 E127.47836
G1 X156.005 Y70.863 E129.40060
G1 X156.005 Y71.614 F9000.000
G1 X136.505 Y110.520 E131.28643 F600.000
G1 X136.882 Y110.520 E131.30275
G1 X156.005 Y72.366 E133.15216
G1 X156.005 Y73.117 F9000.000
G1 X137.259 Y110.520 E134.96514 F600.000
G1 X137.635 Y110.520 E134.98146
G1 X156.005 Y73.868 E136.75803
G1 X156.005 Y74.620 F9000.000
G1 X138.012 Y110.520 E138.49818 F600.000
G1 X138.388 Y110.520 E138.51450
G1 X156.005 Y75.371 E140.21823
G1 X156.005 Y76.122 F9000.000
G1 X138.765 Y110.520 E141.88555 F600.000
G1 X139.141 Y110.520 E141.90187
G1 X156.005 Y76.874 E143.53276
G1 X156.005 Y77.625 F9000.000
G1 X139.518 Y110.520 E145.12723 F600.000
G1 X139.895 Y110.520 E145.14355
G1 X156.005 Y78.376 E146.70161
G1 X156.005 Y79.128 F9000.000
G1 X140.271 Y110.520 E148.22325 F600.000
G1 X140.648 Y110.520 E148.23956
G1 X156.005 Y79.879 E149.72478
G1 X156.005 Y80.630 F9000.000
G1 X141.024 Y110.520 E151.17358 F600.000
G1 X141.401 Y110.520 E151.18990
G1 X156.005 Y81.382 E152.60228
G1 X156.005 Y82.133 F9000.000
G1 X141.778 Y110.520 E153.97824 F600.000
G1 X142.154 Y110.520 E153.99456
G1 X156.005 Y82.884 E155.33410
G1 X156.005 Y83.636 F9000.000
G1 X142.531 Y110.520 E156.63722 F600.000
G1 X142.907 Y110.520 E156.65354
G1 X156.005 Y84.387 E157.92025
G1 X156.005 Y85.138 F9000.000
G1 X143.284 Y110.520 E159.15053 F600.000
G1 X143.660 Y110.520 E159.16685
G1 X156.005 Y85.890 E160.36072
G1 X156.005 Y86.641 F9000.000
G1 X144.037 Y110.520 E161.51816 F600.000
G1 X144.275 Y110.797 F9000.000
G1 X156.005 Y87.393 E162.65261 F600.000
G1 X156.005 Y88.144 F9000.000
G1 X144.275 Y111.548 E163.78707 F600.000
G1 X144.275 Y112.300 F9000.000
G1 X156.005 Y88.895 E164.92152 F600.000
G1 X156.005 Y89.647 F9000.000
G1 X144.275 Y113.051 E166.05597 F600.000
G1 X144.275 Y113.802 F9000.000
G1 X156.005 Y90.398 E167.19042 F600.000
G1 X156.005 Y91.149 F9000.000
G1 X144.275 Y114.554 E168.32488 F600.000
G1 X144.275 Y115.305 F9000.000
G1 X156.005 Y91.901 E169.45933 F600.000
G1 X156.005 Y92.652 F9000.000
G1 X144.275 Y116.057 E170.59378 F600.000
G1 X144.275 Y116.808 F9000.000
G1 X156.005 Y93.403 E171.72823 F600.000
G1 X156.005 Y94.155 F9000.000
G1 X144.275 Y117.559 E172.86268 F600.000
G1 X144.275 Y118.311 F9000.000
G1 X156.005 Y94.906 E173.99714 F600.000
G1 X156.005 Y95.657 F9000.000
G1 X144.275 Y119.062 E175.13159 F600.000
G1 X144.275 Y119.813 F9000.000
G1 X156.005 Y96.409 E176.26604 F600.000
G1 X156.005 Y97.160 F9000.000
G1 X144.275 Y120.565 E177.40049 F600.000
G1 X144.275 Y121.316 F9000.000
G1 X156.005 Y97.911 E178.53494 F600.000
G1 X156.005 Y98.663 F9000.000
G1 X144.275 Y122.067 E179.66940 F600.000
G1 X144.275 Y122.819 F9000.000
G1 X156.005 Y99.414 E180.80385 F600.000
G1 X156.005 Y100.165 F9000.000
G1 X144.275 Y123.570 E181.93830 F600.000
G1 X144.275 Y124.321 F9000.000
G1 X156.005 Y100.917 E183.07275 F600.000
G1 X156.005 Y101.668 F9000.000
G1 X144.275 Y125.073 E184.20720 F600.000
G1 X144.628 Y125.120 E184.22263
G1 X156.005 Y102.420 E185.32296
G1 X156.005 Y103.171 F9000.000
G1 X145.004 Y125.120 E186.38687 F600.000
G1 X145.381 Y125.120 E186.40319
G1 X156.005 Y103.922 E187.43068
G1 X156.005 Y104.674 F9000.000
G1 X145.757 Y125.120 E188.42176 F600.000
G1 X146.134 Y125.120 E188.43808
G1 X156.005 Y105.425 E189.39273
G1 X156.005 Y106.176 F9000.000
G1 X146.510 Y125.120 E190.31097 F600.000
G1 X146.887 Y125.120 E190.32729
G1 X156.005 Y106.928 E191.20910
G1 X156.005 Y107.679 F9000.000
G1 X147.264 Y125.120 E192.05450 F600.000
G1 X147.640 Y125.120 E192.07082
G1 X156.005 Y108.430 E192.87980
G1 X156.005 Y109.182 F9000.000
G1 X148.017 Y125.120 E193.65236 F600.000
G1 X148.393 Y125.120 E193.66868
G1 X156.005 Y109.933 E194.40482
G1 X156.123 Y110.450 F9000.000
G1 X148.770 Y125.120 E195.11590 F600.000
G1 X149.147 Y125.120 E195.13222
G1 X156.499 Y110.450 E195.84331
G1 X156.876 Y110.450 E195.85963
G1 X149.523 Y125.120 E196.57071
G1 X149.900 Y125.120 E196.58703
G1 X157.252 Y110.450 E197.29812
G1 X157.629 Y110.450 E197.31444
G1 X150.276 Y125.120 E198.02552
G1 X150.653 Y125.120 E198.04184
G1 X158.006 Y110.450 E198.75293
G1 X158.382 Y110.450 E198.76925
G1 X151.029 Y125.120 E199.48033
G1 X151.406 Y125.120 E199.49665
G1 X158.759 Y110.450 E200.20774
G1 X159.135 Y110.450 E200.22406
G1 X151.783 Y125.120 E200.93514
G1 X152.159 Y125.120 E200.95146
G1 X159.512 Y110.450 E201.66255
G1 X159.889 Y110.450 E201.67886
G1 X152.536 Y125.120 E202.38995
G1 X152.912 Y125.120 E202.40627
G1 X160.265 Y110.450 E203.11736
G1 X160.642 Y110.450 E203.13367
G1 X153.289 Y125.120 E203.84476
G1 X153.665 Y125.120 E203.86108
G1 X161.018 Y110.450 E204.57217
G1 X161.395 Y110.450 E204.58848
G1 X154.042 Y125.120 E205.29957
G1 X154.419 Y125.120 E205.31589
G1 X161.771 Y110.450 E206.02698
G1 X162.148 Y110.450 E206.04329
G1 X156.224 Y122.270 E206.61624
G1 X156.600 Y122.270 E206.63256
G1 X162.525 Y110.450 E207.20550
G1 X162.901 Y110.450 E207.22182
G1 X156.977 Y122.270 E207.79476
G1 X157.353 Y122.270 E207.81108
G1 X163.278 Y110.450 E208.38402
G1 X163.654 Y110.450 E208.40034
G1 X157.730 Y122.270 E208.97328
G1 X158.107 Y122.270 E208.98960
G1 X164.031 Y110.450 E209.56255
G1 X164.407 Y110.450 E209.57886
G1 X158.483 Y122.270 E210.15181
G1 X158.860 Y122.270 E210.16813
G1 X164.784 Y110.450 E210.74107
G1 X165.005 Y110.760 E210.75757
G1 X159.236 Y122.270 E211.31549
G1 X159.613 Y122.270 E211.33181
G1 X165.005 Y111.511 E211.85330
G1 X165.005 Y112.263 F9000.000
G1 X159.989 Y122.270 E212.33838 F600.000
G1 X160.366 Y122.270 E212.35470
G1 X165.005 Y113.014 E212.80335
G1 X165.005 Y113.765 F9000.000
G1 X160.743 Y122.270 E213.21559 F600.000
G1 X161.119 Y122.270 E213.23191
G1 X165.005 Y114.517 E213.60773
G1 X165.005 Y115.268 F9000.000
G1 X161.496 Y122.270 E213.94713 F600.000
G1 X161.872 Y122.270 E213.96345
G1 X165.005 Y116.019 E214.26643
G1 X165.005 Y116.771 F9000.000
G1 X162.249 Y122.270 E214.53299 F600.000
G1 X162.625 Y122.270 E214.54931
G1 X165.005 Y117.522 E214.77946
G1 X165.005 Y118.273 F9000.000
G1 X163.002 Y122.270 E214.97318 F600.000
G1 X163.379 Y122.270 E214.98950
G1 X165.005 Y119.025 E215.14680
G1 X165.005 Y119.776 F9000.000
G1 X163.755 Y122.270 E215.26769 F600.000
G1 X164.132 Y122.270 E215.28401
G1 X165.005 Y120.527 E215.36848
G1 X165.005 Y121.279 F9000.000
G1 X164.508 Y122.270 E215.41653 F600.000
G1 X165.005 Y122.030 E215.44043
G1 X164.885 Y122.270 E215.45206
G1 E209.45206 F1800.00000
G92 E0
G1 X156.005 Y122.706 F9000.000
G1 E6.00000 F1800.00000
G1 X154.795 Y125.120 E6.11702 F600.000
G1 X155.172 Y125.120 E6.13334
G1 X156.005 Y123.457 E6.21394
G1 X156.005 Y124.209 F9000.000
G1 X155.548 Y125.120 E6.25812 F600.000
M104 S195 ; set temperature
M140 S55 ; wait for bed temperature to be reached
;Layer change
G1 E0.25812 F1800.00000
G92 E0
G1 Z0.600 F9000.000
G1 E6.00000 F1800.00000
G1 X156.005 Y124.209 E6.04418 F3000.000
G1 X156.005 Y123.457 F9000.000
G1 X155.172 Y125.120 E6.12478 F3000.000
G1 X154.795 Y125.120 E6.14110
G1 X156.005 Y122.706 E6.25812
G1 E0.25812 F1800.00000
G92 E0
G1 X164.885 Y122.270 F9000.000
G1 E6.00000 F1800.00000
G1 X165.005 Y122.030 E6.01163 F3000.000
G1 X164.508 Y122.270 E6.03554
G1 X165.005 Y121.279 E6.08359
G1 X165.005 Y120.527 F9000.000
