; generated by Slic3r 1.2.9 on 2017-01-30 at 20:45:07

; external perimeters extrusion width = 0.40mm
; perimeters extrusion width = 0.56mm
; infill extrusion width = 0.38mm
; solid infill extrusion width = 0.56mm
; top infill extrusion width = 0.22mm

M106 S256; Turn on fan to 100% power
M104 S140; turn on extruder temperature at S value
M140 S60; turn on bed temperature at S value
G28; home all axes
M84; disable motors
G1 Z15 F15000; have Z move to 20mm at 15000 mm/min
M190 S55; turn on bed temperature at S value and wait
M140 S55; turn on bed temperature at S value (printing temperature)
M109 S200; turn on extruder temperature at S value and wait (printing temperature)
M104 S200; turn on extruder temperature at S value
G1 Z0 F12000; move Z back to home
G21 ; set units to millimeters
G90 ; use absolute coordinates
M82 ; use absolute distances for extrusion
G92 E0
M106 S255
;Layer change
G1 E-6.00000 F1800.00000
G92 E0
G1 Z0.300 F9000.000
G1 X53.998 Y16.126 F9000.000
G1 E6.00000 F1800.00000
G1 X54.277 Y15.332 E6.04188 F600.000
G1 X54.605 Y14.558 E6.08375
G1 X54.980 Y13.805 E6.12561
G1 X55.517 Y12.899 E6.17806
G1 X55.995 Y12.207 E6.21993
G1 X56.380 Y11.710 E6.25122
G1 X56.931 Y11.076 E6.29306
G1 X57.520 Y10.476 E6.33492
G1 X58.147 Y9.915 E6.37681
G1 X58.807 Y9.395 E6.41864
G1 X59.499 Y8.917 E6.46052
G1 X60.219 Y8.483 E6.50239
G1 X61.158 Y8.005 E6.55484
G1 X61.932 Y7.677 E6.59669
G1 X62.753 Y7.390 E6.64002
G1 X63.535 Y7.170 E6.68042
G1 X64.148 Y7.033 E6.71170
G1 X64.977 Y6.895 E6.75356
G1 X65.813 Y6.809 E6.79543
G1 X66.760 Y6.774 E6.84258
G1 X122.866 Y6.776 E9.63606
G1 X123.707 Y6.809 E9.67793 F600.000
G1 X124.543 Y6.895 E9.71979
G1 X125.163 Y6.993 E9.75107
G1 X125.985 Y7.170 E9.79293
G1 X126.997 Y7.464 E9.84538
G1 X127.786 Y7.755 E9.88723
G1 X128.362 Y8.005 E9.91852
G1 X129.301 Y8.483 E9.97096
G1 X130.021 Y8.916 E10.01282
G1 X130.541 Y9.270 E10.04411
G1 X131.373 Y9.915 E10.09653
G1 X131.999 Y10.476 E10.13841
G1 X132.444 Y10.921 E10.16970
G1 X133.140 Y11.710 E10.22213
G1 X133.525 Y12.207 E10.25343
G1 X134.003 Y12.899 E10.29529
G1 X134.540 Y13.805 E10.34774
G1 X134.825 Y14.365 E10.37902
G1 X135.165 Y15.134 E10.42088
G1 X135.522 Y16.126 E10.47334
G1 X135.750 Y16.934 E10.51517
G1 X135.887 Y17.548 E10.54647
G1 X136.052 Y18.588 E10.59890
G1 X136.124 Y19.426 E10.64078
G1 X136.146 Y20.160 E10.67735
G1 X136.146 Y152.660 E17.27439
G1 X136.111 Y153.607 E17.32159
G1 X136.025 Y154.442 E17.36336
G1 X135.927 Y155.063 E17.39466
G1 X135.750 Y155.886 E17.43658
G1 X135.456 Y156.897 E17.48900
G1 X135.243 Y157.488 E17.52030
G1 X134.916 Y158.262 E17.56213
G1 X134.436 Y159.203 E17.61472
G1 X134.004 Y159.920 E17.65638
G1 X133.651 Y160.440 E17.68770
G1 X133.139 Y161.110 E17.72967
G1 X132.446 Y161.897 E17.78187
G1 X131.843 Y162.491 E17.82402
G1 X131.209 Y163.040 E17.86576
G1 X130.713 Y163.425 E17.89704
G1 X129.843 Y164.016 E17.94942
G1 X129.114 Y164.440 E17.99139
G1 X128.554 Y164.725 E18.02268
G1 X127.788 Y165.064 E18.06439
G1 X126.794 Y165.422 E18.11700
G1 X126.190 Y165.598 E18.14831
G1 X125.372 Y165.787 E18.19011
G1 X124.541 Y165.925 E18.23203
G1 X123.706 Y166.011 E18.27385
G1 X122.760 Y166.046 E18.32098
G1 X66.760 Y166.046 E21.10917
G1 X66.024 Y166.024 E21.14581
G1 X65.189 Y165.952 E21.18757
G1 X64.358 Y165.827 E21.22939
G1 X63.535 Y165.650 E21.27132
G1 X62.727 Y165.423 E21.31312
G1 X61.931 Y165.143 E21.35511
G1 X61.155 Y164.814 E21.39705
G1 X60.406 Y164.440 E21.43874
G1 X59.678 Y164.017 E21.48070
G1 X58.980 Y163.550 E21.52249
G1 X58.311 Y163.040 E21.56439
G1 X57.677 Y162.491 E21.60613
G1 X57.074 Y161.897 E21.64828
G1 X56.516 Y161.273 E21.68995
G1 X55.996 Y160.614 E21.73175
G1 X55.516 Y159.920 E21.77377
G1 X55.084 Y159.203 E21.81544
G1 X54.695 Y158.454 E21.85747
G1 X54.355 Y157.685 E21.89935
G1 X54.064 Y156.897 E21.94115
G1 X53.770 Y155.886 E21.99357
G1 X53.593 Y155.063 E22.03550
G1 X53.468 Y154.232 E22.07731
G1 X53.396 Y153.394 E22.11920
G1 X53.374 Y152.660 E22.15576
G1 X53.374 Y20.160 E28.75281
G1 X53.409 Y19.213 E28.79999
G1 X53.495 Y18.377 E28.84181
G1 X53.633 Y17.547 E28.88371
G1 X53.770 Y16.934 E28.91499
G1 X53.981 Y16.183 E28.95383
G1 E22.95383 F1800.00000
G92 E0
G1 X65.144 Y152.427 F9000.000
G1 E6.00000 F1800.00000
G1 X65.546 Y152.633 E6.02252 F600.000
G1 X65.903 Y152.909 E6.04499
G1 X66.202 Y153.249 E6.06754
G1 X66.432 Y153.638 E6.09003
G1 X66.591 Y154.078 E6.11331
G1 X66.664 Y154.660 E6.14251
G1 X66.591 Y155.242 E6.17171
G1 X66.432 Y155.682 E6.19500
G1 X66.202 Y156.071 E6.21748
G1 X65.903 Y156.411 E6.24003
G1 X65.546 Y156.687 E6.26251
G1 X65.144 Y156.893 E6.28502
G1 X64.709 Y157.018 E6.30753
G1 X64.260 Y157.061 E6.33000
G1 X63.811 Y157.018 E6.35247
G1 X63.376 Y156.893 E6.37497
G1 X62.974 Y156.687 E6.39749
G1 X62.617 Y156.411 E6.41996
G1 X62.318 Y156.071 E6.44251
G1 X62.088 Y155.682 E6.46500
G1 X61.929 Y155.242 E6.48828
G1 X61.856 Y154.660 E6.51748
G1 X61.929 Y154.078 E6.54668
G1 X62.088 Y153.638 E6.56997
G1 X62.318 Y153.249 E6.59245
G1 X62.617 Y152.909 E6.61500
G1 X62.974 Y152.633 E6.63748
G1 X63.376 Y152.427 E6.66000
G1 X63.810 Y152.302 E6.68248
G1 X64.254 Y152.259 E6.70469 F600.000
G1 X64.708 Y152.302 E6.72739
G1 X65.086 Y152.411 E6.74695
G1 X65.001 Y152.788 F9000.000
G1 X65.339 Y152.960 E6.76583 F600.000
G1 X65.638 Y153.192 E6.78468
G1 X65.889 Y153.477 E6.80359
G1 X66.082 Y153.803 E6.82245
G1 X66.213 Y154.169 E6.84180
G1 X66.275 Y154.660 E6.86646
G1 X66.213 Y155.151 E6.89112
G1 X66.082 Y155.517 E6.91047
G1 X65.889 Y155.843 E6.92933
G1 X65.638 Y156.128 E6.94824
G1 X65.339 Y156.360 E6.96708
G1 X65.001 Y156.532 E6.98597
G1 X64.637 Y156.637 E7.00484
G1 X64.260 Y156.673 E7.02369
G1 X63.883 Y156.637 E7.04254
G1 X63.519 Y156.532 E7.06141
G1 X63.181 Y156.360 E7.08029
G1 X62.882 Y156.128 E7.09914
G1 X62.631 Y155.843 E7.11804
G1 X62.438 Y155.517 E7.13691
G1 X62.307 Y155.151 E7.15626
G1 X62.245 Y154.660 E7.18091
G1 X62.307 Y154.169 E7.20557
G1 X62.438 Y153.803 E7.22492
G1 X62.631 Y153.477 E7.24379
G1 X62.882 Y153.192 E7.26269
G1 X63.181 Y152.960 E7.28154
G1 X63.519 Y152.788 E7.30042
G1 X63.883 Y152.683 E7.31928
G1 X64.255 Y152.647 E7.33789 F600.000
G1 X64.636 Y152.682 E7.35696
G1 X64.943 Y152.771 E7.37287
G1 X64.859 Y153.148 F9000.000
G1 X65.131 Y153.287 E7.38812 F600.000
G1 X65.373 Y153.474 E7.40334
G1 X65.576 Y153.704 E7.41860
G1 X65.731 Y153.968 E7.43384
G1 X65.836 Y154.259 E7.44926
G1 X65.887 Y154.660 E7.46937
G1 X65.836 Y155.061 E7.48949
G1 X65.731 Y155.352 E7.50491
G1 X65.576 Y155.616 E7.52015
G1 X65.373 Y155.846 E7.53541
G1 X65.131 Y156.033 E7.55063
G1 X64.859 Y156.172 E7.56587
G1 X64.565 Y156.257 E7.58111
G1 X64.260 Y156.286 E7.59634
G1 X63.955 Y156.257 E7.61157
G1 X63.661 Y156.172 E7.62681
G1 X63.389 Y156.033 E7.64206
G1 X63.147 Y155.846 E7.65728
G1 X62.944 Y155.616 E7.67253
G1 X62.789 Y155.352 E7.68778
G1 X62.684 Y155.061 E7.70320
G1 X62.633 Y154.660 E7.72331
G1 X62.684 Y154.259 E7.74342
G1 X62.789 Y153.968 E7.75884
G1 X62.944 Y153.704 E7.77409
G1 X63.147 Y153.474 E7.78934
G1 X63.389 Y153.287 E7.80456
G1 X63.661 Y153.148 E7.81981
G1 X63.955 Y153.063 E7.83504
G1 X64.256 Y153.034 E7.85006 F600.000
G1 X64.564 Y153.063 E7.86550
G1 X64.801 Y153.131 E7.87776
G1 X65.104 Y152.965 F9000.000
G1 X73.013 Y146.817 F9000.000
G1 X72.475 Y146.052 E7.92430 F600.000
G1 X72.124 Y145.458 E7.95866
G1 X71.810 Y144.842 E7.99309
G1 X71.535 Y144.208 E8.02750
G1 X71.301 Y143.558 E8.06188
G1 X71.109 Y142.895 E8.09626
G1 X70.958 Y142.221 E8.13066
G1 X70.850 Y141.538 E8.16508
G1 X70.785 Y140.851 E8.19945
G1 X70.764 Y140.176 E8.23308
G1 X70.764 Y105.144 E9.97725
G1 X70.785 Y104.469 E10.01087
G1 X70.850 Y103.782 E10.04526
G1 X70.958 Y103.099 E10.07966
G1 X71.109 Y102.425 E10.11405
G1 X71.301 Y101.762 E10.14845
G1 X71.535 Y101.112 E10.18284
G1 X71.810 Y100.478 E10.21724
G1 X72.123 Y99.862 E10.25163
G1 X72.475 Y99.268 E10.28603
G1 X72.863 Y98.696 E10.32043
G1 X73.287 Y98.150 E10.35482
G1 X73.744 Y97.632 E10.38922
G1 X74.232 Y97.144 E10.42362
G1 X74.750 Y96.687 E10.45801
G1 X75.296 Y96.263 E10.49240
G1 X75.868 Y95.875 E10.52680
G1 X76.462 Y95.523 E10.56120
G1 X77.078 Y95.210 E10.59560
G1 X77.712 Y94.935 E10.62999
G1 X78.362 Y94.701 E10.66439
G1 X79.025 Y94.509 E10.69878
G1 X79.699 Y94.358 E10.73318
G1 X80.382 Y94.250 E10.76758
G1 X81.070 Y94.185 E10.80197
G1 X81.744 Y94.164 E10.83559
G1 X111.776 Y94.164 E12.33081 F600.000
G1 X112.450 Y94.185 E12.36443
G1 X113.138 Y94.250 E12.39883
G1 X113.821 Y94.358 E12.43323
G1 X114.495 Y94.509 E12.46762
G1 X115.158 Y94.701 E12.50201
G1 X115.808 Y94.935 E12.53641
G1 X116.442 Y95.210 E12.57081
G1 X117.058 Y95.523 E12.60520
G1 X117.652 Y95.875 E12.63960
G1 X118.224 Y96.263 E12.67400
G1 X118.770 Y96.687 E12.70839
G1 X119.288 Y97.144 E12.74278
G1 X119.776 Y97.632 E12.77718
G1 X120.233 Y98.150 E12.81158
G1 X120.657 Y98.696 E12.84597
G1 X121.045 Y99.268 E12.88037
G1 X121.397 Y99.862 E12.91477
G1 X121.710 Y100.478 E12.94916
G1 X121.985 Y101.112 E12.98356
G1 X122.219 Y101.762 E13.01795
G1 X122.411 Y102.425 E13.05235
G1 X122.562 Y103.099 E13.08675
G1 X122.670 Y103.782 E13.12114
G1 X122.735 Y104.469 E13.15553
G1 X122.756 Y105.144 E13.18915
G1 X122.756 Y140.176 E14.93332
G1 X122.735 Y140.851 E14.96695
G1 X122.670 Y141.538 E15.00132
G1 X122.562 Y142.221 E15.03574
G1 X122.411 Y142.895 E15.07014
G1 X122.219 Y143.558 E15.10452
G1 X121.985 Y144.208 E15.13890
G1 X121.710 Y144.842 E15.17331
G1 X121.396 Y145.458 E15.20774
G1 X121.045 Y146.052 E15.24210
G1 X120.657 Y146.624 E15.27651
G1 X120.233 Y147.170 E15.31091
G1 X119.777 Y147.687 E15.34526
G1 X119.288 Y148.176 E15.37969
G1 X118.769 Y148.633 E15.41410
G1 X118.224 Y149.056 E15.44848
G1 X117.652 Y149.445 E15.48287
G1 X117.058 Y149.796 E15.51727
G1 X116.442 Y150.110 E15.55165
G1 X115.809 Y150.385 E15.58604
G1 X115.158 Y150.619 E15.62047
G1 X114.495 Y150.811 E15.65487
G1 X113.820 Y150.962 E15.68927
G1 X113.138 Y151.070 E15.72367
G1 X112.451 Y151.135 E15.75804
G1 X111.776 Y151.156 E15.79165
G1 X81.744 Y151.156 E17.28690
G1 X81.069 Y151.135 E17.32051
G1 X80.382 Y151.070 E17.35488
G1 X79.700 Y150.962 E17.38928
G1 X79.025 Y150.811 E17.42368
G1 X78.362 Y150.619 E17.45808
G1 X77.711 Y150.385 E17.49251
G1 X77.078 Y150.110 E17.52690
G1 X76.462 Y149.796 E17.56128
G1 X75.868 Y149.445 E17.59568
G1 X75.296 Y149.056 E17.63007
G1 X74.751 Y148.633 E17.66445
G1 X74.232 Y148.177 E17.69886
G1 X73.743 Y147.687 E17.73329
G1 X73.287 Y147.170 E17.76764
G1 X73.050 Y146.864 E17.78690
G1 X73.318 Y146.580 F9000.000
G1 X72.801 Y145.845 E17.83163 F600.000
G1 X72.462 Y145.272 E17.86478
G1 X72.159 Y144.678 E17.89799
G1 X71.894 Y144.066 E17.93120
G1 X71.668 Y143.439 E17.96438
G1 X71.482 Y142.799 E17.99756
G1 X71.337 Y142.148 E18.03075
G1 X71.233 Y141.490 E18.06396
G1 X71.170 Y140.826 E18.09712
G1 X71.149 Y140.170 E18.12984
G1 X71.149 Y105.150 E19.87341
G1 X71.170 Y104.494 E19.90612
G1 X71.233 Y103.830 E19.93931
G1 X71.337 Y103.172 E19.97250
G1 X71.482 Y102.521 E20.00569
G1 X71.668 Y101.881 E20.03888
G1 X71.894 Y101.254 E20.07207
G1 X72.159 Y100.642 E20.10526
G1 X72.462 Y100.048 E20.13844
G1 X72.801 Y99.474 E20.17164
G1 X73.176 Y98.923 E20.20483
G1 X73.584 Y98.396 E20.23801
G1 X74.025 Y97.896 E20.27120
G1 X74.496 Y97.425 E20.30439
G1 X74.996 Y96.984 E20.33758
G1 X75.523 Y96.576 E20.37077
G1 X76.074 Y96.201 E20.40396
G1 X76.648 Y95.862 E20.43715
G1 X77.242 Y95.559 E20.47034
G1 X77.854 Y95.294 E20.50353
G1 X78.481 Y95.068 E20.53672
G1 X79.121 Y94.882 E20.56991
G1 X79.772 Y94.737 E20.60309
G1 X80.430 Y94.633 E20.63629
G1 X81.094 Y94.570 E20.66947
G1 X81.750 Y94.549 E20.70218
G1 X111.770 Y94.549 E22.19681 F600.000
G1 X112.426 Y94.570 E22.22952
G1 X113.090 Y94.633 E22.26271
G1 X113.748 Y94.737 E22.29590
G1 X114.399 Y94.882 E22.32909
G1 X115.039 Y95.068 E22.36228
G1 X115.666 Y95.294 E22.39546
G1 X116.278 Y95.559 E22.42865
G1 X116.872 Y95.862 E22.46184
G1 X117.446 Y96.201 E22.49503
G1 X117.997 Y96.576 E22.52823
G1 X118.524 Y96.984 E22.56141
G1 X119.024 Y97.425 E22.59460
G1 X119.495 Y97.896 E22.62779
G1 X119.936 Y98.396 E22.66098
G1 X120.344 Y98.923 E22.69417
G1 X120.719 Y99.474 E22.72736
G1 X121.058 Y100.048 E22.76055
G1 X121.361 Y100.642 E22.79374
G1 X121.626 Y101.254 E22.82693
G1 X121.852 Y101.881 E22.86011
G1 X122.038 Y102.521 E22.89330
G1 X122.183 Y103.172 E22.92649
G1 X122.287 Y103.830 E22.95968
G1 X122.350 Y104.494 E22.99287
G1 X122.371 Y105.150 E23.02558
G1 X122.371 Y140.170 E24.76915
G1 X122.350 Y140.826 E24.80187
G1 X122.287 Y141.490 E24.83503
G1 X122.183 Y142.148 E24.86825
G1 X122.038 Y142.799 E24.90144
G1 X121.852 Y143.439 E24.93461
G1 X121.626 Y144.066 E24.96779
G1 X121.361 Y144.678 E25.00100
G1 X121.058 Y145.272 E25.03421
G1 X120.719 Y145.845 E25.06737
G1 X120.344 Y146.397 E25.10057
G1 X119.936 Y146.924 E25.13376
G1 X119.495 Y147.423 E25.16691
G1 X119.024 Y147.895 E25.20014
G1 X118.523 Y148.336 E25.23333
G1 X117.997 Y148.744 E25.26650
G1 X117.446 Y149.119 E25.29969
G1 X116.872 Y149.458 E25.33289
G1 X116.278 Y149.761 E25.36606
G1 X115.666 Y150.026 E25.39925
G1 X115.039 Y150.252 E25.43246
G1 X114.399 Y150.438 E25.46565
G1 X113.748 Y150.583 E25.49884
G1 X113.090 Y150.687 E25.53203
G1 X112.426 Y150.750 E25.56521
G1 X111.770 Y150.771 E25.59791
G1 X81.750 Y150.771 E27.09255
G1 X81.094 Y150.750 E27.12526
G1 X80.430 Y150.687 E27.15844
G1 X79.772 Y150.583 E27.19163
G1 X79.121 Y150.438 E27.22481
G1 X78.481 Y150.252 E27.25801
G1 X77.854 Y150.026 E27.29121
G1 X77.242 Y149.761 E27.32441
G1 X76.648 Y149.458 E27.35758
G1 X76.074 Y149.119 E27.39078
G1 X75.523 Y148.744 E27.42396
G1 X74.997 Y148.336 E27.45714
G1 X74.496 Y147.895 E27.49033
G1 X74.025 Y147.423 E27.52355
G1 X73.584 Y146.924 E27.55671
G1 X73.355 Y146.628 E27.57537
G1 X73.622 Y146.344 F9000.000
G1 X73.127 Y145.639 E27.61828 F600.000
G1 X72.800 Y145.086 E27.65023
G1 X72.508 Y144.514 E27.68223
G1 X72.253 Y143.924 E27.71423
G1 X72.035 Y143.320 E27.74621
G1 X71.856 Y142.703 E27.77818
G1 X71.716 Y142.076 E27.81016
G1 X71.616 Y141.441 E27.84216
G1 X71.555 Y140.802 E27.87412
G1 X71.535 Y140.164 E27.90593
G1 X71.535 Y105.156 E29.64890
G1 X71.555 Y104.518 E29.68071
G1 X71.616 Y103.878 E29.71269
G1 X71.716 Y103.244 E29.74467
G1 X71.856 Y102.617 E29.77666
G1 X72.035 Y102.000 E29.80864
G1 X72.253 Y101.396 E29.84062
G1 X72.508 Y100.806 E29.87260
G1 X72.800 Y100.234 E29.90458
G1 X73.127 Y99.681 E29.93657
G1 X73.488 Y99.150 E29.96855
G1 X73.881 Y98.642 E30.00053
G1 X74.306 Y98.160 E30.03251
G1 X74.760 Y97.706 E30.06450
G1 X75.242 Y97.281 E30.09648
G1 X75.750 Y96.888 E30.12846
G1 X76.281 Y96.527 E30.16044
G1 X76.834 Y96.200 E30.19243
G1 X77.406 Y95.908 E30.22441
G1 X77.996 Y95.653 E30.25639
G1 X78.600 Y95.435 E30.28837
G1 X79.217 Y95.256 E30.32035
G1 X79.844 Y95.116 E30.35234
G1 X80.478 Y95.015 E30.38432
G1 X81.118 Y94.955 E30.41630
G1 X81.756 Y94.935 E30.44811
G1 X111.764 Y94.935 E31.94213 F600.000
G1 X112.402 Y94.955 E31.97394
G1 X113.042 Y95.015 E32.00592
G1 X113.676 Y95.116 E32.03790
G1 X114.303 Y95.256 E32.06988
G1 X114.920 Y95.435 E32.10187
G1 X115.524 Y95.653 E32.13385
G1 X116.114 Y95.908 E32.16583
G1 X116.686 Y96.200 E32.19781
G1 X117.239 Y96.527 E32.22980
G1 X117.770 Y96.888 E32.26178
G1 X118.278 Y97.281 E32.29376
G1 X118.760 Y97.706 E32.32574
G1 X119.214 Y98.160 E32.35773
G1 X119.639 Y98.642 E32.38971
G1 X120.032 Y99.150 E32.42169
G1 X120.393 Y99.681 E32.45367
G1 X120.720 Y100.234 E32.48566
G1 X121.012 Y100.806 E32.51764
G1 X121.267 Y101.396 E32.54962
G1 X121.485 Y102.000 E32.58160
G1 X121.664 Y102.617 E32.61358
G1 X121.804 Y103.244 E32.64557
G1 X121.904 Y103.878 E32.67755
G1 X121.965 Y104.518 E32.70953
G1 X121.985 Y105.156 E32.74134
G1 X121.985 Y140.164 E34.48430
G1 X121.965 Y140.802 E34.51612
G1 X121.904 Y141.441 E34.54808
G1 X121.804 Y142.076 E34.58008
G1 X121.664 Y142.703 E34.61206
G1 X121.485 Y143.320 E34.64403
G1 X121.267 Y143.924 E34.67601
G1 X121.012 Y144.514 E34.70801
G1 X120.720 Y145.086 E34.74001
G1 X120.393 Y145.639 E34.77196
G1 X120.032 Y146.170 E34.80396
G1 X119.639 Y146.678 E34.83593
G1 X119.214 Y147.159 E34.86789
G1 X118.760 Y147.614 E34.89991
G1 X118.278 Y148.038 E34.93188
G1 X117.770 Y148.432 E34.96386
G1 X117.239 Y148.793 E34.99583
G1 X116.686 Y149.120 E35.02783
G1 X116.114 Y149.412 E35.05980
G1 X115.524 Y149.667 E35.09179
