; generated by Slic3r 1.2.9 on 2017-01-30 at 23:52:16

; external perimeters extrusion width = 0.40mm
; perimeters extrusion width = 0.56mm
; infill extrusion width = 0.38mm
; solid infill extrusion width = 0.56mm
; top infill extrusion width = 0.22mm

M106 S256; Turn on fan to 100% power
M104 S140; turn on extruder temperature at S value
M140 S60; turn on bed temperature at S value
G28; home all axes
M84; disable motors
G1 Z15 F15000; have Z move to 20mm at 15000 mm/min
M190 S55; turn on bed temperature at S value and wait
M140 S55; turn on bed temperature at S value (printing temperature)
M109 S200; turn on extruder temperature at S value and wait (printing temperature)
M104 S200; turn on extruder temperature at S value
G1 Z0 F12000; move Z back to home
G21 ; set units to millimeters
G90 ; use absolute coordinates
M82 ; use absolute distances for extrusion
G92 E0
M106 S255
;Layer change
G1 E-6.00000 F1800.00000
G92 E0
G1 Z0.300 F9000.000
G1 X82.108 Y30.925 F9000.000
G1 E6.00000 F1800.00000
G1 X83.199 Y29.708 E6.08133 F600.000
G1 X85.100 Y29.124 E6.18035
G1 X123.200 Y29.124 E8.07731
G1 X124.785 Y29.518 E8.15864
G1 X126.002 Y30.609 E8.23998 F600.000
G1 X126.586 Y32.510 E8.33899
G1 X126.586 Y70.610 E10.23595
G1 X126.192 Y72.195 E10.31728
G1 X125.101 Y73.412 E10.39862
G1 X123.200 Y73.996 E10.49763
G1 X85.100 Y73.996 E12.39459
G1 X83.515 Y73.602 E12.47593
G1 X82.298 Y72.511 E12.55726
G1 X81.714 Y70.610 E12.65628
G1 X81.714 Y32.510 E14.55324
G1 X82.094 Y30.983 E14.63158
G1 E8.63158 F1800.00000
G92 E0
G1 X120.386 Y67.796 F9000.000
G1 E6.00000 F1800.00000
G1 X87.914 Y67.796 E7.61677 F600.000
G1 X87.914 Y35.324 E9.23354
G1 X120.386 Y35.324 E10.85032
G1 X120.386 Y67.736 E12.46410
G1 X120.001 Y67.411 F9000.000
G1 X88.299 Y67.411 E14.04247 F600.000
G1 X88.299 Y35.709 E15.62085
G1 X120.001 Y35.709 E17.19922
G1 X120.001 Y67.351 E18.77461
G1 X119.615 Y67.025 F9000.000
G1 X88.685 Y67.025 E20.31458 F600.000
G1 X88.685 Y36.095 E21.85455
G1 X119.615 Y36.095 E23.39453
G1 X119.615 Y66.965 E24.93151
G1 X119.615 Y67.425 F9000.000
G1 X122.204 Y69.614 F9000.000
G1 X86.096 Y69.614 E26.72927 F600.000
G1 X86.096 Y33.506 E28.52703
G1 X122.204 Y33.506 E30.32479
G1 X122.204 Y69.554 E32.11956
G1 X122.589 Y69.999 F9000.000
G1 X85.711 Y69.999 E33.95571 F600.000
G1 X85.711 Y33.121 E35.79187
G1 X122.589 Y33.121 E37.62803
G1 X122.589 Y69.939 E39.46120
G1 X122.975 Y70.385 F9000.000
G1 X85.325 Y70.385 E41.33575 F600.000
G1 X85.325 Y32.735 E43.21031
G1 X122.975 Y32.735 E45.08486
G1 X122.975 Y70.325 E46.95643
G1 X122.629 Y70.185 F9000.000
G1 X121.920 Y36.733 F9000.000
G1 X120.670 Y35.483 E47.04485 F600.000
G1 X120.670 Y36.031 E47.07225
G1 X121.920 Y37.281 E47.16066
G1 X121.920 Y37.829 E47.18807
G1 X120.670 Y36.579 E47.27648
G1 X120.670 Y37.127 E47.30388
G1 X121.920 Y38.376 E47.39230
G1 X121.920 Y38.924 E47.41970
G1 X120.670 Y37.674 E47.50811
G1 X120.670 Y38.222 E47.53552
G1 X121.920 Y39.472 E47.62393
G1 X121.920 Y40.020 E47.65133
G1 X120.670 Y38.770 E47.73975
G1 X120.670 Y39.318 E47.76715
G1 X121.920 Y40.568 E47.85556
G1 X121.920 Y41.116 E47.88297
G1 X120.670 Y39.866 E47.97138
G1 X120.670 Y40.414 E47.99878
G1 X121.920 Y41.664 E48.08720
G1 X121.920 Y42.211 E48.11460
G1 X120.670 Y40.961 E48.20302
G1 X120.670 Y41.509 E48.23042
G1 X121.920 Y42.759 E48.31883
G1 X121.920 Y43.307 E48.34623
G1 X120.670 Y42.057 E48.43465
G1 X120.670 Y42.605 E48.46205
G1 X121.920 Y43.855 E48.55047
G1 X121.920 Y44.403 E48.57787
G1 X120.670 Y43.153 E48.66628
G1 X120.670 Y43.701 E48.69368
G1 X121.920 Y44.951 E48.78210
G1 X121.920 Y45.499 E48.80950
G1 X120.670 Y44.249 E48.89792
G1 X120.670 Y44.796 E48.92532
G1 X121.920 Y46.046 E49.01373
G1 X121.920 Y46.594 E49.04114
G1 X120.670 Y45.344 E49.12955
G1 X120.670 Y45.892 E49.15695
G1 X121.920 Y47.142 E49.24537
G1 X121.920 Y47.690 E49.27277
G1 X120.670 Y46.440 E49.36118
G1 X120.670 Y46.988 E49.38859
G1 X121.920 Y48.238 E49.47700
G1 X121.920 Y48.786 E49.50440
G1 X120.670 Y47.536 E49.59282
G1 X120.670 Y48.084 E49.62022
G1 X121.920 Y49.333 E49.70863
G1 X121.920 Y49.881 E49.73604
G1 X120.670 Y48.631 E49.82445
G1 X120.670 Y49.179 E49.85185
G1 X121.920 Y50.429 E49.94027
G1 X121.920 Y50.977 E49.96767
G1 X120.670 Y49.727 E50.05609
G1 X120.670 Y50.275 E50.08349
G1 X121.920 Y51.525 E50.17190
G1 X121.920 Y52.073 E50.19930
G1 X120.670 Y50.823 E50.28772
G1 X120.670 Y51.371 E50.31512
G1 X121.920 Y52.621 E50.40354
G1 X121.920 Y53.168 E50.43094
G1 X120.670 Y51.918 E50.51935
G1 X120.670 Y52.466 E50.54675
G1 X121.920 Y53.716 E50.63517
G1 X121.920 Y54.264 E50.66257
G1 X120.670 Y53.014 E50.75099
G1 X120.670 Y53.562 E50.77839
G1 X121.920 Y54.812 E50.86680
G1 X121.920 Y55.360 E50.89421
G1 X120.670 Y54.110 E50.98262
G1 X120.670 Y54.658 E51.01002
G1 X121.920 Y55.908 E51.09844
G1 X121.920 Y56.456 E51.12584
G1 X120.670 Y55.206 E51.21425
G1 X120.670 Y55.753 E51.24166
G1 X121.920 Y57.003 E51.33007
G1 X121.920 Y57.551 E51.35747
G1 X120.670 Y56.301 E51.44589
G1 X120.670 Y56.849 E51.47329
G1 X121.920 Y58.099 E51.56170
G1 X121.920 Y58.647 E51.58911
G1 X120.670 Y57.397 E51.67752
G1 X120.670 Y57.945 E51.70492
G1 X121.920 Y59.195 E51.79334
G1 X121.920 Y59.743 E51.82074
G1 X120.670 Y58.493 E51.90916
G1 X120.670 Y59.041 E51.93656
G1 X121.920 Y60.290 E52.02497
G1 X121.920 Y60.838 E52.05237
G1 X120.670 Y59.588 E52.14079
G1 X120.670 Y60.136 E52.16819
G1 X121.920 Y61.386 E52.25661
G1 X121.920 Y61.934 E52.28401
G1 X120.670 Y60.684 E52.37242
G1 X120.670 Y61.232 E52.39982
G1 X121.920 Y62.482 E52.48824
G1 X121.920 Y63.030 E52.51564
G1 X120.670 Y61.780 E52.60406
G1 X120.670 Y62.328 E52.63146
G1 X121.920 Y63.578 E52.71987
G1 X121.920 Y64.125 E52.74728
G1 X120.670 Y62.875 E52.83569
G1 X120.670 Y63.423 E52.86309
G1 X121.920 Y64.673 E52.95151
G1 X121.920 Y65.221 E52.97891
G1 X120.670 Y63.971 E53.06732
G1 X120.670 Y64.519 E53.09473
G1 X121.920 Y65.769 E53.18314
G1 X121.920 Y66.317 E53.21054
G1 X120.670 Y65.067 E53.29896
G1 X120.670 Y65.615 E53.32636
G1 X121.920 Y66.865 E53.41477
G1 X121.920 Y67.413 E53.44218
G1 X120.670 Y66.163 E53.53059
G1 X120.670 Y66.710 E53.55799
G1 X121.920 Y67.960 E53.64641
G1 X121.920 Y68.508 E53.67381
G1 X120.670 Y67.258 E53.76223
G1 X120.670 Y67.806 E53.78963
G1 X121.920 Y69.056 E53.87804
G1 X121.646 Y69.330 E53.89742
G1 X120.396 Y68.080 E53.98583
G1 X119.848 Y68.080 E54.01323
G1 X121.098 Y69.330 E54.10165
G1 X120.550 Y69.330 E54.12905
G1 X119.300 Y68.080 E54.21747
G1 X118.753 Y68.080 E54.24487
G1 X120.002 Y69.330 E54.33328
G1 X119.455 Y69.330 E54.36068
G1 X118.205 Y68.080 E54.44910
G1 X117.657 Y68.080 E54.47650
G1 X118.907 Y69.330 E54.56491
G1 X118.359 Y69.330 E54.59232
G1 X117.109 Y68.080 E54.68073
G1 X116.561 Y68.080 E54.70813
G1 X117.811 Y69.330 E54.79655
G1 X117.263 Y69.330 E54.82395
G1 X116.013 Y68.080 E54.91236
G1 X115.465 Y68.080 E54.93977
G1 X116.715 Y69.330 E55.02818
G1 X116.167 Y69.330 E55.05558
G1 X114.918 Y68.080 E55.14400
G1 X114.370 Y68.080 E55.17140
G1 X115.620 Y69.330 E55.25981
G1 X115.072 Y69.330 E55.28721
G1 X113.822 Y68.080 E55.37563
G1 X113.274 Y68.080 E55.40303
G1 X114.524 Y69.330 E55.49145
G1 X113.976 Y69.330 E55.51885
G1 X112.726 Y68.080 E55.60726
G1 X112.178 Y68.080 E55.63466
G1 X113.428 Y69.330 E55.72308
G1 X112.880 Y69.330 E55.75048
G1 X111.630 Y68.080 E55.83889
G1 X111.083 Y68.080 E55.86630
G1 X112.333 Y69.330 E55.95471
G1 X111.785 Y69.330 E55.98211
G1 X110.535 Y68.080 E56.07053
G1 X109.987 Y68.080 E56.09793
G1 X111.237 Y69.330 E56.18634
G1 X110.689 Y69.330 E56.21375
G1 X109.439 Y68.080 E56.30216
G1 X108.891 Y68.080 E56.32956
G1 X110.141 Y69.330 E56.41798
G1 X109.593 Y69.330 E56.44538
G1 X108.343 Y68.080 E56.53379
G1 X107.796 Y68.080 E56.56119
G1 X109.045 Y69.330 E56.64961
G1 X108.498 Y69.330 E56.67701
G1 X107.248 Y68.080 E56.76543
G1 X106.700 Y68.080 E56.79283
G1 X107.950 Y69.330 E56.88124
G1 X107.402 Y69.330 E56.90864
G1 X106.152 Y68.080 E56.99706
G1 X105.604 Y68.080 E57.02446
G1 X106.854 Y69.330 E57.11287
G1 X106.306 Y69.330 E57.14028
G1 X105.056 Y68.080 E57.22869
G1 X104.508 Y68.080 E57.25609
G1 X105.758 Y69.330 E57.34451
G1 X105.210 Y69.330 E57.37191
G1 X103.961 Y68.080 E57.46032
G1 X103.413 Y68.080 E57.48773
G1 X104.663 Y69.330 E57.57614
G1 X104.115 Y69.330 E57.60354
G1 X102.865 Y68.080 E57.69196
G1 X102.317 Y68.080 E57.71936
G1 X103.567 Y69.330 E57.80777
G1 X103.019 Y69.330 E57.83517
G1 X101.769 Y68.080 E57.92359
G1 X101.221 Y68.080 E57.95099
G1 X102.471 Y69.330 E58.03941
G1 X101.923 Y69.330 E58.06681
G1 X100.673 Y68.080 E58.15522
G1 X100.126 Y68.080 E58.18262
G1 X101.376 Y69.330 E58.27104
G1 X100.828 Y69.330 E58.29844
G1 X99.578 Y68.080 E58.38685
G1 X99.030 Y68.080 E58.41426
G1 X100.280 Y69.330 E58.50267
G1 X99.732 Y69.330 E58.53007
G1 X98.482 Y68.080 E58.61849
G1 X97.934 Y68.080 E58.64589
G1 X99.184 Y69.330 E58.73430
G1 X98.636 Y69.330 E58.76171
G1 X97.386 Y68.080 E58.85012
G1 X96.838 Y68.080 E58.87752
G1 X98.088 Y69.330 E58.96594
G1 X97.541 Y69.330 E58.99334
G1 X96.291 Y68.080 E59.08175
G1 X95.743 Y68.080 E59.10915
G1 X96.993 Y69.330 E59.19757
G1 X96.445 Y69.330 E59.22497
G1 X95.195 Y68.080 E59.31338
G1 X94.647 Y68.080 E59.34079
G1 X95.897 Y69.330 E59.42920
G1 X95.349 Y69.330 E59.45660
G1 X94.099 Y68.080 E59.54502
G1 X93.551 Y68.080 E59.57242
G1 X94.801 Y69.330 E59.66083
G1 X94.253 Y69.330 E59.68824
G1 X93.004 Y68.080 E59.77665
G1 X92.456 Y68.080 E59.80405
G1 X93.706 Y69.330 E59.89247
G1 X93.158 Y69.330 E59.91987
G1 X91.908 Y68.080 E60.00828
G1 X91.360 Y68.080 E60.03568
G1 X92.610 Y69.330 E60.12410
G1 X92.062 Y69.330 E60.15150
G1 X90.812 Y68.080 E60.23992
G1 X90.264 Y68.080 E60.26732
G1 X91.514 Y69.330 E60.35573
G1 X90.966 Y69.330 E60.38313
G1 X89.716 Y68.080 E60.47155
G1 X89.169 Y68.080 E60.49895
G1 X90.419 Y69.330 E60.58736
G1 X89.871 Y69.330 E60.61477
G1 X88.621 Y68.080 E60.70318
G1 X88.073 Y68.080 E60.73058
G1 X89.323 Y69.330 E60.81900
G1 X88.775 Y69.330 E60.84640
G1 X86.380 Y66.935 E61.01580
G1 X86.380 Y66.387 E61.04321
G1 X87.630 Y67.637 E61.13162
G1 X87.630 Y67.089 E61.15902
G1 X86.380 Y65.839 E61.24744
G1 X86.380 Y65.291 E61.27484
G1 X87.630 Y66.541 E61.36325
G1 X87.630 Y65.994 E61.39066
G1 X86.380 Y64.744 E61.47907
G1 X86.380 Y64.196 E61.50647
G1 X87.630 Y65.446 E61.59489
G1 X87.630 Y64.898 E61.62229
G1 X86.380 Y63.648 E61.71070
G1 X86.380 Y63.100 E61.73810
G1 X87.630 Y64.350 E61.82652
G1 X87.630 Y63.802 E61.85392
G1 X86.380 Y62.552 E61.94233
G1 X86.380 Y62.004 E61.96974
G1 X87.630 Y63.254 E62.05815
G1 X87.630 Y62.706 E62.08555
G1 X86.380 Y61.457 E62.17397
G1 X86.380 Y60.909 E62.20137
G1 X87.630 Y62.159 E62.28978
G1 X87.630 Y61.611 E62.31718
G1 X86.380 Y60.361 E62.40560
G1 X86.380 Y59.813 E62.43300
G1 X87.630 Y61.063 E62.52141
G1 X87.630 Y60.515 E62.54882
G1 X86.380 Y59.265 E62.63723
G1 X86.380 Y58.717 E62.66463
G1 X87.630 Y59.967 E62.75305
G1 X87.630 Y59.419 E62.78045
G1 X86.380 Y58.169 E62.86886
G1 X86.380 Y57.622 E62.89626
G1 X87.630 Y58.872 E62.98468
G1 X87.630 Y58.324 E63.01208
G1 X86.380 Y57.074 E63.10049
G1 X86.380 Y56.526 E63.12790
G1 X87.630 Y57.776 E63.21631
G1 X87.630 Y57.228 E63.24371
G1 X86.380 Y55.978 E63.33213
G1 X86.380 Y55.430 E63.35953
G1 X87.630 Y56.680 E63.44794
G1 X87.630 Y56.132 E63.47535
G1 X86.380 Y54.882 E63.56376
G1 X86.380 Y54.334 E63.59116
G1 X87.630 Y55.584 E63.67958
G1 X87.630 Y55.037 E63.70698
G1 X86.380 Y53.787 E63.79539
G1 X86.380 Y53.239 E63.82279
G1 X87.630 Y54.489 E63.91121
G1 X87.630 Y53.941 E63.93861
G1 X86.380 Y52.691 E64.02702
G1 X86.380 Y52.143 E64.05443
G1 X87.630 Y53.393 E64.14284
G1 X87.630 Y52.845 E64.17024
G1 X86.380 Y51.595 E64.25866
G1 X86.380 Y51.047 E64.28606
G1 X87.630 Y52.297 E64.37447
G1 X87.630 Y51.749 E64.40187
G1 X86.380 Y50.500 E64.49029
G1 X86.380 Y49.952 E64.51769
G1 X87.630 Y51.202 E64.60610
G1 X87.630 Y50.654 E64.63351
G1 X86.380 Y49.404 E64.72192
G1 X86.380 Y48.856 E64.74932
G1 X87.630 Y50.106 E64.83774
G1 X87.630 Y49.558 E64.86514
G1 X86.380 Y48.308 E64.95355
G1 X86.380 Y47.760 E64.98095
G1 X87.630 Y49.010 E65.06937
G1 X87.630 Y48.462 E65.09677
G1 X86.380 Y47.212 E65.18518
G1 X86.380 Y46.665 E65.21259
G1 X87.630 Y47.914 E65.30100
G1 X87.630 Y47.367 E65.32840
G1 X86.380 Y46.117 E65.41682
G1 X86.380 Y45.569 E65.44422
G1 X87.630 Y46.819 E65.53263
G1 X87.630 Y46.271 E65.56004
G1 X86.380 Y45.021 E65.64845
G1 X86.380 Y44.473 E65.67585
G1 X87.630 Y45.723 E65.76427
G1 X87.630 Y45.175 E65.79167
G1 X86.380 Y43.925 E65.88008
G1 X86.380 Y43.377 E65.90748
G1 X87.630 Y44.627 E65.99590
G1 X87.630 Y44.080 E66.02330
G1 X86.380 Y42.830 E66.11171
G1 X86.380 Y42.282 E66.13912
G1 X87.630 Y43.532 E66.22753
G1 X87.630 Y42.984 E66.25493
G1 X86.380 Y41.734 E66.34335
G1 X86.380 Y41.186 E66.37075
G1 X87.630 Y42.436 E66.45916
G1 X87.630 Y41.888 E66.48656
G1 X86.380 Y40.638 E66.57498
G1 X86.380 Y40.090 E66.60238
G1 X87.630 Y41.340 E66.69079
G1 X87.630 Y40.792 E66.71820
G1 X86.380 Y39.543 E66.80661
G1 X86.380 Y38.995 E66.83401
G1 X87.630 Y40.245 E66.92243
G1 X87.630 Y39.697 E66.94983
G1 X86.380 Y38.447 E67.03824
G1 X86.380 Y37.899 E67.06564
G1 X87.630 Y39.149 E67.15406
G1 X87.630 Y38.601 E67.18146
G1 X86.380 Y37.351 E67.26987
G1 X86.380 Y36.803 E67.29728
G1 X87.630 Y38.053 E67.38569
G1 X87.630 Y37.505 E67.41309
G1 X86.380 Y36.255 E67.50151
G1 X86.380 Y35.708 E67.52891
G1 X87.630 Y36.957 E67.61732
G1 X87.630 Y36.410 E67.64473
G1 X86.380 Y35.160 E67.73314
G1 X86.380 Y34.612 E67.76054
G1 X87.630 Y35.862 E67.84896
G1 X87.630 Y35.314 E67.87636
G1 X86.380 Y34.064 E67.96477
G1 X86.654 Y33.790 E67.98415
G1 X87.904 Y35.040 E68.07256
G1 X88.452 Y35.040 E68.09996
G1 X87.202 Y33.790 E68.18838
G1 X87.750 Y33.790 E68.21578
G1 X89.000 Y35.040 E68.30419
G1 X89.547 Y35.040 E68.33160
G1 X88.297 Y33.790 E68.42001
G1 X88.845 Y33.790 E68.44741
G1 X90.095 Y35.040 E68.53583
G1 X90.643 Y35.040 E68.56323
G1 X89.393 Y33.790 E68.65164
G1 X89.941 Y33.790 E68.67905
G1 X91.191 Y35.040 E68.76746
G1 X91.739 Y35.040 E68.79486
G1 X90.489 Y33.790 E68.88328
G1 X91.037 Y33.790 E68.91068
G1 X92.287 Y35.040 E68.99909
G1 X92.835 Y35.040 E69.02649
G1 X91.585 Y33.790 E69.11491
G1 X92.132 Y33.790 E69.14231
G1 X93.382 Y35.040 E69.23072
G1 X93.930 Y35.040 E69.25813
G1 X92.680 Y33.790 E69.34654
G1 X93.228 Y33.790 E69.37394
G1 X94.478 Y35.040 E69.46236
G1 X95.026 Y35.040 E69.48976
G1 X93.776 Y33.790 E69.57817
G1 X94.324 Y33.790 E69.60558
G1 X95.574 Y35.040 E69.69399
G1 X96.122 Y35.040 E69.72139
G1 X94.872 Y33.790 E69.80981
G1 X95.420 Y33.790 E69.83721
G1 X96.669 Y35.040 E69.92562
G1 X97.217 Y35.040 E69.95302
G1 X95.967 Y33.790 E70.04144
G1 X96.515 Y33.790 E70.06884
G1 X97.765 Y35.040 E70.15726
G1 X98.313 Y35.040 E70.18466
G1 X97.063 Y33.790 E70.27307
G1 X97.611 Y33.790 E70.30047
G1 X98.861 Y35.040 E70.38889
G1 X99.409 Y35.040 E70.41629
G1 X98.159 Y33.790 E70.50470
G1 X98.707 Y33.790 E70.53211
G1 X99.957 Y35.040 E70.62052
G1 X100.504 Y35.040 E70.64792
G1 X99.254 Y33.790 E70.73634
G1 X99.802 Y33.790 E70.76374
G1 X101.052 Y35.040 E70.85215
G1 X101.600 Y35.040 E70.87956
G1 X100.350 Y33.790 E70.96797
G1 X100.898 Y33.790 E70.99537
G1 X102.148 Y35.040 E71.08379
G1 X102.696 Y35.040 E71.11119
G1 X101.446 Y33.790 E71.19960
G1 X101.994 Y33.790 E71.22700
G1 X103.244 Y35.040 E71.31542
G1 X103.792 Y35.040 E71.34282
G1 X102.542 Y33.790 E71.43123
G1 X103.089 Y33.790 E71.45864
G1 X104.339 Y35.040 E71.54705
G1 X104.887 Y35.040 E71.57445
G1 X103.637 Y33.790 E71.66287
G1 X104.185 Y33.790 E71.69027
G1 X105.435 Y35.040 E71.77868
G1 X105.983 Y35.040 E71.80609
G1 X104.733 Y33.790 E71.89450
G1 X105.281 Y33.790 E71.92190
G1 X106.531 Y35.040 E72.01032
G1 X107.079 Y35.040 E72.03772
G1 X105.829 Y33.790 E72.12613
G1 X106.377 Y33.790 E72.15354
G1 X107.626 Y35.040 E72.24195
G1 X108.174 Y35.040 E72.26935
G1 X106.924 Y33.790 E72.35777
G1 X107.472 Y33.790 E72.38517
G1 X108.722 Y35.040 E72.47358
G1 X109.270 Y35.040 E72.50098
G1 X108.020 Y33.790 E72.58940
G1 X108.568 Y33.790 E72.61680
G1 X109.818 Y35.040 E72.70521
G1 X110.366 Y35.040 E72.73262
G1 X109.116 Y33.790 E72.82103
G1 X109.664 Y33.790 E72.84843
G1 X110.914 Y35.040 E72.93685
G1 X111.461 Y35.040 E72.96425
G1 X110.211 Y33.790 E73.05266
G1 X110.759 Y33.790 E73.08007
G1 X112.009 Y35.040 E73.16848
G1 X112.557 Y35.040 E73.19588
G1 X111.307 Y33.790 E73.28430
G1 X111.855 Y33.790 E73.31170
