; generated by Slic3r 1.2.9 on 2017-01-29 at 16:27:10

; external perimeters extrusion width = 0.40mm
; perimeters extrusion width = 0.56mm
; infill extrusion width = 0.38mm
; solid infill extrusion width = 0.56mm
; top infill extrusion width = 0.22mm
; support material extrusion width = 0.40mm

M106 S256; Turn on fan to 100% power
M104 S140; turn on extruder temperature at S value
M140 S60; turn on bed temperature at S value
G28; home all axes
M84; disable motors
G1 Z15 F15000; have Z move to 20mm at 15000 mm/min
M190 S55; turn on bed temperature at S value and wait
M140 S55; turn on bed temperature at S value (printing temperature)
M109 S200; turn on extruder temperature at S value and wait (printing temperature)
M104 S200; turn on extruder temperature at S value
G1 Z0 F12000; move Z back to home
G21 ; set units to millimeters
G90 ; use absolute coordinates
M82 ; use absolute distances for extrusion
G92 E0
M106 S255
;Layer change
G1 E-6.00000 F1800.00000
G92 E0
G1 Z0.300 F9000.000
G1 X79.489 Y72.578 F9000.000
G1 E6.00000 F1800.00000
G1 X81.755 Y71.822 E6.11895 F600.000
G1 X101.001 Y71.822 E7.07721
G1 X101.669 Y71.863 E7.11053 F600.000
G1 X103.312 Y72.393 E7.19643
G1 X104.546 Y73.598 E7.28234
G1 X105.135 Y75.617 E7.38703
G1 X105.136 Y89.173 E8.06200
G1 X104.737 Y90.863 E8.14845
G1 X104.495 Y91.326 E8.17445
G1 X96.866 Y104.288 E8.92330
G1 X96.471 Y104.839 E8.95706
G1 X95.571 Y105.882 E9.02566
G1 X94.855 Y106.525 E9.07357
G1 X94.278 Y106.921 E9.10840
G1 X93.829 Y107.187 E9.13438
G1 X93.325 Y107.439 E9.16244
G1 X92.916 Y107.615 E9.18459
G1 X92.091 Y107.892 E9.22795
G1 X91.659 Y108.000 E9.25010
G1 X91.216 Y108.083 E9.27256
G1 X90.813 Y108.134 E9.29278
G1 X90.098 Y108.176 E9.32847
G1 X82.786 Y108.178 E9.69251
G1 X82.446 Y108.163 E9.70945
G1 X81.856 Y108.103 E9.73898
G1 X81.136 Y107.974 E9.77538
G1 X80.802 Y107.888 E9.79257
G1 X80.192 Y107.691 E9.82448
G1 X79.814 Y107.538 E9.84479
G1 X79.121 Y107.201 E9.88314
G1 X78.591 Y106.897 E9.91357
G1 X78.303 Y106.707 E9.93073
G1 X77.716 Y106.255 E9.96764
G1 X77.048 Y105.615 E10.01372
G1 X76.593 Y105.088 E10.04837
G1 X76.357 Y104.769 E10.06810
G1 X75.986 Y104.189 E10.10237
G1 X75.634 Y103.522 E10.13994
G1 X75.457 Y103.121 E10.16175
G1 X75.167 Y102.279 E10.20611
G1 X75.051 Y101.806 E10.23037
G1 X74.951 Y101.251 E10.25842
G1 X74.893 Y100.673 E10.28736
G1 X74.876 Y99.953 E10.32320
G1 X74.862 Y93.122 E10.66331
G1 X74.887 Y92.688 E10.68496
G1 X74.998 Y91.714 E10.73379
G1 X77.921 Y75.175 E11.57002
G1 X78.263 Y74.143 E11.62414
G1 X78.384 Y73.903 E11.63750
G1 X79.451 Y72.624 E11.72041
G1 X79.790 Y72.836 F9000.000
G1 X81.755 Y72.207 E11.82314 F600.000
G1 X101.001 Y72.207 E12.78140
G1 X101.638 Y72.248 E12.81316 F600.000
G1 X103.186 Y72.769 E12.89449
G1 X104.310 Y73.954 E12.97583
G1 X104.750 Y75.617 E13.06146
G1 X104.751 Y89.173 E13.73640
G1 X104.392 Y90.690 E13.81401
G1 X104.163 Y91.130 E13.83872
G1 X96.534 Y104.092 E14.58757
G1 X96.179 Y104.587 E14.61788
G1 X95.279 Y105.630 E14.68648
G1 X94.636 Y106.207 E14.72949
G1 X94.060 Y106.604 E14.76432
G1 X93.656 Y106.842 E14.78764
G1 X93.152 Y107.094 E14.81570
G1 X92.785 Y107.252 E14.83559
G1 X91.997 Y107.518 E14.87701
G1 X91.566 Y107.626 E14.89916
G1 X91.168 Y107.701 E14.91932
G1 X90.765 Y107.752 E14.93954
G1 X90.083 Y107.790 E14.97354
G1 X82.786 Y107.793 E15.33686
G1 X82.481 Y107.779 E15.35207
G1 X81.914 Y107.721 E15.38042
G1 X81.232 Y107.600 E15.41491
G1 X80.898 Y107.514 E15.43210
G1 X80.317 Y107.326 E15.46247
G1 X79.978 Y107.189 E15.48071
G1 X79.294 Y106.857 E15.51857
G1 X78.530 Y106.396 E15.56300
G1 X77.975 Y105.969 E15.59787
G1 X77.322 Y105.344 E15.64284
G1 X76.890 Y104.842 E15.67583
G1 X76.678 Y104.556 E15.69354
G1 X76.323 Y104.002 E15.72628
G1 X75.987 Y103.367 E15.76209
G1 X75.810 Y102.966 E15.78390
G1 X75.535 Y102.162 E15.82619
G1 X75.430 Y101.738 E15.84796
G1 X75.331 Y101.183 E15.87601
G1 X75.278 Y100.664 E15.90200
G1 X75.262 Y99.944 E15.93784
G1 X75.248 Y93.121 E16.27754
G1 X75.270 Y92.732 E16.29698
G1 X75.381 Y91.757 E16.34581
G1 X78.301 Y75.242 E17.18085
G1 X78.608 Y74.316 E17.22943
G1 X78.728 Y74.076 E17.24279
G1 X79.751 Y72.882 E17.32107
G1 E11.32107 F1800.00000
G92 E0
G1 X81.755 Y75.593 F9000.000
G1 E6.00000 F1800.00000
G1 X81.635 Y75.833 E6.01163 F600.000
G1 X81.635 Y76.586 F9000.000
G1 X82.132 Y75.593 E6.05975 F600.000
G1 X82.510 Y75.593 E6.07610
G1 X81.635 Y77.339 E6.16072
G1 X81.635 Y78.092 F9000.000
G1 X82.887 Y75.593 E6.28184 F600.000
G1 X83.265 Y75.593 E6.29819
G1 X81.635 Y78.845 E6.45580
G1 X81.635 Y79.597 F9000.000
G1 X83.642 Y75.593 E6.64991 F600.000
G1 X84.019 Y75.593 E6.66627
G1 X81.635 Y80.350 E6.89687
G1 X81.635 Y81.103 F9000.000
G1 X84.397 Y75.593 E7.16397 F600.000
G1 X84.774 Y75.593 E7.18033
G1 X81.635 Y81.856 E7.48393
G1 X81.635 Y82.609 F9000.000
G1 X85.151 Y75.593 E7.82402 F600.000
G1 X85.529 Y75.593 E7.84038
G1 X81.635 Y83.362 E8.21697
G1 X81.635 Y84.115 F9000.000
G1 X85.906 Y75.593 E8.63006 F600.000
G1 X86.284 Y75.593 E8.64641
G1 X81.635 Y84.868 E9.09600
G1 X81.635 Y85.621 F9000.000
G1 X86.661 Y75.593 E9.58208 F600.000
G1 X87.038 Y75.593 E9.59843
G1 X81.635 Y86.374 E10.12101
G1 X81.635 Y87.127 F9000.000
G1 X87.416 Y75.593 E10.68009 F600.000
G1 X87.793 Y75.593 E10.69644
G1 X81.635 Y87.880 E11.29201
G1 E5.29201 F1800.00000
G92 E0
G1 X79.758 Y90.118 F9000.000
G1 E6.00000 F1800.00000
G1 X78.745 Y92.141 E6.09805 F600.000
G1 X78.634 Y93.115 F9000.000
G1 X80.470 Y89.451 E6.27563 F600.000
G1 X81.022 Y89.102 E6.30397
G1 X78.689 Y93.756 E6.52958
G1 X78.804 Y94.280 E6.55281
G1 X88.170 Y75.593 E7.45861
G1 X88.548 Y75.593 E7.47496
G1 X78.957 Y94.729 E8.40252
G1 X79.140 Y95.117 E8.42112
G1 X88.925 Y75.593 E9.36750
G1 X89.303 Y75.593 E9.38385
G1 X79.346 Y95.458 E10.34675
G1 X79.568 Y95.768 E10.36326
G1 X89.680 Y75.593 E11.34116
G1 X90.057 Y75.593 E11.35751
G1 X79.803 Y96.052 E12.34917
G1 X80.060 Y96.293 E12.36443
G1 X90.435 Y75.593 E13.36778
G1 X90.812 Y75.593 E13.38413
G1 X78.646 Y99.866 E14.56067
G1 X78.663 Y100.585 E14.59187
G1 X91.190 Y75.593 E15.80330
G1 X91.567 Y75.593 E15.81965
G1 X78.763 Y101.140 E17.05795
G1 X78.909 Y101.601 E17.07892
G1 X91.944 Y75.593 E18.33959
G1 E12.33959 F1800.00000
G92 E0
G1 X93.831 Y75.593 F9000.000
G1 E6.00000 F1800.00000
G1 X86.904 Y89.413 E6.66989 F600.000
G1 X86.527 Y89.413 E6.68624
G1 X93.454 Y75.593 E7.35612
G1 X93.076 Y75.593 E7.37248
G1 X86.150 Y89.413 E8.04236
G1 X85.772 Y89.413 E8.05872
G1 X92.699 Y75.593 E8.72860
G1 X92.322 Y75.593 E8.74496
G1 X79.085 Y102.002 E10.02505
G1 X79.284 Y102.359 E10.04276
G1 X85.718 Y89.522 E10.66500
G1 X85.980 Y89.751 E10.68010
G1 X79.499 Y102.683 E11.30694
G1 X79.734 Y102.967 E11.32292
G1 X86.233 Y89.999 E11.95151
G1 X86.502 Y90.215 E11.96647
G1 X79.984 Y103.221 E12.59689
G1 X80.244 Y103.456 E12.61206
G1 X94.209 Y75.593 E13.96261
G1 X94.586 Y75.593 E13.97896
G1 X80.520 Y103.657 E15.33926
G1 X80.811 Y103.830 E15.35392
G1 X94.963 Y75.593 E16.72260
G1 X95.341 Y75.593 E16.73895
G1 X81.113 Y103.981 E18.11497
G1 X81.418 Y104.124 E18.12959
G1 X95.718 Y75.593 E19.51256
G1 X96.095 Y75.593 E19.52891
G1 X81.740 Y104.235 E20.91725
G1 X82.074 Y104.321 E20.93221
G1 X85.904 Y96.680 E21.30260
G1 X86.161 Y96.921 E21.31785
G1 X82.425 Y104.374 E21.67915
G1 X82.786 Y104.407 E21.69486
G1 X86.399 Y97.199 E22.04427
G1 X86.903 Y96.945 F9000.000
G1 X83.163 Y104.407 E22.40595 F600.000
G1 X83.562 Y104.365 E22.42332
G1 X97.982 Y75.593 E23.81794
G1 X97.605 Y75.593 E23.83429
G1 X87.176 Y96.401 E24.84291
G1 X86.919 Y96.160 F9000.000
G1 X97.228 Y75.593 E25.83985 F600.000
G1 X96.850 Y75.593 E25.85620
G1 X86.674 Y95.896 E26.84031
G1 X86.392 Y95.707 F9000.000
G1 X96.473 Y75.593 E27.81526 F600.000
G1 E21.81526 F1800.00000
G92 E0
G1 X101.365 Y77.126 F9000.000
G1 E6.00000 F1800.00000
G1 X95.207 Y89.413 E6.59558 F600.000
G1 X94.829 Y89.413 E6.61193
G1 X101.365 Y76.373 E7.24400
G1 X101.364 Y75.622 E7.27653
G1 X94.452 Y89.413 E7.94499
G1 X94.075 Y89.413 E7.96134
G1 X101.001 Y75.593 E8.63123
G1 X100.624 Y75.593 E8.64758
G1 X93.697 Y89.413 E9.31747
G1 X93.320 Y89.413 E9.33382
G1 X100.247 Y75.593 E10.00371
G1 X99.869 Y75.593 E10.02006
G1 X92.943 Y89.413 E10.68994
G1 X92.839 Y89.619 F9000.000
G1 X86.108 Y103.050 E11.34097 F600.000
G1 X86.605 Y102.811 F9000.000
G1 X93.096 Y89.860 E11.96875 F600.000
G1 X93.339 Y90.127 E11.98441
G1 X86.843 Y103.089 E12.61269
G1 X87.100 Y103.330 E12.62795
G1 X93.571 Y90.418 E13.25382
G1 X93.782 Y90.750 E13.27087
G1 X87.368 Y103.546 E13.89113
G1 X87.646 Y103.747 E13.90594
G1 X93.972 Y91.125 E14.51774
G1 X94.137 Y91.547 E14.53739
G1 X87.941 Y103.909 E15.13662
G1 X88.245 Y104.056 E15.15124
G1 X94.270 Y92.036 E15.73388
G1 X94.350 Y92.629 E15.75981
G1 X88.560 Y104.181 E16.31975
G1 X88.891 Y104.274 E16.33464
G1 X92.760 Y96.553 E16.70888
G1 X93.020 Y96.788 E16.72405
G1 X89.230 Y104.350 E17.09057
G1 X89.585 Y104.395 E17.10608
G1 X93.270 Y97.043 E17.46244
G1 X93.505 Y97.327 E17.47841
G1 X89.956 Y104.407 E17.82161
G1 X90.341 Y104.393 E17.83829
G1 X93.719 Y97.651 E18.16505
G1 X93.917 Y98.009 E18.18278
G1 X90.744 Y104.342 E18.48972
G1 X91.175 Y104.234 E18.50900
G1 X94.093 Y98.411 E18.79123
G1 X94.239 Y98.874 E18.81224
G1 X91.636 Y104.067 E19.06398
G1 X92.140 Y103.815 E19.08841
G1 X94.337 Y99.430 E19.30094
G1 X94.353 Y100.153 E19.33226
G1 X92.716 Y103.418 E19.49055
G1 E13.49055 F1800.00000
G92 E0
G1 X93.616 Y102.375 F9000.000
G1 E6.00000 F1800.00000
G1 X94.086 Y101.439 E6.04540 F600.000
G1 E0.04540 F1800.00000
G92 E0
G1 X92.928 Y96.220 F9000.000
G1 E6.00000 F1800.00000
G1 X94.337 Y93.408 E6.13628 F600.000
G1 E0.13628 F1800.00000
G92 E0
G1 X101.245 Y89.413 F9000.000
G1 E6.00000 F1800.00000
G1 X101.365 Y89.173 E6.01163 F600.000
G1 X100.868 Y89.413 E6.03557
G1 X101.365 Y88.420 E6.08370
G1 X101.365 Y87.667 F9000.000
G1 X100.490 Y89.413 E6.16832 F600.000
G1 X100.113 Y89.413 E6.18467
G1 X101.365 Y86.914 E6.30579
G1 X101.365 Y86.161 F9000.000
G1 X99.735 Y89.413 E6.46341 F600.000
G1 X99.358 Y89.413 E6.47976
G1 X101.365 Y85.408 E6.67387
G1 X101.365 Y84.655 F9000.000
G1 X98.981 Y89.413 E6.90448 F600.000
G1 X98.603 Y89.413 E6.92084
G1 X101.365 Y83.902 E7.18794
G1 X101.365 Y83.150 F9000.000
G1 X98.226 Y89.413 E7.49155 F600.000
G1 X97.849 Y89.413 E7.50790
G1 X101.365 Y82.397 E7.84800
G1 X101.365 Y81.644 F9000.000
G1 X97.471 Y89.413 E8.22459 F600.000
G1 X97.094 Y89.413 E8.24095
G1 X101.365 Y80.891 E8.65404
G1 X101.365 Y80.138 F9000.000
G1 X96.716 Y89.413 E9.10363 F600.000
G1 X96.339 Y89.413 E9.11998
G1 X101.365 Y79.385 E9.60607
G1 X101.365 Y78.632 F9000.000
G1 X95.962 Y89.413 E10.12865 F600.000
G1 X95.584 Y89.413 E10.14500
G1 X101.365 Y77.879 E10.70408
G1 E4.70408 F1800.00000
G92 E0
G1 X79.598 Y97.215 F9000.000
G1 E6.00000 F1800.00000
G1 X78.904 Y98.599 E6.06706 F600.000
G1 E0.06706 F1800.00000
G92 E0
G1 X83.980 Y104.284 F9000.000
G1 E6.00000 F1800.00000
G1 X98.360 Y75.593 E7.39070 F600.000
G1 X98.737 Y75.593 E7.40705
G1 X84.423 Y104.152 E8.79134
G1 X84.905 Y103.944 E8.81405
G1 X99.115 Y75.593 E10.18828
G1 X99.492 Y75.593 E10.20463
G1 X85.447 Y103.615 E11.56289
M104 S195 ; set temperature
M140 S55 ; wait for bed temperature to be reached
;Layer change
G1 E5.56289 F1800.00000
G92 E0
G1 Z0.600 F9000.000
G1 E6.00000 F1800.00000
G1 X99.492 Y75.593 E7.35826 F3000.000
G1 X99.115 Y75.593 E7.37462
G1 X84.905 Y103.944 E8.74884
G1 X84.423 Y104.152 E8.77156
G1 X98.737 Y75.593 E10.15584
G1 X98.360 Y75.593 E10.17219
G1 X83.980 Y104.284 E11.56289
G1 E5.56289 F1800.00000
G92 E0
G1 X86.108 Y103.050 F9000.000
G1 E6.00000 F1800.00000
G1 X92.839 Y89.619 E6.65102 F3000.000
G1 X92.943 Y89.413 F9000.000
G1 X99.869 Y75.593 E7.32091 F3000.000
G1 X100.247 Y75.593 E7.33726
G1 X93.320 Y89.413 E8.00715
G1 X93.697 Y89.413 E8.02350
G1 X100.624 Y75.593 E8.69339
G1 X101.001 Y75.593 E8.70974
G1 X94.075 Y89.413 E9.37963
G1 X94.452 Y89.413 E9.39598
G1 X101.364 Y75.622 E10.06444
G1 X101.365 Y76.373 E10.09697
G1 X94.829 Y89.413 E10.72904
G1 X95.207 Y89.413 E10.74539
G1 X101.365 Y77.126 E11.34097
G1 X101.365 Y77.879 F9000.000
G1 X95.584 Y89.413 E11.90005 F3000.000
G1 X95.962 Y89.413 E11.91640
G1 X101.365 Y78.632 E12.43898
G1 X101.365 Y79.385 F9000.000
G1 X96.339 Y89.413 E12.92507 F3000.000
G1 X96.716 Y89.413 E12.94142
G1 X101.365 Y80.138 E13.39101
G1 X101.365 Y80.891 F9000.000
G1 X97.094 Y89.413 E13.80410 F3000.000
G1 X97.471 Y89.413 E13.82046
G1 X101.365 Y81.644 E14.19705
G1 X101.365 Y82.397 F9000.000
G1 X97.849 Y89.413 E14.53715 F3000.000
G1 X98.226 Y89.413 E14.55350
G1 X101.365 Y83.150 E14.85711
G1 X101.365 Y83.902 F9000.000
G1 X98.603 Y89.413 E15.12421 F3000.000
G1 X98.981 Y89.413 E15.14057
G1 X101.365 Y84.655 E15.37118
G1 X101.365 Y85.408 F9000.000
G1 X99.358 Y89.413 E15.56529 F3000.000
G1 X99.735 Y89.413 E15.58164
G1 X101.365 Y86.161 E15.73926
G1 X101.365 Y86.914 F9000.000
G1 X100.113 Y89.413 E15.86038 F3000.000
G1 X100.490 Y89.413 E15.87673
G1 X101.365 Y87.667 E15.96135
G1 X101.365 Y88.420 F9000.000
G1 X100.868 Y89.413 E16.00948 F3000.000
G1 X101.365 Y89.173 E16.03342
G1 X101.245 Y89.413 E16.04505
G1 E10.04505 F1800.00000
G92 E0
G1 X94.337 Y93.408 F9000.000
G1 E6.00000 F1800.00000
G1 X92.928 Y96.220 E6.13628 F3000.000
G1 E0.13628 F1800.00000
G92 E0
G1 X94.086 Y101.439 F9000.000
G1 E6.00000 F1800.00000
G1 X93.616 Y102.375 E6.04540 F3000.000
G1 E0.04540 F1800.00000
G92 E0
G1 X92.716 Y103.418 F9000.000
G1 E6.00000 F1800.00000
G1 X94.353 Y100.153 E6.15829 F3000.000
G1 X94.337 Y99.430 E6.18960
G1 X92.140 Y103.815 E6.40214
G1 X91.636 Y104.067 E6.42656
G1 X94.239 Y98.874 E6.67830
G1 X94.093 Y98.411 E6.69932
G1 X91.175 Y104.234 E6.98155
G1 X90.744 Y104.342 E7.00083
G1 X93.917 Y98.009 E7.30776
G1 X93.719 Y97.651 E7.32549
G1 X90.341 Y104.393 E7.65226
G1 X89.956 Y104.407 E7.66894
G1 X93.505 Y97.327 E8.01213
G1 X93.270 Y97.043 E8.02811
G1 X89.585 Y104.395 E8.38447
G1 X89.230 Y104.350 E8.39997
G1 X93.020 Y96.788 E8.76649
G1 X92.760 Y96.553 E8.78167
G1 X88.891 Y104.274 E9.15591
G1 X88.560 Y104.181 E9.17079
G1 X94.350 Y92.629 E9.73074
G1 X94.270 Y92.036 E9.75667
G1 X88.245 Y104.056 E10.33931
G1 X87.941 Y103.909 E10.35393
G1 X94.137 Y91.547 E10.95315
G1 X93.972 Y91.125 E10.97280
G1 X87.646 Y103.747 E11.58460
G1 X87.368 Y103.546 E11.59941
G1 X93.782 Y90.750 E12.21968
G1 X93.571 Y90.418 E12.23673
G1 X87.100 Y103.330 E12.86260
G1 X86.843 Y103.089 E12.87785
G1 X93.339 Y90.127 E13.50613
G1 X93.096 Y89.860 E13.52180
G1 X86.605 Y102.811 E14.14958
G1 E8.14958 F1800.00000
G92 E0
G1 X86.399 Y97.199 F9000.000
G1 E6.00000 F1800.00000
G1 X82.786 Y104.407 E6.34941 F3000.000
G1 X82.425 Y104.374 E6.36512
G1 X86.161 Y96.921 E6.72642
G1 X85.904 Y96.680 E6.74167
G1 X82.074 Y104.321 E7.11206
G1 X81.740 Y104.235 E7.12702
G1 X96.095 Y75.593 E8.51535
G1 X95.718 Y75.593 E8.53171
G1 X81.418 Y104.124 E9.91468
G1 X81.113 Y103.981 E9.92930
G1 X95.341 Y75.593 E11.30531
G1 X94.963 Y75.593 E11.32167
G1 X80.811 Y103.830 E12.69035
G1 X80.520 Y103.657 E12.70501
G1 X94.586 Y75.593 E14.06531
G1 X94.209 Y75.593 E14.08166
G1 X80.244 Y103.456 E15.43221
G1 X79.984 Y103.221 E15.44738
G1 X86.502 Y90.215 E16.07780
G1 X86.233 Y89.999 E16.09276
G1 X79.734 Y102.967 E16.72135
G1 X79.499 Y102.683 E16.73733
G1 X85.980 Y89.751 E17.36417
G1 X85.718 Y89.522 E17.37927
G1 X79.284 Y102.359 E18.00151
G1 X79.085 Y102.002 E18.01922
G1 X92.322 Y75.593 E19.29931
G1 X92.699 Y75.593 E19.31566
G1 X85.772 Y89.413 E19.98555
G1 X86.150 Y89.413 E20.00190
G1 X93.076 Y75.593 E20.67179
G1 X93.454 Y75.593 E20.68814
G1 X86.527 Y89.413 E21.35803
G1 X86.904 Y89.413 E21.37438
G1 X93.831 Y75.593 E22.04427
G1 E16.04427 F1800.00000
G92 E0
G1 X91.944 Y75.593 F9000.000
G1 E6.00000 F1800.00000
G1 X78.909 Y101.601 E7.26067 F3000.000
G1 X78.763 Y101.140 E7.28164
G1 X91.567 Y75.593 E8.51994
G1 X91.190 Y75.593 E8.53630
G1 X78.663 Y100.585 E9.74773
G1 X78.646 Y99.866 E9.77892
G1 X90.812 Y75.593 E10.95546
G1 X90.435 Y75.593 E10.97182
G1 X80.060 Y96.293 E11.97517
G1 X79.803 Y96.052 E11.99042
G1 X90.057 Y75.593 E12.98208
G1 X89.680 Y75.593 E12.99844
G1 X79.568 Y95.768 E13.97633
G1 X79.346 Y95.458 E13.99285
G1 X89.303 Y75.593 E14.95574
G1 X88.925 Y75.593 E14.97209
G1 X79.140 Y95.117 E15.91847
G1 X78.957 Y94.729 E15.93707
G1 X88.548 Y75.593 E16.86463
G1 X88.170 Y75.593 E16.88098
G1 X78.804 Y94.280 E17.78678
