; generated by Slic3r 1.2.9 on 2017-02-18 at 13:32:38

; external perimeters extrusion width = 0.40mm
; perimeters extrusion width = 0.56mm
; infill extrusion width = 0.38mm
; solid infill extrusion width = 0.56mm
; top infill extrusion width = 0.22mm

M106 S256; Turn on fan to 100% power
M104 S140; turn on extruder temperature at S value
M140 S60; turn on bed temperature at S value
G28; home all axes
M84; disable motors
G1 Z15 F15000; have Z move to 20mm at 15000 mm/min
M190 S55; turn on bed temperature at S value and wait
M140 S55; turn on bed temperature at S value (printing temperature)
M109 S205; turn on extruder temperature at S value and wait (printing temperature)
M104 S205; turn on extruder temperature at S value
G1 Z0 F12000; move Z back to home
G21 ; set units to millimeters
G90 ; use absolute coordinates
M82 ; use absolute distances for extrusion
G92 E0
M106 S255
;Layer change
G1 E-6.00000 F1800.00000
G92 E0
G1 Z0.300 F9000.000
G1 X26.018 Y14.697 F9000.000
G1 E6.00000 F1800.00000
G1 X26.517 Y13.892 E6.04715 F600.000
G1 X26.925 Y13.339 E6.08138
G1 X27.201 Y13.007 E6.10288
G1 X27.855 Y12.318 E6.15018
G1 X28.375 Y11.854 E6.18488
G1 X28.812 Y11.508 E6.21263
G1 X39.677 Y3.425 E6.88687
G1 X40.523 Y2.869 E6.93728
G1 X46.763 Y-0.574 E7.29214
G1 X47.248 Y-0.793 E7.31862
G1 X47.627 Y-0.933 E7.33874
G1 X48.083 Y-1.070 E7.36244
G1 X54.847 Y-2.636 E7.70813
G1 X55.506 Y-2.756 E7.74145
G1 X55.854 Y-2.799 E7.75891
G1 X56.336 Y-2.836 E7.78298
G1 X57.071 Y-2.846 E7.81960
G1 X57.426 Y-2.834 E7.83728 F600.000
G1 X58.214 Y-2.764 E7.87667
G1 X59.006 Y-2.635 E7.91662
G1 X59.528 Y-2.519 E7.94324
G1 X60.309 Y-2.292 E7.98375
G1 X60.648 Y-2.171 E8.00163
G1 X61.316 Y-1.870 E8.03813
G1 X61.942 Y-1.502 E8.07431
G1 X62.515 Y-1.076 E8.10986
G1 X62.769 Y-0.856 E8.12654
G1 X63.273 Y-0.352 E8.16206
G1 X63.492 Y-0.100 E8.17867
G1 X63.892 Y0.421 E8.21140
G1 X168.897 Y155.629 E17.54142
G1 X168.995 Y155.781 E17.55042
G1 X169.323 Y156.465 E17.58821
G1 X169.521 Y157.284 E17.63015
G1 X169.532 Y158.147 E17.67312
G1 X169.384 Y158.922 E17.71243
G1 X169.105 Y159.627 E17.75013
G1 X169.031 Y159.771 E17.75820
G1 X168.654 Y160.359 E17.79297
G1 X168.534 Y160.513 E17.80271
G1 X168.222 Y160.864 E17.82609
G1 X167.812 Y161.251 E17.85417
G1 X167.411 Y161.573 E17.87976
G1 X167.009 Y161.857 E17.90426
G1 X166.311 Y162.283 E17.94500
G1 X165.471 Y162.712 E17.99195
G1 X164.279 Y163.210 E18.05626
G1 X163.261 Y163.542 E18.10956
G1 X162.281 Y163.782 E18.15984
G1 X161.466 Y163.933 E18.20109
G1 X44.203 Y182.784 E24.11446
G1 X43.800 Y182.826 E24.13463
G1 X43.071 Y182.841 E24.17094
G1 X42.761 Y182.822 E24.18639
G1 X42.314 Y182.768 E24.20880
G1 X41.584 Y182.610 E24.24598
G1 X40.894 Y182.377 E24.28226
G1 X40.597 Y182.250 E24.29834
G1 X40.252 Y182.080 E24.31750
G1 X39.660 Y181.732 E24.35170
G1 X39.143 Y181.364 E24.38328
G1 X27.085 Y171.671 E25.15357
G1 X26.774 Y171.405 E25.17395
G1 X26.463 Y171.104 E25.19548
G1 X26.006 Y170.572 E25.23040
G1 X25.645 Y170.054 E25.26185
G1 X18.055 Y157.500 E25.99226
G1 X17.694 Y156.860 E26.02886
G1 X17.412 Y156.225 E26.06340
G1 X17.279 Y155.860 E26.08276
G1 X17.028 Y154.986 E26.12805
G1 X10.766 Y126.980 E27.55684
G1 X10.636 Y126.352 E27.58879
G1 X10.511 Y125.465 E27.63341
G1 X10.449 Y124.288 E27.69206
G1 X10.476 Y123.377 E27.73748
G1 X10.556 Y122.535 E27.77955
G1 X24.904 Y17.938 E33.03613
G1 X25.089 Y17.024 E33.08257
G1 X25.287 Y16.353 E33.11737
G1 X25.530 Y15.703 E33.15194
G1 X25.703 Y15.313 E33.17318
G1 X25.990 Y14.750 E33.20462
G1 X26.359 Y14.877 F9000.000
G1 X26.830 Y14.118 E33.24913 F600.000
G1 X27.222 Y13.585 E33.28206
G1 X27.498 Y13.253 E33.30356
G1 X28.116 Y12.602 E33.34823
G1 X28.615 Y12.156 E33.38159
G1 X29.042 Y11.818 E33.40871
G1 X39.907 Y3.734 E34.08295
G1 X40.710 Y3.206 E34.13077
G1 X46.947 Y-0.235 E34.48545
G1 X47.382 Y-0.432 E34.50922
G1 X47.761 Y-0.572 E34.52933
G1 X48.170 Y-0.694 E34.55061
G1 X54.934 Y-2.260 E34.89630
G1 X55.884 Y-2.414 E34.94418
G1 X56.366 Y-2.452 E34.96825
G1 X57.070 Y-2.460 E35.00333
G1 X57.918 Y-2.409 E35.04563 F600.000
G1 X58.922 Y-2.259 E35.09617
G1 X59.690 Y-2.077 E35.13548
G1 X60.197 Y-1.923 E35.16185
G1 X60.792 Y-1.695 E35.19357
G1 X61.409 Y-1.380 E35.22806
G1 X61.721 Y-1.186 E35.24637
G1 X62.263 Y-0.784 E35.27994
G1 X62.752 Y-0.339 E35.31288
G1 X62.993 Y-0.086 E35.33029
G1 X63.573 Y0.638 E35.37643
G1 X168.578 Y155.845 E44.70645
G1 X168.666 Y155.982 E44.71457
G1 X168.961 Y156.597 E44.74849
G1 X169.139 Y157.332 E44.78619
G1 X169.149 Y158.108 E44.82479
G1 X169.012 Y158.817 E44.86078
G1 X168.763 Y159.450 E44.89462
G1 X168.688 Y159.593 E44.90269
G1 X168.350 Y160.122 E44.93391
G1 X168.230 Y160.276 E44.94363
G1 X167.950 Y160.591 E44.96463
G1 X167.566 Y160.955 E44.99099
G1 X167.186 Y161.261 E45.01527
G1 X166.801 Y161.532 E45.03871
G1 X166.117 Y161.949 E45.07858
G1 X165.298 Y162.368 E45.12439
G1 X164.156 Y162.844 E45.18601
G1 X163.167 Y163.168 E45.23783
G1 X162.210 Y163.403 E45.28687
G1 X161.405 Y163.552 E45.32765
G1 X44.142 Y182.403 E51.24102
G1 X43.780 Y182.441 E51.25912
G1 X43.094 Y182.456 E51.29329
G1 X42.784 Y182.437 E51.30874
G1 X42.383 Y182.389 E51.32886
G1 X41.697 Y182.241 E51.36382
G1 X41.046 Y182.022 E51.39799
G1 X40.749 Y181.895 E51.41407
G1 X40.439 Y181.743 E51.43127
G1 X39.878 Y181.414 E51.46367
G1 X39.384 Y181.064 E51.49379
G1 X27.327 Y171.370 E52.26408
G1 X26.747 Y170.843 E52.30309
G1 X26.317 Y170.344 E52.33588
G1 X25.975 Y169.854 E52.36563
G1 X18.385 Y157.300 E53.09604
G1 X18.043 Y156.696 E53.13061
G1 X17.775 Y156.093 E53.16347
G1 X17.641 Y155.728 E53.18283
G1 X17.404 Y154.902 E53.22562
G1 X11.143 Y126.896 E54.65440
G1 X11.013 Y126.274 E54.68605
G1 X10.894 Y125.416 E54.72919
G1 X10.834 Y124.296 E54.78503
G1 X10.860 Y123.411 E54.82910
G1 X10.938 Y122.588 E54.87028
G1 X25.286 Y17.990 E60.12686
G1 X25.461 Y17.127 E60.17070
G1 X25.650 Y16.483 E60.20410
G1 X25.883 Y15.859 E60.23729
G1 X26.056 Y15.469 E60.25854
G1 X26.331 Y14.931 E60.28863
G1 E54.28863 F1800.00000
G92 E0
G1 X55.466 Y127.752 F9000.000
G1 E6.00000 F1800.00000
G1 X55.146 Y128.662 E6.04803 F600.000
G1 X54.802 Y129.499 E6.09312
G1 X53.914 Y131.515 E6.20276
G1 X53.027 Y133.643 E6.31759
G1 X52.592 Y134.747 E6.37663
G1 X51.739 Y137.027 E6.49782
G1 X50.916 Y139.385 E6.62220
G1 X50.125 Y141.805 E6.74894
G1 X49.373 Y144.267 E6.87716
G1 X48.663 Y146.756 E7.00600
G1 X47.999 Y149.252 E7.13458
G1 X47.388 Y151.737 E7.26203
G1 X46.832 Y154.195 E7.38747
G1 X46.338 Y156.606 E7.51003
G1 X45.908 Y158.954 E7.62884
G1 X45.548 Y161.219 E7.74306
G1 X45.263 Y163.385 E7.85181
G1 X45.057 Y165.434 E7.95433
G1 X44.984 Y166.406 E8.00289
G1 X44.824 Y169.569 E8.16056
G1 X44.745 Y170.661 E8.21507
G1 X44.648 Y171.505 E8.25736
G1 X44.589 Y171.859 E8.27524
G1 X44.442 Y172.443 E8.30522
G1 X44.245 Y172.921 E8.33095
G1 X43.989 Y173.337 E8.35529
G1 X43.476 Y173.962 E8.39557
G1 X43.079 Y174.342 E8.42292
G1 X42.682 Y174.622 E8.44708
G1 X42.282 Y174.800 E8.46888
G1 X41.887 Y174.865 E8.48881
G1 X41.679 Y174.853 E8.49921
G1 X41.474 Y174.809 E8.50962
G1 X41.107 Y174.643 E8.52968
G1 X40.761 Y174.367 E8.55173
G1 X40.443 Y173.996 E8.57605
G1 X40.289 Y173.770 E8.58968
G1 X40.140 Y173.522 E8.60409
G1 X39.860 Y172.960 E8.63533
G1 X39.593 Y172.300 E8.67079
G1 X39.340 Y171.541 E8.71060
G1 X38.987 Y170.225 E8.77849
G1 X38.766 Y169.221 E8.82963
G1 X38.559 Y168.120 E8.88542
G1 X38.436 Y167.322 E8.92563
G1 X38.334 Y166.463 E8.96871
G1 X38.192 Y164.604 E9.06152
G1 X38.132 Y162.602 E9.16123
G1 X38.150 Y160.523 E9.26478
G1 X38.246 Y158.430 E9.36910
G1 X38.323 Y157.395 E9.42077
G1 X38.532 Y155.399 E9.52067
G1 X38.815 Y153.549 E9.61387
G1 X38.983 Y152.695 E9.65720
G1 X39.521 Y150.377 E9.77568
G1 X40.112 Y148.190 E9.88846
G1 X40.768 Y146.101 E9.99748
G1 X41.127 Y145.079 E10.05140
G1 X41.907 Y143.072 E10.15863
G1 X42.335 Y142.072 E10.21277
G1 X42.789 Y141.071 E10.26751
G1 X43.782 Y139.051 E10.37959
G1 X44.327 Y138.018 E10.43771
G1 X45.543 Y135.848 E10.56158
G1 X48.068 Y134.337 E10.70810
G1 X48.607 Y134.924 E10.74777
G1 X48.778 Y135.058 E10.75860
G1 X49.001 Y135.161 E10.77082
G1 X49.218 Y135.167 E10.78166
G1 X49.397 Y135.106 E10.79104
G1 X49.599 Y134.984 E10.80281
G1 X49.835 Y134.790 E10.81801
G1 X50.104 Y134.519 E10.83700
G1 X50.405 Y134.170 E10.85993
G1 X51.123 Y133.220 E10.91925
G1 X51.772 Y132.283 E10.97598
G1 X53.876 Y129.142 E11.16423
G1 X54.551 Y128.188 E11.22240
G1 X54.895 Y127.739 E11.25057
G1 X55.065 Y127.543 E11.26350
G1 X55.412 Y127.724 E11.28299
G1 X55.836 Y127.902 F9000.000
G1 X55.620 Y127.397 F9000.000
G1 X55.376 Y127.270 E11.29669 F600.000
G1 X55.565 Y127.018 E11.31239
G1 X55.743 Y127.123 E11.32271
G1 X55.645 Y127.342 E11.33470
G1 E5.33470 F1800.00000
G92 E0
G1 X48.211 Y133.352 F9000.000
G1 E6.00000 F1800.00000
G1 X47.264 Y133.919 E6.05497 F600.000
G1 X47.137 Y133.805 E6.06347
G1 X47.731 Y132.522 E6.13383
G1 X48.184 Y131.381 E6.19498
G1 X48.263 Y131.134 E6.20786
G1 X48.449 Y131.152 E6.21717
G1 X48.485 Y131.460 E6.23259
G1 X48.585 Y131.915 E6.25580
G1 X48.742 Y132.350 E6.27882
G1 X48.977 Y132.762 E6.30244
G1 X49.289 Y133.100 E6.32530
G1 X49.907 Y133.550 E6.36339
G1 X49.537 Y133.995 E6.39220
G1 X49.315 Y134.219 E6.40792
G1 X49.140 Y134.364 E6.41923
G1 X48.252 Y133.396 E6.48458
G1 X48.140 Y133.844 F9000.000
G1 X46.324 Y134.931 E6.58991 F600.000
G1 X46.197 Y134.809 E6.59866
G1 X46.768 Y133.684 E6.66147
G1 X47.376 Y132.370 E6.73358
G1 X47.821 Y131.251 E6.79352
G1 X48.026 Y130.605 E6.82727
G1 X48.207 Y129.699 E6.87330
G1 X48.436 Y128.741 E6.92231
G1 X48.582 Y128.220 E6.94926
G1 X48.928 Y127.133 E7.00604
G1 X49.112 Y126.621 E7.03312
G1 X49.712 Y125.093 E7.11490
G1 X49.924 Y125.170 E7.12616
G1 X49.513 Y126.379 E7.18974
G1 X49.323 Y127.037 E7.22382
G1 X49.035 Y128.271 E7.28691
G1 X48.929 Y128.874 E7.31737
G1 X48.811 Y129.961 E7.37185
G1 X48.796 Y130.476 E7.39750
G1 X48.814 Y130.952 E7.42121
G1 X48.865 Y131.396 E7.44345
G1 X48.956 Y131.808 E7.46444
G1 X49.093 Y132.188 E7.48456
G1 X49.291 Y132.533 E7.50435
G1 X49.546 Y132.810 E7.52313
G1 X50.059 Y133.183 E7.55468
G1 X50.547 Y133.342 E7.58027
G1 X50.105 Y133.928 E7.61684
G1 X49.820 Y134.257 E7.63849
G1 X49.575 Y134.505 E7.65584
G1 X49.376 Y134.668 E7.66864
G1 X49.233 Y134.754 E7.67697
G1 X49.140 Y134.786 E7.68187
G1 X49.082 Y134.781 E7.68478
G1 X48.988 Y134.732 E7.69006
G1 X48.869 Y134.639 E7.69753
G1 X48.180 Y133.889 E7.74827
G1 X49.854 Y123.677 F9000.000
G1 X48.750 Y126.486 E7.89855 F600.000
G1 X48.563 Y127.010 E7.92625
G1 X48.213 Y128.109 E7.98370
G1 X48.062 Y128.644 E8.01135
G1 X47.830 Y129.616 E8.06110
G1 X47.652 Y130.509 E8.10644
G1 X47.458 Y131.122 E8.13844
G1 X47.022 Y132.218 E8.19717
G1 X46.421 Y133.517 E8.26843
G1 X45.934 Y134.483 E8.32231
G1 X45.383 Y135.519 E8.38071
G1 X43.664 Y138.635 E8.55791
G1 X42.621 Y140.673 E8.67191
G1 X41.646 Y142.724 E8.78495
G1 X40.744 Y144.777 E8.89660
G1 X39.918 Y146.823 E9.00647
G1 X39.172 Y148.853 E9.11416
G1 X38.510 Y150.859 E9.21933
G1 X38.212 Y151.848 E9.27076
G1 X37.127 Y155.698 E9.46989
G1 X36.344 Y158.226 E9.60166
G1 X35.588 Y160.415 E9.71698
G1 X34.857 Y162.266 E9.81606
G1 X34.382 Y163.316 E9.87343
G1 X33.917 Y164.217 E9.92393
G1 X33.460 Y164.973 E9.96789
G1 X33.008 Y165.583 E10.00572
G1 X32.561 Y166.047 E10.03777
G1 X32.330 Y166.229 E10.05243
G1 X32.100 Y166.372 E10.06592
G1 X31.866 Y166.476 E10.07869
G1 X31.628 Y166.540 E10.09095
G1 X31.388 Y166.560 E10.10293
G1 X31.150 Y166.536 E10.11483
G1 X30.916 Y166.468 E10.12700
G1 X30.664 Y166.338 E10.14110
G1 X30.479 Y166.211 E10.15225
G1 X30.269 Y166.022 E10.16631
G1 X30.069 Y165.777 E10.18208
G1 X29.900 Y165.469 E10.19956
G1 X29.763 Y165.096 E10.21934
G1 X29.652 Y164.647 E10.24239
G1 X29.525 Y163.812 E10.28444
G1 X29.461 Y163.121 E10.31896
G1 X29.390 Y161.865 E10.38162
G1 X29.371 Y161.082 E10.42064
G1 X29.379 Y160.277 E10.46069
G1 X29.472 Y158.619 E10.54337
G1 X29.668 Y156.894 E10.62982
G1 X29.804 Y156.004 E10.67462
G1 X30.148 Y154.190 E10.76656
G1 X30.588 Y152.323 E10.86207
G1 X31.121 Y150.411 E10.96088
G1 X31.423 Y149.438 E11.01162
G1 X32.093 Y147.471 E11.11510
G1 X32.851 Y145.472 E11.22150
G1 X33.694 Y143.451 E11.33055
G1 X34.621 Y141.413 E11.44203
G1 X35.628 Y139.364 E11.55571
G1 X36.714 Y137.311 E11.67135
G1 X37.877 Y135.260 E11.78873
G1 X39.113 Y133.217 E11.90761
G1 X40.421 Y131.190 E12.02773
G1 X42.369 Y128.328 E12.20008
G1 X43.529 Y126.688 E12.30011
G1 X44.415 Y125.490 E12.37428
G1 X44.900 Y124.902 E12.41225
G1 X45.368 Y124.397 E12.44654
G1 X45.639 Y124.163 E12.46436
G1 X45.904 Y124.008 E12.47965
G1 X46.180 Y123.939 E12.49383
G1 X46.460 Y123.962 E12.50779
G1 X46.738 Y124.056 E12.52242
G1 X47.277 Y124.322 E12.55234
G1 X47.481 Y124.401 E12.56322
G1 X47.653 Y124.440 E12.57202
G1 X47.806 Y124.446 E12.57966
G1 X47.960 Y124.419 E12.58739
G1 X48.130 Y124.356 E12.59645
G1 X48.327 Y124.250 E12.60761
G1 X49.536 Y123.432 E12.68026
G1 X49.806 Y123.640 E12.69728
G1 X50.211 Y123.857 F9000.000
G1 X50.319 Y123.548 F9000.000
G1 X49.631 Y123.018 E12.74049 F600.000
G1 X50.085 Y122.910 E12.76372
G1 X50.485 Y122.731 E12.78554
G1 X50.696 Y122.577 E12.79856
G1 X50.960 Y122.276 E12.81848
G1 X51.129 Y122.390 E12.82864
G1 X50.787 Y123.068 E12.86643
G1 X50.398 Y123.969 E12.91531
G1 X50.187 Y123.882 E12.92665
G1 X50.297 Y123.604 E12.94154
G1 E6.94154 F1800.00000
G92 E0
G1 X57.945 Y124.661 F9000.000
G1 E6.00000 F1800.00000
G1 X58.383 Y124.131 E6.03423 F600.000
G1 X58.556 Y124.241 E6.04439
G1 X58.166 Y125.064 E6.08974
G1 X57.974 Y124.713 E6.10966
G1 X57.481 Y124.616 F9000.000
G1 X58.137 Y123.824 E6.16088 F600.000
G1 X59.892 Y121.861 E6.29201
G1 X60.055 Y121.972 E6.30183
G1 X58.194 Y125.908 E6.51858
G1 X58.026 Y125.885 E6.52701
G1 X57.907 Y125.394 E6.55213
G1 X57.509 Y124.669 E6.59333
G1 X63.400 Y117.700 F9000.000
G1 X63.499 Y117.500 E6.60445 F600.000
G1 X63.604 Y117.478 E6.60977
G1 X63.718 Y117.463 E6.61552
G1 X63.787 Y117.625 E6.62433
G1 X63.544 Y117.817 E6.63974 F600.000
G1 X63.447 Y117.738 E6.64596
G1 E0.64596 F1800.00000
G92 E0
G1 X48.345 Y123.305 F9000.000
G1 E6.00000 F1800.00000
G1 X47.927 Y123.589 E6.02518 F600.000
G1 X47.755 Y123.673 E6.03470
G1 X47.587 Y123.615 E6.04353
G1 X47.034 Y123.342 E6.07424
G1 X46.618 Y123.201 E6.09611
G1 X46.451 Y123.187 E6.10446
G1 X46.549 Y122.611 E6.13360
G1 X46.592 Y121.710 E6.17848
G1 X46.768 Y121.669 E6.18747
G1 X47.070 Y122.253 E6.22024
G1 X47.284 Y122.543 E6.23815
G1 X47.514 Y122.789 E6.25493
G1 X47.778 Y123.007 E6.27196
G1 X48.075 Y123.189 E6.28930
G1 X48.290 Y123.281 E6.30097
G1 E0.30097 F1800.00000
G92 E0
G1 X47.825 Y116.781 F9000.000
G1 E6.00000 F1800.00000
G1 X47.880 Y116.601 E6.00935 F600.000
G1 X47.901 Y116.113 E6.03367
G1 X48.837 Y115.639 E6.08591
G1 X48.960 Y115.797 E6.09589
G1 X48.436 Y116.340 E6.13343
G1 X47.991 Y116.871 E6.16795
G1 X47.877 Y116.809 E6.17440
G1 X49.652 Y115.151 F9000.000
G1 X49.499 Y114.191 E6.22281 F600.000
G1 X49.266 Y113.840 E6.24377
G1 X51.112 Y114.050 E6.33624
G1 X50.625 Y114.368 E6.36521
G1 X49.697 Y115.111 E6.42440
G1 X49.233 Y114.971 F9000.000
G1 X49.131 Y114.334 E6.45649 F600.000
G1 X48.917 Y114.010 E6.47583
G1 X48.563 Y113.632 E6.50162
G1 X48.436 Y113.521 E6.51001
G1 X48.504 Y113.365 E6.51850
G1 X51.197 Y113.671 E6.65344
G1 X52.140 Y113.254 E6.70476
G1 X52.964 Y112.955 E6.74842
G1 X53.840 Y112.698 E6.79387
G1 X54.765 Y112.483 E6.84116
G1 X55.738 Y112.312 E6.89035
G1 X56.756 Y112.184 E6.94143
G1 X57.238 Y112.146 E6.96549
G1 X57.265 Y112.366 E6.97651
G1 X56.256 Y112.535 E7.02749
G1 X55.216 Y112.766 E7.08049
G1 X54.229 Y113.046 E7.13158
G1 X53.297 Y113.374 E7.18076
G1 X52.425 Y113.752 E7.22810
G1 X51.615 Y114.181 E7.27374
G1 X50.849 Y114.682 E7.31928
G1 X50.099 Y115.267 E7.36667
G1 X49.384 Y115.913 E7.41464
G1 X48.723 Y116.598 E7.46202
G1 X48.139 Y117.295 E7.50729
G1 X47.871 Y117.657 E7.52974
G1 X47.437 Y118.338 E7.56995
G1 X47.257 Y118.687 E7.58948
G1 X47.114 Y119.024 E7.60772
G1 X47.010 Y119.353 E7.62488
G1 X46.943 Y119.685 E7.64178
G1 X46.905 Y120.025 E7.65881
G1 X46.917 Y120.637 E7.68926
G1 X46.968 Y120.971 E7.70610
G1 X47.135 Y121.540 E7.73564
G1 X47.399 Y122.049 E7.76416
G1 X47.581 Y122.295 E7.77942
G1 X47.779 Y122.507 E7.79386
G1 X48.003 Y122.692 E7.80833
G1 X48.252 Y122.846 E7.82292
G1 X48.525 Y122.963 E7.83769
G1 X48.818 Y123.036 E7.85272
