; generated by Slic3r 1.2.9 on 2017-05-28 at 12:16:43

; external perimeters extrusion width = 0.40mm
; perimeters extrusion width = 0.62mm
; infill extrusion width = 0.33mm
; solid infill extrusion width = 0.62mm
; top infill extrusion width = 0.20mm

M106 S256; Turn on fan to 100% power
M104 S140; turn on extruder temperature at S value
M140 S60; turn on bed temperature at S value
G28; home all axes
M84; disable motors
G1 Z15 F15000; have Z move to 20mm at 15000 mm/min
M190 S55; turn on bed temperature at S value and wait
M140 S55; turn on bed temperature at S value (printing temperature)
M109 S200; turn on extruder temperature at S value and wait (printing temperature)
M104 S200; turn on extruder temperature at S value
G1 Z0 F12000; move Z back to home
G21 ; set units to millimeters
G90 ; use absolute coordinates
M82 ; use absolute distances for extrusion
G92 E0
M106 S255
;Layer change
G1 E-6.00000 F1800.00000
G92 E0
G1 Z0.300 F9000.000
G1 X30.381 Y18.840 F9000.000
G1 E6.00000 F1800.00000
G1 X30.663 Y18.397 E6.02644 F600.000
G1 X30.902 Y18.064 E6.04706
G1 X31.263 Y17.620 E6.07591
G1 X31.771 Y17.085 E6.11310
G1 X32.202 Y16.698 E6.14225
G1 X32.586 Y16.393 E6.16695
G1 X42.908 Y8.714 E6.81499
G1 X43.576 Y8.273 E6.85532
G1 X49.494 Y5.008 E7.19580
G1 X49.801 Y4.869 E7.21275
G1 X50.161 Y4.736 E7.23208
G1 X50.449 Y4.650 E7.24725
G1 X56.875 Y3.162 E7.57951
G1 X57.654 Y3.035 E7.61925
G1 X58.111 Y2.999 E7.64238
G1 X58.710 Y2.993 E7.67252
G1 X59.458 Y3.039 E7.71027 F600.000
G1 X60.294 Y3.165 E7.75289
G1 X60.964 Y3.321 E7.78752
G1 X61.445 Y3.468 E7.81287
G1 X61.936 Y3.658 E7.83937
G1 X62.439 Y3.918 E7.86788
G1 X62.659 Y4.054 E7.88094
G1 X63.106 Y4.383 E7.90887
G1 X63.513 Y4.750 E7.93649
G1 X63.742 Y4.991 E7.95322
G1 X64.206 Y5.571 E7.99066
G1 X163.961 Y153.018 E16.95815
G1 X164.231 Y153.549 E16.98814
G1 X164.358 Y154.071 E17.01520
G1 X164.365 Y154.618 E17.04274
G1 X164.263 Y155.150 E17.07008
G1 X164.016 Y155.732 E17.10192
G1 X163.664 Y156.251 E17.13348
G1 X163.467 Y156.473 E17.14845
G1 X163.156 Y156.768 E17.17004
G1 X162.840 Y157.024 E17.19052
G1 X162.512 Y157.257 E17.21077
G1 X161.895 Y157.633 E17.24717
G1 X161.160 Y158.007 E17.28871
G1 X160.182 Y158.415 E17.34209
G1 X159.304 Y158.704 E17.38867
G1 X158.448 Y158.916 E17.43309
G1 X157.703 Y159.054 E17.47127
G1 X46.303 Y176.963 E23.15487
G1 X46.048 Y176.990 E23.16777
G1 X45.489 Y177.004 E23.19594
G1 X45.195 Y176.986 E23.21079
G1 X44.912 Y176.952 E23.22513
G1 X44.353 Y176.835 E23.25389
G1 X43.821 Y176.658 E23.28214
G1 X43.539 Y176.537 E23.29759
G1 X43.044 Y176.276 E23.32581
G1 X42.581 Y175.972 E23.35368
G1 X30.981 Y166.654 E24.10318
G1 X30.522 Y166.239 E24.13438
G1 X30.171 Y165.836 E24.16128
G1 X29.887 Y165.432 E24.18616
G1 X22.676 Y153.506 E24.88819
G1 X22.393 Y153.009 E24.91701
G1 X22.166 Y152.503 E24.94491
G1 X22.039 Y152.156 E24.96352
G1 X21.844 Y151.475 E24.99919
G1 X15.896 Y124.870 E26.37246
G1 X15.776 Y124.292 E26.40222
G1 X15.673 Y123.540 E26.44045
G1 X15.623 Y122.597 E26.48799
G1 X15.644 Y121.815 E26.52742
G1 X15.714 Y121.071 E26.56505
G1 X29.344 Y21.704 E31.61737
G1 X29.488 Y20.994 E31.65385
G1 X29.649 Y20.440 E31.68289
G1 X29.849 Y19.902 E31.71181
G1 X30.013 Y19.531 E31.73223
G1 X30.350 Y18.891 E31.76868
G1 E25.76868 F1800.00000
G92 E0
G1 X73.594 Y108.015 F9000.000
G1 E6.00000 F1800.00000
G1 X73.621 Y108.223 E6.01057 F600.000
G1 X73.594 Y108.425 E6.02084
G1 X73.500 Y108.606 E6.03111
G1 X73.347 Y108.741 E6.04137
G1 X73.159 Y108.826 E6.05177
G1 X72.939 Y108.873 E6.06310
G1 X72.434 Y108.874 E6.08854
G1 X71.786 Y108.774 E6.12156
G1 X71.456 Y108.693 E6.13869
G1 X71.394 Y108.905 E6.14986
G1 X72.023 Y109.119 E6.18332
G1 X72.733 Y109.391 E6.22162
G1 X73.367 Y109.668 E6.25648
G1 X74.159 Y110.086 E6.30161
G1 X74.581 Y110.371 E6.32726
G1 X74.766 Y110.521 E6.33924
G1 X75.049 Y110.811 E6.35964
G1 X75.166 Y110.978 E6.36994
G1 X75.295 Y111.291 E6.38698
G1 X75.314 Y111.468 E6.39595
G1 X75.302 Y111.706 E6.40797
G1 X75.261 Y111.921 E6.41899
G1 X75.182 Y112.119 E6.42974
G1 X75.057 Y112.293 E6.44053
G1 X74.885 Y112.429 E6.45154
G1 X74.677 Y112.523 E6.46305
G1 X74.436 Y112.579 E6.47551
G1 X74.156 Y112.603 E6.48967
G1 X73.486 Y112.567 E6.52347
G1 X73.068 Y112.509 E6.54475
G1 X72.070 Y112.319 E6.59592
G1 X68.786 Y111.540 E6.76592
G1 X67.517 Y111.276 E6.83124
G1 X66.271 Y111.056 E6.89496
G1 X65.051 Y110.879 E6.95706
G1 X63.858 Y110.745 E7.01751
G1 X62.696 Y110.655 E7.07625
G1 X61.565 Y110.607 E7.13327
G1 X60.468 Y110.602 E7.18854
G1 X59.406 Y110.641 E7.24205
G1 X58.382 Y110.722 E7.29377
G1 X57.398 Y110.845 E7.34373
G1 X56.456 Y111.011 E7.39192
G1 X55.558 Y111.219 E7.43837
G1 X54.705 Y111.470 E7.48313
G1 X53.901 Y111.762 E7.52626
G1 X53.082 Y112.124 E7.57134
G1 X50.317 Y111.810 E7.71151
G1 X49.884 Y111.248 E7.74722
G1 X49.644 Y110.902 E7.76847
G1 X49.411 Y110.508 E7.79151
G1 X49.230 Y110.130 E7.81263
G1 X49.101 Y109.766 E7.83205
G1 X49.026 Y109.412 E7.85032
G1 X49.021 Y108.987 E7.87170
G1 X49.051 Y108.758 E7.88336
G1 X49.155 Y108.456 E7.89944
G1 X49.318 Y108.178 E7.91566
G1 X49.538 Y107.926 E7.93252
G1 X49.857 Y107.676 E7.95294
G1 X50.130 Y107.510 E7.96901
G1 X50.500 Y107.339 E7.98957
G1 X50.921 Y107.190 E8.01208
G1 X51.608 Y107.016 E8.04775
G1 X52.400 Y106.898 E8.08808
G1 X53.031 Y106.838 E8.12001
G1 X54.485 Y106.760 E8.19337
G1 X55.430 Y106.740 E8.24099
G1 X57.027 Y106.742 E8.32144
G1 X58.845 Y106.795 E8.41304
G1 X60.670 Y106.899 E8.50511
G1 X62.423 Y107.052 E8.59373
G1 X64.024 Y107.253 E8.67502
G1 X66.351 Y107.648 E8.79393
G1 X67.446 Y107.867 E8.85018
G1 X69.539 Y108.358 E8.95848
G1 X69.598 Y108.143 E8.96972
G1 X68.221 Y107.713 E9.04238
G1 X66.434 Y107.222 E9.13574
G1 X64.672 Y106.809 E9.22690
G1 X62.920 Y106.472 E9.31674
G1 X61.165 Y106.210 E9.40614
G1 X59.391 Y106.019 E9.49601
G1 X57.585 Y105.896 E9.58721
G1 X55.700 Y105.840 E9.68220
G1 X50.030 Y104.256 E9.97874
G1 X49.604 Y103.252 E10.03368
G1 X49.384 Y102.565 E10.06998
G1 X49.331 Y102.178 E10.08969
G1 X49.362 Y101.830 E10.10728
G1 X49.482 Y101.515 E10.12425
G1 X49.678 Y101.227 E10.14178
G1 X49.943 Y100.938 E10.16154
G1 X50.151 Y100.768 E10.17509
G1 X50.404 Y100.624 E10.18974
G1 X50.695 Y100.510 E10.20548
G1 X51.023 Y100.423 E10.22256
G1 X51.389 Y100.361 E10.24129
G1 X51.864 Y100.321 E10.26528
G1 X52.714 Y100.319 E10.30809
G1 X53.240 Y100.352 E10.33463
G1 X54.402 Y100.484 E10.39355
G1 X55.728 Y100.706 E10.46131
G1 X57.218 Y101.019 E10.53801
G1 X59.462 Y101.572 E10.65440
G1 X62.232 Y102.345 E10.79926
G1 X63.554 Y102.751 E10.86894
G1 X66.029 Y103.584 E11.00049
G1 X67.173 Y104.007 E11.06193
G1 X68.243 Y104.431 E11.11991
G1 X69.235 Y104.852 E11.17418
G1 X70.557 Y105.474 E11.24777
G1 X71.665 Y106.077 E11.31129
G1 X72.534 Y106.652 E11.36384
G1 X72.974 Y107.021 E11.39276
G1 X73.158 Y107.210 E11.40604
G1 X73.411 Y107.561 E11.42784
G1 X73.524 Y107.799 E11.44110
G1 X73.576 Y107.958 E11.44950
G1 X73.792 Y108.083 F9000.000
G1 E5.44950 F1800.00000
G92 E0
G1 X51.450 Y99.582 F9000.000
G1 E6.00000 F1800.00000
G1 X50.859 Y99.668 E6.03009 F600.000
G1 X50.454 Y99.776 E6.05120
G1 X50.071 Y99.926 E6.07192
G1 X49.712 Y100.130 E6.09270
G1 X49.411 Y100.377 E6.11234
G1 X49.072 Y100.747 E6.13764
G1 X48.768 Y101.194 E6.16482
G1 X48.601 Y101.136 E6.17372
G1 X48.645 Y100.458 E6.20795
G1 X48.682 Y100.269 E6.21766
G1 X48.767 Y100.110 E6.22671
G1 X48.857 Y100.031 E6.23277
G1 X49.044 Y99.923 E6.24367
G1 X49.353 Y99.794 E6.26049
G1 X50.200 Y99.523 E6.30529
G1 X50.500 Y99.382 E6.32198
G1 X50.866 Y99.094 E6.34547
G1 X51.169 Y99.276 E6.36331
G1 X51.478 Y99.402 E6.38008
G1 X51.459 Y99.523 E6.38626
G1 X50.884 Y98.589 F9000.000
G1 X51.056 Y98.758 E6.39844 F600.000
G1 X51.342 Y98.930 E6.41526
G1 X51.978 Y99.189 E6.44984
G1 X52.788 Y99.420 E6.49224
G1 X55.612 Y99.977 E6.63724
G1 X57.727 Y100.499 E6.74697
G1 X58.072 Y100.598 E6.76507
G1 X58.013 Y100.818 E6.77650
G1 X57.304 Y100.643 E6.81330
G1 X55.800 Y100.327 E6.89073
G1 X54.455 Y100.102 E6.95940
G1 X53.273 Y99.967 E7.01933
G1 X52.725 Y99.934 E7.04700
G1 X51.847 Y99.936 E7.09122
G1 X51.341 Y99.978 E7.11681
G1 X50.941 Y100.046 E7.13724
G1 X50.574 Y100.143 E7.15634
G1 X50.238 Y100.275 E7.17457
G1 X49.932 Y100.449 E7.19228
G1 X49.677 Y100.658 E7.20888
G1 X49.375 Y100.987 E7.23141
G1 X49.138 Y101.336 E7.25263
G1 X48.983 Y101.742 E7.27454
G1 X48.943 Y102.187 E7.29702
G1 X49.007 Y102.651 E7.32063
G1 X49.160 Y103.131 E7.34600
G1 X48.972 Y103.216 E7.35640
G1 X48.657 Y102.608 E7.39087
G1 X48.622 Y102.511 E7.39607
G1 X48.587 Y102.262 E7.40873
G1 X48.439 Y101.900 E7.42844
G1 X48.040 Y101.513 E7.45641
G1 X48.157 Y101.313 E7.46811
G1 X48.219 Y101.074 E7.48053
G1 X48.262 Y100.408 E7.51411
G1 X48.311 Y100.158 E7.52698
G1 X48.382 Y99.984 E7.53644
G1 X48.480 Y99.848 E7.54485
G1 X48.632 Y99.716 E7.55501
G1 X48.872 Y99.577 E7.56902
G1 X49.219 Y99.432 E7.58795
G1 X50.058 Y99.164 E7.63231
G1 X50.296 Y99.052 E7.64552
G1 X50.837 Y98.626 E7.68022
G1 X50.559 Y97.968 F9000.000
G1 X49.867 Y97.790 E7.71624 F600.000
G1 X49.081 Y97.739 E7.75590
G1 X48.342 Y97.729 E7.79314
G1 X48.305 Y97.545 E7.80261
G1 X50.419 Y96.650 E7.91822
G1 X50.394 Y96.932 E7.93246
G1 X50.434 Y97.473 E7.95978
G1 X50.544 Y97.910 E7.98247
G1 X50.932 Y97.869 F9000.000
G1 X50.816 Y97.411 E8.00629 F600.000
G1 X50.781 Y96.935 E8.03033
G1 X50.823 Y96.458 E8.05444
G1 X50.939 Y95.998 E8.07836
G1 X51.127 Y95.570 E8.10187
G1 X51.386 Y95.194 E8.12490
G1 X51.710 Y94.899 E8.14700
G1 X52.134 Y94.626 E8.17239
G1 X52.540 Y94.437 E8.19493
G1 X52.765 Y94.372 E8.20672
G1 X53.036 Y94.329 E8.22057
G1 X53.499 Y94.325 E8.24387 F600.000
G1 X53.791 Y94.358 E8.25870
G1 X54.111 Y94.413 E8.27502
G1 X54.855 Y94.592 E8.31360
G1 X56.960 Y95.235 E8.42447
G1 X58.530 Y95.802 E8.50856
G1 X60.428 Y96.582 E8.61192
G1 X62.524 Y97.510 E8.72737
G1 X65.749 Y99.041 E8.90722
G1 X67.765 Y100.065 E9.02111
G1 X69.520 Y101.016 E9.12164
G1 X70.588 Y101.646 E9.18412
G1 X71.383 Y102.176 E9.23224
G1 X72.288 Y102.892 E9.29038
G1 X72.732 Y103.311 E9.32113
G1 X72.915 Y103.516 E9.33494
G1 X73.176 Y103.891 E9.35801
G1 X73.268 Y104.087 E9.36892
G1 X73.327 Y104.279 E9.37903
G1 X73.351 Y104.472 E9.38882
G1 X73.341 Y104.663 E9.39846
G1 X73.298 Y104.850 E9.40810
G1 X73.221 Y105.035 E9.41820
G1 X72.998 Y105.366 E9.43832
G1 X72.815 Y105.559 E9.45171
G1 X72.601 Y105.697 E9.46455
G1 X72.352 Y105.756 E9.47743
G1 X72.196 Y105.752 E9.48530
G1 X71.902 Y105.689 E9.50044
G1 X71.359 Y105.464 E9.53003
G1 X69.529 Y104.482 E9.63466
G1 X68.661 Y104.051 E9.68348
G1 X67.725 Y103.617 E9.73542
G1 X65.684 Y102.752 E9.84710
G1 X64.603 Y102.329 E9.90557
G1 X62.358 Y101.517 E10.02585
G1 X60.073 Y100.774 E10.14687
G1 X57.826 Y100.126 E10.26465
G1 X55.695 Y99.600 E10.37522
G1 X52.878 Y99.044 E10.51987
G1 X52.104 Y98.824 E10.56040
G1 X51.515 Y98.584 E10.59242
G1 X51.294 Y98.451 E10.60544
G1 X51.142 Y98.302 E10.61617
G1 X50.958 Y97.923 E10.63736
G1 X50.541 Y97.787 F9000.000
G1 E4.63736 F1800.00000
G92 E0
G1 X54.147 Y93.707 F9000.000
G1 E6.00000 F1800.00000
G1 X54.178 Y93.399 E6.01557 F600.000
G1 X54.390 Y93.588 E6.02983
G1 X54.669 Y93.750 E6.04613
G1 X56.160 Y94.355 E6.12715
G1 X56.086 Y94.565 E6.13834
G1 X54.957 Y94.219 E6.19782
G1 X54.189 Y94.035 E6.23761
G1 X53.518 Y93.939 E6.27172
G1 X53.005 Y93.944 E6.29759
G1 X52.681 Y93.995 E6.31411
G1 X52.404 Y94.075 E6.32863
G1 X51.947 Y94.287 E6.35398
G1 X51.474 Y94.592 E6.38234
G1 X51.335 Y94.719 E6.39185
G1 X51.188 Y94.635 E6.40035
G1 X51.278 Y94.216 E6.42192
G1 X51.482 Y93.516 E6.45865
G1 X51.443 Y93.146 E6.47742
G1 X53.402 Y93.635 E6.57915
G1 X54.087 Y93.701 E6.61384
G1 E0.61384 F1800.00000
G92 E0
G1 X70.189 Y100.283 F9000.000
G1 E6.00000 F1800.00000
G1 X69.961 Y100.423 E6.01348 F600.000
G1 X69.650 Y100.431 E6.02917
G1 X69.415 Y100.376 E6.04131
G1 X69.164 Y100.286 E6.05472
G1 X68.885 Y100.158 E6.07022
G1 X67.371 Y99.273 E6.15856
G1 X66.204 Y98.629 E6.22569
G1 X64.844 Y97.913 E6.30310
G1 X61.877 Y96.428 E6.47023
G1 X60.440 Y95.744 E6.55039
G1 X59.145 Y95.155 E6.62207
G1 X58.074 Y94.702 E6.68063
G1 X55.113 Y93.524 E6.84118
G1 X54.844 Y93.406 E6.85596
G1 X54.617 Y93.274 E6.86918
G1 X54.433 Y93.110 E6.88159
G1 X54.305 Y92.904 E6.89382
G1 X54.240 Y92.664 E6.90633
G1 X54.230 Y92.393 E6.91999
G1 X54.322 Y91.746 E6.95293
G1 X54.437 Y91.264 E6.97790
G1 X54.581 Y90.836 E7.00065
G1 X54.756 Y90.458 E7.02161
G1 X54.968 Y90.133 E7.04119
G1 X55.220 Y89.861 E7.05983
G1 X55.513 Y89.648 E7.07807
G1 X55.846 Y89.496 E7.09654
G1 X56.271 Y89.405 E7.11839
G1 X56.609 Y89.383 E7.13549
G1 X57.041 Y89.414 E7.15732
G1 X57.509 Y89.500 E7.18125
G1 X58.014 Y89.640 E7.20766
G1 X58.560 Y89.833 E7.23682
G1 X59.149 Y90.079 E7.26897
G1 X59.784 Y90.375 E7.30428
G1 X60.468 Y90.725 E7.34297
G1 X61.337 Y91.212 E7.39315
G1 X62.225 Y91.764 E7.44585
G1 X63.122 Y92.369 E7.50031
G1 X64.015 Y93.015 E7.55584
G1 X64.892 Y93.692 E7.61167
G1 X65.743 Y94.389 E7.66707
G1 X66.556 Y95.094 E7.72127
G1 X67.320 Y95.797 E7.77354
G1 X68.023 Y96.487 E7.82317
G1 X68.936 Y97.473 E7.89088
G1 X69.648 Y98.370 E7.94855
G1 X69.992 Y98.905 E7.98059
G1 X70.126 Y99.160 E7.99512
G1 X70.287 Y99.605 E8.01898
G1 X70.317 Y99.826 E8.03021
G1 X70.299 Y100.038 E8.04093
G1 X70.214 Y100.229 E8.05143
G1 X70.249 Y100.544 F9000.000
G1 E2.05143 F1800.00000
G92 E0
G1 X53.716 Y90.988 F9000.000
G1 E6.00000 F1800.00000
G1 X52.950 Y89.594 E6.08014 F600.000
G1 X53.312 Y89.700 E6.09914
G1 X53.804 Y89.702 E6.12396
G1 X54.310 Y89.421 E6.15310
G1 X54.432 Y89.577 E6.16305
G1 X54.358 Y89.657 E6.16853
G1 X54.080 Y90.083 E6.19417
G1 X53.863 Y90.549 E6.22008
G1 X53.735 Y90.931 E6.24036
G1 X54.403 Y89.279 F9000.000
G1 X54.611 Y89.021 E6.25703 F600.000
G1 X55.058 Y88.264 E6.30135
G1 X54.466 Y86.966 E6.37320
G1 X56.124 Y87.691 E6.46433
G1 X57.017 Y88.045 E6.51270
G1 X58.301 Y88.433 E6.58028
G1 X58.477 Y88.616 E6.59308
G1 X58.821 Y88.907 E6.61578
G1 X58.725 Y89.074 E6.62550
G1 X58.246 Y88.904 E6.65112
G1 X57.682 Y88.748 E6.68057
G1 X57.140 Y88.648 E6.70838
G1 X56.611 Y88.610 E6.73507
G1 X56.164 Y88.640 E6.75767
G1 X55.603 Y88.759 E6.78654
G1 X55.122 Y88.979 E6.81317
G1 X54.705 Y89.282 E6.83912
G1 X54.572 Y89.425 E6.84898
G1 X54.449 Y89.318 E6.85722
G1 X53.705 Y89.316 F9000.000
G1 X54.018 Y89.143 E6.87524 F600.000
G1 X54.293 Y88.801 E6.89732
G1 X54.624 Y88.241 E6.93010
G1 X53.697 Y86.208 E7.04263
G1 X56.272 Y87.335 E7.18421
G1 X57.143 Y87.680 E7.23143
G1 X58.267 Y88.020 E7.29055
G1 X58.273 Y87.847 E7.29926
G1 X58.741 Y88.334 E7.33330
G1 X59.114 Y88.649 E7.35790
G1 X60.948 Y89.927 E7.47047
G1 X61.975 Y90.709 E7.53552
G1 X63.085 Y91.612 E7.60761
G1 X62.953 Y91.790 E7.61875
G1 X62.435 Y91.441 E7.65025
G1 X61.533 Y90.880 E7.70375
G1 X60.650 Y90.385 E7.75474
G1 X59.953 Y90.029 E7.79415
G1 X59.305 Y89.726 E7.83022
G1 X58.698 Y89.473 E7.86331
G1 X58.130 Y89.272 E7.89367
G1 X57.596 Y89.124 E7.92160
G1 X57.091 Y89.031 E7.94747
G1 X56.610 Y88.996 E7.97173
G1 X56.217 Y89.022 E7.99158
G1 X55.725 Y89.128 E8.01694
G1 X55.317 Y89.313 E8.03949
G1 X54.963 Y89.571 E8.06158
G1 X54.663 Y89.895 E8.08378
G1 X54.418 Y90.271 E8.10639
G1 X54.222 Y90.692 E8.12982
G1 X54.066 Y91.158 E8.15453
G1 X53.920 Y91.832 E8.18928
G1 X53.756 Y91.862 E8.19768
G1 X52.162 Y88.961 E8.36444
G1 X53.368 Y89.315 E8.42776
G1 X53.645 Y89.316 E8.44173
G1 E2.44173 F1800.00000
G92 E0
G1 X66.851 Y93.809 F9000.000
G1 E6.00000 F1800.00000
G1 X66.629 Y93.840 E6.01127 F600.000
G1 X66.458 Y93.793 E6.02024
G1 X66.224 Y93.676 E6.03340
G1 X65.792 Y93.392 E6.05946
G1 X65.443 Y93.132 E6.08135
G1 X64.655 Y92.482 E6.13282
G1 X63.274 Y91.269 E6.22543
G1 X62.213 Y90.406 E6.29428
G1 X61.175 Y89.615 E6.36005
G1 X59.349 Y88.343 E6.47214
G1 X59.005 Y88.053 E6.49481
G1 X58.737 Y87.774 E6.51430
G1 X58.538 Y87.491 E6.53174
G1 X58.404 Y87.196 E6.54805
G1 X58.332 Y86.887 E6.56405
G1 X58.311 Y86.564 E6.58035
G1 X58.321 Y86.124 E6.60251
G1 X58.352 Y85.732 E6.62232
G1 X58.405 Y85.382 E6.64016
G1 X58.482 Y85.072 E6.65625
G1 X58.587 Y84.801 E6.67088
G1 X58.724 Y84.569 E6.68443
G1 X58.897 Y84.381 E6.69732
G1 X59.110 Y84.241 E6.71014
G1 X59.382 Y84.161 E6.72445
G1 X59.603 Y84.142 E6.73564
G1 X59.877 Y84.172 E6.74950
G1 X60.166 Y84.250 E6.76458
G1 X60.474 Y84.371 E6.78123
G1 X60.805 Y84.536 E6.79987
G1 X61.534 Y84.988 E6.84309
G1 X61.919 Y85.296 E6.86795
G1 X62.342 Y85.709 E6.89773
