; generated by Slic3r 1.2.9 on 2017-05-16 at 20:27:59

; external perimeters extrusion width = 0.40mm
; perimeters extrusion width = 0.56mm
; infill extrusion width = 0.38mm
; solid infill extrusion width = 0.56mm
; top infill extrusion width = 0.22mm

M106 S256; Turn on fan to 100% power
M104 S140; turn on extruder temperature at S value
M140 S60; turn on bed temperature at S value
G28; home all axes
M84; disable motors
G1 Z15 F15000; have Z move to 20mm at 15000 mm/min
M190 S55; turn on bed temperature at S value and wait
M140 S55; turn on bed temperature at S value (printing temperature)
M109 S200; turn on extruder temperature at S value and wait (printing temperature)
M104 S200; turn on extruder temperature at S value
G1 Z0 F12000; move Z back to home
G21 ; set units to millimeters
G90 ; use absolute coordinates
M82 ; use absolute distances for extrusion
G92 E0
M106 S255
;Layer change
G1 E-6.00000 F1800.00000
G92 E0
G1 Z0.300 F9000.000
G1 X42.936 Y32.916 F9000.000
G1 E6.00000 F1800.00000
G1 X43.242 Y32.537 E6.02479 F600.000
G1 X43.573 Y32.180 E6.04963
G1 X43.930 Y31.845 E6.07459
G1 X44.312 Y31.534 E6.09969
G1 X52.522 Y25.424 E6.62129
G1 X53.106 Y25.039 E6.65695
G1 X57.500 Y22.612 E6.91280
G1 X58.090 Y22.320 E6.94631
G1 X58.662 Y22.129 E6.97708
G1 X63.735 Y20.954 E7.24249
G1 X64.425 Y20.842 E7.27807
G1 X64.979 Y20.807 E7.30638
G1 X65.359 Y20.809 E7.32575
G1 X66.095 Y20.865 E7.36338 F600.000
G1 X66.658 Y20.956 E7.39244
G1 X67.049 Y21.043 E7.41287
G1 X67.817 Y21.281 E7.45384
G1 X68.274 Y21.485 E7.47936
G1 X68.703 Y21.737 E7.50468
G1 X69.097 Y22.028 E7.52964
G1 X69.286 Y22.192 E7.54245
G1 X69.634 Y22.541 E7.56754
G1 X70.052 Y23.064 E7.60168
G1 X148.806 Y139.470 E14.76481
G1 X149.075 Y139.996 E14.79494
G1 X149.202 Y140.522 E14.82249
G1 X149.209 Y141.064 E14.85015
G1 X149.111 Y141.572 E14.87649
G1 X148.880 Y142.125 E14.90705
G1 X148.552 Y142.612 E14.93696
G1 X148.354 Y142.834 E14.95213
G1 X148.076 Y143.098 E14.97168
G1 X147.518 Y143.520 E15.00733
G1 X147.011 Y143.829 E15.03758
G1 X146.405 Y144.138 E15.07229
G1 X145.568 Y144.488 E15.11851
G1 X144.837 Y144.727 E15.15769
G1 X144.130 Y144.901 E15.19482
G1 X143.529 Y145.012 E15.22595
G1 X55.582 Y159.151 E19.76594
G1 X55.327 Y159.178 E19.77899
G1 X54.830 Y159.189 E19.80436
G1 X54.597 Y159.175 E19.81623
G1 X54.315 Y159.141 E19.83073
G1 X53.817 Y159.034 E19.85666
G1 X53.345 Y158.876 E19.88204
G1 X53.123 Y158.780 E19.89437
G1 X52.495 Y158.434 E19.93091
G1 X52.135 Y158.178 E19.95344
G1 X43.091 Y150.908 E20.54483
G1 X42.674 Y150.528 E20.57360
G1 X42.362 Y150.167 E20.59791
G1 X42.112 Y149.811 E20.62006
G1 X36.420 Y140.396 E21.18083
G1 X36.171 Y139.957 E21.20655
G1 X35.975 Y139.517 E21.23109
G1 X35.875 Y139.243 E21.24595
G1 X35.703 Y138.643 E21.27778
G1 X31.007 Y117.639 E22.37473
G1 X30.910 Y117.174 E22.39891
G1 X30.823 Y116.542 E22.43142
G1 X30.779 Y115.725 E22.47315
G1 X30.798 Y115.072 E22.50643
G1 X30.856 Y114.462 E22.53769
G1 X41.616 Y36.013 E26.57343
G1 X41.702 Y35.561 E26.59689
G1 X41.829 Y35.081 E26.62223
G1 X42.053 Y34.456 E26.65602
G1 X42.405 Y33.730 E26.69717
G1 X42.656 Y33.313 E26.72197
G1 X42.901 Y32.964 E26.74369
G1 E20.74369 F1800.00000
G92 E0
G1 X55.462 Y153.808 F9000.000
G1 E6.00000 F1800.00000
G1 X55.381 Y154.846 E6.05306 F600.000
G1 X55.328 Y155.192 E6.07089
G1 X55.268 Y155.462 E6.08499
G1 X55.140 Y155.801 E6.10346
G1 X54.859 Y155.802 E6.11774
G1 X54.627 Y155.746 E6.12992
G1 X54.524 Y155.702 E6.13564
G1 X54.227 Y155.517 E6.15348
G1 X53.925 Y155.250 E6.17403
G1 X53.599 Y154.868 E6.19962
G1 X53.293 Y154.402 E6.22802
G1 X53.922 Y154.486 E6.26033
G1 X54.451 Y154.399 E6.28767
G1 X54.923 Y154.189 E6.31398
G1 X55.413 Y153.843 E6.34457
G1 X55.884 Y152.971 F9000.000
G1 X55.831 Y154.194 E6.40695 F600.000
G1 X55.764 Y154.894 E6.44280
G1 X55.641 Y155.563 E6.47746
G1 X55.569 Y155.790 E6.48964
G1 X55.430 Y156.047 E6.50452
G1 X55.321 Y156.138 E6.51176
G1 X55.131 Y156.187 E6.52176
G1 X54.813 Y156.186 E6.53795
G1 X54.655 Y156.157 E6.54616
G1 X54.345 Y156.045 E6.56293
G1 X53.995 Y155.827 E6.58393
G1 X53.649 Y155.520 E6.60751
G1 X53.295 Y155.106 E6.63531
G1 X53.131 Y154.877 E6.64966
G1 X52.787 Y154.312 E6.68335
G1 X52.461 Y153.661 E6.72047
G1 X52.366 Y153.431 E6.73315
G1 X52.534 Y153.328 E6.74322
G1 X52.763 Y153.595 E6.76113
G1 X53.098 Y153.862 E6.78299
G1 X53.488 Y154.039 E6.80483
G1 X53.916 Y154.096 E6.82682
G1 X54.339 Y154.027 E6.84870
G1 X54.731 Y153.853 E6.87055
G1 X55.091 Y153.598 E6.89298
G1 X55.432 Y153.273 E6.91700
G1 X55.729 Y152.911 E6.94086
G1 X55.828 Y152.949 E6.94630
G1 E0.94630 F1800.00000
G92 E0
G1 X50.480 Y144.480 F9000.000
G1 E6.00000 F1800.00000
G1 X49.651 Y142.834 E6.09395 F600.000
G1 X50.178 Y141.307 E6.17629
G1 X50.678 Y139.693 E6.26238
G1 X50.883 Y139.735 E6.27307
G1 X50.744 Y141.296 E6.35292
G1 X50.671 Y142.880 E6.43375
G1 X50.657 Y144.439 E6.51321
G1 X50.538 Y144.467 E6.51943
G1 E0.51943 F1800.00000
G92 E0
G1 X56.069 Y150.852 F9000.000
G1 E6.00000 F1800.00000
G1 X56.286 Y150.867 E6.01110 F600.000
G1 X56.269 Y152.999 E6.11981
G1 X56.216 Y154.220 E6.18209
G1 X56.147 Y154.941 E6.21902
G1 X56.014 Y155.663 E6.25642
G1 X55.929 Y155.930 E6.27067
G1 X55.834 Y156.138 E6.28233
G1 X55.730 Y156.293 E6.29185
G1 X55.618 Y156.405 E6.29991
G1 X55.494 Y156.484 E6.30741
G1 X55.350 Y156.539 E6.31529
G1 X55.177 Y156.571 E6.32427
G1 X54.974 Y156.582 E6.33464
G1 X54.564 Y156.533 E6.35566
G1 X54.167 Y156.388 E6.37721
G1 X53.764 Y156.138 E6.40136
G1 X53.373 Y155.791 E6.42798
G1 X52.991 Y155.344 E6.45799
G1 X52.809 Y155.090 E6.47391
G1 X52.449 Y154.499 E6.50914
G1 X52.110 Y153.821 E6.54777
G1 X51.792 Y153.058 E6.58993
G1 X51.498 Y152.213 E6.63554
G1 X51.230 Y151.291 E6.68447
G1 X50.879 Y149.767 E6.76415
G1 X50.683 Y148.669 E6.82101
G1 X50.518 Y147.506 E6.88088
G1 X50.387 Y146.283 E6.94356
G1 X50.288 Y144.957 E7.01136
G1 X49.233 Y142.862 E7.13091
G1 X49.812 Y141.187 E7.22123
G1 X50.399 Y139.289 E7.32245
G1 X51.437 Y135.660 E7.51487
G1 X51.932 Y134.158 E7.59544
G1 X52.491 Y132.637 E7.67803
G1 X53.209 Y130.878 E7.77489
G1 X53.419 Y130.965 E7.78643
G1 X53.023 Y132.058 E7.84571
G1 X52.530 Y133.627 E7.92952
G1 X52.086 Y135.269 E8.01621
G1 X51.683 Y137.009 E8.10728
G1 X51.556 Y137.652 E8.14065
G1 X51.343 Y139.042 E8.21234
G1 X51.186 Y140.541 E8.28915
G1 X51.129 Y141.319 E8.32889
G1 X51.056 Y142.890 E8.40908
G1 X51.042 Y144.452 E8.48869
G1 X51.088 Y145.956 E8.56536
G1 X51.194 Y147.354 E8.63684
G1 X51.364 Y148.599 E8.70087
G1 X51.685 Y150.180 E8.78309
G1 X51.951 Y151.172 E8.83545
G1 X52.142 Y151.744 E8.86619
G1 X52.345 Y152.246 E8.89375
G1 X52.666 Y152.853 E8.92876
G1 X52.788 Y153.031 E8.93977
G1 X53.032 Y153.316 E8.95887
G1 X53.301 Y153.531 E8.97642
G1 X53.596 Y153.664 E8.99293
G1 X53.910 Y153.706 E9.00909
G1 X54.228 Y153.654 E9.02552
G1 X54.540 Y153.516 E9.04290
G1 X54.845 Y153.300 E9.06194
G1 X55.148 Y153.010 E9.08333
G1 X55.538 Y152.536 E9.11462
G1 X55.734 Y152.216 E9.13373
G1 X55.885 Y151.850 E9.15393
G1 X55.998 Y151.402 E9.17748
G1 X56.061 Y150.911 E9.20269
G1 X56.247 Y150.977 F9000.000
G1 E3.20269 F1800.00000
G92 E0
G1 X53.400 Y130.713 F9000.000
G1 E6.00000 F1800.00000
G1 X53.863 Y129.602 E6.06139 F600.000
G1 X54.576 Y128.059 E6.14798
G1 X55.347 Y126.528 E6.23535
G1 X56.505 Y124.420 E6.35793
G1 X61.083 Y121.843 F9000.000
G1 X62.828 Y119.305 E6.51489 F600.000
G1 X63.559 Y118.276 E6.57922
G1 X64.150 Y118.587 F9000.000
G1 X62.652 Y122.148 E6.77611 F600.000
G1 X61.829 Y124.253 E6.89129
G1 X61.064 Y126.351 E7.00511
G1 X60.361 Y128.423 E7.11664
G1 X59.714 Y130.472 E7.22613
G1 X59.122 Y132.495 E7.33357
G1 X58.583 Y134.490 E7.43893
G1 X58.099 Y136.451 E7.54188
G1 X57.665 Y138.395 E7.64336
G1 X57.285 Y140.300 E7.74240
G1 X56.961 Y142.167 E7.83894
G1 X56.771 Y143.430 E7.90407
G1 X56.565 Y145.052 E7.98740
G1 X56.414 Y146.584 E8.06583
G1 X56.292 Y148.456 E8.16147
G1 X56.198 Y150.635 E8.27262
G1 E2.27262 F1800.00000
G92 E0
G1 X48.830 Y144.142 F9000.000
G1 E6.00000 F1800.00000
G1 X49.149 Y143.195 E6.05095 F600.000
G1 E0.05095 F1800.00000
G92 E0
G1 X69.270 Y134.035 F9000.000
G1 E6.00000 F1800.00000
G1 X68.876 Y133.265 E6.04409 F600.000
G1 X68.622 Y132.701 E6.07561
G1 X68.242 Y131.717 E6.12939
G1 X67.953 Y130.836 E6.17666
G1 X67.455 Y129.029 E6.27217
G1 X67.284 Y128.295 E6.31057
G1 X66.967 Y126.753 E6.39082
G1 X66.568 Y124.295 E6.51776
G1 X66.355 Y122.568 E6.60641
G1 X66.240 Y121.467 E6.66284
G1 X65.950 Y117.872 E6.84668
G1 X66.116 Y116.636 F9000.000
G1 X65.847 Y115.916 E6.88585 F600.000
G1 X66.712 Y114.910 E6.95347
G1 X66.880 Y115.021 E6.96370
G1 X66.142 Y116.582 E7.05171
G1 X65.495 Y116.074 F9000.000
G1 X65.021 Y116.873 E7.09903 F600.000
G1 X64.644 Y117.662 E7.14365
G1 X64.312 Y118.418 E7.18571
G1 X63.652 Y118.071 E7.22369
G1 X64.250 Y117.272 E7.27451
G1 X65.326 Y115.941 E7.36177
G1 X65.487 Y116.054 E7.37184
G1 X65.408 Y115.842 E7.38341
G1 X65.926 Y115.217 E7.42478
G1 X67.056 Y113.940 E7.51169
G1 X68.146 Y112.789 E7.59248
G1 X68.309 Y112.901 E7.60254
G1 X66.058 Y117.661 E7.87092
G1 X65.887 Y117.634 E7.87974
G1 X65.810 Y117.058 E7.90938
G1 X65.747 Y116.749 E7.92542
G1 X65.516 Y116.130 E7.95910
G1 X65.205 Y115.798 F9000.000
G1 E1.95910 F1800.00000
G92 E0
G1 X69.701 Y110.516 F9000.000
G1 E6.00000 F1800.00000
G1 X68.932 Y110.659 E6.03986 F600.000
G1 X68.296 Y110.820 E6.07329
G1 X67.260 Y111.121 E6.12827
G1 X65.949 Y111.563 E6.19880
G1 X64.204 Y112.241 E6.29422
G1 X63.134 Y112.720 E6.35398
G1 X62.372 Y113.091 E6.39719
G1 E0.39719 F1800.00000
G92 E0
G1 X57.754 Y109.364 F9000.000
G1 E6.00000 F1800.00000
G1 X57.051 Y109.689 E6.03950 F600.000
G1 X56.332 Y110.055 E6.08061
G1 X54.902 Y110.830 E6.16349
G1 E0.16349 F1800.00000
G92 E0
G1 X56.462 Y115.698 F9000.000
G1 E6.00000 F1800.00000
G1 X55.728 Y116.562 E6.05775 F600.000
G1 X54.984 Y117.479 E6.11799
G1 E0.11799 F1800.00000
G92 E0
G1 X48.917 Y106.403 F9000.000
G1 E6.00000 F1800.00000
G1 X50.294 Y105.801 E6.07659 F600.000
G1 X51.431 Y105.379 E6.13838
G1 X52.020 Y105.183 E6.17006
G1 X53.051 Y104.876 E6.22487
G1 X54.246 Y104.566 E6.28779
G1 X55.649 Y104.274 E6.36084
G1 E0.36084 F1800.00000
G92 E0
G1 X54.133 Y99.630 F9000.000
G1 E6.00000 F1800.00000
G1 X56.010 Y99.340 E6.09679 F600.000
G1 E0.09679 F1800.00000
G92 E0
G1 X57.596 Y91.823 F9000.000
G1 E6.00000 F1800.00000
G1 X58.581 Y92.026 E6.05126 F600.000
G1 X58.909 Y92.122 E6.06869
G1 E0.06869 F1800.00000
G92 E0
G1 X60.539 Y86.413 F9000.000
G1 E6.00000 F1800.00000
G1 X59.032 Y85.883 E6.08144 F600.000
G1 E0.08144 F1800.00000
G92 E0
G1 X74.397 Y98.151 F9000.000
G1 E6.00000 F1800.00000
G1 X74.194 Y98.276 E6.01217 F600.000
G1 X73.922 Y98.282 E6.02604
G1 X73.538 Y98.167 E6.04643
G1 X73.308 Y98.061 E6.05934
G1 X72.111 Y97.362 E6.12999
G1 X71.191 Y96.854 E6.18356
G1 X70.119 Y96.289 E6.24535
G1 X67.778 Y95.117 E6.37875
G1 X65.621 Y94.113 E6.50004
G1 X64.777 Y93.756 E6.54671
G1 X62.434 Y92.823 E6.67527
G1 X62.044 Y92.628 E6.69751
G1 X61.885 Y92.486 E6.70837
G1 X61.776 Y92.312 E6.71885
G1 X61.721 Y92.110 E6.72948
G1 X61.713 Y91.887 E6.74087
G1 X61.787 Y91.369 E6.76751
G1 X61.879 Y90.985 E6.78768
G1 X61.993 Y90.642 E6.80609
G1 X62.135 Y90.339 E6.82315
G1 X62.306 Y90.075 E6.83916
G1 X62.511 Y89.855 E6.85450
G1 X62.749 Y89.681 E6.86954
G1 X63.022 Y89.557 E6.88484
G1 X63.378 Y89.483 E6.90334
G1 X63.639 Y89.465 E6.91669
G1 X63.986 Y89.490 E6.93443
G1 X64.360 Y89.559 E6.95379
G1 X64.762 Y89.671 E6.97507
G1 X65.198 Y89.825 E6.99864
G1 X66.164 Y90.253 E7.05248
G1 X66.708 Y90.530 E7.08359
G1 X67.395 Y90.916 E7.12377
G1 X68.098 Y91.353 E7.16597
G1 X68.807 Y91.831 E7.20956
G1 X69.514 Y92.343 E7.25399
G1 X70.209 Y92.879 E7.29874
G1 X71.522 Y93.985 E7.38626
G1 X72.127 Y94.542 E7.42817
G1 X72.683 Y95.088 E7.46791
G1 X73.407 Y95.869 E7.52214
G1 X73.971 Y96.580 E7.56842
G1 X74.245 Y97.006 E7.59424
G1 X74.353 Y97.212 E7.60611
G1 X74.484 Y97.572 E7.62560
G1 X74.509 Y97.756 E7.63509
G1 X74.493 Y97.937 E7.64433
G1 X74.422 Y98.096 E7.65323
G1 X74.451 Y98.384 F9000.000
G1 E1.65323 F1800.00000
G92 E0
G1 X63.517 Y88.700 F9000.000
G1 E6.00000 F1800.00000
G1 X63.273 Y88.717 E6.01247 F600.000
G1 X62.513 Y88.875 E6.05203
G1 X62.651 Y88.642 E6.06583
G1 X62.366 Y88.017 E6.10083
G1 X63.545 Y88.518 E6.16615
G1 X63.526 Y88.641 E6.17252
G1 X62.216 Y88.619 F9000.000
G1 X61.596 Y87.259 E6.24869 F600.000
G1 X63.323 Y88.015 E6.34477
G1 X64.019 Y88.290 E6.38290
G1 X65.067 Y88.605 E6.43866
G1 X65.234 Y88.779 E6.45096
G1 X65.538 Y89.036 E6.47125
G1 X66.733 Y89.868 E6.54549
G1 X66.622 Y90.054 E6.55650
G1 X66.330 Y89.904 E6.57322
G1 X65.341 Y89.467 E6.62835
G1 X64.878 Y89.303 E6.65336
G1 X64.447 Y89.183 E6.67619
G1 X64.035 Y89.107 E6.69750
G1 X63.640 Y89.079 E6.71770
G1 X63.325 Y89.100 E6.73378
G1 X62.902 Y89.188 E6.75584
G1 X62.554 Y89.346 E6.77532
G1 X62.253 Y89.565 E6.79426
G1 X62.001 Y89.837 E6.81319
G1 X61.797 Y90.151 E6.83227
G1 X61.635 Y90.499 E6.85182
G1 X61.507 Y90.878 E6.87222
G1 X61.417 Y91.258 E6.89211
G1 X60.390 Y89.391 E7.00071
G1 X61.061 Y89.587 E7.03635
G1 X61.379 Y89.589 E7.05256
G1 X61.678 Y89.423 E7.06994
G1 X61.916 Y89.127 E7.08934
G1 X62.186 Y88.670 E7.11635
G1 E1.11635 F1800.00000
G92 E0
G1 X71.726 Y93.104 F9000.000
G1 E6.00000 F1800.00000
G1 X71.405 Y93.043 E6.01664 F600.000
G1 X71.203 Y92.942 E6.02817
G1 X70.587 Y92.512 E6.06645
G1 X69.960 Y91.996 E6.10785
G1 X68.870 Y91.038 E6.18181
G1 X68.034 Y90.358 E6.23673
G1 X67.215 Y89.734 E6.28917
G1 X65.773 Y88.729 E6.37877
G1 X65.498 Y88.497 E6.39712
G1 X65.282 Y88.272 E6.41300
G1 X65.120 Y88.043 E6.42733
G1 X65.011 Y87.802 E6.44083
G1 X64.946 Y87.523 E6.45539
G1 X64.942 Y86.938 E6.48524
G1 X65.009 Y86.349 E6.51544
G1 X65.072 Y86.095 E6.52878
G1 X65.158 Y85.875 E6.54081
G1 X65.270 Y85.684 E6.55209
G1 X65.414 Y85.527 E6.56294
G1 X65.593 Y85.409 E6.57388
G1 X65.827 Y85.342 E6.58626
G1 X66.003 Y85.328 E6.59529
G1 X66.227 Y85.352 E6.60678
G1 X66.462 Y85.415 E6.61914
G1 X66.974 Y85.645 E6.64776
G1 X67.554 Y86.004 E6.68255
G1 X67.863 Y86.251 E6.70266
G1 X68.201 Y86.582 E6.72679
G1 X68.930 Y87.431 E6.78384
G1 X69.695 Y88.463 E6.84932
G1 X70.433 Y89.575 E6.91732
G1 X71.080 Y90.664 E6.98190
G1 X71.468 Y91.409 E7.02473
G1 X71.745 Y92.049 E7.06026
G1 X71.880 Y92.553 E7.08684
G1 X71.880 Y92.792 E7.09900
G1 X71.753 Y93.050 E7.11368
G1 X71.637 Y93.418 F9000.000
G1 E1.11368 F1800.00000
G92 E0
G1 X66.146 Y84.567 F9000.000
G1 E6.00000 F1800.00000
G1 X66.014 Y84.553 E6.00677 F600.000
G1 X65.687 Y84.580 E6.02349
G1 X65.268 Y84.700 E6.04569
G1 X65.172 Y84.763 E6.05155
G1 X65.039 Y84.620 E6.06153
G1 X65.243 Y84.356 E6.07849
G1 X65.416 Y83.880 E6.10432
G1 X65.640 Y83.783 E6.11676
G1 X65.988 Y84.190 E6.14406
G1 X66.217 Y84.420 E6.16057
G1 X66.172 Y84.513 E6.16587
G1 X65.055 Y83.435 F9000.000
G1 X65.362 Y83.483 E6.18169 F600.000
G1 X65.759 Y83.312 E6.20372
G1 X66.271 Y83.928 E6.24458
G1 X67.806 Y85.465 E6.35526
G1 X67.678 Y85.627 E6.36576
G1 X67.162 Y85.307 E6.39666
G1 X66.866 Y85.160 E6.41354
G1 X66.583 Y85.048 E6.42905
G1 X66.299 Y84.972 E6.44402
G1 X66.008 Y84.940 E6.45891
G1 X65.757 Y84.961 E6.47178
G1 X65.431 Y85.055 E6.48907
G1 X65.162 Y85.231 E6.50545
G1 X64.870 Y85.550 E6.52750
G1 X64.818 Y85.308 E6.54012
G1 X64.653 Y84.899 E6.56260
G1 X64.440 Y84.615 E6.58066
G1 X64.629 Y84.520 E6.59143
G1 X64.901 Y84.168 E6.61407
G1 X65.047 Y83.765 E6.63595
G1 X65.054 Y83.495 E6.64970
G1 X69.872 Y88.054 F9000.000
G1 X70.050 Y87.915 E6.66123 F600.000
G1 X70.402 Y88.346 E6.68959
G1 X71.078 Y89.288 E6.74869
G1 X71.612 Y90.163 E6.80092
G1 X71.816 Y90.559 E6.82361
G1 X71.984 Y90.936 E6.84463
G1 X72.113 Y91.284 E6.86359
G1 X72.193 Y91.570 E6.87873
G1 X71.989 Y91.643 E6.88977
G1 X71.817 Y91.244 E6.91193
G1 X71.417 Y90.477 E6.95602
G1 X70.760 Y89.369 E7.02164
G1 X69.907 Y88.102 E7.09948
G1 E1.09948 F1800.00000
G92 E0
G1 X80.039 Y112.003 F9000.000
G1 E6.00000 F1800.00000
G1 X80.210 Y111.943 E6.00924 F600.000
G1 X80.303 Y112.087 E6.01798
G1 X80.636 Y112.440 E6.04268
G1 X81.015 Y112.721 E6.06675
G1 X81.416 Y112.942 E6.09009
G1 X81.958 Y113.201 E6.12071
G1 X81.443 Y113.687 E6.15679
G1 X81.262 Y114.116 E6.18052
G1 X81.175 Y114.620 E6.20659
G1 X80.187 Y113.979 E6.26663
G1 X80.124 Y112.909 E6.32124
G1 X80.044 Y112.063 E6.36458
G1 E0.36458 F1800.00000
G92 E0
G1 X75.856 Y98.998 F9000.000
G1 E6.00000 F1800.00000
