; generated by Slic3r 1.2.9 on 2017-05-16 at 20:29:13

; external perimeters extrusion width = 0.40mm
; perimeters extrusion width = 0.56mm
; infill extrusion width = 0.38mm
; solid infill extrusion width = 0.56mm
; top infill extrusion width = 0.22mm

M106 S256; Turn on fan to 100% power
M104 S140; turn on extruder temperature at S value
M140 S60; turn on bed temperature at S value
G28; home all axes
M84; disable motors
G1 Z15 F15000; have Z move to 20mm at 15000 mm/min
M190 S55; turn on bed temperature at S value and wait
M140 S55; turn on bed temperature at S value (printing temperature)
M109 S200; turn on extruder temperature at S value and wait (printing temperature)
M104 S200; turn on extruder temperature at S value
G1 Z0 F12000; move Z back to home
G21 ; set units to millimeters
G90 ; use absolute coordinates
M82 ; use absolute distances for extrusion
G92 E0
M106 S255
;Layer change
G1 E-6.00000 F1800.00000
G92 E0
G1 Z0.300 F9000.000
G1 X58.215 Y51.184 F9000.000
G1 E6.00000 F1800.00000
G1 X58.590 Y50.791 E6.02770 F600.000
G1 X59.108 Y50.353 E6.06226
G1 X64.636 Y46.243 E6.41335
G1 X65.020 Y45.997 E6.43660
G1 X68.144 Y44.273 E6.61848
G1 X68.451 Y44.134 E6.63562
G1 X68.929 Y43.978 E6.66126
G1 X72.311 Y43.195 E6.83819
G1 X72.888 Y43.102 E6.86800
G1 X73.575 Y43.077 E6.90304
G1 X74.181 Y43.124 E6.93400 F600.000
G1 X74.873 Y43.253 E6.96988
G1 X75.514 Y43.452 E7.00410
G1 X75.899 Y43.626 E7.02561
G1 X76.258 Y43.840 E7.04690
G1 X76.712 Y44.194 E7.07625
G1 X76.999 Y44.480 E7.09689
G1 X77.360 Y44.931 E7.12634
G1 X129.863 Y122.534 E11.90176
G1 X130.132 Y123.063 E11.93198
G1 X130.257 Y123.578 E11.95901
G1 X130.264 Y124.124 E11.98686
G1 X130.173 Y124.598 E12.01143
G1 X129.960 Y125.115 E12.03994
G1 X129.662 Y125.563 E12.06738
G1 X129.464 Y125.787 E12.08257
G1 X129.226 Y126.010 E12.09922
G1 X128.775 Y126.349 E12.12797
G1 X128.406 Y126.574 E12.14999
G1 X127.960 Y126.803 E12.17553
G1 X127.300 Y127.079 E12.21202
G1 X126.754 Y127.255 E12.24126
G1 X126.232 Y127.383 E12.26864
G1 X125.812 Y127.460 E12.29038
G1 X67.181 Y136.886 E15.31704
G1 X66.926 Y136.913 E15.33010
G1 X66.350 Y136.910 E15.35944
G1 X66.068 Y136.876 E15.37395
G1 X65.647 Y136.784 E15.39591
G1 X65.102 Y136.584 E15.42550
G1 X64.547 Y136.278 E15.45778
G1 X64.258 Y136.072 E15.47588
G1 X58.229 Y131.225 E15.87014
G1 X57.864 Y130.890 E15.89541
G1 X57.600 Y130.582 E15.91611
G1 X57.394 Y130.286 E15.93446
G1 X53.599 Y124.009 E16.30831
G1 X53.394 Y123.642 E16.32973
G1 X53.170 Y123.102 E16.35955
G1 X53.026 Y122.602 E16.38605
G1 X49.895 Y108.599 E17.11735
G1 X49.760 Y107.796 E17.15890
G1 X49.724 Y107.134 E17.19264
G1 X49.740 Y106.643 E17.21768
G1 X49.783 Y106.200 E17.24040
G1 X56.956 Y53.901 E19.93089
G1 X57.021 Y53.552 E19.94897
G1 X57.120 Y53.174 E19.96891
G1 X57.245 Y52.808 E19.98862
G1 X57.394 Y52.454 E20.00817
G1 X57.567 Y52.115 E20.02757
G1 X57.762 Y51.790 E20.04690
G1 X58.177 Y51.231 E20.08239
G1 E14.08239 F1800.00000
G92 E0
G1 X67.033 Y132.432 F9000.000
G1 E6.00000 F1800.00000
G1 X67.018 Y132.775 E6.01751 F600.000
G1 X66.936 Y133.482 E6.05378
G1 X66.901 Y133.639 E6.06195
G1 X66.803 Y133.896 E6.07600
G1 X66.720 Y133.919 E6.08036
G1 X66.501 Y133.910 E6.09154
G1 X66.310 Y133.840 E6.10190
G1 X66.119 Y133.721 E6.11338
G1 X65.912 Y133.537 E6.12750
G1 X65.700 Y133.290 E6.14408
G1 X65.429 Y132.867 E6.16968
G1 X65.947 Y132.937 E6.19632
G1 X66.285 Y132.881 E6.21378
G1 X66.589 Y132.746 E6.23071
G1 X66.984 Y132.467 E6.25538
G1 E0.25538 F1800.00000
G92 E0
G1 X63.573 Y125.326 F9000.000
G1 E6.00000 F1800.00000
G1 X63.399 Y125.362 E6.00906 F600.000
G1 X63.321 Y125.208 E6.01788
G1 X63.391 Y125.005 E6.02878
G1 X63.588 Y125.044 E6.03905
G1 X63.576 Y125.266 E6.05037 F600.000
G1 X64.514 Y120.755 F9000.000
G1 X64.296 Y121.755 E6.10250 F600.000
G1 X64.155 Y122.685 E6.15047
G1 X64.049 Y123.689 E6.20193
G1 X63.963 Y125.257 E6.28196
G1 X63.953 Y126.302 E6.33523
G1 X63.984 Y127.308 E6.38651
G1 X64.055 Y128.244 E6.43436
G1 X64.168 Y129.079 E6.47728
G1 X64.384 Y130.137 E6.53234
G1 X64.563 Y130.806 E6.56765
G1 X64.827 Y131.526 E6.60669
G1 X65.050 Y131.948 E6.63103
G1 X65.299 Y132.262 E6.65146
G1 X65.494 Y132.418 E6.66422
G1 X65.710 Y132.516 E6.67627
G1 X65.941 Y132.547 E6.68817
G1 X66.174 Y132.509 E6.70018
G1 X66.397 Y132.409 E6.71264
G1 X66.611 Y132.258 E6.72599
G1 X66.821 Y132.058 E6.74077
G1 X67.087 Y131.734 E6.76212
G1 X67.273 Y131.430 E6.78029
G1 X67.442 Y131.479 E6.78925
G1 X67.402 Y132.806 E6.85693
G1 X67.316 Y133.546 E6.89492
G1 X67.271 Y133.750 E6.90553
G1 X67.153 Y134.061 E6.92252
G1 X67.095 Y134.148 E6.92781
G1 X66.971 Y134.250 E6.93600
G1 X66.772 Y134.305 E6.94653
G1 X66.514 Y134.304 E6.95967
G1 X66.400 Y134.283 E6.96560
G1 X66.141 Y134.188 E6.97966
G1 X65.888 Y134.032 E6.99483
G1 X65.636 Y133.808 E7.01199
G1 X65.390 Y133.520 E7.03128
G1 X65.031 Y132.961 E7.06517
G1 X64.808 Y132.516 E7.09050
G1 X64.598 Y132.012 E7.11835
G1 X64.404 Y131.452 E7.14855
G1 X64.226 Y130.842 E7.18096
G1 X63.993 Y129.830 E7.23388
G1 X63.863 Y129.101 E7.27162
G1 X63.753 Y128.328 E7.31140
G1 X63.666 Y127.515 E7.35306
G1 X63.599 Y126.617 E7.39896
G1 X62.903 Y125.236 E7.47780
G1 X63.279 Y124.148 E7.53646
G1 X63.671 Y122.881 E7.60405
G1 X64.295 Y120.699 E7.71973
G1 X64.456 Y120.740 E7.72817
G1 X64.241 Y121.048 F9000.000
G1 X64.460 Y120.509 F9000.000
G1 X64.760 Y119.487 E7.78245 F600.000
G1 X65.101 Y118.466 E7.83731
G1 X65.456 Y117.493 E7.89011
G1 X65.913 Y116.403 E7.95036
G1 X66.388 Y115.375 E8.00807
G1 X66.824 Y114.496 E8.05807
G1 X67.829 Y112.657 E8.16488
G1 X70.572 Y111.447 F9000.000
G1 X72.324 Y108.916 E8.32175 F600.000
G1 X72.736 Y109.138 F9000.000
G1 X71.815 Y111.316 E8.44227 F600.000
G1 X71.382 Y112.407 E8.50208
G1 X70.541 Y114.720 E8.62750
G1 X69.810 Y116.981 E8.74864
G1 X69.416 Y118.326 E8.82006
G1 X68.753 Y120.883 E8.95467
G1 X68.191 Y123.529 E9.09257
G1 X67.974 Y124.778 E9.15716
G1 X67.795 Y126.004 E9.22034
G1 X67.611 Y127.723 E9.30842
G1 X67.528 Y128.975 E9.37241
G1 X67.467 Y130.347 E9.44238
G1 X67.390 Y131.230 E9.48755
G1 E3.48755 F1800.00000
G92 E0
G1 X61.912 Y127.559 F9000.000
G1 E6.00000 F1800.00000
G1 X62.322 Y126.705 E6.04827 F600.000
G1 X62.767 Y125.465 E6.11538
G1 E0.11538 F1800.00000
G92 E0
G1 X60.538 Y128.758 F9000.000
G1 E6.00000 F1800.00000
G1 X60.536 Y128.948 E6.00966 F600.000
G1 X60.406 Y128.973 E6.01643
G1 X60.299 Y128.967 E6.02189
G1 X60.198 Y128.937 E6.02727
G1 X60.060 Y128.855 E6.03542
G1 X60.131 Y128.672 E6.04542
G1 X60.479 Y128.746 E6.06354
G1 X61.891 Y127.813 F9000.000
G1 X61.772 Y128.054 E6.07723 F600.000
G1 X61.457 Y128.583 E6.10859
G1 X61.246 Y128.867 E6.12662
G1 X61.044 Y129.084 E6.14173
G1 X60.843 Y129.230 E6.15438
G1 X60.638 Y129.321 E6.16583
G1 X60.433 Y129.360 E6.17647
G1 X60.233 Y129.350 E6.18668
G1 X60.041 Y129.293 E6.19688
G1 X59.862 Y129.186 E6.20752
G1 X59.694 Y129.023 E6.21943
G1 X59.563 Y128.794 E6.23289
G1 X59.466 Y128.419 E6.25263
G1 X59.414 Y128.086 E6.26981
G1 X59.357 Y127.473 E6.30119
G1 X59.323 Y126.504 E6.35058
G1 X59.350 Y125.282 E6.41292
G1 X59.578 Y125.283 E6.42454
G1 X59.583 Y125.936 E6.45783
G1 X59.650 Y126.917 E6.50792
G1 X59.716 Y127.351 E6.53030
G1 X59.844 Y127.775 E6.55288
G1 X59.941 Y127.952 E6.56313
G1 X60.058 Y128.096 E6.57261
G1 X60.357 Y128.326 E6.59184
G1 X60.691 Y128.396 E6.60924
G1 X60.970 Y128.347 E6.62364
G1 X61.229 Y128.209 E6.63863
G1 X61.472 Y127.997 E6.65508
G1 X61.719 Y127.701 E6.67469
G1 X61.841 Y127.781 E6.68210
G1 X61.662 Y127.954 F9000.000
G1 E0.68210 F1800.00000
G92 E0
G1 X59.583 Y125.023 F9000.000
G1 E6.00000 F1800.00000
G1 X59.356 Y125.015 E6.01159 F600.000
G1 X59.359 Y124.857 E6.01962
G1 X59.374 Y124.659 E6.02972
G1 X59.603 Y124.674 E6.04142
G1 X59.587 Y124.964 E6.05618 F600.000
G1 X59.392 Y124.901 F9000.000
G1 X60.101 Y119.889 F9000.000
G1 X59.571 Y119.668 E6.08546 F600.000
G1 X60.030 Y118.975 E6.12782
G1 X60.707 Y117.798 E6.19704
G1 X62.054 Y115.152 E6.34837
G1 X62.680 Y114.008 E6.41481
G1 X63.333 Y112.900 E6.48036
G1 X64.159 Y111.615 E6.55821
G1 X64.347 Y111.738 E6.56964
G1 X63.841 Y112.573 E6.61942
G1 X63.259 Y113.601 E6.67966
G1 X62.714 Y114.631 E6.73902
G1 X62.209 Y115.658 E6.79738
G1 X61.744 Y116.681 E6.85461
G1 X61.321 Y117.695 E6.91061
G1 X60.940 Y118.698 E6.96532
G1 X60.453 Y120.172 E7.04443
G1 X60.185 Y121.133 E7.09530
G1 X59.963 Y122.073 E7.14450
G1 X59.723 Y123.429 E7.21471
G1 X59.635 Y124.205 E7.25448
G1 X59.409 Y124.184 E7.26604
G1 X59.442 Y123.727 E7.28938
G1 X59.571 Y122.640 E7.34517
G1 X59.652 Y122.136 E7.37116
G1 X60.090 Y119.948 E7.48492
G1 X60.230 Y119.510 F9000.000
G1 X64.375 Y111.488 F9000.000
G1 X65.114 Y110.386 E7.55253 F600.000
G1 X65.789 Y109.449 E7.61139
G1 X66.460 Y108.572 E7.66769
G1 X67.394 Y107.432 E7.74277
G1 X67.664 Y107.272 E7.75878
G1 E1.75878 F1800.00000
G92 E0
G1 X70.824 Y105.831 F9000.000
G1 E6.00000 F1800.00000
G1 X71.459 Y105.460 E6.03748 F600.000
G1 X71.900 Y105.236 E6.06269
G1 X72.803 Y104.828 E6.11320
G1 X73.412 Y104.583 E6.14664
G1 X74.841 Y104.083 E6.22383
G1 X75.541 Y103.877 E6.26099
G1 X76.497 Y103.672 E6.31087
G1 X76.560 Y104.118 F9000.000
G1 X75.567 Y105.119 E6.38276 F600.000
G1 X75.228 Y105.603 E6.41285
G1 X74.018 Y108.308 F9000.000
G1 X73.740 Y107.188 E6.47167 F600.000
G1 X74.008 Y106.859 E6.49329
G1 X75.020 Y105.733 E6.57043
G1 X75.183 Y105.845 E6.58052
G1 X74.044 Y108.254 E6.71634
G1 X74.012 Y107.908 F9000.000
G1 E0.71634 F1800.00000
G92 E0
G1 X76.778 Y104.013 F9000.000
G1 E6.00000 F1800.00000
G1 X76.630 Y103.876 E6.01029 F600.000
G1 X76.780 Y103.661 E6.02365
G1 X76.973 Y103.635 E6.03356
G1 X77.043 Y103.795 E6.04247
G1 X76.824 Y103.975 E6.05689 F600.000
G1 X76.727 Y103.817 F9000.000
G1 X77.221 Y103.641 F9000.000
G1 X77.503 Y103.551 E6.07198 F600.000
G1 X77.786 Y103.497 E6.08668
G1 X78.067 Y103.488 E6.10099
G1 X78.392 Y103.540 E6.11780
G1 X78.851 Y103.752 E6.14355
G1 E0.14355 F1800.00000
G92 E0
G1 X80.270 Y103.762 F9000.000
G1 E6.00000 F1800.00000
G1 X79.718 Y103.546 E6.03023 F600.000
G1 X79.397 Y103.483 E6.04689
G1 X79.161 Y103.474 E6.05890
G1 X78.913 Y103.497 E6.07164
G1 X78.678 Y103.558 E6.08399
G1 X78.555 Y103.611 E6.09084
G1 X78.009 Y107.211 E6.27640
G1 X77.798 Y109.213 E6.37902
G1 X77.716 Y110.436 E6.44150
G1 X77.791 Y119.601 F9000.000
G1 X77.988 Y119.585 E6.45157 F600.000
G1 X78.040 Y119.801 E6.46288
G1 X78.355 Y120.800 E6.51628
G1 X78.082 Y120.830 E6.53025
G1 X77.911 Y120.802 E6.53910
G1 X77.687 Y120.690 E6.55184
G1 X77.356 Y120.411 E6.57390
G1 X77.678 Y120.175 E6.59420
G1 X77.769 Y119.889 E6.60952
G1 X77.786 Y119.661 E6.62120
G1 X77.388 Y119.815 F9000.000
G1 X77.443 Y119.103 E6.65755 F600.000
G1 X77.467 Y117.414 E6.74367
G1 X77.448 Y113.977 E6.91885
G1 X77.498 Y112.151 E7.01195
G1 X77.593 Y110.655 E7.08833
G1 X77.816 Y110.667 E7.09975
G1 X77.792 Y111.889 E7.16202
G1 X77.829 Y114.563 E7.29833
G1 X77.913 Y116.219 E7.38286
G1 X78.080 Y118.010 E7.47452
G1 X78.214 Y118.877 E7.51925
G1 X78.412 Y119.697 E7.56227
G1 X78.758 Y120.797 E7.62099
G1 X78.971 Y121.384 E7.65286
G1 X78.610 Y121.203 E7.67345
G1 X78.422 Y121.181 E7.68308
G1 X78.089 Y121.217 E7.70016
G1 X77.942 Y121.206 E7.70768
G1 X77.791 Y121.169 E7.71561
G1 X77.475 Y121.012 E7.73358
G1 X77.148 Y120.743 E7.75518
G1 X76.808 Y120.350 E7.78168
G1 X76.655 Y120.135 E7.79514
G1 X76.759 Y119.999 E7.80388
G1 X76.998 Y120.089 E7.81686
G1 X77.195 Y120.051 E7.82711
G1 X77.348 Y119.939 E7.83680
G1 X77.369 Y119.872 E7.84038
G1 X77.761 Y119.670 F9000.000
G1 E1.84038 F1800.00000
G92 E0
G1 X74.078 Y108.903 F9000.000
G1 E6.00000 F1800.00000
G1 X74.056 Y109.024 E6.00624 F600.000
G1 X74.010 Y109.134 E6.01233
G1 X74.178 Y111.122 E6.11402
G1 X74.327 Y112.449 E6.18208
G1 X74.554 Y113.967 E6.26030
G1 X74.861 Y115.528 E6.34139
G1 X75.025 Y116.219 E6.37760
G1 X75.300 Y117.216 E6.43031
G1 X75.496 Y117.811 E6.46222
G1 X75.746 Y118.464 E6.49787
G1 X76.169 Y119.332 E6.54707
G1 X76.545 Y119.908 E6.58214
G1 E0.58214 F1800.00000
G92 E0
G1 X78.939 Y121.711 F9000.000
G1 E6.00000 F1800.00000
G1 X79.235 Y121.991 E6.02080 F600.000
G1 X79.669 Y122.965 E6.07511
G1 X79.985 Y123.596 E6.11108
G1 X80.591 Y124.624 E6.17194
G1 X80.818 Y124.943 E6.19187
G1 X81.267 Y125.505 E6.22851
G1 X81.933 Y126.210 E6.27796
G1 E0.27796 F1800.00000
G92 E0
G1 X83.017 Y116.084 F9000.000
G1 E6.00000 F1800.00000
G1 X82.765 Y115.025 E6.05549 F600.000
G1 X82.571 Y114.083 E6.10452
G1 X82.362 Y112.761 E6.17273
G1 X82.212 Y111.439 E6.24054
G1 X82.095 Y110.065 E6.31080
G1 X82.011 Y108.640 E6.38360
G1 X81.949 Y106.394 E6.49810
G1 X81.850 Y105.488 E6.54455
G1 E0.54455 F1800.00000
G92 E0
G1 X83.014 Y106.490 F9000.000
G1 E6.00000 F1800.00000
G1 X83.175 Y108.469 E6.10123 F600.000
G1 X83.328 Y109.665 E6.16269
G1 X83.576 Y111.084 E6.23609
G1 X83.738 Y111.841 E6.27553
G1 X84.049 Y113.032 E6.33828
G1 X84.436 Y114.192 E6.40059
G1 X84.798 Y115.059 E6.44850
G1 E0.44850 F1800.00000
G92 E0
G1 X86.722 Y127.368 F9000.000
G1 E6.00000 F1800.00000
G1 X86.787 Y127.201 E6.00914 F600.000
G1 X87.055 Y127.233 E6.02288
G1 X87.565 Y127.168 E6.04906
G1 X87.960 Y126.890 E6.07371
G1 X87.984 Y126.807 E6.07808
G1 X88.154 Y126.803 E6.08677
G1 X88.306 Y127.251 E6.11091
G1 X88.388 Y127.580 E6.12817
G1 X88.425 Y127.846 E6.14186
G1 X88.426 Y128.041 E6.15177
G1 X88.398 Y128.198 E6.15993
G1 X88.240 Y128.190 E6.16799
G1 X88.052 Y128.145 E6.17785
G1 X87.803 Y128.049 E6.19149
G1 X87.502 Y127.894 E6.20871
G1 X87.157 Y127.680 E6.22939
G1 X86.771 Y127.403 E6.25361
G1 X84.949 Y126.940 F9000.000
G1 X84.587 Y127.362 E6.28194 F600.000
G1 X84.364 Y127.360 E6.29331
G1 X84.063 Y127.316 E6.30878
G1 X83.616 Y127.178 E6.33263
G1 X84.150 Y126.920 E6.36285
G1 X84.375 Y126.633 E6.38145
G1 X84.466 Y126.421 E6.39319
G1 X84.523 Y126.098 E6.40988
G1 X84.464 Y125.837 E6.42353
G1 X84.629 Y125.757 E6.43287
G1 X84.991 Y126.201 E6.46206
G1 X85.292 Y126.475 E6.48282
G1 X85.612 Y126.712 E6.50310
G1 X85.951 Y126.914 E6.52320
G1 X86.114 Y126.988 E6.53234
G1 X86.048 Y127.186 E6.54297
G1 X85.007 Y126.953 E6.59730
G1 X83.618 Y126.749 F9000.000
G1 X83.902 Y126.611 E6.61336 F600.000
G1 X84.041 Y126.434 E6.62485
G1 X84.094 Y126.310 E6.63173
G1 X84.130 Y126.108 E6.64220
G1 X84.055 Y125.776 E6.65951
G1 X83.679 Y124.757 E6.71487
G1 X82.743 Y122.668 E6.83157
G1 X82.152 Y121.197 E6.91239
G1 X81.892 Y120.449 E6.95275
G1 X81.653 Y119.682 E6.99367
G1 X81.435 Y118.894 E7.03535
G1 X81.236 Y118.079 E7.07809
G1 X80.896 Y116.352 E7.16778
G1 X80.765 Y115.479 E7.21281
G1 X80.990 Y115.441 E7.22443
G1 X81.351 Y117.102 E7.31102
G1 X81.538 Y117.837 E7.34967
G1 X81.940 Y119.226 E7.42338
G1 X82.159 Y119.887 E7.45888
G1 X82.625 Y121.128 E7.52645
G1 X83.135 Y122.270 E7.59017
G1 X83.685 Y123.305 E7.64991
G1 X84.956 Y125.548 E7.78134
G1 X85.272 Y125.935 E7.80678
G1 X85.537 Y126.177 E7.82508
G1 X85.826 Y126.390 E7.84337
G1 X86.130 Y126.571 E7.86143
G1 X86.441 Y126.714 E7.87886
G1 X86.751 Y126.808 E7.89538
G1 X87.053 Y126.844 E7.91090
G1 X87.421 Y126.797 E7.92978
G1 X87.626 Y126.653 E7.94257
G1 X87.690 Y126.427 E7.95453
G1 X87.657 Y126.225 E7.96498
G1 X87.540 Y125.956 E7.97992
G1 X87.220 Y125.441 E8.01080
G1 X86.412 Y124.317 E8.08138
G1 X85.849 Y123.469 E8.13329
G1 X85.326 Y122.585 E8.18562
G1 X84.843 Y121.663 E8.23866
G1 X84.398 Y120.702 E8.29262
G1 X83.992 Y119.701 E8.34771
G1 X83.678 Y118.815 E8.39560
G1 X83.455 Y118.120 E8.43280
G1 X83.144 Y117.010 E8.49154
G1 X82.984 Y116.334 E8.52698
G1 X83.181 Y116.265 E8.53764
G1 X83.372 Y116.678 E8.56082
G1 X83.647 Y116.834 E8.57692
G1 X84.160 Y116.993 E8.60429
G1 X84.834 Y117.116 E8.63924
G1 X85.069 Y117.130 E8.65121
G1 X85.254 Y117.110 E8.66070
G1 X85.452 Y117.029 E8.67159
G1 X85.470 Y116.811 E8.68276
G1 X85.368 Y116.471 E8.70083
G1 X84.800 Y115.311 E8.76668
G1 X84.995 Y115.211 E8.77786
G1 X85.234 Y115.622 E8.80209
G1 X85.639 Y116.196 E8.83790
G1 X86.373 Y117.037 E8.89477
G1 X85.484 Y117.426 E8.94427
G1 X85.093 Y117.558 E8.96526
G1 X84.796 Y117.600 E8.98054
G1 X84.682 Y117.593 E8.98637
G1 X84.153 Y117.461 E9.01419
G1 X83.918 Y118.587 E9.07280
G1 X84.454 Y119.806 E9.14067
G1 X85.099 Y121.031 E9.21121
G1 X85.866 Y122.298 E9.28670
G1 X86.965 Y123.903 E9.38584
G1 X87.653 Y124.986 E9.45122
G1 X88.054 Y125.689 E9.49247
G1 X88.347 Y126.273 E9.52582
G1 X88.537 Y126.731 E9.55103
G1 X88.676 Y127.143 E9.57322
G1 X88.767 Y127.506 E9.59231
