; generated by Slic3r 1.2.9 on 2018-02-08 at 20:15:11

; external perimeters extrusion width = 0.40mm
; perimeters extrusion width = 0.62mm
; infill extrusion width = 0.33mm
; solid infill extrusion width = 0.62mm
; top infill extrusion width = 0.20mm

M106 S256; Turn on fan to 100% power
M104 S140; turn on extruder temperature at S value
M140 S60; turn on bed temperature at S value
G28; home all axes
M84; disable motors
G1 Z15 F15000; have Z move to 20mm at 15000 mm/min
M190 S55; turn on bed temperature at S value and wait
M140 S55; turn on bed temperature at S value (printing temperature)
M109 S200; turn on extruder temperature at S value and wait (printing temperature)
M104 S200; turn on extruder temperature at S value
G1 Z0 F12000; move Z back to home
G21 ; set units to millimeters
G90 ; use absolute coordinates
M82 ; use absolute distances for extrusion
G92 E0
M106 S255
;Layer change
G1 E-6.00000 F1800.00000
G92 E0
G1 Z0.300 F9000.000
G1 X58.862 Y73.184 F9000.000
G1 E6.00000 F1800.00000
G1 X59.889 Y72.360 E6.06482 F600.000
G1 X65.462 Y68.104 E6.40993
G1 X66.909 Y67.614 E6.48516
G1 X123.089 Y67.614 E9.25006
G1 X124.537 Y68.103 E9.32527
G1 X130.111 Y72.359 E9.67042 F600.000
G1 X135.357 Y76.580 E10.00176
G1 X139.938 Y80.576 E10.30094
G1 X143.992 Y84.548 E10.58027
G1 X145.804 Y86.551 E10.71323
G1 X147.404 Y88.516 E10.83790
G1 X148.908 Y90.632 E10.96568
G1 X150.012 Y92.455 E11.07056
G1 X150.993 Y94.446 E11.17980
G1 X151.733 Y96.462 E11.28550
G1 X151.817 Y96.750 E11.30026
G1 X152.209 Y98.511 E11.38905
G1 X152.256 Y98.813 E11.40408
G1 X152.689 Y103.557 E11.63853
G1 X152.700 Y105.381 E11.72831
G1 X152.577 Y107.192 E11.81764
G1 X152.286 Y109.154 E11.91525
G1 X151.851 Y110.948 E12.00610
G1 X151.772 Y111.208 E12.01950
G1 X151.113 Y113.002 E12.11357
G1 X150.979 Y113.300 E12.12965
G1 X150.054 Y115.038 E12.22652
G1 X149.851 Y115.356 E12.24507
G1 X148.622 Y116.981 E12.34534
G1 X148.340 Y117.292 E12.36604
G1 X146.767 Y118.748 E12.47153
G1 X146.509 Y118.956 E12.48784
G1 X145.579 Y119.602 E12.54354
G1 X144.367 Y120.301 E12.61243
G1 X143.040 Y120.913 E12.68434
G1 X141.599 Y121.426 E12.75962
G1 X140.048 Y121.835 E12.83858
G1 X138.383 Y122.135 E12.92184
G1 X136.602 Y122.319 E13.00993
G1 X134.629 Y122.386 E13.10712
G1 X55.295 Y122.385 E17.01153
G1 X53.559 Y122.330 E17.09701
G1 X51.792 Y122.159 E17.18437
G1 X49.951 Y121.835 E17.27638
G1 X48.592 Y121.484 E17.34545
G1 X47.157 Y120.992 E17.42014
G1 X45.825 Y120.398 E17.49190
G1 X44.606 Y119.719 E17.56055
G1 X43.492 Y118.956 E17.62703
G1 X43.233 Y118.748 E17.64336
G1 X41.660 Y117.292 E17.74885
G1 X41.378 Y116.981 E17.76954
G1 X40.149 Y115.356 E17.86981
G1 X39.946 Y115.038 E17.88837
G1 X39.021 Y113.301 E17.98522
G1 X38.888 Y113.003 E18.00127
G1 X38.228 Y111.209 E18.09535
G1 X38.148 Y110.946 E18.10886
G1 X37.714 Y109.152 E18.19970
G1 X37.423 Y107.192 E18.29726
G1 X37.300 Y105.382 E18.38654
G1 X37.301 Y103.764 E18.46617
G1 X37.743 Y98.813 E18.71078
G1 X37.790 Y98.510 E18.72590
G1 X38.183 Y96.750 E18.81465
G1 X38.267 Y96.462 E18.82939
G1 X39.007 Y94.446 E18.93510
G1 X39.988 Y92.455 E19.04433
G1 X41.189 Y90.484 E19.15790
G1 X42.504 Y88.636 E19.26952
G1 X44.195 Y86.551 E19.40168
G1 X46.008 Y84.548 E19.53464
G1 X50.062 Y80.576 E19.81397
G1 X54.643 Y76.580 E20.11314
G1 X58.815 Y73.222 E20.37669
G1 E14.37669 F1800.00000
G92 E0
G1 X67.693 Y111.439 F9000.000
G1 E6.00000 F1800.00000
G1 X66.126 Y111.439 E6.07708 F600.000
G1 X65.763 Y112.676 E6.14048
G1 X65.213 Y113.581 E6.19261
G1 X64.254 Y114.736 E6.26649
G1 X62.954 Y115.964 E6.35455
G1 X61.366 Y117.126 E6.45139
G1 X59.520 Y118.107 E6.55426
G1 X58.553 Y118.475 E6.60520
G1 X57.527 Y118.760 E6.65758
G1 X56.466 Y118.940 E6.71053
G1 X55.358 Y119.003 E6.76518
G1 X53.700 Y118.951 E6.84682
G1 X52.164 Y118.798 E6.92277
G1 X50.759 Y118.551 E6.99300
G1 X49.478 Y118.220 E7.05810
G1 X48.314 Y117.814 E7.11877
G1 X47.262 Y117.337 E7.17564
G1 X46.314 Y116.799 E7.22927
G1 X45.479 Y116.219 E7.27928
G1 X44.022 Y114.870 E7.37702
G1 X42.894 Y113.379 E7.46906
G1 X42.038 Y111.771 E7.55867
G1 X41.421 Y110.095 E7.64656
G1 X41.012 Y108.404 E7.73223
G1 X40.776 Y106.752 E7.81433
G1 X40.677 Y105.200 E7.89089
G1 X40.683 Y103.825 E7.95854
G1 X40.979 Y100.857 E8.10536
G1 X41.106 Y99.176 E8.18829
G1 X41.470 Y97.548 E8.27042
G1 X42.071 Y95.878 E8.35773
G1 X42.904 Y94.168 E8.45138
G1 X43.966 Y92.415 E8.55222
G1 X45.241 Y90.623 E8.66048
G1 X46.724 Y88.797 E8.77625
G1 X48.398 Y86.940 E8.89928
G1 X52.307 Y83.105 E9.16881
G1 X56.851 Y79.141 E9.46557
G1 X61.951 Y75.040 E9.78766
G1 X66.909 Y71.253 E10.09471
G1 X71.785 Y74.976 E10.39661
G1 X76.968 Y79.141 E10.72386
G1 X81.512 Y83.105 E11.02061
G1 X85.421 Y86.940 E11.29014
G1 X87.095 Y88.797 E11.41316
G1 X88.578 Y90.623 E11.52895
G1 X89.854 Y92.415 E11.63722
G1 X90.915 Y94.168 E11.73803
G1 X91.748 Y95.879 E11.83171
G1 X92.350 Y97.548 E11.91902
G1 X92.713 Y99.177 E12.00114
G1 X92.841 Y100.857 E12.08409
G1 X93.137 Y103.825 E12.23088
G1 X93.142 Y105.200 E12.29854
G1 X93.044 Y106.752 E12.37512
G1 X92.808 Y108.403 E12.45719
G1 X92.398 Y110.095 E12.54287
G1 X91.781 Y111.771 E12.63077
G1 X90.925 Y113.379 E12.72038
G1 X89.797 Y114.870 E12.81243
G1 X88.340 Y116.219 E12.91016
G1 X87.505 Y116.799 E12.96018
G1 X86.558 Y117.337 E13.01376
G1 X85.505 Y117.814 E13.07067
G1 X84.342 Y118.220 E13.13130
G1 X83.061 Y118.551 E13.19644
G1 X81.655 Y118.798 E13.26668
G1 X80.119 Y118.951 E13.34262
G1 X78.461 Y119.003 E13.42427
G1 X77.353 Y118.940 E13.47891
G1 X76.293 Y118.760 E13.53182
G1 X75.266 Y118.475 E13.58425
G1 X74.299 Y118.107 E13.63518
G1 X72.454 Y117.126 E13.73801
G1 X70.866 Y115.964 E13.83486
G1 X69.564 Y114.736 E13.92295
G1 X68.606 Y113.581 E13.99683
G1 X68.056 Y112.676 E14.04895
G1 X67.710 Y111.497 E14.10940
G1 X67.404 Y111.825 F9000.000
G1 X66.415 Y111.825 E14.15807 F600.000
G1 X66.119 Y112.833 E14.20975
G1 X65.528 Y113.805 E14.26576
G1 X64.536 Y115.000 E14.34218
G1 X63.201 Y116.261 E14.43258
G1 X61.571 Y117.454 E14.53197
G1 X59.680 Y118.459 E14.63739
G1 X58.673 Y118.842 E14.69040
G1 X57.611 Y119.137 E14.74463
G1 X56.510 Y119.324 E14.79962
G1 X55.363 Y119.389 E14.85616
G1 X53.674 Y119.336 E14.93929
G1 X52.112 Y119.180 E15.01658
G1 X50.677 Y118.928 E15.08828
G1 X49.366 Y118.590 E15.15491
G1 X48.171 Y118.172 E15.21722
G1 X47.087 Y117.681 E15.27580
G1 X46.108 Y117.126 E15.33116
G1 X45.237 Y116.520 E15.38337
G1 X43.735 Y115.130 E15.48410
G1 X42.568 Y113.587 E15.57933
G1 X41.685 Y111.929 E15.67175
G1 X41.052 Y110.208 E15.76203
G1 X40.633 Y108.476 E15.84970
G1 X40.392 Y106.792 E15.93345
G1 X40.291 Y105.211 E16.01139
G1 X40.297 Y103.805 E16.08059
G1 X40.595 Y100.823 E16.22809
G1 X40.724 Y99.120 E16.31216
G1 X41.099 Y97.440 E16.39686
G1 X41.715 Y95.728 E16.48639
G1 X42.565 Y93.983 E16.58194
G1 X43.643 Y92.203 E16.68434
G1 X44.934 Y90.389 E16.79390
G1 X46.431 Y88.546 E16.91077
G1 X48.119 Y86.673 E17.03487
G1 X52.045 Y82.822 E17.30554
G1 X56.604 Y78.846 E17.60323
G1 X61.713 Y74.736 E17.92594
G1 X66.909 Y70.768 E18.24772
G1 X72.023 Y74.673 E18.56435
G1 X77.215 Y78.846 E18.89222
G1 X81.774 Y82.822 E19.18991
G1 X85.700 Y86.673 E19.46057
G1 X87.388 Y88.546 E19.58467
G1 X88.885 Y90.389 E19.70155
G1 X90.177 Y92.203 E19.81113
G1 X91.254 Y93.983 E19.91350
G1 X92.104 Y95.728 E20.00907
G1 X92.721 Y97.440 E20.09861
G1 X93.095 Y99.120 E20.18329
G1 X93.225 Y100.823 E20.26737
G1 X93.523 Y103.805 E20.41485
G1 X93.528 Y105.211 E20.48406
G1 X93.428 Y106.792 E20.56202
G1 X93.187 Y108.476 E20.64574
G1 X92.767 Y110.208 E20.73342
G1 X92.134 Y111.929 E20.82372
G1 X91.251 Y113.587 E20.91613
G1 X90.084 Y115.130 E21.01136
G1 X88.582 Y116.520 E21.11210
G1 X87.711 Y117.126 E21.16431
G1 X86.733 Y117.681 E21.21962
G1 X85.648 Y118.172 E21.27824
G1 X84.454 Y118.590 E21.34051
G1 X83.142 Y118.928 E21.40719
G1 X81.707 Y119.180 E21.47888
G1 X80.145 Y119.336 E21.55618
G1 X78.456 Y119.389 E21.63931
G1 X77.309 Y119.324 E21.69585
G1 X76.209 Y119.137 E21.75079
G1 X75.146 Y118.842 E21.80507
G1 X74.139 Y118.459 E21.85807
G1 X72.249 Y117.454 E21.96345
G1 X70.619 Y116.261 E22.06285
G1 X69.283 Y115.000 E22.15328
G1 X68.291 Y113.805 E22.22970
G1 X67.700 Y112.833 E22.28571
G1 X67.421 Y111.883 E22.33444
G1 X67.115 Y112.211 F9000.000
G1 X66.704 Y112.211 E22.35469 F600.000
G1 X66.475 Y112.990 E22.39465
G1 X65.843 Y114.030 E22.45454
G1 X64.818 Y115.264 E22.53351
G1 X63.448 Y116.558 E22.62625
G1 X61.777 Y117.781 E22.72819
G1 X59.839 Y118.811 E22.83616
G1 X58.793 Y119.208 E22.89124
G1 X57.695 Y119.514 E22.94731
G1 X56.553 Y119.708 E23.00434
G1 X55.368 Y119.775 E23.06278
G1 X53.649 Y119.721 E23.14739
G1 X52.059 Y119.562 E23.22603
G1 X50.595 Y119.305 E23.29919
G1 X49.254 Y118.959 E23.36736
G1 X48.027 Y118.530 E23.43131
G1 X46.912 Y118.025 E23.49159
G1 X45.902 Y117.453 E23.54868
G1 X44.995 Y116.822 E23.60309
G1 X43.448 Y115.390 E23.70682
G1 X42.242 Y113.795 E23.80524
G1 X41.332 Y112.087 E23.90045
G1 X40.682 Y110.320 E23.99314
G1 X40.254 Y108.549 E24.08281
G1 X40.008 Y106.831 E24.16820
G1 X39.906 Y105.223 E24.24753
G1 X39.911 Y103.785 E24.31828
G1 X40.211 Y100.789 E24.46646
G1 X40.342 Y99.063 E24.55167
G1 X40.728 Y97.332 E24.63893
G1 X41.359 Y95.578 E24.73068
G1 X42.226 Y93.798 E24.82812
G1 X43.321 Y91.991 E24.93210
G1 X44.627 Y90.156 E25.04296
G1 X46.137 Y88.295 E25.16093
G1 X47.841 Y86.406 E25.28610
G1 X51.783 Y82.539 E25.55790
G1 X56.356 Y78.550 E25.85653
G1 X61.475 Y74.433 E26.17986
G1 X66.909 Y70.283 E26.51637
G1 X72.260 Y74.369 E26.84773
G1 X77.463 Y78.550 E27.17621
G1 X82.036 Y82.539 E27.47484
G1 X85.978 Y86.406 E27.74664
G1 X87.682 Y88.295 E27.87181
G1 X89.192 Y90.156 E27.98978
G1 X90.499 Y91.991 E28.10067
G1 X91.593 Y93.798 E28.20461
G1 X92.460 Y95.578 E28.30206
G1 X93.092 Y97.332 E28.39382
G1 X93.477 Y99.063 E28.48107
G1 X93.609 Y100.789 E28.56629
G1 X93.909 Y103.785 E28.71446
G1 X93.913 Y105.223 E28.78522
G1 X93.812 Y106.831 E28.86455
G1 X93.566 Y108.549 E28.94994
G1 X93.137 Y110.320 E29.03962
G1 X92.487 Y112.087 E29.13230
G1 X91.577 Y113.795 E29.22752
G1 X90.371 Y115.390 E29.32593
G1 X88.824 Y116.822 E29.42967
G1 X87.917 Y117.453 E29.48408
G1 X86.908 Y118.025 E29.54112
G1 X85.792 Y118.530 E29.60145
G1 X84.566 Y118.959 E29.66535
G1 X83.224 Y119.305 E29.73357
G1 X81.760 Y119.562 E29.80673
G1 X80.170 Y119.721 E29.88537
G1 X78.451 Y119.775 E29.96998
G1 X77.266 Y119.708 E30.02842
G1 X76.125 Y119.514 E30.08540
G1 X75.026 Y119.208 E30.14152
G1 X73.980 Y118.811 E30.19659
G1 X72.043 Y117.781 E30.30453
G1 X70.372 Y116.558 E30.40647
G1 X69.001 Y115.264 E30.49924
G1 X67.976 Y114.030 E30.57821
G1 X67.344 Y112.990 E30.63810
G1 X67.132 Y112.268 E30.67511
G1 X67.077 Y111.813 F9000.000
G1 X52.569 Y83.388 F9000.000
G1 X57.099 Y79.437 E30.97105 F600.000
G1 X62.189 Y75.343 E31.29266
G1 X66.909 Y71.738 E31.58509
G1 X71.547 Y75.280 E31.87238
G1 X76.720 Y79.437 E32.19915
G1 X81.250 Y83.388 E32.49508
G1 X85.143 Y87.207 E32.76359
G1 X86.802 Y89.047 E32.88559
G1 X88.271 Y90.857 E33.00032
G1 X89.532 Y92.627 E33.10733
G1 X90.576 Y94.352 E33.20661
G1 X91.393 Y96.029 E33.29844
G1 X91.979 Y97.655 E33.38357
G1 X92.330 Y99.233 E33.46316
G1 X92.457 Y100.891 E33.54500
G1 X92.752 Y103.845 E33.69116
G1 X92.757 Y105.188 E33.75730
G1 X92.660 Y106.713 E33.83253
G1 X92.429 Y108.330 E33.91297
G1 X92.028 Y109.983 E33.99668
G1 X91.428 Y111.614 E34.08224
G1 X90.599 Y113.170 E34.16907
G1 X89.510 Y114.610 E34.25797
G1 X88.098 Y115.918 E34.35274
G1 X87.300 Y116.473 E34.40059
G1 X86.383 Y116.993 E34.45246
G1 X85.361 Y117.455 E34.50769
G1 X84.230 Y117.851 E34.56670
G1 X82.979 Y118.174 E34.63032
G1 X81.602 Y118.416 E34.69914
G1 X80.094 Y118.566 E34.77376
G1 X78.466 Y118.617 E34.85396
G1 X77.396 Y118.556 E34.90672
G1 X76.377 Y118.383 E34.95762
G1 X75.387 Y118.108 E35.00823
G1 X74.458 Y117.756 E35.05711
G1 X72.660 Y116.799 E35.15742
G1 X71.113 Y115.667 E35.25176
G1 X69.846 Y114.471 E35.33755
G1 X68.921 Y113.356 E35.40891
G1 X68.411 Y112.518 E35.45717
G1 X67.981 Y111.054 E35.53232
G1 X65.838 Y111.054 E35.63786
G1 X65.408 Y112.518 E35.71301
G1 X64.898 Y113.356 E35.76128
G1 X63.973 Y114.472 E35.83265
G1 X62.707 Y115.667 E35.91840
G1 X61.160 Y116.799 E36.01272
G1 X59.361 Y117.756 E36.11308
G1 X58.432 Y118.108 E36.16197
G1 X57.443 Y118.383 E36.21252
G1 X56.423 Y118.556 E36.26347
G1 X55.353 Y118.617 E36.31623
G1 X53.725 Y118.566 E36.39643
G1 X52.217 Y118.416 E36.47105
G1 X50.840 Y118.174 E36.53986
G1 X49.590 Y117.851 E36.60344
G1 X48.458 Y117.455 E36.66249
G1 X47.437 Y116.993 E36.71769
G1 X46.519 Y116.473 E36.76961
G1 X45.721 Y115.918 E36.81744
G1 X44.309 Y114.610 E36.91221
G1 X43.220 Y113.170 E37.00112
G1 X42.391 Y111.614 E37.08795
G1 X41.791 Y109.983 E37.17349
G1 X41.391 Y108.331 E37.25719
G1 X41.160 Y106.712 E37.33767
G1 X41.063 Y105.188 E37.41288
G1 X41.068 Y103.845 E37.47900
G1 X41.363 Y100.890 E37.62520
G1 X41.489 Y99.233 E37.70702
G1 X41.841 Y97.655 E37.78662
G1 X42.426 Y96.029 E37.87175
G1 X43.243 Y94.352 E37.96355
G1 X44.288 Y92.627 E38.06286
G1 X45.548 Y90.856 E38.16985
G1 X47.017 Y89.047 E38.28458
G1 X48.676 Y87.207 E38.40658
G1 X52.526 Y83.430 E38.67213
G1 X52.831 Y83.672 F9000.000
G1 X57.347 Y79.733 E38.96715 F600.000
G1 X62.427 Y75.647 E39.28813
G1 X66.909 Y72.224 E39.56582
G1 X71.309 Y75.583 E39.83837
G1 X76.472 Y79.733 E40.16452
G1 X80.988 Y83.672 E40.45951
G1 X84.864 Y87.475 E40.72688
G1 X86.509 Y89.298 E40.84781
G1 X87.964 Y91.090 E40.96145
G1 X89.209 Y92.839 E41.06715
G1 X90.237 Y94.537 E41.16486
G1 X91.037 Y96.179 E41.25480
G1 X91.608 Y97.763 E41.33770
G1 X91.948 Y99.290 E41.41473
G1 X92.073 Y100.925 E41.49544
G1 X92.366 Y103.865 E41.64090
G1 X92.371 Y105.177 E41.70550
G1 X92.276 Y106.673 E41.77934
G1 X92.050 Y108.258 E41.85813
G1 X91.659 Y109.870 E41.93984
G1 X91.075 Y111.456 E42.02300
G1 X90.273 Y112.962 E42.10703
G1 X89.223 Y114.351 E42.19274
G1 X87.855 Y115.617 E42.28451
G1 X87.094 Y116.146 E42.33016
G1 X86.208 Y116.648 E42.38030
G1 X85.218 Y117.097 E42.43382
G1 X84.118 Y117.481 E42.49119
G1 X82.897 Y117.797 E42.55327
G1 X81.550 Y118.033 E42.62062
G1 X80.069 Y118.181 E42.69390
G1 X78.471 Y118.231 E42.77261
G1 X77.440 Y118.172 E42.82347
G1 X76.461 Y118.006 E42.87234
G1 X75.507 Y117.741 E42.92109
G1 X74.618 Y117.404 E42.96790
G1 X72.865 Y116.471 E43.06566
G1 X71.360 Y115.370 E43.15746
G1 X70.128 Y114.207 E43.24090
G1 X69.236 Y113.131 E43.30971
G1 X68.767 Y112.361 E43.35409
G1 X68.270 Y110.668 E43.44097
G1 X65.549 Y110.668 E43.57494
G1 X65.052 Y112.361 E43.66182
G1 X64.583 Y113.131 E43.70621
G1 X63.691 Y114.207 E43.77503
G1 X62.459 Y115.370 E43.85844
G1 X60.955 Y116.471 E43.95021
G1 X59.201 Y117.404 E44.04801
G1 X58.312 Y117.741 E44.09484
G1 X57.359 Y118.006 E44.14354
G1 X56.380 Y118.172 E44.19245
G1 X55.348 Y118.231 E44.24331
G1 X53.750 Y118.181 E44.32202
G1 X52.269 Y118.033 E44.39530
G1 X50.922 Y117.797 E44.46265
G1 X49.702 Y117.481 E44.52469
G1 X48.601 Y117.097 E44.58210
G1 X47.612 Y116.648 E44.63558
G1 X46.725 Y116.146 E44.68577
G1 X45.964 Y115.617 E44.73141
G1 X44.596 Y114.351 E44.82318
G1 X43.546 Y112.962 E44.90889
G1 X42.744 Y111.456 E44.99292
G1 X42.161 Y109.871 E45.07606
G1 X41.770 Y108.258 E45.15776
G1 X41.544 Y106.673 E45.23659
G1 X41.448 Y105.177 E45.31041
G1 X41.454 Y103.865 E45.37498
G1 X41.747 Y100.924 E45.52050
G1 X41.871 Y99.290 E45.60118
G1 X42.212 Y97.763 E45.67822
G1 X42.782 Y96.179 E45.76112
G1 X43.582 Y94.537 E45.85103
G1 X44.611 Y92.839 E45.94877
G1 X45.855 Y91.090 E46.05446
G1 X47.310 Y89.298 E46.16809
G1 X48.955 Y87.475 E46.28902
G1 X52.789 Y83.714 E46.55343
G1 X53.094 Y83.955 F9000.000
G1 X57.595 Y80.029 E46.84751 F600.000
G1 X62.665 Y75.950 E47.16788
G1 X66.909 Y72.709 E47.43083
G1 X71.071 Y75.887 E47.68863
G1 X76.225 Y80.029 E48.01416
G1 X80.725 Y83.955 E48.30822
G1 X84.586 Y87.742 E48.57445
G1 X86.216 Y89.549 E48.69430
G1 X87.657 Y91.324 E48.80685
G1 X88.887 Y93.051 E48.91125
G1 X89.897 Y94.722 E49.00738
G1 X90.681 Y96.329 E49.09544
G1 X91.236 Y97.871 E49.17611
G1 X91.565 Y99.347 E49.25058
G1 X91.688 Y100.959 E49.33014
G1 X91.980 Y103.884 E49.47491
G1 X91.985 Y105.165 E49.53796
G1 X91.892 Y106.634 E49.61043
G1 X91.670 Y108.185 E49.68755
G1 X91.289 Y109.758 E49.76726
G1 X90.722 Y111.298 E49.84803
G1 X89.947 Y112.754 E49.92925
G1 X88.936 Y114.091 E50.01178
G1 X87.613 Y115.315 E50.10054
