; generated by Slic3r 1.2.9 on 2018-06-03 at 17:49:05

; external perimeters extrusion width = 0.40mm
; perimeters extrusion width = 0.62mm
; infill extrusion width = 0.33mm
; solid infill extrusion width = 0.62mm
; top infill extrusion width = 0.20mm

M106 S256; Turn on fan to 100% power
M104 S140; turn on extruder temperature at S value
M140 S60; turn on bed temperature at S value
G28; home all axes
M84; disable motors
G1 Z15 F15000; have Z move to 20mm at 15000 mm/min
M190 S55; turn on bed temperature at S value and wait
M140 S55; turn on bed temperature at S value (printing temperature)
M109 S200; turn on extruder temperature at S value and wait (printing temperature)
M104 S200; turn on extruder temperature at S value
G1 Z0 F12000; move Z back to home
G21 ; set units to millimeters
G90 ; use absolute coordinates
M82 ; use absolute distances for extrusion
G92 E0
M106 S255
;Layer change
G1 E-6.00000 F1800.00000
G92 E0
G1 Z0.300 F9000.000
G1 X157.582 Y12.505 F9000.000
G1 E6.00000 F1800.00000
G1 X157.666 Y11.837 E6.03273 F600.000
G1 X157.788 Y11.292 E6.05992
G1 X157.996 Y10.652 E6.09264
G1 X158.218 Y10.140 E6.11980
G1 X158.541 Y9.551 E6.15249
G1 X158.856 Y9.088 E6.17976
G1 X159.284 Y8.570 E6.21241
G1 X159.680 Y8.174 E6.23968
G1 X160.198 Y7.746 E6.27233
G1 X160.661 Y7.431 E6.29960
G1 X161.249 Y7.108 E6.33225
G1 X161.764 Y6.885 E6.35952
G1 X162.403 Y6.678 E6.39220
G1 X162.948 Y6.556 E6.41941
G1 X163.615 Y6.472 E6.45209
G1 X164.025 Y6.454 E6.47207
G1 X164.434 Y6.462 E6.49195
G1 X164.845 Y6.496 E6.51202 F600.000
G1 X165.252 Y6.556 E6.53206
G1 X165.798 Y6.678 E6.55924
G1 X166.191 Y6.797 E6.57924
G1 X166.576 Y6.941 E6.59922
G1 X167.183 Y7.226 E6.63187
G1 X167.539 Y7.431 E6.65185
G1 X167.881 Y7.658 E6.67183
G1 X168.208 Y7.906 E6.69180
G1 X168.629 Y8.277 E6.71907
G1 X168.916 Y8.570 E6.73905
G1 X169.185 Y8.883 E6.75912
G1 X169.577 Y9.423 E6.79158
G1 X169.791 Y9.776 E6.81165
G1 X169.982 Y10.139 E6.83163
G1 X170.205 Y10.654 E6.85889
G1 X170.339 Y11.042 E6.87887
G1 X170.449 Y11.437 E6.89885
G1 X170.575 Y12.096 E6.93151
G1 X170.618 Y12.505 E6.95148
G1 X170.636 Y12.915 E6.97147
G1 X170.618 Y13.475 E6.99873
G1 X170.575 Y13.884 E7.01870
G1 X170.449 Y14.543 E7.05136
G1 X170.339 Y14.938 E7.07134
G1 X170.150 Y15.465 E7.09857
G1 X169.982 Y15.841 E7.11858
G1 X169.791 Y16.204 E7.13856
G1 X169.432 Y16.771 E7.17121
G1 X169.183 Y17.099 E7.19121
G1 X168.813 Y17.519 E7.21845
G1 X168.520 Y17.806 E7.23843
G1 X168.208 Y18.074 E7.25841
G1 X167.665 Y18.468 E7.29106
G1 X167.314 Y18.681 E7.31104
G1 X166.950 Y18.872 E7.33106
G1 X166.437 Y19.094 E7.35825
G1 X166.048 Y19.229 E7.37826
G1 X165.653 Y19.339 E7.39823
G1 X164.994 Y19.465 E7.43089
G1 X164.585 Y19.508 E7.45087
G1 X164.175 Y19.526 E7.47084
G1 X163.615 Y19.508 E7.49811
G1 X163.206 Y19.465 E7.51809
G1 X162.547 Y19.339 E7.55074
G1 X162.152 Y19.229 E7.57072
G1 X161.764 Y19.095 E7.59069
G1 X161.249 Y18.872 E7.61796
G1 X160.886 Y18.681 E7.63794
G1 X160.319 Y18.322 E7.67059
G1 X159.991 Y18.074 E7.69058
G1 X159.571 Y17.703 E7.71783
G1 X159.284 Y17.410 E7.73781
G1 X159.016 Y17.098 E7.75779
G1 X158.622 Y16.555 E7.79044
G1 X158.409 Y16.204 E7.81042
G1 X158.218 Y15.840 E7.83044
G1 X157.996 Y15.328 E7.85760
G1 X157.861 Y14.938 E7.87764
G1 X157.751 Y14.543 E7.89762
G1 X157.625 Y13.884 E7.93027
G1 X157.582 Y13.475 E7.95025
G1 X157.564 Y13.065 E7.97022
G1 X157.578 Y12.565 E7.99457
G1 E1.99457 F1800.00000
G92 E0
G1 X166.693 Y13.318 F9000.000
G1 E6.00000 F1800.00000
G1 X166.585 Y13.798 E6.02393 F600.000
G1 X166.390 Y14.249 E6.04786
G1 X166.114 Y14.656 E6.07179
G1 X165.773 Y14.997 E6.09525
G1 X165.499 Y15.195 E6.11168
G1 X165.204 Y15.358 E6.12810
G1 X164.750 Y15.521 E6.15156
G1 X164.264 Y15.598 E6.17549
G1 X163.772 Y15.583 E6.19942
G1 X163.292 Y15.475 E6.22335
G1 X162.841 Y15.280 E6.24728
G1 X162.434 Y15.004 E6.27121
G1 X162.086 Y14.656 E6.29515
G1 X161.815 Y14.257 E6.31860
G1 X161.672 Y13.951 E6.33503
G1 X161.567 Y13.630 E6.35146
G1 X161.492 Y13.154 E6.37492
G1 X161.507 Y12.672 E6.39838
G1 X161.570 Y12.340 E6.41480
G1 X161.675 Y12.019 E6.43123
G1 X161.894 Y11.590 E6.45469
G1 X162.195 Y11.201 E6.47862
G1 X162.564 Y10.876 E6.50255
G1 X162.987 Y10.625 E6.52648
G1 X163.450 Y10.459 E6.55041
G1 X163.936 Y10.382 E6.57434 F600.000
G1 X164.418 Y10.397 E6.59780
G1 X164.750 Y10.460 E6.61423
G1 X165.071 Y10.565 E6.63065
G1 X165.500 Y10.783 E6.65411
G1 X165.889 Y11.085 E6.67804
G1 X166.214 Y11.454 E6.70197
G1 X166.465 Y11.877 E6.72590
G1 X166.631 Y12.340 E6.74983
G1 X166.708 Y12.826 E6.77376
G1 X166.695 Y13.258 E6.79478
G1 X166.308 Y13.269 F9000.000
G1 X166.217 Y13.678 E6.81516 F600.000
G1 X166.051 Y14.062 E6.83554
G1 X165.815 Y14.409 E6.85593
G1 X165.521 Y14.703 E6.87614
G1 X165.292 Y14.869 E6.88990
G1 X165.044 Y15.005 E6.90367
G1 X164.654 Y15.146 E6.92388
G1 X164.240 Y15.212 E6.94427
G1 X163.821 Y15.198 E6.96465
G1 X163.412 Y15.107 E6.98504
G1 X163.028 Y14.941 E7.00542
G1 X162.681 Y14.705 E7.02580
G1 X162.385 Y14.409 E7.04619
G1 X162.151 Y14.065 E7.06639
G1 X162.031 Y13.809 E7.08016
G1 X161.943 Y13.540 E7.09393
G1 X161.878 Y13.130 E7.11414
G1 X161.891 Y12.715 E7.13435
G1 X161.944 Y12.437 E7.14812
G1 X162.032 Y12.167 E7.16189
G1 X162.221 Y11.797 E7.18210
G1 X162.477 Y11.466 E7.20249
G1 X162.792 Y11.189 E7.22287
G1 X163.152 Y10.976 E7.24325
G1 X163.546 Y10.834 E7.26364
G1 X163.960 Y10.768 E7.28402 F600.000
G1 X164.375 Y10.781 E7.30423
G1 X164.653 Y10.834 E7.31800
G1 X164.923 Y10.922 E7.33177
G1 X165.293 Y11.111 E7.35198
G1 X165.624 Y11.367 E7.37236
G1 X165.901 Y11.682 E7.39275
G1 X166.114 Y12.042 E7.41313
G1 X166.256 Y12.436 E7.43351
G1 X166.322 Y12.850 E7.45390
G1 X166.310 Y13.209 E7.47136
G1 X166.619 Y13.521 F9000.000
G1 X167.596 Y13.515 F9000.000
G1 X167.470 Y14.075 E7.49930 F600.000
G1 X167.299 Y14.506 E7.52186
G1 X167.207 Y14.687 E7.53175
G1 X166.964 Y15.071 E7.55384
G1 X166.680 Y15.413 E7.57547
G1 X166.351 Y15.723 E7.59747
G1 X166.189 Y15.849 E7.60746
G1 X165.805 Y16.092 E7.62954
G1 X165.396 Y16.284 E7.65155
G1 X165.203 Y16.354 E7.66153
G1 X164.754 Y16.469 E7.68409
G1 X164.553 Y16.501 E7.69397
G1 X164.090 Y16.530 E7.71653
G1 X163.666 Y16.504 E7.73723
G1 X163.220 Y16.418 E7.75933
G1 X162.788 Y16.278 E7.78142
G1 X162.403 Y16.097 E7.80212
G1 X162.011 Y15.849 E7.82467
G1 X161.849 Y15.723 E7.83466
G1 X161.513 Y15.407 E7.85713
G1 X161.378 Y15.254 E7.86701
G1 X161.111 Y14.887 E7.88911
G1 X160.897 Y14.497 E7.91074
G1 X160.730 Y14.075 E7.93283
G1 X160.673 Y13.880 E7.94272
G1 X160.588 Y13.434 E7.96481
G1 X160.560 Y12.980 E7.98690
G1 X160.586 Y12.556 E8.00760
G1 X160.673 Y12.100 E8.03016
G1 X160.730 Y11.905 E8.04005
G1 X160.897 Y11.483 E8.06214
G1 X161.116 Y11.085 E8.08424
G1 X161.230 Y10.917 E8.09413
G1 X161.526 Y10.560 E8.11669
G1 X161.670 Y10.416 E8.12657
G1 X162.027 Y10.120 E8.14914
G1 X162.386 Y9.892 E8.16983
G1 X162.797 Y9.699 E8.19193
G1 X163.227 Y9.559 E8.21393
G1 X163.427 Y9.514 E8.22392
G1 X163.878 Y9.457 E8.24600
G1 X164.330 Y9.457 E8.26801
G1 X164.534 Y9.476 E8.27799
G1 X164.980 Y9.562 E8.30008 F600.000
G1 X165.410 Y9.701 E8.32208
G1 X165.797 Y9.883 E8.34287
G1 X166.189 Y10.131 E8.36543
G1 X166.349 Y10.256 E8.37532
G1 X166.680 Y10.567 E8.39741
G1 X166.964 Y10.909 E8.41904
G1 X167.207 Y11.293 E8.44113
G1 X167.299 Y11.474 E8.45102
G1 X167.470 Y11.905 E8.47358
G1 X167.527 Y12.100 E8.48347
G1 X167.614 Y12.556 E8.50603
G1 X167.633 Y12.758 E8.51592
G1 X167.633 Y13.222 E8.53848
G1 X167.608 Y13.456 E8.54992
G1 X167.975 Y13.587 F9000.000
G1 X167.902 Y13.970 E8.56889 F600.000
G1 X167.835 Y14.200 E8.58054
G1 X167.651 Y14.665 E8.60487
G1 X167.542 Y14.878 E8.61653
G1 X167.276 Y15.298 E8.64069
G1 X166.962 Y15.678 E8.66468
G1 X166.601 Y16.016 E8.68874
G1 X166.411 Y16.164 E8.70049
G1 X165.991 Y16.430 E8.72465
G1 X165.544 Y16.641 E8.74871
G1 X165.317 Y16.723 E8.76047
G1 X164.832 Y16.847 E8.78480
G1 X164.596 Y16.885 E8.79645
G1 X164.096 Y16.916 E8.82078
G1 X163.611 Y16.886 E8.84443
G1 X163.124 Y16.793 E8.86859
G1 X162.651 Y16.639 E8.89275
G1 X162.212 Y16.432 E8.91639
G1 X161.789 Y16.164 E8.94072
G1 X161.599 Y16.016 E8.95248
G1 X161.235 Y15.675 E8.97671
G1 X161.077 Y15.495 E8.98837
G1 X160.785 Y15.094 E9.01253
G1 X160.548 Y14.662 E9.03651
G1 X160.365 Y14.200 E9.06067
G1 X160.298 Y13.970 E9.07233
G1 X160.205 Y13.482 E9.09649
G1 X160.174 Y12.986 E9.12065
G1 X160.204 Y12.501 E9.14429
G1 X160.298 Y12.010 E9.16862
G1 X160.365 Y11.780 E9.18028
G1 X160.548 Y11.318 E9.20444
G1 X160.787 Y10.883 E9.22860
G1 X160.922 Y10.685 E9.24025
G1 X161.240 Y10.300 E9.26459
G1 X161.410 Y10.130 E9.27624
G1 X161.795 Y9.811 E9.30057
G1 X162.205 Y9.551 E9.32422
G1 X162.655 Y9.340 E9.34838
G1 X163.125 Y9.187 E9.37244
G1 X163.361 Y9.134 E9.38420
G1 X163.853 Y9.072 E9.40835
G1 X164.348 Y9.072 E9.43241
G1 X164.589 Y9.094 E9.44417
G1 X165.076 Y9.187 E9.46833 F600.000
G1 X165.547 Y9.340 E9.49239
G1 X165.988 Y9.548 E9.51613
G1 X166.411 Y9.816 E9.54046
G1 X166.600 Y9.962 E9.55212
G1 X166.962 Y10.302 E9.57628
G1 X167.276 Y10.682 E9.60026
G1 X167.542 Y11.102 E9.62442
G1 X167.651 Y11.315 E9.63608
G1 X167.835 Y11.780 E9.66041
G1 X167.902 Y12.010 E9.67207
G1 X167.996 Y12.501 E9.69640
G1 X168.018 Y12.740 E9.70805
G1 X168.018 Y13.240 E9.73239
G1 X167.986 Y13.528 E9.74648
G1 X167.610 Y13.723 F9000.000
G1 X167.145 Y13.415 F9000.000
G1 X167.031 Y13.925 E9.80153 F600.000
G1 X166.804 Y14.457 E9.86258
G1 X166.452 Y14.968 E9.92801
G1 X166.049 Y15.370 E9.98796
G1 X165.580 Y15.683 E10.04738
G1 X165.374 Y15.786 E10.07171
G1 X165.065 Y15.906 E10.10664
G1 X164.840 Y15.973 E10.13140
G1 X164.502 Y16.035 E10.16764
G1 X164.268 Y16.058 E10.19242
G1 X163.907 Y16.056 E10.23046
G1 X163.689 Y16.038 E10.25348
G1 X163.174 Y15.920 E10.30918
G1 X162.640 Y15.698 E10.37016
G1 X162.150 Y15.370 E10.43229
G1 X161.849 Y15.080 E10.47637
G1 X161.740 Y14.964 E10.49317
G1 X161.507 Y14.636 E10.53565
G1 X161.406 Y14.467 E10.55643
G1 X161.250 Y14.137 E10.59490
G1 X161.122 Y13.759 E10.63692
G1 X161.032 Y13.158 E10.70101
G1 X161.046 Y12.621 E10.75761 F600.000
G1 X161.125 Y12.209 E10.80189
G1 X161.242 Y11.863 E10.84039
G1 X161.511 Y11.327 E10.90360
G1 X161.869 Y10.872 E10.96465
G1 X162.305 Y10.491 E11.02570
G1 X162.606 Y10.307 E11.06284
G1 X162.970 Y10.135 E11.10529
G1 X163.350 Y10.006 E11.14758
G1 X163.508 Y9.976 E11.16459
G1 X163.907 Y9.920 E11.20706
G1 X164.308 Y9.925 E11.24936
G1 X164.469 Y9.936 E11.26637
G1 X164.865 Y10.011 E11.30885
G1 X165.247 Y10.135 E11.35116
G1 X165.565 Y10.290 E11.38848
G1 X165.919 Y10.515 E11.43271
G1 X166.185 Y10.733 E11.46895
G1 X166.573 Y11.162 E11.52993
G1 X166.877 Y11.665 E11.59186
G1 X167.076 Y12.208 E11.65291
G1 X167.170 Y12.780 E11.71396
G1 X167.155 Y13.356 E11.77469
M104 S205 ; set temperature
M140 S55 ; wait for bed temperature to be reached
;Layer change
G1 E5.77469 F1800.00000
G92 E0
G1 Z0.520 F9000.000
G1 X166.744 Y13.325 F9000.000
G1 E6.00000 F1800.00000
G1 X166.635 Y13.813 E6.02643 F649.974
G1 X166.435 Y14.274 E6.05294
G1 X166.153 Y14.689 E6.07945
G1 X165.806 Y15.036 E6.10541
G1 X165.527 Y15.239 E6.12363
G1 X165.225 Y15.405 E6.14186
G1 X164.763 Y15.571 E6.16781
G1 X164.267 Y15.650 E6.19432
G1 X163.766 Y15.634 E6.22083
G1 X163.276 Y15.525 E6.24734
G1 X162.816 Y15.325 E6.27384
G1 X162.401 Y15.043 E6.30035
G1 X162.047 Y14.689 E6.32686
G1 X161.771 Y14.283 E6.35281
G1 X161.624 Y13.970 E6.37104
G1 X161.517 Y13.642 E6.38927
G1 X161.440 Y13.157 E6.41522
G1 X161.456 Y12.656 E6.44173
G1 X161.565 Y12.166 E6.46824
G1 X161.765 Y11.706 E6.49474
G1 X162.047 Y11.291 E6.52125
G1 X162.394 Y10.944 E6.54720
G1 X162.673 Y10.741 E6.56543
G1 X162.975 Y10.575 E6.58366
G1 X163.437 Y10.409 E6.60961
G1 X163.933 Y10.330 E6.63612 F649.974
G1 X164.424 Y10.346 E6.66207
G1 X164.762 Y10.410 E6.68030
G1 X165.090 Y10.517 E6.69853
G1 X165.528 Y10.740 E6.72448
G1 X165.924 Y11.047 E6.75099
G1 X166.256 Y11.424 E6.77750
G1 X166.511 Y11.855 E6.80400
G1 X166.681 Y12.327 E6.83051
G1 X166.760 Y12.823 E6.85702
G1 X166.746 Y13.265 E6.88043
G1 X166.284 Y13.266 F9000.000
G1 X166.193 Y13.670 E6.89395 F649.974
G1 X166.029 Y14.050 E6.90747
G1 X165.796 Y14.393 E6.92099
G1 X165.505 Y14.684 E6.93441
G1 X165.279 Y14.848 E6.94353
G1 X165.034 Y14.982 E6.95265
G1 X164.647 Y15.122 E6.96607
G1 X164.238 Y15.187 E6.97959
G1 X163.824 Y15.174 E6.99311
G1 X163.420 Y15.083 E7.00663
G1 X163.040 Y14.919 E7.02015
G1 X162.697 Y14.686 E7.03368
G1 X162.404 Y14.393 E7.04720
G1 X162.173 Y14.053 E7.06061
G1 X162.054 Y13.800 E7.06974
G1 X161.968 Y13.534 E7.07886
G1 X161.903 Y13.128 E7.09228
G1 X161.916 Y12.714 E7.10580
G1 X162.007 Y12.310 E7.11932
G1 X162.171 Y11.930 E7.13284
G1 X162.404 Y11.587 E7.14636
G1 X162.695 Y11.296 E7.15978
G1 X162.921 Y11.132 E7.16890
G1 X163.166 Y10.998 E7.17802
G1 X163.553 Y10.858 E7.19144
G1 X163.962 Y10.793 E7.20496 F649.974
G1 X164.373 Y10.806 E7.21838
G1 X164.647 Y10.859 E7.22750
G1 X164.913 Y10.945 E7.23662
G1 X165.279 Y11.132 E7.25004
G1 X165.607 Y11.386 E7.26356
G1 X165.881 Y11.696 E7.27708
G1 X166.091 Y12.053 E7.29060
G1 X166.232 Y12.443 E7.30412
G1 X166.297 Y12.852 E7.31764
G1 X166.285 Y13.206 E7.32921
G1 X166.594 Y13.518 F9000.000
G1 X167.548 Y13.507 F9000.000
G1 X167.424 Y14.059 E7.35911 F649.974
G1 X167.255 Y14.486 E7.38338
G1 X167.165 Y14.663 E7.39387
G1 X166.924 Y15.042 E7.41759
G1 X166.645 Y15.380 E7.44076
G1 X166.321 Y15.684 E7.46420
G1 X166.160 Y15.809 E7.47499
G1 X165.782 Y16.049 E7.49869
G1 X165.380 Y16.238 E7.52213
G1 X164.973 Y16.370 E7.54474
G1 X164.538 Y16.453 E7.56818
G1 X164.090 Y16.481 E7.59191
G1 X163.881 Y16.475 E7.60295
G1 X163.673 Y16.455 E7.61399
G1 X163.232 Y16.371 E7.63771
G1 X162.810 Y16.234 E7.66116
G1 X162.427 Y16.055 E7.68350
G1 X162.040 Y15.809 E7.70775
G1 X161.879 Y15.684 E7.71853
G1 X161.555 Y15.380 E7.74197
G1 X161.270 Y15.034 E7.76567
G1 X161.155 Y14.865 E7.77646
G1 X160.941 Y14.476 E7.79990
G1 X160.776 Y14.059 E7.82362
G1 X160.721 Y13.868 E7.83412
G1 X160.637 Y13.428 E7.85783
G1 X160.609 Y12.980 E7.88155
G1 X160.635 Y12.563 E7.90363
G1 X160.721 Y12.112 E7.92789
G1 X160.776 Y11.921 E7.93839
G1 X160.941 Y11.504 E7.96211
G1 X161.155 Y11.115 E7.98556
G1 X161.270 Y10.946 E7.99634
G1 X161.562 Y10.592 E8.02058
G1 X161.702 Y10.452 E8.03108
G1 X162.056 Y10.159 E8.05535
G1 X162.409 Y9.935 E8.07742
G1 X162.815 Y9.744 E8.10114
G1 X163.237 Y9.607 E8.12459
G1 X163.436 Y9.562 E8.13537
G1 X163.881 Y9.506 E8.15907
G1 X164.325 Y9.506 E8.18252
G1 X164.528 Y9.525 E8.19330
G1 X164.968 Y9.609 E8.21700 F649.974
G1 X165.390 Y9.746 E8.24044
G1 X165.773 Y9.925 E8.26278
G1 X166.161 Y10.171 E8.28705
G1 X166.318 Y10.293 E8.29754
G1 X166.645 Y10.600 E8.32126
G1 X166.924 Y10.938 E8.34443
G1 X167.165 Y11.317 E8.36815
G1 X167.255 Y11.494 E8.37864
G1 X167.424 Y11.921 E8.40291
G1 X167.479 Y12.112 E8.41340
G1 X167.565 Y12.563 E8.43767
G1 X167.584 Y12.760 E8.44816
G1 X167.584 Y13.220 E8.47243
G1 X167.559 Y13.448 E8.48458
G1 X168.002 Y13.594 F9000.000
G1 X167.929 Y13.976 E8.49729 F649.974
G1 X167.861 Y14.209 E8.50520
G1 X167.676 Y14.676 E8.52161
G1 X167.566 Y14.892 E8.52951
G1 X167.299 Y15.314 E8.54582
G1 X166.982 Y15.697 E8.56203
G1 X166.622 Y16.035 E8.57816
G1 X166.426 Y16.187 E8.58624
G1 X166.005 Y16.455 E8.60255
G1 X165.558 Y16.665 E8.61868
G1 X165.081 Y16.820 E8.63503
G1 X164.596 Y16.913 E8.65116
G1 X164.097 Y16.944 E8.66747
G1 X163.852 Y16.936 E8.67548
G1 X163.608 Y16.913 E8.68348
G1 X163.117 Y16.819 E8.69979
G1 X162.647 Y16.667 E8.71592
G1 X162.198 Y16.456 E8.73210
G1 X161.774 Y16.187 E8.74851
G1 X161.578 Y16.035 E8.75659
G1 X161.218 Y15.697 E8.77272
G1 X160.899 Y15.312 E8.78903
G1 X160.761 Y15.107 E8.79711
G1 X160.523 Y14.673 E8.81324
G1 X160.339 Y14.209 E8.82955
G1 X160.271 Y13.976 E8.83745
G1 X160.177 Y13.486 E8.85376
G1 X160.146 Y12.987 E8.87007
G1 X160.177 Y12.498 E8.88607
G1 X160.271 Y12.004 E8.90249
G1 X160.339 Y11.771 E8.91039
G1 X160.523 Y11.307 E8.92670
G1 X160.761 Y10.873 E8.94283
G1 X160.899 Y10.668 E8.95091
G1 X161.220 Y10.281 E8.96732
G1 X161.391 Y10.110 E8.97522
G1 X161.778 Y9.789 E8.99163
G1 X162.192 Y9.527 E9.00763
G1 X162.645 Y9.314 E9.02394
G1 X163.115 Y9.161 E9.04008
G1 X163.356 Y9.107 E9.04816
G1 X163.852 Y9.044 E9.06446
G1 X164.346 Y9.044 E9.08059
G1 X164.593 Y9.067 E9.08868
G1 X165.083 Y9.161 E9.10498 F649.974
G1 X165.553 Y9.313 E9.12111
