; generated by Slic3r 1.2.9 on 2018-06-05 at 21:05:29

; external perimeters extrusion width = 0.40mm
; perimeters extrusion width = 0.62mm
; infill extrusion width = 0.33mm
; solid infill extrusion width = 0.62mm
; top infill extrusion width = 0.20mm

M106 S256; Turn on fan to 100% power
M104 S140; turn on extruder temperature at S value
M140 S60; turn on bed temperature at S value
G28; home all axes
M84; disable motors
G1 Z15 F15000; have Z move to 20mm at 15000 mm/min
M190 S55; turn on bed temperature at S value and wait
M140 S55; turn on bed temperature at S value (printing temperature)
M109 S200; turn on extruder temperature at S value and wait (printing temperature)
M104 S200; turn on extruder temperature at S value
G1 Z0 F12000; move Z back to home
G21 ; set units to millimeters
G90 ; use absolute coordinates
M82 ; use absolute distances for extrusion
G92 E0
M106 S255
;Layer change
G1 E-6.00000 F1800.00000
G92 E0
G1 Z0.300 F9000.000
G1 X147.888 Y15.113 F9000.000
G1 E6.00000 F1800.00000
G1 X147.994 Y14.446 E6.03286 F600.000
G1 X148.219 Y13.568 E6.07698
G1 X148.448 Y12.932 E6.10983
G1 X148.833 Y12.114 E6.15382
G1 X149.177 Y11.532 E6.18673
G1 X149.709 Y10.800 E6.23072
G1 X150.156 Y10.293 E6.26363
G1 X150.815 Y9.674 E6.30761
G1 X151.350 Y9.259 E6.34054
G1 X152.113 Y8.775 E6.38452
G1 X152.716 Y8.468 E6.41744
G1 X153.557 Y8.135 E6.46147
G1 X154.206 Y7.946 E6.49434
G1 X155.094 Y7.777 E6.53832
G1 X155.767 Y7.713 E6.57119
G1 X156.670 Y7.713 E6.61510
G1 X157.197 Y7.758 E6.64086 F600.000
G1 X157.719 Y7.836 E6.66655
G1 X158.379 Y7.983 E6.69943
G1 X158.883 Y8.135 E6.72506
G1 X159.724 Y8.468 E6.76904
G1 X160.196 Y8.703 E6.79471
G1 X160.778 Y9.047 E6.82761
G1 X161.211 Y9.347 E6.85325
G1 X161.625 Y9.674 E6.87889
G1 X162.284 Y10.293 E6.92286
G1 X162.636 Y10.685 E6.94850
G1 X163.050 Y11.220 E6.98141
G1 X163.343 Y11.658 E7.00707
G1 X163.607 Y12.114 E7.03271
G1 X163.992 Y12.932 E7.07668
G1 X164.175 Y13.427 E7.10233
G1 X164.364 Y14.076 E7.13525
G1 X164.474 Y14.592 E7.16089
G1 X164.587 Y15.486 E7.20475
G1 X164.609 Y16.015 E7.23051
G1 X164.588 Y16.691 E7.26342
G1 X164.533 Y17.216 E7.28907
G1 X164.446 Y17.735 E7.31468
G1 X164.327 Y18.249 E7.34035
G1 X164.175 Y18.753 E7.36597
G1 X163.992 Y19.248 E7.39163
G1 X163.607 Y20.066 E7.43561
G1 X163.343 Y20.522 E7.46125
G1 X163.051 Y20.960 E7.48689
G1 X162.636 Y21.495 E7.51981
G1 X162.284 Y21.887 E7.54546
G1 X161.625 Y22.506 E7.58943
G1 X161.211 Y22.833 E7.61507
G1 X160.652 Y23.213 E7.64800
G1 X160.196 Y23.477 E7.67364
G1 X159.380 Y23.861 E7.71750
G1 X158.884 Y24.045 E7.74325
G1 X158.379 Y24.197 E7.76889
G1 X157.718 Y24.344 E7.80181
G1 X157.197 Y24.422 E7.82746
G1 X156.295 Y24.479 E7.87143
G1 X155.768 Y24.467 E7.89708
G1 X155.243 Y24.422 E7.92271
G1 X154.576 Y24.316 E7.95557
G1 X154.061 Y24.197 E7.98128
G1 X153.556 Y24.045 E8.00692
G1 X153.062 Y23.862 E8.03256
G1 X152.244 Y23.477 E8.07654
G1 X151.788 Y23.213 E8.10217
G1 X151.350 Y22.921 E8.12781
G1 X150.931 Y22.601 E8.15346
G1 X150.423 Y22.154 E8.18638
G1 X150.052 Y21.776 E8.21213
G1 X149.477 Y21.081 E8.25599
G1 X149.177 Y20.648 E8.28164
G1 X148.833 Y20.067 E8.31451
G1 X148.598 Y19.594 E8.34020
G1 X148.393 Y19.108 E8.36584
G1 X148.113 Y18.249 E8.40982
G1 X147.994 Y17.735 E8.43549
G1 X147.888 Y17.067 E8.46839
G1 X147.843 Y16.542 E8.49401
G1 X147.831 Y16.015 E8.51966
G1 X147.882 Y15.173 E8.56072
G1 E2.56072 F1800.00000
G92 E0
G1 X161.216 Y16.404 F9000.000
G1 E6.00000 F1800.00000
G1 X161.136 Y17.041 E6.03124 F600.000
G1 X161.074 Y17.320 E6.04514
G1 X160.875 Y17.933 E6.07648
G1 X160.600 Y18.516 E6.10782
G1 X160.456 Y18.760 E6.12160
G1 X160.068 Y19.294 E6.15372
G1 X159.881 Y19.506 E6.16750
G1 X159.411 Y19.947 E6.19885
G1 X158.890 Y20.326 E6.23020
G1 X158.646 Y20.470 E6.24398
G1 X158.051 Y20.750 E6.27598
G1 X157.480 Y20.936 E6.30516
G1 X156.832 Y21.060 E6.33727
G1 X156.550 Y21.086 E6.35105
G1 X155.890 Y21.086 E6.38316
G1 X155.608 Y21.060 E6.39694
G1 X154.960 Y20.936 E6.42906
G1 X154.688 Y20.857 E6.44284
G1 X154.088 Y20.620 E6.47419
G1 X153.524 Y20.309 E6.50554
G1 X153.290 Y20.150 E6.51932
G1 X152.783 Y19.731 E6.55131
G1 X152.579 Y19.527 E6.56532
G1 X152.160 Y19.020 E6.59732
G1 X152.001 Y18.786 E6.61110
G1 X151.690 Y18.221 E6.64245
G1 X151.454 Y17.624 E6.67369
G1 X151.374 Y17.350 E6.68759
G1 X151.253 Y16.717 E6.71893
G1 X151.213 Y16.074 E6.75028
G1 X151.250 Y15.478 E6.77935
G1 X151.374 Y14.830 E6.81145
G1 X151.454 Y14.556 E6.82535
G1 X151.690 Y13.959 E6.85659
G1 X152.001 Y13.394 E6.88794
G1 X152.160 Y13.160 E6.90172
G1 X152.579 Y12.653 E6.93372
G1 X152.781 Y12.451 E6.94762
G1 X153.290 Y12.030 E6.97972
G1 X153.524 Y11.871 E6.99350
G1 X154.102 Y11.553 E7.02562
G1 X154.377 Y11.434 E7.04016
G1 X154.658 Y11.333 E7.05470
G1 X155.282 Y11.173 E7.08605
G1 X155.906 Y11.094 E7.11664
G1 X156.548 Y11.094 E7.14788
G1 X156.832 Y11.120 E7.16178
G1 X157.465 Y11.241 E7.19311 F600.000
G1 X158.078 Y11.440 E7.22446
G1 X158.618 Y11.695 E7.25353
G1 X159.176 Y12.048 E7.28565
G1 X159.400 Y12.222 E7.29943
G1 X159.881 Y12.674 E7.33154
G1 X160.068 Y12.886 E7.34532
G1 X160.456 Y13.420 E7.37743
G1 X160.600 Y13.664 E7.39121
G1 X160.875 Y14.247 E7.42256
G1 X161.074 Y14.860 E7.45391
G1 X161.135 Y15.136 E7.46769
G1 X161.216 Y15.776 E7.49904
G1 X161.216 Y16.344 E7.52671
G1 X161.599 Y16.453 F9000.000
G1 X161.516 Y17.108 E7.55883 F600.000
G1 X161.446 Y17.422 E7.57450
G1 X161.234 Y18.075 E7.60791
G1 X160.941 Y18.697 E7.64132
G1 X160.779 Y18.972 E7.65687
G1 X160.369 Y19.535 E7.69075
G1 X160.158 Y19.775 E7.70630
G1 X159.657 Y20.245 E7.73972
G1 X159.102 Y20.649 E7.77313
G1 X158.827 Y20.811 E7.78868
G1 X158.199 Y21.107 E7.82245
G1 X157.571 Y21.311 E7.85458
G1 X156.886 Y21.442 E7.88846
G1 X156.568 Y21.472 E7.90401
G1 X155.872 Y21.472 E7.93789
G1 X155.554 Y21.442 E7.95344
G1 X154.869 Y21.311 E7.98732
G1 X154.563 Y21.222 E8.00287
G1 X153.924 Y20.969 E8.03629
G1 X153.322 Y20.638 E8.06970
G1 X153.058 Y20.459 E8.08525
G1 X152.523 Y20.016 E8.11902
G1 X152.294 Y19.787 E8.13480
G1 X151.851 Y19.252 E8.16856
G1 X151.672 Y18.988 E8.18412
G1 X151.341 Y18.386 E8.21753
G1 X151.089 Y17.750 E8.25083
G1 X150.999 Y17.440 E8.26650
G1 X150.870 Y16.766 E8.29991
G1 X150.827 Y16.080 E8.33332
G1 X150.868 Y15.424 E8.36534
G1 X150.999 Y14.740 E8.39921
G1 X151.089 Y14.430 E8.41488
G1 X151.341 Y13.794 E8.44818
G1 X151.672 Y13.192 E8.48160
G1 X151.851 Y12.928 E8.49715
G1 X152.294 Y12.393 E8.53092
G1 X152.521 Y12.165 E8.54659
G1 X153.058 Y11.721 E8.58046
G1 X153.322 Y11.542 E8.59601
G1 X153.932 Y11.206 E8.62989
G1 X154.544 Y10.964 E8.66191
G1 X155.210 Y10.793 E8.69533
G1 X155.881 Y10.708 E8.72827
G1 X156.566 Y10.708 E8.76157
G1 X156.887 Y10.738 E8.77724
G1 X157.561 Y10.867 E8.81065 F600.000
G1 X158.214 Y11.079 E8.84406
G1 X158.810 Y11.359 E8.87608
G1 X159.398 Y11.733 E8.90996
G1 X159.650 Y11.928 E8.92551
G1 X160.158 Y12.405 E8.95940
G1 X160.369 Y12.645 E8.97494
G1 X160.779 Y13.208 E9.00883
G1 X160.941 Y13.483 E9.02438
G1 X161.234 Y14.105 E9.05779
G1 X161.446 Y14.758 E9.09121
G1 X161.516 Y15.070 E9.10675
G1 X161.602 Y15.751 E9.14017
G1 X161.602 Y16.393 E9.17138
G1 X161.981 Y16.501 F9000.000
G1 X161.896 Y17.174 E9.20438 F600.000
G1 X161.818 Y17.524 E9.22182
G1 X161.593 Y18.217 E9.25730
G1 X161.283 Y18.877 E9.29277
G1 X161.101 Y19.184 E9.31009
G1 X160.671 Y19.776 E9.34574
G1 X160.435 Y20.043 E9.36306
G1 X159.904 Y20.543 E9.39854
G1 X159.314 Y20.971 E9.43402
G1 X159.007 Y21.153 E9.45134
G1 X158.346 Y21.464 E9.48688
G1 X157.661 Y21.687 E9.52196
G1 X156.941 Y21.824 E9.55761
G1 X156.586 Y21.857 E9.57493
G1 X155.854 Y21.857 E9.61058
G1 X155.499 Y21.824 E9.62790
G1 X154.779 Y21.687 E9.66355
G1 X154.438 Y21.587 E9.68087
G1 X153.759 Y21.319 E9.71635
G1 X153.120 Y20.968 E9.75183
G1 X152.826 Y20.767 E9.76915
G1 X152.263 Y20.302 E9.80468
G1 X152.008 Y20.047 E9.82224
G1 X151.543 Y19.484 E9.85777
G1 X151.342 Y19.190 E9.87509
G1 X150.991 Y18.551 E9.91057
G1 X150.723 Y17.875 E9.94593
G1 X150.623 Y17.531 E9.96337
G1 X150.487 Y16.814 E9.99884
G1 X150.441 Y16.086 E10.03432
G1 X150.486 Y15.369 E10.06929
G1 X150.623 Y14.649 E10.10494
G1 X150.723 Y14.305 E10.12238
G1 X150.991 Y13.629 E10.15774
G1 X151.342 Y12.990 E10.19322
G1 X151.543 Y12.696 E10.21054
G1 X152.008 Y12.133 E10.24607
G1 X152.261 Y11.880 E10.26351
G1 X152.826 Y11.413 E10.29916
G1 X153.120 Y11.212 E10.31648
G1 X153.763 Y10.859 E10.35213
G1 X154.431 Y10.595 E10.38709
G1 X155.137 Y10.413 E10.42257
G1 X155.857 Y10.323 E10.45788
G1 X156.584 Y10.322 E10.49324
G1 X156.941 Y10.356 E10.51068
G1 X157.657 Y10.493 E10.54616 F600.000
G1 X158.351 Y10.718 E10.58164
G1 X159.001 Y11.024 E10.61660
G1 X159.620 Y11.417 E10.65225
G1 X159.901 Y11.635 E10.66957
G1 X160.435 Y12.137 E10.70522
G1 X160.671 Y12.404 E10.72254
G1 X161.101 Y12.996 E10.75820
G1 X161.283 Y13.303 E10.77551
G1 X161.593 Y13.963 E10.81099
G1 X161.818 Y14.656 E10.84647
G1 X161.896 Y15.004 E10.86379
G1 X161.987 Y15.727 E10.89927
G1 X161.987 Y16.441 E10.93402
G1 X161.619 Y16.670 F9000.000
G1 X159.881 Y13.220 F9000.000
G1 X159.078 Y12.417 E10.99156 F600.000
G1 X157.759 Y11.666 F9000.000
G1 X160.644 Y14.551 E11.19831 F600.000
G1 X160.864 Y15.339 E11.23976
G1 X156.980 Y11.455 E11.51812
G1 X156.335 Y11.377 E11.55104
G1 X160.932 Y15.975 E11.88052
G1 X160.923 Y16.534 E11.90885
G1 X155.776 Y11.387 E12.27774
G1 X155.271 Y11.450 E12.30350
G1 X160.860 Y17.039 E12.70397
G1 X160.743 Y17.489 E12.72757
G1 X154.819 Y11.566 E13.15204
G1 X154.393 Y11.708 E13.17479
G1 X160.600 Y17.914 E13.61954
G1 X160.418 Y18.301 E13.64117
G1 X154.011 Y11.894 E14.10030
G1 X153.644 Y12.095 E14.12150
G1 X160.214 Y18.665 E14.59230
G1 X159.975 Y18.994 E14.61291
G1 X153.315 Y12.334 E15.09017
G1 X153.013 Y12.600 E15.11056
G1 X159.709 Y19.296 E15.59037
G1 X159.425 Y19.580 E15.61072
G1 X152.729 Y12.884 E16.09053
G1 X152.463 Y13.186 E16.11092
G1 X159.123 Y19.846 E16.58817
G1 X158.794 Y20.085 E16.60877
G1 X152.224 Y13.515 E17.07955
G1 X152.023 Y13.882 E17.10074
G1 X158.429 Y20.288 E17.55983
G1 X158.043 Y20.470 E17.58146
G1 X151.845 Y14.272 E18.02562
G1 X151.691 Y14.686 E18.04800
G1 X157.624 Y20.619 E18.47316
G1 X157.160 Y20.722 E18.49728
G1 X151.588 Y15.150 E18.89656
G1 X151.519 Y15.650 E18.92210
G1 X156.667 Y20.798 E19.29098
G1 X156.104 Y20.802 E19.31951
G1 X151.511 Y16.210 E19.64862
G1 X151.585 Y16.852 E19.68136
G1 X155.458 Y20.725 E19.95891
G1 X154.672 Y20.507 E20.00025
G1 X151.803 Y17.638 E20.20586
G1 X152.633 Y19.036 F9000.000
G1 X153.274 Y19.677 E20.25183 F600.000
M104 S205 ; set temperature
M140 S55 ; wait for bed temperature to be reached
;Layer change
G1 E14.25183 F1800.00000
G92 E0
G1 Z0.520 F9000.000
G1 X160.987 Y16.390 F9000.000
G1 E6.00000 F1800.00000
G1 X160.910 Y16.998 E6.03241 F900.000
G1 X160.852 Y17.260 E6.04656
G1 X160.661 Y17.848 E6.07926
G1 X160.400 Y18.403 E6.11167
G1 X160.264 Y18.634 E6.12582
G1 X159.889 Y19.150 E6.15954
G1 X159.716 Y19.346 E6.17335
G1 X159.264 Y19.770 E6.20608
G1 X158.763 Y20.134 E6.23880
G1 X158.538 Y20.267 E6.25262
G1 X157.966 Y20.537 E6.28606
G1 X157.427 Y20.713 E6.31602
G1 X156.819 Y20.829 E6.34875
G1 X156.201 Y20.867 E6.38147
G1 X155.640 Y20.832 E6.41113
G1 X155.014 Y20.713 E6.44485
G1 X154.757 Y20.638 E6.45900
G1 X154.187 Y20.412 E6.49141
G1 X153.644 Y20.113 E6.52414
G1 X153.427 Y19.966 E6.53797
G1 X152.940 Y19.563 E6.57140
G1 X152.750 Y19.374 E6.58556
G1 X152.344 Y18.882 E6.61927
G1 X152.197 Y18.666 E6.63308
G1 X151.898 Y18.123 E6.66582
G1 X151.672 Y17.553 E6.69822
G1 X151.597 Y17.296 E6.71238
G1 X151.481 Y16.689 E6.74507
G1 X151.443 Y16.071 E6.77779
G1 X151.478 Y15.510 E6.80745
G1 X151.597 Y14.884 E6.84117
G1 X151.672 Y14.627 E6.85532
G1 X151.898 Y14.057 E6.88773
G1 X152.197 Y13.514 E6.92047
G1 X152.344 Y13.297 E6.93429
G1 X152.747 Y12.810 E6.96772
G1 X152.936 Y12.620 E6.98188
G1 X153.428 Y12.214 E7.01559
G1 X153.644 Y12.067 E7.02940
G1 X154.203 Y11.759 E7.06316
G1 X154.460 Y11.648 E7.07796
G1 X154.731 Y11.551 E7.09314
G1 X155.325 Y11.398 E7.12554
G1 X155.920 Y11.323 E7.15726
G1 X156.533 Y11.323 E7.18967
G1 X156.800 Y11.348 E7.20382
G1 X157.408 Y11.464 E7.23651 F900.000
G1 X157.997 Y11.655 E7.26924
G1 X158.505 Y11.894 E7.29890
G1 X159.044 Y12.236 E7.33265
G1 X159.250 Y12.397 E7.34646
G1 X159.716 Y12.834 E7.38021
G1 X159.889 Y13.030 E7.39402
G1 X160.264 Y13.547 E7.42778
G1 X160.397 Y13.771 E7.44159
G1 X160.661 Y14.332 E7.47431
G1 X160.852 Y14.921 E7.50704
G1 X160.909 Y15.176 E7.52085
G1 X160.987 Y15.790 E7.55357
G1 X160.987 Y16.330 E7.58211
G1 X161.553 Y16.462 F9000.000
G1 X161.473 Y17.096 E7.61593 F900.000
G1 X161.404 Y17.411 E7.63294
G1 X161.193 Y18.059 E7.66897
G1 X160.905 Y18.671 E7.70468
G1 X160.742 Y18.948 E7.72169
G1 X160.335 Y19.508 E7.75827
G1 X160.127 Y19.744 E7.77493
G1 X159.629 Y20.211 E7.81097
G1 X159.077 Y20.612 E7.84702
G1 X158.806 Y20.773 E7.86369
G1 X158.185 Y21.065 E7.89995
G1 X157.560 Y21.269 E7.93468
G1 X156.890 Y21.396 E7.97073
G1 X156.210 Y21.439 E8.00677
G1 X155.560 Y21.398 E8.04118
G1 X154.880 Y21.269 E8.07776
G1 X154.571 Y21.178 E8.09476
G1 X153.943 Y20.930 E8.13048
G1 X153.345 Y20.601 E8.16653
G1 X153.084 Y20.424 E8.18319
G1 X152.555 Y19.986 E8.21946
G1 X152.328 Y19.759 E8.23646
G1 X151.886 Y19.226 E8.27304
G1 X151.709 Y18.965 E8.28970
G1 X151.380 Y18.367 E8.32576
G1 X151.132 Y17.739 E8.36147
G1 X151.041 Y17.430 E8.37848
G1 X150.914 Y16.760 E8.41450
G1 X150.871 Y16.080 E8.45055
G1 X150.912 Y15.430 E8.48495
G1 X151.041 Y14.750 E8.52153
G1 X151.132 Y14.441 E8.53854
G1 X151.380 Y13.813 E8.57425
G1 X151.709 Y13.215 E8.61030
G1 X151.886 Y12.954 E8.62697
G1 X152.324 Y12.425 E8.66323
G1 X152.551 Y12.198 E8.68024
G1 X153.084 Y11.756 E8.71682
G1 X153.345 Y11.579 E8.73348
G1 X153.952 Y11.245 E8.77008
G1 X154.563 Y11.004 E8.80481
G1 X155.218 Y10.836 E8.84052
G1 X155.884 Y10.752 E8.87603
G1 X156.560 Y10.752 E8.91174
G1 X156.880 Y10.782 E8.92875
G1 X157.550 Y10.910 E8.96478 F900.000
G1 X158.199 Y11.120 E9.00082
G1 X158.788 Y11.397 E9.03522
G1 X159.373 Y11.769 E9.07182
G1 X159.622 Y11.962 E9.08848
G1 X160.127 Y12.436 E9.12508
G1 X160.335 Y12.672 E9.14174
G1 X160.742 Y13.233 E9.17834
G1 X160.903 Y13.504 E9.19500
G1 X161.193 Y14.121 E9.23104
G1 X161.404 Y14.770 E9.26709
G1 X161.472 Y15.077 E9.28375
G1 X161.558 Y15.754 E9.31980
G1 X161.558 Y16.402 E9.35402
G1 X162.012 Y16.519 F9000.000
G1 X161.929 Y17.176 E9.37562 F900.000
G1 X161.850 Y17.532 E9.38754
G1 X161.623 Y18.229 E9.41147
G1 X161.314 Y18.887 E9.43517
G1 X161.129 Y19.201 E9.44710
G1 X160.696 Y19.797 E9.47113
G1 X160.459 Y20.066 E9.48284
G1 X159.924 Y20.568 E9.50676
G1 X159.331 Y20.999 E9.53068
G1 X159.023 Y21.181 E9.54240
G1 X158.362 Y21.492 E9.56621
G1 X157.668 Y21.718 E9.59004
G1 X156.948 Y21.856 E9.61396
G1 X156.217 Y21.902 E9.63788
G1 X155.855 Y21.890 E9.64970
G1 X155.495 Y21.856 E9.66151
G1 X154.772 Y21.718 E9.68554
G1 X154.421 Y21.616 E9.69746
G1 X153.746 Y21.348 E9.72117
G1 X153.103 Y20.995 E9.74510
G1 X152.807 Y20.794 E9.75681
G1 X152.244 Y20.329 E9.78062
G1 X151.986 Y20.071 E9.79255
G1 X151.516 Y19.503 E9.81657
G1 X151.315 Y19.207 E9.82828
G1 X150.962 Y18.564 E9.85221
G1 X150.694 Y17.889 E9.87592
G1 X150.592 Y17.538 E9.88785
G1 X150.454 Y16.818 E9.91177
G1 X150.408 Y16.087 E9.93569
G1 X150.454 Y15.365 E9.95931
G1 X150.592 Y14.642 E9.98333
G1 X150.694 Y14.291 E9.99526
G1 X150.962 Y13.616 E10.01897
G1 X151.315 Y12.973 E10.04289
G1 X151.516 Y12.677 E10.05460
G1 X151.981 Y12.114 E10.07842
G1 X152.239 Y11.856 E10.09034
G1 X152.807 Y11.386 E10.11437
G1 X153.103 Y11.185 E10.12608
G1 X153.748 Y10.830 E10.15010
G1 X154.427 Y10.562 E10.17393
G1 X155.131 Y10.382 E10.19764
G1 X155.855 Y10.290 E10.22147
G1 X156.582 Y10.290 E10.24517
G1 X156.945 Y10.324 E10.25710
G1 X157.665 Y10.461 E10.28102 F900.000
G1 X158.362 Y10.688 E10.30495
G1 X159.017 Y10.996 E10.32856
G1 X159.639 Y11.390 E10.35259
G1 X159.922 Y11.610 E10.36430
G1 X160.459 Y12.114 E10.38833
G1 X160.696 Y12.383 E10.40004
G1 X161.129 Y12.979 E10.42407
G1 X161.311 Y13.287 E10.43578
G1 X161.623 Y13.951 E10.45970
G1 X161.850 Y14.648 E10.48362
G1 X161.928 Y14.998 E10.49534
G1 X162.020 Y15.725 E10.51926
G1 X162.019 Y16.460 E10.54324
G1 X161.649 Y16.688 F9000.000
G1 X160.449 Y16.955 F9000.000
G1 X157.091 Y20.314 E10.80713 F1800.000
G1 X156.121 Y20.434 E10.86140
G1 X160.557 Y15.998 E11.20990
