; generated by Slic3r 1.2.9 on 2018-06-03 at 17:14:09

; external perimeters extrusion width = 0.40mm
; perimeters extrusion width = 0.62mm
; infill extrusion width = 0.33mm
; solid infill extrusion width = 0.62mm
; top infill extrusion width = 0.20mm

M106 S256; Turn on fan to 100% power
M104 S140; turn on extruder temperature at S value
M140 S60; turn on bed temperature at S value
G28; home all axes
M84; disable motors
G1 Z15 F15000; have Z move to 20mm at 15000 mm/min
M190 S55; turn on bed temperature at S value and wait
M140 S55; turn on bed temperature at S value (printing temperature)
M109 S200; turn on extruder temperature at S value and wait (printing temperature)
M104 S200; turn on extruder temperature at S value
G1 Z0 F12000; move Z back to home
G21 ; set units to millimeters
G90 ; use absolute coordinates
M82 ; use absolute distances for extrusion
G92 E0
M106 S255
;Layer change
G1 E-6.00000 F1800.00000
G92 E0
G1 Z0.300 F9000.000
G1 X152.864 Y15.037 F9000.000
G1 E6.00000 F1800.00000
G1 X152.960 Y14.431 E6.02989 F600.000
G1 X153.154 Y13.676 E6.06779
G1 X153.362 Y13.098 E6.09768
G1 X153.694 Y12.393 E6.13558
G1 X154.006 Y11.864 E6.16547
G1 X154.464 Y11.234 E6.20338
G1 X154.871 Y10.773 E6.23327
G1 X155.438 Y10.240 E6.27116
G1 X155.924 Y9.863 E6.30104
G1 X156.582 Y9.446 E6.33896
G1 X157.129 Y9.167 E6.36885
G1 X157.854 Y8.880 E6.40676
G1 X158.444 Y8.709 E6.43664
G1 X159.209 Y8.563 E6.47455
G1 X159.820 Y8.505 E6.50442
G1 X160.597 Y8.505 E6.54219
G1 X161.062 Y8.544 E6.56494 F600.000
G1 X161.522 Y8.612 E6.58754
G1 X162.121 Y8.746 E6.61739
G1 X162.569 Y8.881 E6.64014
G1 X163.288 Y9.166 E6.67779
G1 X163.707 Y9.374 E6.70054
G1 X164.109 Y9.606 E6.72314
G1 X164.617 Y9.951 E6.75303
G1 X164.982 Y10.240 E6.77564
G1 X165.549 Y10.773 E6.81354
G1 X165.860 Y11.119 E6.83614
G1 X166.237 Y11.604 E6.86602
G1 X166.494 Y11.991 E6.88863
G1 X166.869 Y12.674 E6.92653
G1 X167.058 Y13.098 E6.94914
G1 X167.220 Y13.534 E6.97174
G1 X167.354 Y13.979 E6.99436
G1 X167.488 Y14.578 E7.02422
G1 X167.556 Y15.037 E7.04683
G1 X167.595 Y15.504 E7.06959
G1 X167.595 Y16.276 E7.10719
G1 X167.556 Y16.743 E7.12995
G1 X167.488 Y17.202 E7.15255
G1 X167.354 Y17.801 E7.18239
G1 X167.220 Y18.246 E7.20503
G1 X167.058 Y18.682 E7.22764
G1 X166.869 Y19.106 E7.25024
G1 X166.494 Y19.789 E7.28814
G1 X166.237 Y20.176 E7.31075
G1 X165.860 Y20.661 E7.34063
G1 X165.549 Y21.007 E7.36324
G1 X164.982 Y21.540 E7.40114
G1 X164.617 Y21.829 E7.42375
G1 X164.109 Y22.174 E7.45363
G1 X163.707 Y22.406 E7.47624
G1 X163.291 Y22.613 E7.49884
G1 X162.569 Y22.899 E7.53660
G1 X162.121 Y23.034 E7.55936
G1 X161.522 Y23.168 E7.58924
G1 X161.062 Y23.236 E7.61184
G1 X160.600 Y23.275 E7.63444
G1 X160.135 Y23.285 E7.65704
G1 X159.357 Y23.236 E7.69495
G1 X158.898 Y23.168 E7.71756
G1 X158.298 Y23.034 E7.74744
G1 X157.854 Y22.900 E7.77004
G1 X157.418 Y22.738 E7.79264
G1 X156.713 Y22.406 E7.83055
G1 X156.311 Y22.174 E7.85315
G1 X155.803 Y21.829 E7.88303
G1 X155.438 Y21.540 E7.90564
G1 X154.871 Y21.007 E7.94354
G1 X154.560 Y20.661 E7.96615
G1 X154.271 Y20.297 E7.98875
G1 X153.926 Y19.789 E8.01863
G1 X153.694 Y19.387 E8.04124
G1 X153.487 Y18.971 E8.06384
G1 X153.307 Y18.543 E8.08645
G1 X153.154 Y18.104 E8.10905
G1 X152.960 Y17.349 E8.14695
G1 X152.883 Y16.891 E8.16956
G1 X152.825 Y16.281 E8.19940
G1 X152.815 Y15.815 E8.22205
G1 X152.858 Y15.097 E8.25704
G1 E2.25704 F1800.00000
G92 E0
G1 X163.435 Y16.297 F9000.000
G1 E6.00000 F1800.00000
G1 X163.305 Y16.879 E6.02900 F600.000
G1 X163.149 Y17.273 E6.04961
G1 X162.945 Y17.644 E6.07022
G1 X162.580 Y18.115 E6.09922
G1 X162.121 Y18.520 E6.12899
G1 X161.594 Y18.831 E6.15875
G1 X161.018 Y19.039 E6.18852
G1 X160.430 Y19.132 E6.21752
G1 X160.006 Y19.132 E6.23813
G1 X159.586 Y19.079 E6.25874
G1 X159.013 Y18.912 E6.28774
G1 X158.468 Y18.635 E6.31750
G1 X157.985 Y18.260 E6.34727
G1 X157.580 Y17.801 E6.37704
G1 X157.269 Y17.274 E6.40680
G1 X157.061 Y16.698 E6.43657
G1 X156.968 Y16.110 E6.46557
G1 X156.968 Y15.686 E6.48618
G1 X157.021 Y15.266 E6.50679
G1 X157.188 Y14.693 E6.53579
G1 X157.465 Y14.148 E6.56556
G1 X157.840 Y13.665 E6.59532
G1 X158.299 Y13.260 E6.62509
G1 X158.826 Y12.949 E6.65485
G1 X159.402 Y12.741 E6.68462
G1 X159.990 Y12.648 E6.71362
G1 X160.414 Y12.648 E6.73423 F600.000
G1 X160.834 Y12.701 E6.75484
G1 X161.407 Y12.868 E6.78384
G1 X161.952 Y13.145 E6.81361
G1 X162.435 Y13.520 E6.84337
G1 X162.840 Y13.979 E6.87314
G1 X163.151 Y14.506 E6.90290
G1 X163.359 Y15.082 E6.93267
G1 X163.454 Y15.686 E6.96244
G1 X163.437 Y16.237 E6.98928
G1 X163.051 Y16.249 F9000.000
G1 X162.935 Y16.765 E7.01503 F600.000
G1 X162.799 Y17.109 E7.03299
G1 X162.622 Y17.432 E7.05094
G1 X162.297 Y17.850 E7.07669
G1 X161.893 Y18.206 E7.10291
G1 X161.429 Y18.481 E7.12913
G1 X160.922 Y18.663 E7.15535
G1 X160.399 Y18.746 E7.18110
G1 X160.030 Y18.746 E7.19905
G1 X159.664 Y18.700 E7.21701
G1 X159.156 Y18.552 E7.24276
G1 X158.676 Y18.308 E7.26897
G1 X158.250 Y17.977 E7.29519
G1 X157.894 Y17.573 E7.32141
G1 X157.619 Y17.109 E7.34763
G1 X157.437 Y16.602 E7.37385
G1 X157.354 Y16.079 E7.39960
G1 X157.354 Y15.710 E7.41756
G1 X157.400 Y15.344 E7.43551
G1 X157.548 Y14.836 E7.46126
G1 X157.792 Y14.356 E7.48748
G1 X158.123 Y13.930 E7.51370
G1 X158.527 Y13.574 E7.53992
G1 X158.991 Y13.299 E7.56614
G1 X159.498 Y13.117 E7.59236
G1 X160.021 Y13.034 E7.61810
G1 X160.390 Y13.034 E7.63606 F600.000
G1 X160.756 Y13.080 E7.65401
G1 X161.264 Y13.228 E7.67976
G1 X161.744 Y13.472 E7.70598
G1 X162.170 Y13.803 E7.73220
G1 X162.526 Y14.207 E7.75842
G1 X162.801 Y14.671 E7.78464
G1 X162.983 Y15.178 E7.81086
G1 X163.068 Y15.710 E7.83708
G1 X163.053 Y16.189 E7.86038
G1 X162.666 Y16.200 F9000.000
G1 X162.566 Y16.652 E7.88288 F600.000
G1 X162.450 Y16.944 E7.89817
G1 X162.298 Y17.220 E7.91347
G1 X162.015 Y17.585 E7.93597
G1 X161.665 Y17.893 E7.95864
G1 X161.264 Y18.130 E7.98132
G1 X160.826 Y18.288 E8.00399
G1 X160.369 Y18.361 E8.02649
G1 X160.055 Y18.361 E8.04178
G1 X159.743 Y18.321 E8.05708
G1 X159.299 Y18.192 E8.07958
G1 X158.883 Y17.981 E8.10225
G1 X158.515 Y17.695 E8.12493
G1 X158.207 Y17.345 E8.14760
G1 X157.970 Y16.944 E8.17027
G1 X157.812 Y16.506 E8.19294
G1 X157.739 Y16.049 E8.21544
G1 X157.739 Y15.735 E8.23074
G1 X157.779 Y15.423 E8.24604
G1 X157.908 Y14.979 E8.26854
G1 X158.119 Y14.563 E8.29121
G1 X158.405 Y14.195 E8.31388
G1 X158.755 Y13.887 E8.33655
G1 X159.156 Y13.650 E8.35923
G1 X159.594 Y13.492 E8.38190
G1 X160.051 Y13.419 E8.40440
G1 X160.365 Y13.419 E8.41970 F600.000
G1 X160.677 Y13.459 E8.43499
G1 X161.121 Y13.588 E8.45749
G1 X161.537 Y13.799 E8.48016
G1 X161.905 Y14.085 E8.50284
G1 X162.213 Y14.435 E8.52551
G1 X162.450 Y14.836 E8.54818
G1 X162.608 Y15.274 E8.57085
G1 X162.681 Y15.735 E8.59353
G1 X162.668 Y16.140 E8.61328
G1 X162.977 Y16.452 F9000.000
G1 X164.183 Y16.392 F9000.000
G1 X164.101 Y16.873 E8.63704 F600.000
G1 X163.936 Y17.382 E8.66307
G1 X163.848 Y17.585 E8.67382
G1 X163.591 Y18.051 E8.69973
G1 X163.466 Y18.237 E8.71061
G1 X163.135 Y18.637 E8.73587
G1 X162.768 Y18.982 E8.76039
G1 X162.347 Y19.287 E8.78566
G1 X161.933 Y19.515 E8.80866
G1 X161.436 Y19.712 E8.83469
G1 X161.221 Y19.774 E8.84558
G1 X160.713 Y19.871 E8.87072
G1 X160.194 Y19.903 E8.89600
G1 X159.974 Y19.896 E8.90675
G1 X159.445 Y19.830 E8.93266
G1 X159.227 Y19.781 E8.94354
G1 X158.733 Y19.621 E8.96880
G1 X158.263 Y19.399 E8.99408
G1 X158.073 Y19.287 E9.00482
G1 X157.652 Y18.982 E9.03010
G1 X157.274 Y18.626 E9.05538
G1 X157.117 Y18.448 E9.06688
G1 X156.972 Y18.262 E9.07839
G1 X156.694 Y17.823 E9.10367
G1 X156.473 Y17.353 E9.12894
G1 X156.398 Y17.145 E9.13969
G1 X156.265 Y16.627 E9.16572
G1 X156.230 Y16.409 E9.17647
G1 X156.197 Y15.874 E9.20251
G1 X156.204 Y15.654 E9.21325
G1 X156.271 Y15.123 E9.23929
G1 X156.319 Y14.907 E9.25003
G1 X156.484 Y14.398 E9.27608
G1 X156.686 Y13.970 E9.29907
G1 X156.972 Y13.518 E9.32512
G1 X157.108 Y13.344 E9.33586
G1 X157.474 Y12.954 E9.36190
G1 X157.640 Y12.808 E9.37264
G1 X158.073 Y12.493 E9.39868
G1 X158.263 Y12.381 E9.40942
G1 X158.733 Y12.159 E9.43470
G1 X159.227 Y11.999 E9.45998
G1 X159.443 Y11.951 E9.47072
G1 X159.958 Y11.886 E9.49600
G1 X160.475 Y11.886 E9.52115
G1 X160.698 Y11.906 E9.53203
G1 X161.223 Y12.007 E9.55804 F600.000
G1 X161.438 Y12.069 E9.56893
G1 X161.933 Y12.265 E9.59484
G1 X162.130 Y12.366 E9.60559
G1 X162.582 Y12.652 E9.63163
G1 X162.756 Y12.788 E9.64237
G1 X163.135 Y13.143 E9.66764
G1 X163.466 Y13.544 E9.69292
G1 X163.590 Y13.726 E9.70367
G1 X163.847 Y14.193 E9.72958
G1 X163.936 Y14.398 E9.74047
G1 X164.100 Y14.905 E9.76636
G1 X164.149 Y15.123 E9.77725
G1 X164.214 Y15.638 E9.80251
G1 X164.214 Y16.142 E9.82703
G1 X164.190 Y16.332 E9.83635
G1 X164.565 Y16.440 F9000.000
G1 X164.530 Y16.721 E9.85013 F600.000
G1 X164.473 Y16.975 E9.86279
G1 X164.297 Y17.518 E9.89059
G1 X164.195 Y17.754 E9.90311
G1 X163.921 Y18.253 E9.93078
G1 X163.775 Y18.468 E9.94343
G1 X163.416 Y18.901 E9.97077
G1 X163.014 Y19.279 E9.99764
G1 X162.559 Y19.610 E10.02498
G1 X162.330 Y19.745 E10.03796
G1 X162.092 Y19.866 E10.05094
G1 X161.560 Y20.077 E10.07874
G1 X161.311 Y20.149 E10.09140
G1 X160.761 Y20.254 E10.11860
G1 X160.200 Y20.289 E10.14595
G1 X159.943 Y20.281 E10.15846
G1 X159.379 Y20.210 E10.18614
G1 X159.125 Y20.153 E10.19879
G1 X158.591 Y19.980 E10.22612
G1 X158.082 Y19.740 E10.25347
G1 X157.861 Y19.610 E10.26598
G1 X157.406 Y19.279 E10.29332
G1 X156.996 Y18.895 E10.32066
G1 X156.820 Y18.694 E10.33364
G1 X156.657 Y18.484 E10.34662
G1 X156.355 Y18.009 E10.37396
G1 X156.116 Y17.501 E10.40131
G1 X156.029 Y17.259 E10.41382
G1 X155.887 Y16.705 E10.44163
G1 X155.847 Y16.451 E10.45414
G1 X155.811 Y15.880 E10.48195
G1 X155.819 Y15.623 E10.49446
G1 X155.890 Y15.056 E10.52227
G1 X155.947 Y14.805 E10.53479
G1 X156.123 Y14.262 E10.56260
G1 X156.350 Y13.779 E10.58854
G1 X156.657 Y13.296 E10.61635
G1 X156.814 Y13.093 E10.62886
G1 X157.205 Y12.676 E10.65667
G1 X157.398 Y12.506 E10.66919
G1 X157.861 Y12.170 E10.69700
G1 X158.082 Y12.040 E10.70951
G1 X158.591 Y11.800 E10.73685
G1 X159.125 Y11.627 E10.76419
G1 X159.376 Y11.570 E10.77671
G1 X159.934 Y11.500 E10.80405
G1 X160.493 Y11.500 E10.83126
G1 X160.752 Y11.524 E10.84391
G1 X161.313 Y11.631 E10.87170 F600.000
G1 X161.563 Y11.704 E10.88436
G1 X162.092 Y11.913 E10.91203
G1 X162.321 Y12.030 E10.92455
G1 X162.804 Y12.337 E10.95236
G1 X163.007 Y12.494 E10.96487
G1 X163.416 Y12.879 E10.99221
G1 X163.775 Y13.312 E11.01955
G1 X163.919 Y13.525 E11.03207
G1 X164.193 Y14.023 E11.05974
G1 X164.297 Y14.262 E11.07240
G1 X164.473 Y14.803 E11.10006
G1 X164.530 Y15.056 E11.11272
G1 X164.600 Y15.614 E11.14005
G1 X164.600 Y16.166 E11.16693
G1 X164.573 Y16.380 E11.17743
G1 X164.948 Y16.488 F9000.000
G1 X164.910 Y16.787 E11.19209 F600.000
G1 X164.846 Y17.077 E11.20652
G1 X164.658 Y17.655 E11.23610
G1 X164.541 Y17.924 E11.25038
G1 X164.250 Y18.455 E11.27982
G1 X164.083 Y18.700 E11.29424
G1 X163.698 Y19.166 E11.32365
G1 X163.260 Y19.577 E11.35288
G1 X162.771 Y19.932 E11.38229
G1 X162.251 Y20.218 E11.41118
G1 X161.685 Y20.442 E11.44076
G1 X161.401 Y20.525 E11.45519
G1 X160.810 Y20.637 E11.48445
G1 X160.206 Y20.675 E11.51386
G1 X159.913 Y20.666 E11.52814
G1 X159.313 Y20.590 E11.55758
G1 X159.023 Y20.526 E11.57200
G1 X158.449 Y20.339 E11.60141
G1 X157.902 Y20.082 E11.63082
G1 X157.649 Y19.932 E11.64510
G1 X157.160 Y19.577 E11.67451
G1 X156.719 Y19.163 E11.70391
G1 X156.341 Y18.706 E11.73281
G1 X156.017 Y18.195 E11.76221
G1 X155.759 Y17.648 E11.79162
G1 X155.660 Y17.372 E11.80590
G1 X155.509 Y16.783 E11.83548
G1 X155.463 Y16.493 E11.84976
G1 X155.425 Y15.886 E11.87934
G1 X155.434 Y15.593 E11.89362
G1 X155.510 Y14.990 E11.92320
G1 X155.574 Y14.703 E11.93749
G1 X155.762 Y14.125 E11.96707
G1 X156.015 Y13.588 E11.99596
G1 X156.341 Y13.074 E12.02554
G1 X156.521 Y12.842 E12.03982
G1 X156.937 Y12.399 E12.06940
G1 X157.157 Y12.205 E12.08368
G1 X157.649 Y11.848 E12.11326
G1 X157.902 Y11.698 E12.12754
G1 X158.449 Y11.441 E12.15695
G1 X159.023 Y11.254 E12.18636
G1 X159.310 Y11.190 E12.20064
G1 X159.910 Y11.114 E12.23005
G1 X160.511 Y11.114 E12.25931
G1 X160.806 Y11.142 E12.27374
G1 X161.403 Y11.256 E12.30331 F600.000
G1 X161.688 Y11.339 E12.31774
G1 X162.251 Y11.562 E12.34717
G1 X162.512 Y11.695 E12.36146
G1 X163.026 Y12.021 E12.39104
G1 X163.258 Y12.201 E12.40532
G1 X163.698 Y12.614 E12.43472
G1 X164.083 Y13.080 E12.46413
G1 X164.248 Y13.323 E12.47841
G1 X164.540 Y13.853 E12.50785
G1 X164.658 Y14.125 E12.52228
G1 X164.845 Y14.701 E12.55171
G1 X164.910 Y14.990 E12.56614
G1 X164.986 Y15.590 E12.59554
G1 X164.986 Y16.190 E12.62478
G1 X164.956 Y16.429 E12.63646
G1 X164.670 Y16.605 F9000.000
G1 X163.809 Y16.344 F9000.000
G1 X163.727 Y16.771 E12.68225 F600.000
G1 X163.662 Y17.004 E12.70777
G1 X163.504 Y17.416 E12.75429
G1 X163.272 Y17.841 E12.80535
G1 X162.857 Y18.376 E12.87668
G1 X162.521 Y18.683 E12.92472
G1 X162.134 Y18.962 E12.97500
G1 X161.776 Y19.167 E13.01847
G1 X161.310 Y19.345 E13.07104
G1 X161.096 Y19.411 E13.09468
G1 X160.664 Y19.486 E13.14085
G1 X160.445 Y19.509 E13.16412
G1 X160.004 Y19.514 E13.21065
G1 X159.511 Y19.453 E13.26301
G1 X158.873 Y19.267 E13.33305
G1 X158.279 Y18.966 E13.40325
G1 X157.714 Y18.523 E13.47895
G1 X157.282 Y18.039 E13.54730
G1 X156.920 Y17.419 E13.62300
G1 X156.769 Y17.031 E13.66690
G1 X156.692 Y16.775 E13.69503
G1 X156.591 Y16.125 E13.76444
G1 X156.586 Y15.684 E13.81095 F600.000
G1 X156.647 Y15.188 E13.86358
G1 X156.840 Y14.537 E13.93523
G1 X157.156 Y13.932 E14.00721
G1 X157.403 Y13.596 E14.05111
G1 X157.577 Y13.394 E14.07925
G1 X157.882 Y13.111 E14.12315
G1 X158.092 Y12.945 E14.15128
G1 X158.444 Y12.724 E14.19518
G1 X158.876 Y12.520 E14.24546
G1 X159.290 Y12.378 E14.29164
G1 X159.509 Y12.332 E14.31524
G1 X159.975 Y12.267 E14.36483
G1 X160.426 Y12.267 E14.41237
G1 X160.897 Y12.329 E14.46241
G1 X161.132 Y12.384 E14.48792
G1 X161.529 Y12.511 E14.53187
G1 X161.937 Y12.703 E14.57941
G1 X162.358 Y12.970 E14.63198
G1 X162.681 Y13.234 E14.67588
G1 X163.137 Y13.742 E14.74786
G1 X163.504 Y14.360 E14.82362
G1 X163.732 Y15.004 E14.89569
G1 X163.834 Y15.662 E14.96589
G1 X163.815 Y16.285 E15.03157
M104 S205 ; set temperature
M140 S55 ; wait for bed temperature to be reached
;Layer change
G1 E9.03157 F1800.00000
G92 E0
G1 Z0.520 F9000.000
G1 X163.102 Y16.255 F9000.000
G1 E6.00000 F1800.00000
G1 X162.985 Y16.781 E6.02844 F769.144
G1 X162.846 Y17.130 E6.04833
G1 X162.665 Y17.460 E6.06822
G1 X162.335 Y17.885 E6.09666
G1 X161.923 Y18.248 E6.12565
G1 X161.451 Y18.528 E6.15464
G1 X160.935 Y18.713 E6.18364
G1 X160.403 Y18.798 E6.21208
G1 X160.027 Y18.798 E6.23196
G1 X159.654 Y18.750 E6.25185
G1 X159.137 Y18.600 E6.28029
G1 X158.648 Y18.351 E6.30929
G1 X158.215 Y18.015 E6.33828
G1 X157.852 Y17.603 E6.36727
G1 X157.572 Y17.131 E6.39627
G1 X157.387 Y16.615 E6.42526
G1 X157.301 Y16.073 E6.45426
G1 X157.318 Y15.525 E6.48325
G1 X157.435 Y14.999 E6.51169
G1 X157.574 Y14.650 E6.53158
G1 X157.755 Y14.320 E6.55146
G1 X158.085 Y13.895 E6.57991
G1 X158.497 Y13.532 E6.60890
G1 X158.969 Y13.252 E6.63789
G1 X159.485 Y13.067 E6.66689
G1 X160.027 Y12.981 E6.69588 F769.144
G1 X160.565 Y12.998 E6.72432
G1 X160.935 Y13.068 E6.74421
G1 X161.292 Y13.185 E6.76410
G1 X161.772 Y13.429 E6.79254
G1 X162.205 Y13.765 E6.82153
G1 X162.568 Y14.177 E6.85052
G1 X162.848 Y14.649 E6.87952
G1 X163.033 Y15.165 E6.90851
G1 X163.119 Y15.707 E6.93751
G1 X163.104 Y16.195 E6.96333
G1 X162.642 Y16.197 F9000.000
G1 X162.542 Y16.644 E6.97828 F769.144
G1 X162.427 Y16.933 E6.98843
G1 X162.277 Y17.206 E6.99858
G1 X161.997 Y17.568 E7.01353
G1 X161.651 Y17.873 E7.02859
G1 X161.254 Y18.108 E7.04364
G1 X160.820 Y18.264 E7.05870
G1 X160.367 Y18.336 E7.07365
G1 X160.056 Y18.336 E7.08380
G1 X159.748 Y18.297 E7.09395
G1 X159.308 Y18.169 E7.10890
G1 X158.897 Y17.959 E7.12396
G1 X158.532 Y17.677 E7.13901
G1 X158.227 Y17.331 E7.15407
G1 X157.992 Y16.934 E7.16913
G1 X157.836 Y16.500 E7.18418
G1 X157.764 Y16.044 E7.19924
G1 X157.778 Y15.583 E7.21430
G1 X157.878 Y15.136 E7.22925
G1 X157.993 Y14.847 E7.23940
G1 X158.143 Y14.574 E7.24955
G1 X158.423 Y14.212 E7.26450
G1 X158.769 Y13.907 E7.27956
G1 X159.166 Y13.672 E7.29461
G1 X159.600 Y13.516 E7.30967
G1 X160.056 Y13.444 E7.32473 F769.144
G1 X160.514 Y13.458 E7.33968
