; generated by Slic3r 1.2.9 on 2017-04-24 at 13:19:13

; external perimeters extrusion width = 0.40mm
; perimeters extrusion width = 0.56mm
; infill extrusion width = 0.38mm
; solid infill extrusion width = 0.56mm
; top infill extrusion width = 0.22mm

M106 S256; Turn on fan to 100% power
M104 S140; turn on extruder temperature at S value
M140 S60; turn on bed temperature at S value
G28; home all axes
M84; disable motors
G1 Z15 F15000; have Z move to 20mm at 15000 mm/min
M190 S55; turn on bed temperature at S value and wait
M140 S55; turn on bed temperature at S value (printing temperature)
M109 S200; turn on extruder temperature at S value and wait (printing temperature)
M104 S200; turn on extruder temperature at S value
G1 Z0 F12000; move Z back to home
G21 ; set units to millimeters
G90 ; use absolute coordinates
M82 ; use absolute distances for extrusion
G92 E0
M106 S255
;Layer change
G1 E-6.00000 F1800.00000
G92 E0
G1 Z0.300 F9000.000
G1 X42.550 Y42.550 F9000.000
G1 E6.00000 F1800.00000
G1 X43.215 Y41.947 E6.04367 F600.000
G1 X43.530 Y41.703 E6.06308
G1 X43.982 Y41.390 E6.08978
G1 X44.582 Y41.035 E6.12373
G1 X45.074 Y40.790 E6.15046
G1 X45.440 Y40.631 E6.16987
G1 X46.097 Y40.395 E6.20384
G1 X46.625 Y40.246 E6.23054
G1 X47.015 Y40.159 E6.24995
G1 X47.704 Y40.050 E6.28391
G1 X48.101 Y40.012 E6.30333
G1 X48.650 Y39.991 E6.33005
G1 X131.349 Y39.991 E10.35342
G1 X131.748 Y40.003 E10.37287 F600.000
G1 X132.296 Y40.050 E10.39959
G1 X132.989 Y40.160 E10.43374
G1 X133.519 Y40.283 E10.46023
G1 X134.045 Y40.441 E10.48695
G1 X134.559 Y40.631 E10.51359
G1 X134.926 Y40.790 E10.53305
G1 X135.548 Y41.107 E10.56701
G1 X135.891 Y41.310 E10.58642
G1 X136.348 Y41.615 E10.61314
G1 X136.900 Y42.043 E10.64711
G1 X137.309 Y42.409 E10.67382
G1 X137.592 Y42.692 E10.69328
G1 X138.053 Y43.215 E10.72721
G1 X138.297 Y43.530 E10.74662
G1 X138.610 Y43.982 E10.77332
G1 X138.965 Y44.582 E10.80726
G1 X139.146 Y44.938 E10.82667
G1 X139.369 Y45.440 E10.85341
G1 X139.605 Y46.097 E10.88738
G1 X139.717 Y46.481 E10.90685
G1 X139.841 Y47.016 E10.93357
G1 X139.950 Y47.704 E10.96745
G1 X139.997 Y48.252 E10.99418
G1 X140.011 Y48.725 E11.01722
G1 X140.011 Y131.275 E15.03336
G1 X139.997 Y131.748 E15.05640
G1 X139.950 Y132.291 E15.08290
G1 X139.869 Y132.838 E15.10981
G1 X139.716 Y133.520 E15.14379
G1 X139.605 Y133.903 E15.16320
G1 X139.424 Y134.421 E15.18989
G1 X139.146 Y135.062 E15.22391
G1 X138.690 Y135.893 E15.27000
G1 X138.297 Y136.470 E15.30394
G1 X138.052 Y136.786 E15.32340
G1 X137.693 Y137.200 E15.35010
G1 X137.200 Y137.693 E15.38398
G1 X136.786 Y138.052 E15.41069
G1 X136.470 Y138.297 E15.43014
G1 X135.893 Y138.690 E15.46409
G1 X135.062 Y139.146 E15.51018
G1 X134.560 Y139.369 E15.53692
G1 X133.903 Y139.605 E15.57088
G1 X133.520 Y139.716 E15.59029
G1 X132.985 Y139.841 E15.61700
G1 X132.298 Y139.950 E15.65086
G1 X131.899 Y139.988 E15.67037
G1 X131.350 Y140.009 E15.69709
G1 X48.725 Y140.011 E19.71687
G1 X48.252 Y139.997 E19.73991
G1 X47.556 Y139.931 E19.77388
G1 X47.016 Y139.841 E19.80052
G1 X46.626 Y139.754 E19.82000
G1 X45.956 Y139.559 E19.85390
G1 X45.579 Y139.424 E19.87339
G1 X45.074 Y139.210 E19.90008
G1 X44.452 Y138.893 E19.93405
G1 X43.982 Y138.610 E19.96077
G1 X43.652 Y138.385 E19.98018
G1 X43.100 Y137.957 E20.01417
G1 X42.691 Y137.591 E20.04086
G1 X42.307 Y137.200 E20.06755
G1 X41.947 Y136.785 E20.09425
G1 X41.703 Y136.470 E20.11366
G1 X41.390 Y136.018 E20.14036
G1 X41.035 Y135.418 E20.17431
G1 X40.854 Y135.062 E20.19376
G1 X40.631 Y134.559 E20.22050
G1 X40.395 Y133.903 E20.25443
G1 X40.283 Y133.519 E20.27385
G1 X40.159 Y132.984 E20.30058
G1 X40.050 Y132.296 E20.33450
G1 X40.003 Y131.748 E20.36122
G1 X39.991 Y131.349 E20.38067
G1 X39.989 Y48.725 E24.40040
G1 X40.003 Y48.252 E24.42345
G1 X40.050 Y47.704 E24.45017
G1 X40.159 Y47.015 E24.48413
G1 X40.246 Y46.625 E24.50355
G1 X40.395 Y46.097 E24.53024
G1 X40.631 Y45.440 E24.56422
G1 X40.790 Y45.074 E24.58363
G1 X41.035 Y44.582 E24.61036
G1 X41.390 Y43.982 E24.64431
G1 X41.703 Y43.530 E24.67101
G1 X41.947 Y43.215 E24.69042
G1 X42.508 Y42.593 E24.73117
G1 E18.73117 F1800.00000
G92 E0
G1 X87.727 Y87.852 F9000.000
G1 E6.00000 F1800.00000
G1 X88.161 Y87.469 E6.02818 F600.000
G1 X88.668 Y87.169 E6.05682
G1 X89.222 Y86.970 E6.08547
G1 X89.804 Y86.878 E6.11411 F600.000
G1 X90.382 Y86.896 E6.14229
G1 X90.778 Y86.971 E6.16186
G1 X91.160 Y87.096 E6.18144
G1 X91.676 Y87.359 E6.20961
G1 X92.141 Y87.720 E6.23826
G1 X92.531 Y88.161 E6.26691
G1 X92.831 Y88.668 E6.29555
G1 X93.030 Y89.222 E6.32420
G1 X93.122 Y89.804 E6.35284
G1 X93.104 Y90.392 E6.38149
G1 X92.975 Y90.967 E6.41013
G1 X92.745 Y91.498 E6.43831
G1 X92.530 Y91.838 E6.45788
G1 X92.273 Y92.148 E6.47746
G1 X91.839 Y92.531 E6.50563
G1 X91.332 Y92.831 E6.53428
G1 X90.778 Y93.030 E6.56292
G1 X90.196 Y93.122 E6.59157
G1 X89.618 Y93.104 E6.61974
G1 X89.222 Y93.029 E6.63932
G1 X88.840 Y92.904 E6.65889
G1 X88.324 Y92.641 E6.68707
G1 X87.858 Y92.280 E6.71571
G1 X87.469 Y91.839 E6.74436
G1 X87.169 Y91.332 E6.77300
G1 X86.970 Y90.778 E6.80165
G1 X86.878 Y90.196 E6.83030
G1 X86.896 Y89.608 E6.85894
G1 X87.025 Y89.033 E6.88759
G1 X87.255 Y88.502 E6.91576
G1 X87.470 Y88.162 E6.93534
G1 X87.689 Y87.898 E6.95199
G1 X88.005 Y88.121 F9000.000
G1 X88.389 Y87.782 E6.97692 F600.000
G1 X88.833 Y87.520 E7.00202
G1 X89.318 Y87.345 E7.02712
G1 X89.828 Y87.264 E7.05221 F600.000
G1 X90.340 Y87.280 E7.07714
G1 X90.681 Y87.346 E7.09406
G1 X91.012 Y87.453 E7.11097
G1 X91.469 Y87.686 E7.13590
G1 X91.876 Y88.002 E7.16100
G1 X92.218 Y88.389 E7.18610
G1 X92.480 Y88.833 E7.21120
G1 X92.655 Y89.318 E7.23630
G1 X92.736 Y89.828 E7.26139
G1 X92.719 Y90.344 E7.28649
G1 X92.607 Y90.847 E7.31159
G1 X92.403 Y91.317 E7.33652
G1 X92.217 Y91.611 E7.35343
G1 X91.995 Y91.879 E7.37035
G1 X91.611 Y92.218 E7.39528
G1 X91.167 Y92.480 E7.42038
G1 X90.682 Y92.655 E7.44547
G1 X90.172 Y92.736 E7.47057
G1 X89.660 Y92.720 E7.49550
G1 X89.319 Y92.654 E7.51241
G1 X88.988 Y92.547 E7.52933
G1 X88.531 Y92.314 E7.55426
G1 X88.124 Y91.998 E7.57936
G1 X87.782 Y91.611 E7.60446
G1 X87.520 Y91.167 E7.62956
G1 X87.345 Y90.682 E7.65466
G1 X87.264 Y90.172 E7.67975
G1 X87.281 Y89.656 E7.70485
G1 X87.393 Y89.153 E7.72995
G1 X87.597 Y88.683 E7.75488
G1 X87.783 Y88.389 E7.77179
G1 X87.966 Y88.168 E7.78579
G1 X87.905 Y87.734 F9000.000
G1 X42.986 Y88.121 F9000.000
G1 X42.997 Y48.365 E9.71999 F600.000
G1 X43.088 Y47.650 E9.75506
G1 X43.267 Y46.951 E9.79012
G1 X43.528 Y46.290 E9.82472
G1 X43.880 Y45.650 E9.86025
G1 X44.307 Y45.063 E9.89555
G1 X44.542 Y44.796 E9.91286
G1 X45.067 Y44.303 E9.94791
G1 X45.642 Y43.885 E9.98250
G1 X46.290 Y43.528 E10.01850
G1 X46.951 Y43.267 E10.05309
G1 X47.650 Y43.088 E10.08816
G1 X48.365 Y42.997 E10.12322
G1 X48.735 Y42.986 E10.14123
G1 X131.260 Y42.986 E14.15619
G1 X132.004 Y43.033 E14.19243 F600.000
G1 X132.350 Y43.088 E14.20951
G1 X132.702 Y43.166 E14.22705
G1 X133.388 Y43.389 E14.26211
G1 X133.710 Y43.528 E14.27918
G1 X134.358 Y43.885 E14.31518
G1 X134.933 Y44.303 E14.34977
G1 X135.204 Y44.541 E14.36732
G1 X135.697 Y45.067 E14.40238
G1 X135.918 Y45.352 E14.41992
G1 X136.115 Y45.642 E14.43699
G1 X136.472 Y46.290 E14.47299
G1 X136.733 Y46.951 E14.50758
G1 X136.834 Y47.298 E14.52512
G1 X136.912 Y47.650 E14.54266
G1 X137.002 Y48.355 E14.57726
G1 X137.003 Y131.635 E18.62893
G1 X136.912 Y132.350 E18.66400
G1 X136.733 Y133.049 E18.69906
G1 X136.472 Y133.710 E18.73365
G1 X136.120 Y134.350 E18.76918
G1 X135.693 Y134.937 E18.80449
G1 X135.458 Y135.204 E18.82179
G1 X134.933 Y135.697 E18.85685
G1 X134.354 Y136.118 E18.89166
G1 X133.710 Y136.472 E18.92743
G1 X133.049 Y136.733 E18.96203
G1 X132.350 Y136.912 E18.99709
G1 X131.635 Y137.003 E19.03216
G1 X131.265 Y137.014 E19.05016
G1 X48.735 Y137.014 E23.06537
G1 X48.365 Y137.003 E23.08338
G1 X47.650 Y136.912 E23.11843
G1 X47.303 Y136.835 E23.13573
G1 X46.604 Y136.607 E23.17151
G1 X46.290 Y136.472 E23.18812
G1 X45.642 Y136.115 E23.22411
G1 X45.067 Y135.697 E23.25870
G1 X44.803 Y135.465 E23.27579
G1 X44.300 Y134.929 E23.31156
G1 X44.082 Y134.648 E23.32886
G1 X43.885 Y134.358 E23.34592
G1 X43.528 Y133.710 E23.38192
G1 X43.389 Y133.388 E23.39899
G1 X43.166 Y132.702 E23.43405
G1 X43.088 Y132.350 E23.45159
G1 X42.997 Y131.635 E23.48666
G1 X42.986 Y88.181 E25.60074
G1 X42.600 Y88.121 F9000.000
G1 X42.612 Y48.340 E27.53612 F600.000
G1 X42.709 Y47.577 E27.57354
G1 X42.900 Y46.832 E27.61097
G1 X43.182 Y46.120 E27.64821
G1 X43.554 Y45.443 E27.68580
G1 X44.005 Y44.822 E27.72317
G1 X44.260 Y44.532 E27.74195
G1 X44.821 Y44.006 E27.77937
G1 X45.440 Y43.556 E27.81661
G1 X46.120 Y43.182 E27.85438
G1 X46.832 Y42.900 E27.89162
G1 X47.577 Y42.709 E27.92904
G1 X48.340 Y42.612 E27.96647
G1 X48.729 Y42.600 E27.98536
G1 X131.273 Y42.600 E32.00121
G1 X132.046 Y42.649 E32.03892 F600.000
G1 X132.423 Y42.709 E32.05747
G1 X132.798 Y42.793 E32.07619
G1 X133.530 Y43.030 E32.11361
G1 X133.880 Y43.182 E32.13215
G1 X134.560 Y43.556 E32.16992
G1 X135.179 Y44.006 E32.20716
G1 X135.468 Y44.260 E32.22589
G1 X135.994 Y44.821 E32.26331
G1 X136.230 Y45.125 E32.28203
G1 X136.444 Y45.440 E32.30058
G1 X136.818 Y46.120 E32.33834
G1 X137.100 Y46.832 E32.37558
G1 X137.207 Y47.202 E32.39431
G1 X137.291 Y47.577 E32.41302
G1 X137.388 Y48.337 E32.45028
G1 X137.388 Y131.660 E36.50401
G1 X137.291 Y132.423 E36.54143
G1 X137.100 Y133.168 E36.57885
G1 X136.818 Y133.880 E36.61610
G1 X136.446 Y134.557 E36.65369
G1 X135.995 Y135.178 E36.69105
G1 X135.740 Y135.468 E36.70984
G1 X135.179 Y135.994 E36.74725
G1 X134.556 Y136.447 E36.78472
G1 X133.880 Y136.818 E36.82226
G1 X133.168 Y137.100 E36.85951
G1 X132.423 Y137.291 E36.89693
G1 X131.660 Y137.388 E36.93435
G1 X131.271 Y137.400 E36.95324
G1 X48.729 Y137.400 E40.96904
G1 X48.340 Y137.388 E40.98793
G1 X47.577 Y137.291 E41.02535
G1 X47.201 Y137.207 E41.04413
G1 X46.467 Y136.968 E41.08166
G1 X46.120 Y136.818 E41.10004
G1 X45.440 Y136.444 E41.13780
G1 X44.821 Y135.994 E41.17505
G1 X44.535 Y135.742 E41.19360
G1 X44.007 Y135.180 E41.23114
G1 X43.770 Y134.875 E41.24992
G1 X43.556 Y134.560 E41.26846
G1 X43.182 Y133.880 E41.30622
G1 X43.030 Y133.530 E41.32477
G1 X42.793 Y132.798 E41.36219
G1 X42.709 Y132.423 E41.38091
G1 X42.612 Y131.660 E41.41833
G1 X42.600 Y88.181 E43.53359
G1 X42.946 Y87.921 F9000.000
G1 X86.760 Y91.129 F9000.000
G1 X43.355 Y47.724 E46.52445 F600.000
G1 X43.450 Y47.273 E46.54689
G1 X86.615 Y90.437 E49.52114
G1 X86.606 Y89.883 E49.54817
G1 X43.584 Y46.861 E52.51261
G1 X43.734 Y46.464 E52.53325
G1 X86.668 Y89.399 E55.49165
G1 X86.775 Y88.960 E55.51368
G1 X43.921 Y46.105 E58.46660
G1 X44.116 Y45.754 E58.48617
G1 X86.940 Y88.579 E61.43701
G1 X87.132 Y88.224 E61.45665
G1 X44.345 Y45.437 E64.40486
G1 X44.587 Y45.133 E64.42380
G1 X87.359 Y87.904 E67.37097
G1 X87.616 Y87.616 E67.38981
G1 X44.860 Y44.860 E70.33593
G1 X45.133 Y44.587 E70.35475
G1 X87.907 Y87.360 E73.30205
G1 X88.228 Y87.135 E73.32116
G1 X45.437 Y44.344 E76.26966
G1 X45.753 Y44.114 E76.28870
G1 X88.571 Y86.932 E79.23906
G1 X88.969 Y86.784 E79.25975
G1 X46.105 Y43.920 E82.21326
G1 X46.465 Y43.734 E82.23300
G1 X89.398 Y86.667 E85.19129
G1 X89.871 Y86.593 E85.21460
G1 X46.861 Y43.584 E88.17816
G1 X47.274 Y43.450 E88.19928
G1 X90.435 Y86.611 E91.17330
G1 X91.125 Y86.755 E91.20764
G1 X47.724 Y43.355 E94.19814
G1 X48.209 Y43.293 E94.22196
G1 X136.707 Y131.791 E100.31990
G1 X136.731 Y131.269 E100.34538
G1 X48.731 Y43.269 E106.40897
G1 X49.277 Y43.269 E106.43558
G1 X136.730 Y130.722 E112.46154
G1 X136.730 Y130.176 E112.48816
G1 X49.824 Y43.269 E118.47647
G1 X50.370 Y43.269 E118.50309
G1 X136.730 Y129.630 E124.45377
G1 X136.730 Y129.084 E124.48038
G1 X50.916 Y43.269 E130.39342
G1 X51.462 Y43.269 E130.42003
G1 X136.730 Y128.537 E136.29543
G1 X136.730 Y127.991 E136.32205
G1 X52.008 Y43.269 E142.15981
G1 X52.554 Y43.269 E142.18642
G1 X136.730 Y127.445 E147.98655
G1 X136.730 Y126.899 E148.01316
G1 X53.101 Y43.269 E153.77565
G1 X53.647 Y43.269 E153.80226
G1 X136.730 Y126.353 E159.52711
G1 X136.730 Y125.806 E159.55372
G1 X54.193 Y43.269 E165.24093
G1 X54.739 Y43.269 E165.26754
G1 X136.730 Y125.260 E170.91711
G1 X136.730 Y124.714 E170.94372
G1 X55.285 Y43.269 E176.55565
G1 X55.831 Y43.269 E176.58227
G1 X136.729 Y124.168 E182.15656
G1 X136.729 Y123.621 E182.18317
G1 X56.378 Y43.269 E187.71982
G1 X56.924 Y43.269 E187.74644
G1 X136.729 Y123.075 E193.24545
G1 X136.729 Y122.529 E193.27206
G1 X57.470 Y43.269 E198.73344
G1 X58.016 Y43.269 E198.76005
G1 X136.729 Y121.983 E204.18379
G1 X136.729 Y121.436 E204.21040
G1 X58.562 Y43.269 E209.59650
G1 X59.108 Y43.269 E209.62311
G1 X136.729 Y120.890 E214.97157
G1 X136.729 Y120.344 E214.99818
G1 X59.654 Y43.269 E220.30900
G1 X60.201 Y43.269 E220.33561
G1 X136.729 Y119.798 E225.60880
G1 X136.729 Y119.251 E225.63541
G1 X60.747 Y43.269 E230.87095
G1 X61.293 Y43.269 E230.89756
G1 X136.729 Y118.705 E236.09547
G1 X136.729 Y118.159 E236.12208
G1 X61.839 Y43.269 E241.28235
G1 X62.385 Y43.269 E241.30896
G1 X136.729 Y117.613 E246.43158
G1 X136.728 Y117.066 E246.45820
G1 X62.931 Y43.269 E251.54319
G1 X63.478 Y43.269 E251.56980
G1 X136.728 Y116.520 E256.61715
G1 X136.728 Y115.974 E256.64376
G1 X64.024 Y43.269 E261.65347
G1 X64.570 Y43.269 E261.68008
G1 X136.728 Y115.428 E266.65215
G1 X136.728 Y114.881 E266.67877
G1 X65.116 Y43.269 E271.61320
G1 X65.662 Y43.269 E271.63981
G1 X136.728 Y114.335 E276.53660
G1 X136.728 Y113.789 E276.56322
G1 X66.208 Y43.269 E281.42237
G1 X66.755 Y43.269 E281.44898
G1 X136.728 Y113.243 E286.27050
G1 X136.728 Y112.696 E286.29711
G1 X67.301 Y43.269 E291.08099
G1 X67.847 Y43.269 E291.10760
G1 X136.728 Y112.150 E295.85384
G1 X136.728 Y111.604 E295.88045
G1 X68.393 Y43.269 E300.58905
G1 X68.939 Y43.269 E300.61566
G1 X136.728 Y111.058 E305.28662
G1 X136.727 Y110.512 E305.31324
G1 X69.485 Y43.269 E309.94656
G1 X70.032 Y43.269 E309.97317
G1 X136.727 Y109.965 E314.56885
G1 X136.727 Y109.419 E314.59547
G1 X70.578 Y43.269 E319.15351
G1 X71.124 Y43.269 E319.18012
G1 X136.727 Y108.873 E323.70053
G1 X136.727 Y108.327 E323.72714
G1 X71.670 Y43.269 E328.20991
G1 X72.216 Y43.269 E328.23652
G1 X136.727 Y107.780 E332.68165
G1 X136.727 Y107.234 E332.70826
G1 X72.762 Y43.269 E337.11575
G1 X73.308 Y43.269 E337.14236
G1 X136.727 Y106.688 E341.51221
G1 X136.727 Y106.142 E341.53883
G1 X73.855 Y43.269 E345.87104
G1 X74.401 Y43.269 E345.89765
G1 X136.727 Y105.595 E350.19222
G1 X136.727 Y105.049 E350.21884
G1 X74.947 Y43.269 E354.47577
G1 X75.493 Y43.269 E354.50238
G1 X136.727 Y104.503 E358.72167
G1 X136.726 Y103.957 E358.74829
G1 X76.039 Y43.269 E362.92995
G1 X76.585 Y43.269 E362.95656
G1 X136.726 Y103.410 E367.10057
G1 X136.726 Y102.864 E367.12719
G1 X77.132 Y43.269 E371.23357
G1 X77.678 Y43.269 E371.26018
G1 X136.726 Y102.318 E375.32892
G1 X136.726 Y101.772 E375.35553
G1 X78.224 Y43.269 E379.38663
G1 X78.770 Y43.269 E379.41324
G1 X136.726 Y101.225 E383.40670
G1 X136.726 Y100.679 E383.43332
G1 X79.316 Y43.269 E387.38914
G1 X79.862 Y43.269 E387.41575
G1 X136.726 Y100.133 E391.33394
G1 X136.726 Y99.587 E391.36055
G1 X80.409 Y43.269 E395.24110
G1 X80.955 Y43.269 E395.26771
G1 X136.726 Y99.040 E399.11061
G1 X136.726 Y98.494 E399.13723
G1 X81.501 Y43.269 E402.94250
G1 X82.047 Y43.269 E402.96911
G1 X136.726 Y97.948 E406.73674
G1 X136.725 Y97.402 E406.76335
G1 X82.593 Y43.269 E410.49334
G1 X83.139 Y43.269 E410.51995
G1 X136.725 Y96.856 E414.21230
G1 X136.725 Y96.309 E414.23892
G1 X83.685 Y43.269 E417.89363
G1 X84.232 Y43.269 E417.92024
G1 X136.725 Y95.763 E421.53732
G1 X136.725 Y95.217 E421.56393
G1 X84.778 Y43.269 E425.14337
G1 X85.324 Y43.269 E425.16998
G1 X136.725 Y94.671 E428.71177
G1 X136.725 Y94.124 E428.73839
G1 X85.870 Y43.269 E432.24255
G1 X86.416 Y43.269 E432.26916
G1 X136.725 Y93.578 E435.73567
G1 X136.725 Y93.032 E435.76229
G1 X86.962 Y43.269 E439.19117
G1 X87.509 Y43.269 E439.21778
G1 X136.725 Y92.486 E442.60902
G1 X136.725 Y91.939 E442.63564
G1 X88.055 Y43.269 E445.98924
G1 X88.601 Y43.269 E446.01585
G1 X136.725 Y91.393 E449.33181
G1 X136.724 Y90.847 E449.35843
G1 X89.147 Y43.269 E452.63675
G1 X89.693 Y43.269 E452.66336
G1 X136.724 Y90.301 E455.90405
G1 X136.724 Y89.754 E455.93066
G1 X90.239 Y43.269 E459.13371
G1 X90.786 Y43.269 E459.16032
