; generated by Slic3r 1.2.9 on 2020-04-15 at 00:14:23

; external perimeters extrusion width = 0.40mm
; perimeters extrusion width = 0.62mm
; infill extrusion width = 0.33mm
; solid infill extrusion width = 0.62mm
; top infill extrusion width = 0.20mm

M106 S256; Turn on fan to 100% power
M104 S140; turn on extruder temperature at S value
M140 S60; turn on bed temperature at S value
G28; home all axes
M84; disable motors
G1 Z15 F15000; have Z move to 20mm at 15000 mm/min
M190 S55; turn on bed temperature at S value and wait
M140 S55; turn on bed temperature at S value (printing temperature)
M109 S200; turn on extruder temperature at S value and wait (printing temperature)
M104 S200; turn on extruder temperature at S value
G1 Z0 F12000; move Z back to home
G21 ; set units to millimeters
G90 ; use absolute coordinates
M82 ; use absolute distances for extrusion
G92 E0
M106 S255
;Layer change
G1 E-6.00000 F1800.00000
G92 E0
G1 Z0.300 F9000.000
G1 X33.689 Y52.559 F9000.000
G1 E6.00000 F1800.00000
G1 X35.000 Y52.229 E6.06655 F600.000
G1 X175.000 Y52.229 E12.95666
G1 X176.422 Y52.622 E13.02928
G1 X177.441 Y53.689 E13.10189 F600.000
G1 X177.771 Y55.000 E13.16845
G1 X177.771 Y155.000 E18.08996
G1 X177.378 Y156.422 E18.16257
G1 X176.311 Y157.441 E18.23519
G1 X175.000 Y157.771 E18.30174
G1 X35.000 Y157.771 E25.19185
G1 X33.578 Y157.378 E25.26447
G1 X32.559 Y156.311 E25.33708
G1 X32.229 Y155.000 E25.40364
G1 X32.229 Y55.000 E30.32514
G1 X32.622 Y53.578 E30.39776
G1 X33.645 Y52.600 E30.46742
G1 X33.963 Y52.886 F9000.000
G1 X34.052 Y52.811 E30.47314 F600.000
G1 X35.000 Y52.614 E30.52077
G1 X175.000 Y52.614 E37.41088
G1 X176.310 Y53.006 E37.47816
G1 X177.189 Y54.052 E37.54543 F600.000
G1 X177.386 Y55.000 E37.59306
G1 X177.386 Y155.000 E42.51457
G1 X176.994 Y156.310 E42.58184
G1 X175.948 Y157.189 E42.64912
G1 X175.000 Y157.386 E42.69675
G1 X35.000 Y157.386 E49.58686
G1 X33.690 Y156.994 E49.65413
G1 X32.811 Y155.948 E49.72141
G1 X32.614 Y155.000 E49.76904
G1 X32.614 Y55.000 E54.69055
G1 X33.006 Y53.690 E54.75782
G1 X33.917 Y52.924 E54.81642
G1 E48.81642 F1800.00000
G92 E0
G1 X35.611 Y154.389 F9000.000
G1 E6.00000 F1800.00000
G1 X35.611 Y55.611 E10.86140 F600.000
G1 X174.389 Y55.611 E17.69141
G1 X174.389 Y154.389 E22.55281
G1 X35.671 Y154.389 E29.37987
G1 X35.225 Y154.775 F9000.000
G1 X35.225 Y55.225 E34.27923 F600.000
G1 X174.775 Y55.225 E41.14719
G1 X174.775 Y154.775 E46.04655
G1 X35.285 Y154.775 E52.91156
G1 X35.425 Y154.429 F9000.000
G1 X36.644 Y154.106 F9000.000
G1 X35.894 Y153.356 E52.96383 F600.000
G1 X35.894 Y152.810 E52.99077
G1 X37.190 Y154.106 E53.08113
G1 X37.737 Y154.106 E53.10807
G1 X35.894 Y152.263 E53.23653
G1 X35.894 Y151.717 E53.26346
G1 X38.283 Y154.106 E53.43001
G1 X38.829 Y154.106 E53.45695
G1 X35.894 Y151.171 E53.66160
G1 X35.894 Y150.624 E53.68853
G1 X39.376 Y154.106 E53.93127
G1 X39.922 Y154.106 E53.95821
G1 X35.894 Y150.078 E54.23904
G1 X35.894 Y149.532 E54.26597
G1 X40.468 Y154.106 E54.58490
G1 X41.015 Y154.106 E54.61184
G1 X35.894 Y148.985 E54.96886
G1 X35.894 Y148.439 E54.99579
G1 X41.561 Y154.106 E55.39091
G1 X42.107 Y154.106 E55.41784
G1 X35.894 Y147.893 E55.85105
G1 X35.894 Y147.346 E55.87799
G1 X42.654 Y154.106 E56.34929
G1 X43.200 Y154.106 E56.37622
G1 X35.894 Y146.800 E56.88562
G1 X35.894 Y146.254 E56.91255
G1 X43.746 Y154.106 E57.46004
G1 X44.293 Y154.106 E57.48698
G1 X35.894 Y145.707 E58.07256
G1 X35.894 Y145.161 E58.09949
G1 X44.839 Y154.106 E58.72317
G1 X45.385 Y154.106 E58.75011
G1 X35.894 Y144.615 E59.41187
G1 X35.894 Y144.068 E59.43881
G1 X45.932 Y154.106 E60.13867
G1 X46.478 Y154.106 E60.16561
G1 X35.894 Y143.522 E60.90356
G1 X35.894 Y142.976 E60.93050
G1 X47.024 Y154.106 E61.70655
G1 X47.571 Y154.106 E61.73349
G1 X35.894 Y142.429 E62.54763
G1 X35.894 Y141.883 E62.57457
G1 X48.117 Y154.106 E63.42680
G1 X48.663 Y154.106 E63.45374
G1 X35.894 Y141.337 E64.34407
G1 X35.894 Y140.790 E64.37101
G1 X49.210 Y154.106 E65.29943
G1 X49.756 Y154.106 E65.32637
G1 X35.894 Y140.244 E66.29288
G1 X35.894 Y139.698 E66.31982
G1 X50.302 Y154.106 E67.32443
G1 X50.849 Y154.106 E67.35137
G1 X35.894 Y139.151 E68.39407
G1 X35.894 Y138.605 E68.42101
G1 X51.395 Y154.106 E69.50181
G1 X51.941 Y154.106 E69.52874
G1 X35.894 Y138.059 E70.64764
G1 X35.894 Y137.512 E70.67457
G1 X52.488 Y154.106 E71.83156
G1 X53.034 Y154.106 E71.85849
G1 X35.894 Y136.966 E73.05357
G1 X35.894 Y136.420 E73.08051
G1 X53.580 Y154.106 E74.31368
G1 X54.127 Y154.106 E74.34062
G1 X35.894 Y135.873 E75.61189
G1 X35.894 Y135.327 E75.63882
G1 X54.673 Y154.106 E76.94818
G1 X55.219 Y154.106 E76.97512
G1 X35.894 Y134.781 E78.32257
G1 X35.894 Y134.234 E78.34951
G1 X55.766 Y154.106 E79.73506
G1 X56.312 Y154.106 E79.76199
G1 X35.894 Y133.688 E81.18563
G1 X35.894 Y133.142 E81.21257
G1 X56.858 Y154.106 E82.67431
G1 X57.405 Y154.106 E82.70124
G1 X35.894 Y132.595 E84.20107
G1 X35.894 Y132.049 E84.22801
G1 X57.951 Y154.106 E85.76593
G1 X58.497 Y154.106 E85.79286
G1 X35.894 Y131.503 E87.36888
G1 X35.894 Y130.956 E87.39582
G1 X59.044 Y154.106 E89.00993
G1 X59.590 Y154.106 E89.03686
G1 X35.894 Y130.410 E90.68907
G1 X35.894 Y129.864 E90.71600
G1 X60.136 Y154.106 E92.40630
G1 X60.683 Y154.106 E92.43323
G1 X35.894 Y129.317 E94.16163
G1 X35.894 Y128.771 E94.18856
G1 X61.229 Y154.106 E95.95505
G1 X61.775 Y154.106 E95.98198
G1 X35.894 Y128.225 E97.78656
G1 X35.894 Y127.678 E97.81350
G1 X62.322 Y154.106 E99.65617
G1 X62.868 Y154.106 E99.68310
G1 X35.894 Y127.132 E101.56387
G1 X35.894 Y126.586 E101.59080
G1 X63.414 Y154.106 E103.50966
G1 X63.961 Y154.106 E103.53660
G1 X35.894 Y126.039 E105.49355
G1 X35.894 Y125.493 E105.52049
G1 X64.507 Y154.106 E107.51553
G1 X65.053 Y154.106 E107.54247
G1 X35.894 Y124.947 E109.57561
G1 X35.894 Y124.400 E109.60255
G1 X65.600 Y154.106 E111.67378
G1 X66.146 Y154.106 E111.70071
G1 X35.894 Y123.854 E113.81004
G1 X35.894 Y123.308 E113.83698
G1 X66.692 Y154.106 E115.98440
G1 X67.239 Y154.106 E116.01133
G1 X35.894 Y122.761 E118.19685
G1 X35.894 Y122.215 E118.22378
G1 X67.785 Y154.106 E120.44739
G1 X68.331 Y154.106 E120.47433
G1 X35.894 Y121.669 E122.73603
G1 X35.894 Y121.122 E122.76297
G1 X68.878 Y154.106 E125.06276
G1 X69.424 Y154.106 E125.08970
G1 X35.894 Y120.576 E127.42759
G1 X35.894 Y120.030 E127.45452
G1 X69.970 Y154.106 E129.83050
G1 X70.517 Y154.106 E129.85744
G1 X35.894 Y119.483 E132.27152
G1 X35.894 Y118.937 E132.29845
G1 X71.063 Y154.106 E134.75062
G1 X71.609 Y154.106 E134.77756
G1 X35.894 Y118.391 E137.26782
G1 X35.894 Y117.844 E137.29476
G1 X72.156 Y154.106 E139.82311
G1 X72.702 Y154.106 E139.85005
G1 X35.894 Y117.298 E142.41650
G1 X35.894 Y116.752 E142.44344
G1 X73.248 Y154.106 E145.04798
G1 X73.795 Y154.106 E145.07492
G1 X35.894 Y116.205 E147.71755
G1 X35.894 Y115.659 E147.74449
G1 X74.341 Y154.106 E150.42522
G1 X74.887 Y154.106 E150.45216
G1 X35.894 Y115.113 E153.17098
G1 X35.894 Y114.566 E153.19792
G1 X75.434 Y154.106 E155.95484
G1 X75.980 Y154.106 E155.98177
G1 X35.894 Y114.020 E158.77679
G1 X35.894 Y113.474 E158.80372
G1 X76.526 Y154.106 E161.63683
G1 X77.073 Y154.106 E161.66376
G1 X35.894 Y112.927 E164.53496
G1 X35.894 Y112.381 E164.56190
G1 X77.619 Y154.106 E167.47119
G1 X78.165 Y154.106 E167.49813
G1 X35.894 Y111.835 E170.44552
G1 X35.894 Y111.288 E170.47245
G1 X78.712 Y154.106 E173.45793
G1 X79.258 Y154.106 E173.48487
G1 X35.894 Y110.742 E176.50844
G1 X35.894 Y110.196 E176.53538
G1 X79.804 Y154.106 E179.59705
G1 X80.351 Y154.106 E179.62398
G1 X35.894 Y109.649 E182.72374
G1 X35.894 Y109.103 E182.75068
G1 X80.897 Y154.106 E185.88853
G1 X81.443 Y154.106 E185.91547
G1 X35.894 Y108.557 E189.09142
G1 X35.894 Y108.010 E189.11836
G1 X81.990 Y154.106 E192.33240
G1 X82.536 Y154.106 E192.35933
G1 X35.894 Y107.464 E195.61147
G1 X35.894 Y106.918 E195.63841
G1 X83.082 Y154.106 E198.92863
G1 X83.629 Y154.106 E198.95557
G1 X35.894 Y106.371 E202.28389
G1 X35.894 Y105.825 E202.31083
G1 X84.175 Y154.106 E205.67725
G1 X84.721 Y154.106 E205.70418
G1 X35.894 Y105.279 E209.10869
G1 X35.894 Y104.732 E209.13563
G1 X85.268 Y154.106 E212.57823
G1 X85.814 Y154.106 E212.60517
G1 X35.894 Y104.186 E216.08587
G1 X35.894 Y103.640 E216.11280
G1 X86.360 Y154.106 E219.63159
G1 X86.907 Y154.106 E219.65853
G1 X35.894 Y103.093 E223.21542
G1 X35.894 Y102.547 E223.24235
G1 X87.453 Y154.106 E226.83733
G1 X87.999 Y154.106 E226.86427
G1 X35.894 Y102.001 E230.49734
G1 X35.894 Y101.454 E230.52427
G1 X88.546 Y154.106 E234.19544
G1 X89.092 Y154.106 E234.22238
G1 X35.894 Y100.908 E237.93164
G1 X35.894 Y100.362 E237.95857
G1 X89.638 Y154.106 E241.70593
G1 X90.185 Y154.106 E241.73286
G1 X35.894 Y99.815 E245.51831
G1 X35.894 Y99.269 E245.54524
G1 X90.731 Y154.106 E249.36878
G1 X91.277 Y154.106 E249.39572
G1 X35.894 Y98.723 E253.25735
G1 X35.894 Y98.176 E253.28429
G1 X91.824 Y154.106 E257.18402
G1 X92.370 Y154.106 E257.21095
G1 X35.894 Y97.630 E261.14878
G1 X35.894 Y97.084 E261.17571
G1 X92.916 Y154.106 E265.15163
G1 X93.463 Y154.106 E265.17856
G1 X35.894 Y96.537 E269.19257
G1 X35.894 Y95.991 E269.21951
G1 X94.009 Y154.106 E273.27161
G1 X94.555 Y154.106 E273.29855
G1 X35.894 Y95.445 E277.38874
G1 X35.894 Y94.898 E277.41568
G1 X95.102 Y154.106 E281.54397
G1 X95.648 Y154.106 E281.57090
G1 X35.894 Y94.352 E285.73729
G1 X35.894 Y93.806 E285.76422
G1 X96.194 Y154.106 E289.96870
G1 X96.741 Y154.106 E289.99563
G1 X35.894 Y93.259 E294.23821
G1 X35.894 Y92.713 E294.26514
G1 X97.287 Y154.106 E298.54581
G1 X97.833 Y154.106 E298.57274
G1 X35.894 Y92.167 E302.89150
G1 X35.894 Y91.620 E302.91843
G1 X98.380 Y154.106 E307.27529
G1 X98.926 Y154.106 E307.30222
G1 X35.894 Y91.074 E311.69717
G1 X35.894 Y90.528 E311.72410
G1 X99.472 Y154.106 E316.15714
G1 X100.019 Y154.106 E316.18408
G1 X35.894 Y89.981 E320.65521
G1 X35.894 Y89.435 E320.68215
G1 X100.565 Y154.106 E325.19137
G1 X101.111 Y154.106 E325.21831
G1 X35.894 Y88.889 E329.76563
G1 X35.894 Y88.342 E329.79256
G1 X101.658 Y154.106 E334.37798
G1 X102.204 Y154.106 E334.40491
G1 X35.894 Y87.796 E339.02842
G1 X35.894 Y87.250 E339.05535
G1 X102.750 Y154.106 E343.71695
G1 X103.297 Y154.106 E343.74389
G1 X35.894 Y86.703 E348.44358
G1 X35.894 Y86.157 E348.47052
G1 X103.843 Y154.106 E353.20831
G1 X104.389 Y154.106 E353.23524
G1 X35.894 Y85.611 E358.01113
G1 X35.894 Y85.064 E358.03806
G1 X104.936 Y154.106 E362.85204
G1 X105.482 Y154.106 E362.87897
G1 X35.894 Y84.518 E367.73104
G1 X35.894 Y83.972 E367.75798
G1 X106.028 Y154.106 E372.64814
G1 X106.575 Y154.106 E372.67508
G1 X35.894 Y83.425 E377.60333
G1 X35.894 Y82.879 E377.63027
G1 X107.121 Y154.106 E382.59662
G1 X107.667 Y154.106 E382.62355
G1 X35.894 Y82.333 E387.62800
G1 X35.894 Y81.786 E387.65493
G1 X108.214 Y154.106 E392.69747
G1 X108.760 Y154.106 E392.72440
G1 X35.894 Y81.240 E397.80503
G1 X35.894 Y80.694 E397.83197
G1 X109.306 Y154.106 E402.95069
G1 X109.853 Y154.106 E402.97763
G1 X35.894 Y80.147 E408.13445
G1 X35.894 Y79.601 E408.16138
G1 X110.399 Y154.106 E413.35630
G1 X110.945 Y154.106 E413.38323
G1 X35.894 Y79.055 E418.61624
G1 X35.894 Y78.508 E418.64317
G1 X111.492 Y154.106 E423.91427
G1 X112.038 Y154.106 E423.94121
G1 X35.894 Y77.962 E429.25040
G1 X35.894 Y77.416 E429.27734
G1 X112.584 Y154.106 E434.62462
G1 X113.131 Y154.106 E434.65156
G1 X35.894 Y76.869 E440.03694
G1 X35.894 Y76.323 E440.06387
G1 X113.677 Y154.106 E445.48735
G1 X114.223 Y154.106 E445.51428
G1 X35.894 Y75.777 E450.97585
G1 X35.894 Y75.230 E451.00278
G1 X114.770 Y154.106 E456.50245
G1 X115.316 Y154.106 E456.52938
G1 X35.894 Y74.684 E462.06714
G1 X35.894 Y74.138 E462.09407
G1 X115.862 Y154.106 E467.66992
G1 X116.409 Y154.106 E467.69685
G1 X35.894 Y73.591 E473.31080
G1 X35.894 Y73.045 E473.33773
G1 X116.955 Y154.106 E478.98977
G1 X117.501 Y154.106 E479.01670
G1 X35.894 Y72.499 E484.70683
G1 X35.894 Y71.952 E484.73377
G1 X118.048 Y154.106 E490.46199
G1 X118.594 Y154.106 E490.48893
G1 X35.894 Y71.406 E496.25524
G1 X35.894 Y70.860 E496.28218
G1 X119.140 Y154.106 E502.08659
G1 X119.687 Y154.106 E502.11352
G1 X35.894 Y70.313 E507.95603
G1 X35.894 Y69.767 E507.98296
G1 X120.233 Y154.106 E513.86356
G1 X120.779 Y154.106 E513.89049
G1 X35.894 Y69.221 E519.80918
G1 X35.894 Y68.674 E519.83612
G1 X121.326 Y154.106 E525.79290
G1 X121.872 Y154.106 E525.81984
G1 X35.894 Y68.128 E531.81472
G1 X35.894 Y67.582 E531.84165
G1 X122.418 Y154.106 E537.87463
G1 X122.965 Y154.106 E537.90156
G1 X35.894 Y67.035 E543.97263
G1 X35.894 Y66.489 E543.99956
G1 X123.511 Y154.106 E550.10872
G1 X124.057 Y154.106 E550.13566
G1 X35.894 Y65.943 E556.28291
G1 X35.894 Y65.396 E556.30985
G1 X124.604 Y154.106 E562.49519
G1 X125.150 Y154.106 E562.52213
G1 X35.894 Y64.850 E568.74557
G1 X35.894 Y64.304 E568.77250
G1 X125.696 Y154.106 E575.03404
G1 X126.243 Y154.106 E575.06097
G1 X35.894 Y63.757 E581.36060
G1 X35.894 Y63.211 E581.38753
G1 X126.789 Y154.106 E587.72525
G1 X127.335 Y154.106 E587.75219
G1 X35.894 Y62.665 E594.12800
G1 X35.894 Y62.118 E594.15494
G1 X127.882 Y154.106 E600.56885
G1 X128.428 Y154.106 E600.59578
G1 X35.894 Y61.572 E607.04779
G1 X35.894 Y61.026 E607.07472
G1 X128.974 Y154.106 E613.56482
G1 X129.521 Y154.106 E613.59175
G1 X35.894 Y60.479 E620.11994
G1 X35.894 Y59.933 E620.14688
G1 X130.067 Y154.106 E626.71316
G1 X130.613 Y154.106 E626.74009
G1 X35.894 Y59.387 E633.34447
G1 X35.894 Y58.840 E633.37141
G1 X131.159 Y154.106 E640.01388
G1 X131.706 Y154.106 E640.04081
G1 X35.894 Y58.294 E646.72137
G1 X35.894 Y57.748 E646.74831
G1 X132.252 Y154.106 E653.46697
G1 X132.798 Y154.106 E653.49390
G1 X35.894 Y57.202 E660.25065
G1 X35.894 Y56.655 E660.27759
G1 X133.345 Y154.106 E667.07243
G1 X133.891 Y154.106 E667.09937
G1 X35.894 Y56.109 E673.93231
G1 X36.226 Y55.894 E673.95179
G1 X134.437 Y154.106 E680.79968
G1 X134.984 Y154.106 E680.82661
G1 X36.773 Y55.894 E687.67450
G1 X37.319 Y55.894 E687.70144
G1 X135.530 Y154.106 E694.54933
G1 X136.076 Y154.106 E694.57626
G1 X37.865 Y55.894 E701.42415
G1 X38.412 Y55.894 E701.45109
G1 X136.623 Y154.106 E708.29897
G1 X137.169 Y154.106 E708.32591
G1 X38.958 Y55.894 E715.17380
G1 X39.504 Y55.894 E715.20074
G1 X137.715 Y154.106 E722.04862
G1 X138.262 Y154.106 E722.07556
G1 X40.051 Y55.894 E728.92345
G1 X40.597 Y55.894 E728.95038
G1 X138.808 Y154.106 E735.79827
G1 X139.354 Y154.106 E735.82521
G1 X41.143 Y55.894 E742.67310
G1 X41.690 Y55.894 E742.70003
G1 X139.901 Y154.106 E749.54792
G1 X140.447 Y154.106 E749.57486
G1 X42.236 Y55.894 E756.42275
G1 X42.782 Y55.894 E756.44968
G1 X140.993 Y154.106 E763.29757
G1 X141.540 Y154.106 E763.32451
G1 X43.329 Y55.894 E770.17239
G1 X43.875 Y55.894 E770.19933
G1 X142.086 Y154.106 E777.04722
G1 X142.632 Y154.106 E777.07415
G1 X44.421 Y55.894 E783.92204
G1 X44.968 Y55.894 E783.94898
G1 X143.179 Y154.106 E790.79687
G1 X143.725 Y154.106 E790.82380
G1 X45.514 Y55.894 E797.67169
G1 X46.060 Y55.894 E797.69863
G1 X144.271 Y154.106 E804.54652
G1 X144.818 Y154.106 E804.57345
G1 X46.607 Y55.894 E811.42134
G1 X47.153 Y55.894 E811.44828
G1 X145.364 Y154.106 E818.29616
G1 X145.910 Y154.106 E818.32310
G1 X47.699 Y55.894 E825.17099
G1 X48.246 Y55.894 E825.19793
G1 X146.457 Y154.106 E832.04581
G1 X147.003 Y154.106 E832.07275
G1 X48.792 Y55.894 E838.92064
G1 X49.338 Y55.894 E838.94757
G1 X147.549 Y154.106 E845.79546
G1 X148.096 Y154.106 E845.82240
G1 X49.885 Y55.894 E852.67029
G1 X50.431 Y55.894 E852.69722
G1 X148.642 Y154.106 E859.54511
G1 X149.188 Y154.106 E859.57205
G1 X50.977 Y55.894 E866.41994
G1 X51.524 Y55.894 E866.44687
G1 X149.735 Y154.106 E873.29476
G1 X150.281 Y154.106 E873.32170
G1 X52.070 Y55.894 E880.16958
G1 X52.616 Y55.894 E880.19652
G1 X150.827 Y154.106 E887.04441
G1 X151.374 Y154.106 E887.07134
G1 X53.163 Y55.894 E893.91923
G1 X53.709 Y55.894 E893.94617
G1 X151.920 Y154.106 E900.79406
G1 X152.466 Y154.106 E900.82099
G1 X54.255 Y55.894 E907.66888
G1 X54.802 Y55.894 E907.69582
G1 X153.013 Y154.106 E914.54371
G1 X153.559 Y154.106 E914.57064
G1 X55.348 Y55.894 E921.41853
G1 X55.894 Y55.894 E921.44547
G1 X154.105 Y154.106 E928.29335
G1 X154.652 Y154.106 E928.32029
G1 X56.441 Y55.894 E935.16818
G1 X56.987 Y55.894 E935.19512
G1 X155.198 Y154.106 E942.04300
G1 X155.744 Y154.106 E942.06994
G1 X57.533 Y55.894 E948.91783
G1 X58.080 Y55.894 E948.94476
G1 X156.291 Y154.106 E955.79265
