; generated by Slic3r 1.2.9 on 2020-04-27 at 12:36:12

; external perimeters extrusion width = 0.40mm
; perimeters extrusion width = 0.62mm
; infill extrusion width = 0.33mm
; solid infill extrusion width = 0.62mm
; top infill extrusion width = 0.20mm

M106 S256; Turn on fan to 100% power
M104 S140; turn on extruder temperature at S value
M140 S60; turn on bed temperature at S value
G28; home all axes
M84; disable motors
G1 Z15 F15000; have Z move to 20mm at 15000 mm/min
M190 S55; turn on bed temperature at S value and wait
M140 S55; turn on bed temperature at S value (printing temperature)
M109 S200; turn on extruder temperature at S value and wait (printing temperature)
M104 S200; turn on extruder temperature at S value
G1 Z0 F12000; move Z back to home
G21 ; set units to millimeters
G90 ; use absolute coordinates
M82 ; use absolute distances for extrusion
G92 E0
M106 S255
;Layer change
G1 E-6.00000 F1800.00000
G92 E0
G1 Z0.300 F9000.000
G1 X42.830 Y35.839 F9000.000
G1 E6.00000 F1800.00000
G1 X43.238 Y35.362 E6.03090 F600.000
G1 X43.502 Y35.098 E6.04930
G1 X43.980 Y34.690 E6.08020
G1 X44.282 Y34.470 E6.09861
G1 X44.817 Y34.142 E6.12950
G1 X45.150 Y33.972 E6.14790
G1 X45.731 Y33.732 E6.17883
G1 X46.087 Y33.616 E6.19725
G1 X46.697 Y33.470 E6.22815
G1 X47.067 Y33.411 E6.24655
G1 X47.880 Y33.354 E6.28667
G1 X163.067 Y33.362 E11.95558
G1 X163.693 Y33.411 E11.98651 F600.000
G1 X164.062 Y33.469 E12.00492
G1 X164.673 Y33.616 E12.03582
G1 X165.029 Y33.732 E12.05425
G1 X165.609 Y33.972 E12.08514
G1 X165.943 Y34.142 E12.10357
G1 X166.478 Y34.470 E12.13446
G1 X166.780 Y34.690 E12.15287
G1 X167.258 Y35.097 E12.18376
G1 X167.522 Y35.362 E12.20218
G1 X167.930 Y35.839 E12.23307
G1 X168.150 Y36.143 E12.25151
G1 X168.478 Y36.678 E12.28240
G1 X168.648 Y37.011 E12.30081
G1 X168.886 Y37.586 E12.33145
G1 X169.004 Y37.947 E12.35012
G1 X169.150 Y38.557 E12.38101
G1 X169.209 Y38.927 E12.39945
G1 X169.264 Y39.665 E12.43589
G1 X170.264 Y71.665 E14.01154
G1 X169.264 Y97.832 E15.30025
G1 X169.209 Y98.553 E15.33584
G1 X169.150 Y98.923 E15.35428
G1 X169.004 Y99.534 E15.38521
G1 X168.888 Y99.889 E15.40359
G1 X168.648 Y100.469 E15.43448
G1 X168.478 Y100.802 E15.45290
G1 X168.153 Y101.333 E15.48353
G1 X167.930 Y101.641 E15.50222
G1 X167.522 Y102.119 E15.53317
G1 X167.258 Y102.382 E15.55152
G1 X166.781 Y102.790 E15.58242
G1 X166.478 Y103.010 E15.60081
G1 X165.942 Y103.338 E15.63173
G1 X165.609 Y103.508 E15.65016
G1 X165.029 Y103.748 E15.68105
G1 X164.673 Y103.864 E15.69946
G1 X164.063 Y104.010 E15.73036
G1 X163.693 Y104.069 E15.74880
G1 X162.880 Y104.126 E15.78889
G1 X47.880 Y104.126 E21.44862
G1 X47.067 Y104.069 E21.48872
G1 X46.698 Y104.011 E21.50711
G1 X46.087 Y103.864 E21.53806
G1 X45.731 Y103.748 E21.55645
G1 X45.151 Y103.508 E21.58736
G1 X44.818 Y103.338 E21.60577
G1 X44.282 Y103.010 E21.63667
G1 X43.980 Y102.790 E21.65507
G1 X43.502 Y102.382 E21.68599
G1 X43.238 Y102.118 E21.70440
G1 X42.830 Y101.641 E21.73530
G1 X42.610 Y101.338 E21.75373
G1 X42.282 Y100.802 E21.78462
G1 X42.112 Y100.469 E21.80304
G1 X41.872 Y99.889 E21.83393
G1 X41.756 Y99.533 E21.85234
G1 X41.611 Y98.928 E21.88298
G1 X41.551 Y98.553 E21.90168
G1 X41.496 Y97.832 E21.93727
G1 X40.496 Y71.832 E23.21780
G1 X41.502 Y39.553 E24.80717
G1 X41.551 Y38.927 E24.83806
G1 X41.610 Y38.557 E24.85651
G1 X41.756 Y37.947 E24.88740
G1 X41.872 Y37.591 E24.90581
G1 X42.112 Y37.011 E24.93670
G1 X42.282 Y36.678 E24.95512
G1 X42.610 Y36.143 E24.98600
G1 X42.795 Y35.888 E25.00149
G1 E19.00149 F1800.00000
G92 E0
G1 X49.508 Y96.557 F9000.000
G1 E6.00000 F1800.00000
G1 X49.673 Y96.826 E6.01554 F600.000
G1 X49.794 Y97.118 E6.03109
G1 X49.868 Y97.425 E6.04663
G1 X49.892 Y97.740 E6.06217
G1 X49.868 Y98.055 E6.07771
G1 X49.794 Y98.362 E6.09326
G1 X49.673 Y98.654 E6.10880
G1 X49.508 Y98.923 E6.12435
G1 X49.303 Y99.163 E6.13988
G1 X49.063 Y99.368 E6.15542
G1 X48.794 Y99.533 E6.17097
G1 X48.502 Y99.654 E6.18651
G1 X48.195 Y99.728 E6.20205
G1 X47.880 Y99.752 E6.21759
G1 X47.565 Y99.728 E6.23314
G1 X47.258 Y99.654 E6.24868
G1 X46.966 Y99.533 E6.26422
G1 X46.697 Y99.368 E6.27977
G1 X46.457 Y99.163 E6.29531
G1 X46.252 Y98.923 E6.31084
G1 X46.087 Y98.654 E6.32639
G1 X45.966 Y98.362 E6.34193
G1 X45.892 Y98.055 E6.35747
G1 X45.867 Y97.740 E6.37302
G1 X45.892 Y97.425 E6.38856
G1 X45.966 Y97.118 E6.40410
G1 X46.087 Y96.826 E6.41964
G1 X46.252 Y96.557 E6.43519
G1 X46.457 Y96.317 E6.45073
G1 X46.697 Y96.112 E6.46626
G1 X46.966 Y95.947 E6.48181
G1 X47.258 Y95.826 E6.49735
G1 X47.565 Y95.752 E6.51290
G1 X47.880 Y95.727 E6.52844 F600.000
G1 X48.195 Y95.752 E6.54398
G1 X48.502 Y95.826 E6.55952
G1 X48.794 Y95.947 E6.57507
G1 X49.063 Y96.112 E6.59061
G1 X49.303 Y96.317 E6.60615
G1 X49.469 Y96.511 E6.61873
G1 X49.195 Y96.784 F9000.000
G1 X49.328 Y97.002 E6.63128 F600.000
G1 X49.426 Y97.238 E6.64384
G1 X49.486 Y97.486 E6.65640
G1 X49.506 Y97.740 E6.66895
G1 X49.486 Y97.994 E6.68150
G1 X49.426 Y98.242 E6.69406
G1 X49.328 Y98.478 E6.70662
G1 X49.195 Y98.696 E6.71917
G1 X49.029 Y98.889 E6.73173
G1 X48.836 Y99.055 E6.74428
G1 X48.618 Y99.188 E6.75683
G1 X48.382 Y99.286 E6.76939
G1 X48.134 Y99.346 E6.78195
G1 X47.880 Y99.366 E6.79450
G1 X47.626 Y99.346 E6.80705
G1 X47.378 Y99.286 E6.81961
G1 X47.142 Y99.188 E6.83217
G1 X46.924 Y99.055 E6.84472
G1 X46.731 Y98.889 E6.85727
G1 X46.565 Y98.696 E6.86983
G1 X46.432 Y98.478 E6.88238
G1 X46.334 Y98.242 E6.89494
G1 X46.274 Y97.994 E6.90749
G1 X46.254 Y97.740 E6.92005
G1 X46.274 Y97.486 E6.93260
G1 X46.334 Y97.238 E6.94516
G1 X46.432 Y97.002 E6.95771
G1 X46.565 Y96.784 E6.97027
G1 X46.731 Y96.591 E6.98282
G1 X46.924 Y96.425 E6.99537
G1 X47.142 Y96.292 E7.00793
G1 X47.378 Y96.194 E7.02049
G1 X47.626 Y96.134 E7.03304
G1 X47.880 Y96.114 E7.04560 F600.000
G1 X48.134 Y96.134 E7.05815
G1 X48.382 Y96.194 E7.07070
G1 X48.618 Y96.292 E7.08326
G1 X48.836 Y96.425 E7.09582
G1 X49.029 Y96.591 E7.10837
G1 X49.156 Y96.739 E7.11797
G1 X49.449 Y96.764 F9000.000
G1 X54.269 Y97.351 F9000.000
G1 X54.269 Y81.129 E7.91630 F600.000
G1 X63.491 Y81.129 E8.37012
G1 X63.491 Y97.351 E9.16845
G1 X54.329 Y97.351 E9.61932
G1 X54.655 Y96.965 F9000.000
G1 X54.655 Y81.515 E10.37970 F600.000
G1 X63.105 Y81.515 E10.79556
G1 X63.105 Y96.965 E11.55594
G1 X54.715 Y96.965 E11.96885
G1 X54.255 Y96.965 F9000.000
G1 E5.96885 F1800.00000
G92 E0
G1 X47.610 Y73.987 F9000.000
G1 E6.00000 F1800.00000
G1 X47.250 Y74.073 E6.01824 F600.000
G1 X46.880 Y74.102 E6.03649
G1 X46.510 Y74.073 E6.05474
G1 X46.150 Y73.987 E6.07299
G1 X45.807 Y73.845 E6.09123
G1 X45.491 Y73.651 E6.10948
G1 X45.209 Y73.411 E6.12772
G1 X44.969 Y73.129 E6.14596
G1 X44.775 Y72.813 E6.16421
G1 X44.633 Y72.470 E6.18245
G1 X44.547 Y72.110 E6.20069
G1 X44.517 Y71.740 E6.21894
G1 X44.547 Y71.370 E6.23719
G1 X44.633 Y71.010 E6.25544
G1 X44.775 Y70.667 E6.27368
G1 X44.969 Y70.351 E6.29193
G1 X45.209 Y70.069 E6.31017
G1 X45.491 Y69.829 E6.32841
G1 X45.807 Y69.635 E6.34666
G1 X46.150 Y69.493 E6.36490
G1 X46.510 Y69.407 E6.38315
G1 X46.868 Y69.378 E6.40080 F600.000
G1 X47.248 Y69.406 E6.41955
G1 X47.610 Y69.493 E6.43788
G1 X47.953 Y69.635 E6.45612
G1 X48.269 Y69.829 E6.47437
G1 X48.550 Y70.070 E6.49261
G1 X48.791 Y70.351 E6.51085
G1 X48.985 Y70.667 E6.52911
G1 X49.127 Y71.010 E6.54735
G1 X49.213 Y71.370 E6.56559
G1 X49.242 Y71.740 E6.58384
G1 X49.213 Y72.110 E6.60209
G1 X49.127 Y72.470 E6.62033
G1 X48.985 Y72.813 E6.63857
G1 X48.791 Y73.129 E6.65682
G1 X48.550 Y73.411 E6.67506
G1 X48.269 Y73.651 E6.69331
G1 X47.953 Y73.845 E6.71156
G1 X47.666 Y73.964 E6.72684
G1 X47.491 Y73.619 F9000.000
G1 X47.189 Y73.691 E6.74210 F600.000
G1 X46.880 Y73.716 E6.75736
G1 X46.571 Y73.691 E6.77262
G1 X46.269 Y73.619 E6.78788
G1 X45.983 Y73.500 E6.80313
G1 X45.719 Y73.338 E6.81839
G1 X45.483 Y73.137 E6.83365
G1 X45.282 Y72.901 E6.84891
G1 X45.120 Y72.637 E6.86417
G1 X45.001 Y72.351 E6.87942
G1 X44.929 Y72.049 E6.89468
G1 X44.904 Y71.740 E6.90994
G1 X44.929 Y71.431 E6.92520
G1 X45.001 Y71.129 E6.94046
G1 X45.120 Y70.843 E6.95571
G1 X45.282 Y70.579 E6.97097
G1 X45.483 Y70.343 E6.98623
G1 X45.719 Y70.142 E7.00149
G1 X45.983 Y69.980 E7.01675
G1 X46.269 Y69.861 E7.03200
G1 X46.571 Y69.789 E7.04726
G1 X46.869 Y69.765 E7.06198 F600.000
G1 X47.189 Y69.788 E7.07774
G1 X47.491 Y69.861 E7.09303
G1 X47.777 Y69.980 E7.10829
G1 X48.041 Y70.142 E7.12354
G1 X48.277 Y70.343 E7.13880
G1 X48.478 Y70.579 E7.15406
G1 X48.640 Y70.843 E7.16932
G1 X48.759 Y71.129 E7.18457
G1 X48.831 Y71.431 E7.19983
G1 X48.856 Y71.740 E7.21509
G1 X48.831 Y72.049 E7.23035
G1 X48.759 Y72.351 E7.24561
G1 X48.640 Y72.637 E7.26086
G1 X48.478 Y72.901 E7.27612
G1 X48.277 Y73.137 E7.29138
G1 X48.041 Y73.338 E7.30664
G1 X47.777 Y73.500 E7.32190
G1 X47.546 Y73.596 E7.33420
G1 X47.418 Y73.920 F9000.000
G1 E1.33420 F1800.00000
G92 E0
G1 X47.880 Y41.753 F9000.000
G1 E6.00000 F1800.00000
G1 X47.565 Y41.728 E6.01554 F600.000
G1 X47.258 Y41.654 E6.03108
G1 X46.966 Y41.533 E6.04663
G1 X46.697 Y41.368 E6.06217
G1 X46.457 Y41.163 E6.07771
G1 X46.252 Y40.923 E6.09325
G1 X46.087 Y40.654 E6.10879
G1 X45.966 Y40.362 E6.12433
G1 X45.892 Y40.055 E6.13988
G1 X45.867 Y39.740 E6.15542
G1 X45.892 Y39.425 E6.17096
G1 X45.966 Y39.118 E6.18651
G1 X46.087 Y38.826 E6.20205
G1 X46.252 Y38.557 E6.21759
G1 X46.457 Y38.317 E6.23313
G1 X46.697 Y38.112 E6.24867
G1 X46.966 Y37.947 E6.26422
G1 X47.258 Y37.826 E6.27976
G1 X47.565 Y37.752 E6.29530
G1 X47.880 Y37.727 E6.31084 F600.000
G1 X48.195 Y37.752 E6.32638
G1 X48.502 Y37.826 E6.34192
G1 X48.794 Y37.947 E6.35747
G1 X49.063 Y38.112 E6.37301
G1 X49.303 Y38.317 E6.38855
G1 X49.508 Y38.557 E6.40409
G1 X49.673 Y38.826 E6.41963
G1 X49.794 Y39.118 E6.43517
G1 X49.868 Y39.425 E6.45072
G1 X49.892 Y39.740 E6.46626
G1 X49.868 Y40.055 E6.48180
G1 X49.794 Y40.362 E6.49735
G1 X49.673 Y40.654 E6.51289
G1 X49.508 Y40.923 E6.52843
G1 X49.303 Y41.163 E6.54397
G1 X49.063 Y41.368 E6.55951
G1 X48.794 Y41.533 E6.57506
G1 X48.502 Y41.654 E6.59060
G1 X48.195 Y41.728 E6.60614
G1 X47.940 Y41.748 E6.61873
G1 X47.880 Y41.366 F9000.000
G1 X47.626 Y41.346 E6.63128 F600.000
G1 X47.378 Y41.286 E6.64384
G1 X47.142 Y41.189 E6.65640
G1 X46.924 Y41.055 E6.66895
G1 X46.731 Y40.890 E6.68150
G1 X46.565 Y40.696 E6.69406
G1 X46.432 Y40.478 E6.70661
G1 X46.334 Y40.242 E6.71917
G1 X46.274 Y39.994 E6.73172
G1 X46.254 Y39.740 E6.74428
G1 X46.274 Y39.486 E6.75683
G1 X46.334 Y39.238 E6.76939
G1 X46.432 Y39.002 E6.78194
G1 X46.565 Y38.784 E6.79450
G1 X46.731 Y38.590 E6.80705
G1 X46.924 Y38.425 E6.81961
G1 X47.142 Y38.291 E6.83216
G1 X47.378 Y38.194 E6.84472
G1 X47.626 Y38.134 E6.85727
G1 X47.880 Y38.114 E6.86983 F600.000
G1 X48.134 Y38.134 E6.88238
G1 X48.382 Y38.194 E6.89493
G1 X48.618 Y38.291 E6.90749
G1 X48.836 Y38.425 E6.92005
G1 X49.029 Y38.590 E6.93260
G1 X49.195 Y38.784 E6.94515
G1 X49.328 Y39.002 E6.95771
G1 X49.426 Y39.238 E6.97026
G1 X49.486 Y39.486 E6.98282
G1 X49.506 Y39.740 E6.99537
G1 X49.486 Y39.994 E7.00793
G1 X49.426 Y40.242 E7.02049
G1 X49.328 Y40.478 E7.03304
G1 X49.195 Y40.696 E7.04560
G1 X49.029 Y40.890 E7.05815
G1 X48.836 Y41.055 E7.07070
G1 X48.618 Y41.189 E7.08326
G1 X48.382 Y41.286 E7.09581
G1 X48.134 Y41.346 E7.10837
G1 X47.940 Y41.361 E7.11797
G1 X47.747 Y41.583 F9000.000
G1 X160.867 Y39.740 F9000.000
G1 X160.892 Y39.425 E7.13351 F600.000
G1 X160.966 Y39.118 E7.14906
G1 X161.087 Y38.826 E7.16460
G1 X161.252 Y38.557 E7.18013
G1 X161.457 Y38.317 E7.19568
G1 X161.697 Y38.112 E7.21122
G1 X161.966 Y37.947 E7.22676
G1 X162.258 Y37.826 E7.24231
G1 X162.565 Y37.752 E7.25785
G1 X162.880 Y37.727 E7.27339 F600.000
G1 X163.195 Y37.752 E7.28893
G1 X163.502 Y37.826 E7.30447
G1 X163.794 Y37.947 E7.32002
G1 X164.063 Y38.112 E7.33556
G1 X164.303 Y38.317 E7.35111
G1 X164.508 Y38.557 E7.36665
G1 X164.673 Y38.826 E7.38218
G1 X164.794 Y39.118 E7.39772
G1 X164.868 Y39.425 E7.41327
G1 X164.892 Y39.740 E7.42881
G1 X164.868 Y40.055 E7.44435
G1 X164.794 Y40.362 E7.45990
G1 X164.673 Y40.654 E7.47544
G1 X164.508 Y40.923 E7.49098
G1 X164.303 Y41.163 E7.50652
G1 X164.063 Y41.368 E7.52207
G1 X163.794 Y41.533 E7.53761
G1 X163.502 Y41.654 E7.55315
G1 X163.195 Y41.728 E7.56869
G1 X162.880 Y41.753 E7.58423
G1 X162.565 Y41.728 E7.59978
G1 X162.258 Y41.654 E7.61531
G1 X161.966 Y41.533 E7.63086
G1 X161.697 Y41.368 E7.64640
G1 X161.457 Y41.163 E7.66195
G1 X161.252 Y40.923 E7.67749
G1 X161.087 Y40.654 E7.69303
G1 X160.966 Y40.362 E7.70857
G1 X160.892 Y40.055 E7.72411
G1 X160.872 Y39.800 E7.73670
G1 X161.254 Y39.740 F9000.000
G1 X161.274 Y39.486 E7.74926 F600.000
G1 X161.334 Y39.238 E7.76181
G1 X161.431 Y39.002 E7.77437
G1 X161.565 Y38.784 E7.78692
G1 X161.730 Y38.590 E7.79947
G1 X161.924 Y38.425 E7.81203
G1 X162.142 Y38.291 E7.82459
G1 X162.378 Y38.194 E7.83714
G1 X162.626 Y38.134 E7.84970
G1 X162.880 Y38.114 E7.86225 F600.000
G1 X163.134 Y38.134 E7.87480
G1 X163.382 Y38.194 E7.88736
G1 X163.618 Y38.291 E7.89991
G1 X163.836 Y38.425 E7.91247
G1 X164.030 Y38.590 E7.92503
G1 X164.195 Y38.784 E7.93758
G1 X164.328 Y39.002 E7.95013
G1 X164.426 Y39.238 E7.96269
G1 X164.486 Y39.486 E7.97525
G1 X164.506 Y39.740 E7.98780
G1 X164.486 Y39.994 E8.00035
G1 X164.426 Y40.242 E8.01291
G1 X164.328 Y40.478 E8.02546
G1 X164.195 Y40.696 E8.03802
G1 X164.030 Y40.890 E8.05057
G1 X163.836 Y41.055 E8.06313
G1 X163.618 Y41.189 E8.07568
G1 X163.382 Y41.286 E8.08824
G1 X163.134 Y41.346 E8.10079
G1 X162.880 Y41.366 E8.11335
G1 X162.626 Y41.346 E8.12590
G1 X162.378 Y41.286 E8.13846
G1 X162.142 Y41.189 E8.15101
G1 X161.924 Y41.055 E8.16357
G1 X161.730 Y40.890 E8.17613
G1 X161.565 Y40.696 E8.18868
G1 X161.431 Y40.478 E8.20123
G1 X161.334 Y40.242 E8.21378
G1 X161.274 Y39.994 E8.22634
G1 X161.259 Y39.800 E8.23594
G1 X161.037 Y39.607 F9000.000
G1 E2.23594 F1800.00000
G92 E0
G1 X163.583 Y69.401 F9000.000
G1 E6.00000 F1800.00000
G1 X163.868 Y69.378 E6.01406 F600.000
G1 X164.248 Y69.406 E6.03281
G1 X164.610 Y69.493 E6.05114
G1 X164.953 Y69.635 E6.06938
G1 X165.269 Y69.829 E6.08763
G1 X165.552 Y70.071 E6.10595
G1 X165.798 Y70.362 E6.12470
G1 X165.985 Y70.667 E6.14235
G1 X166.127 Y71.010 E6.16060
G1 X166.213 Y71.370 E6.17884
G1 X166.242 Y71.740 E6.19709
G1 X166.213 Y72.110 E6.21533
G1 X166.127 Y72.470 E6.23358
G1 X165.985 Y72.813 E6.25183
G1 X165.791 Y73.129 E6.27007
G1 X165.550 Y73.411 E6.28832
G1 X165.269 Y73.651 E6.30656
G1 X164.953 Y73.845 E6.32481
G1 X164.610 Y73.987 E6.34305
G1 X164.250 Y74.073 E6.36129
G1 X163.880 Y74.102 E6.37954
G1 X163.510 Y74.073 E6.39779
G1 X163.150 Y73.987 E6.41603
G1 X162.807 Y73.845 E6.43427
G1 X162.491 Y73.651 E6.45252
G1 X162.209 Y73.410 E6.47077
G1 X161.968 Y73.127 E6.48909
G1 X161.770 Y72.802 E6.50784
G1 X161.633 Y72.470 E6.52549
G1 X161.547 Y72.110 E6.54374
G1 X161.517 Y71.738 E6.56207
G1 X161.549 Y71.359 E6.58082
G1 X161.633 Y71.010 E6.59847
G1 X161.775 Y70.667 E6.61672
G1 X161.969 Y70.351 E6.63497
G1 X162.209 Y70.070 E6.65321
G1 X162.491 Y69.829 E6.67145
G1 X162.807 Y69.635 E6.68970
G1 X163.150 Y69.493 E6.70794
G1 X163.510 Y69.407 E6.72618
G1 X163.523 Y69.405 E6.72683 F600.000
G1 X163.613 Y69.785 F9000.000
G1 X163.869 Y69.765 E6.73945 F600.000
G1 X164.188 Y69.788 E6.75521
G1 X164.491 Y69.861 E6.77050
G1 X164.777 Y69.980 E6.78576
G1 X165.041 Y70.142 E6.80101
G1 X165.277 Y70.343 E6.81630
G1 X165.484 Y70.588 E6.83206
G1 X165.640 Y70.843 E6.84678
G1 X165.759 Y71.129 E6.86204
G1 X165.831 Y71.431 E6.87730
G1 X165.856 Y71.740 E6.89256
G1 X165.831 Y72.049 E6.90781
G1 X165.759 Y72.351 E6.92307
G1 X165.640 Y72.637 E6.93833
G1 X165.478 Y72.901 E6.95359
G1 X165.277 Y73.137 E6.96885
G1 X165.041 Y73.338 E6.98410
G1 X164.777 Y73.500 E6.99936
G1 X164.491 Y73.619 E7.01462
G1 X164.189 Y73.691 E7.02988
G1 X163.880 Y73.716 E7.04514
G1 X163.571 Y73.691 E7.06040
G1 X163.269 Y73.619 E7.07565
G1 X162.983 Y73.500 E7.09091
G1 X162.719 Y73.338 E7.10617
G1 X162.483 Y73.137 E7.12142
G1 X162.281 Y72.901 E7.13671
G1 X162.115 Y72.627 E7.15247
G1 X162.001 Y72.351 E7.16719
G1 X161.929 Y72.049 E7.18245
G1 X161.904 Y71.739 E7.19774
G1 X161.931 Y71.420 E7.21350
G1 X162.001 Y71.129 E7.22822
G1 X162.120 Y70.843 E7.24348
G1 X162.282 Y70.579 E7.25874
G1 X162.483 Y70.343 E7.27399
G1 X162.719 Y70.142 E7.28925
G1 X162.983 Y69.980 E7.30451
G1 X163.269 Y69.861 E7.31976
G1 X163.554 Y69.793 E7.33417
