; generated by Slic3r 1.2.9 on 2017-02-23 at 13:06:30

; external perimeters extrusion width = 0.40mm
; perimeters extrusion width = 0.56mm
; infill extrusion width = 0.38mm
; solid infill extrusion width = 0.56mm
; top infill extrusion width = 0.22mm
; support material extrusion width = 0.40mm

M106 S256; Turn on fan to 100% power
M104 S140; turn on extruder temperature at S value
M140 S60; turn on bed temperature at S value
G28; home all axes
M84; disable motors
G1 Z15 F15000; have Z move to 20mm at 15000 mm/min
M190 S55; turn on bed temperature at S value and wait
M140 S55; turn on bed temperature at S value (printing temperature)
M109 S205; turn on extruder temperature at S value and wait (printing temperature)
M104 S205; turn on extruder temperature at S value
G1 Z0 F12000; move Z back to home
G21 ; set units to millimeters
G90 ; use absolute coordinates
M82 ; use absolute distances for extrusion
G92 E0
M106 S255
;Layer change
G1 E-6.00000 F1800.00000
G92 E0
G1 Z0.300 F9000.000
G1 X68.722 Y30.991 F9000.000
G1 E6.00000 F1800.00000
G1 X70.486 Y27.080 E6.20636 F600.000
G1 X70.672 Y26.703 E6.22659
G1 X71.777 Y25.378 E6.30957
G1 X74.044 Y24.621 E6.42453
G1 X95.918 Y24.628 E7.47658
G1 X97.598 Y25.023 E7.55957 F600.000
G1 X99.339 Y26.815 E7.67977
G1 X108.937 Y47.554 E8.77883
G1 X109.064 Y47.863 E8.79491
G1 X109.605 Y49.400 E8.87330
G1 X109.796 Y50.074 E8.90696
G1 X110.073 Y51.280 E8.96648
G1 X110.210 Y52.067 E9.00494
G1 X110.378 Y53.614 E9.07975
G1 X110.401 Y54.417 E9.11840
G1 X110.413 Y56.650 E9.22582
G1 X110.013 Y58.361 E9.31030
G1 X109.893 Y58.600 E9.32320
G1 X108.788 Y59.925 E9.40618
G1 X106.624 Y60.681 E9.51641
G1 X103.462 Y60.765 E9.66853
G1 X66.021 Y60.758 E11.46932
G1 X63.416 Y60.687 E11.59466
G1 X61.748 Y60.247 E11.67764
G1 X60.990 Y59.715 E11.72217
G1 X60.730 Y59.480 E11.73900
G1 X59.749 Y58.061 E11.82198
G1 X59.488 Y56.662 E11.89046
G1 X59.500 Y54.379 E12.00025
G1 X59.578 Y53.230 E12.05564
G1 X59.709 Y52.087 E12.11098
G1 X59.777 Y51.695 E12.13012
G1 X60.089 Y50.320 E12.19794
G1 X60.329 Y49.604 E12.23426
G1 X68.698 Y31.046 E13.21339
G1 X69.074 Y31.150 F9000.000
G1 X70.838 Y27.239 E13.41974 F600.000
G1 X71.017 Y26.875 E13.43922
G1 X72.079 Y25.635 E13.51778
G1 X74.044 Y25.007 E13.61701
G1 X95.918 Y25.014 E14.66906
G1 X97.503 Y25.408 E14.74763 F600.000
G1 X98.990 Y26.977 E14.85158
G1 X108.587 Y47.716 E15.95064
G1 X108.701 Y47.993 E15.96508
G1 X109.235 Y49.508 E16.04234
G1 X109.420 Y50.161 E16.07499
G1 X109.694 Y51.349 E16.13361
G1 X109.827 Y52.113 E16.17089
G1 X109.992 Y53.625 E16.24408
G1 X110.015 Y54.419 E16.28227
G1 X110.028 Y56.652 E16.38969
G1 X109.669 Y58.188 E16.46553
G1 X109.548 Y58.428 E16.47843
G1 X108.486 Y59.668 E16.55700
G1 X106.614 Y60.295 E16.65196
G1 X103.462 Y60.379 E16.80358
G1 X66.032 Y60.372 E18.60387
G1 X63.427 Y60.301 E18.72920
G1 X61.249 Y59.429 E18.84206
G1 X60.989 Y59.194 E18.85889
G1 X60.077 Y57.839 E18.93745
G1 X59.873 Y56.664 E18.99481
G1 X59.886 Y54.381 E19.10460
G1 X59.962 Y53.259 E19.15870
G1 X60.092 Y52.132 E19.21326
G1 X60.153 Y51.780 E19.23044
G1 X60.465 Y50.405 E19.29826
G1 X60.680 Y49.762 E19.33086
G1 X69.049 Y31.204 E20.30999
G1 E14.30999 F1800.00000
G92 E0
G1 X73.924 Y28.630 F9000.000
G1 E6.00000 F1800.00000
G1 X74.043 Y28.392 E6.01115 F600.000
G1 X74.381 Y28.470 E6.02567
G1 X73.926 Y29.380 E6.06826
G1 X73.927 Y30.129 E6.09963
G1 X74.720 Y28.548 E6.17367
G1 X75.058 Y28.626 E6.18819
G1 X73.929 Y30.879 E6.29367
G1 X73.930 Y31.628 E6.32504
G1 X75.396 Y28.704 E6.46196
G1 X75.734 Y28.782 E6.47648
G1 X73.972 Y32.297 E6.64106
G1 X74.040 Y32.915 E6.66710
G1 X76.072 Y28.860 E6.85699
G1 X76.410 Y28.938 E6.87151
G1 X74.107 Y33.534 E7.08671
G1 X74.211 Y34.078 E7.10990
G1 X76.748 Y29.016 E7.34692
G1 X77.066 Y29.135 E7.36111
G1 X74.326 Y34.602 E7.61712
G1 X74.440 Y35.127 E7.63960
G1 X77.382 Y29.256 E7.91451
G1 X77.699 Y29.377 E7.92870
G1 X74.573 Y35.614 E8.22076
G1 X74.723 Y36.067 E8.24073
G1 X78.010 Y29.509 E8.54778
G1 X78.306 Y29.672 E8.56191
G1 X74.873 Y36.520 E8.88255
G1 X75.024 Y36.972 E8.90252
G1 X78.601 Y29.834 E9.23675
G1 X78.897 Y29.997 E9.25088
G1 X75.198 Y37.376 E9.59640
G1 X75.378 Y37.771 E9.61455
G1 X79.180 Y30.184 E9.96979
G1 X79.455 Y30.389 E9.98413
G1 X70.413 Y48.430 E10.82887
G1 X70.666 Y48.677 E10.84368
G1 X79.729 Y30.594 E11.69039
G1 X80.004 Y30.799 E11.70473
G1 X75.849 Y39.088 E12.09289
G1 X75.838 Y39.110 F9000.000
G1 X70.926 Y48.910 E12.55176 F600.000
G1 X71.188 Y49.141 E12.56636
G1 X75.967 Y39.605 E13.01286
G1 X76.096 Y40.100 E13.03428
G1 X71.473 Y49.324 E13.46618
G1 X71.759 Y49.507 E13.48037
G1 X76.350 Y40.347 E13.90928
G1 E7.90928 F1800.00000
G92 E0
G1 X76.139 Y39.262 F9000.000
G1 E6.00000 F1800.00000
G1 X80.258 Y31.045 E6.38476 F600.000
G1 X80.510 Y31.294 E6.39960
G1 X76.343 Y39.608 E6.78889
G1 X76.547 Y39.954 E6.80569
G1 X80.762 Y31.543 E7.19951
G1 X81.004 Y31.813 E7.21467
G1 X72.051 Y49.677 E8.05115
G1 X72.360 Y49.812 E8.06529
G1 X81.233 Y32.109 E8.89421
G1 X81.462 Y32.405 E8.90987
G1 X72.670 Y49.946 E9.73122
G1 X72.991 Y50.058 E9.74546
G1 X81.691 Y32.701 E10.55817
G1 X81.908 Y33.020 E10.57432
G1 X73.326 Y50.143 E11.37610
G1 X73.660 Y50.229 E11.39055
G1 X82.111 Y33.368 E12.18003
G1 X82.314 Y33.716 E12.19689
G1 X74.014 Y50.275 E12.97225
G1 X74.375 Y50.307 E12.98742
G1 X82.516 Y34.064 E13.74800
G1 X82.697 Y34.456 E13.76608
G1 X74.740 Y50.332 E14.50945
G1 X75.131 Y50.304 E14.52586
G1 X85.371 Y29.873 E15.48252
G1 X85.534 Y30.300 E15.50164
G1 X75.522 Y50.277 E16.43701
G1 X75.940 Y50.197 E16.45480
G1 X85.698 Y30.727 E17.36644
G1 X85.861 Y31.154 E17.38556
G1 X73.597 Y55.624 E18.53133
G1 X74.056 Y55.460 E18.55173
G1 X86.024 Y31.581 E19.66985
G1 X86.187 Y32.008 E19.68898
G1 X74.542 Y55.242 E20.77691
G1 X75.029 Y55.024 E20.79922
G1 X86.351 Y32.434 E21.85696
G1 X86.514 Y32.861 E21.87609
G1 X75.515 Y54.806 E22.90362
G1 X76.020 Y54.552 E22.92726
G1 X86.677 Y33.288 E23.92293
G1 X86.835 Y33.726 E23.94242
G1 X76.544 Y54.258 E24.90381
G1 X77.069 Y53.964 E24.92899
G1 X86.972 Y34.206 E25.85415
G1 X87.225 Y34.452 F9000.000
G1 X77.478 Y53.900 E26.76475 F600.000
G1 X77.730 Y54.151 E26.77962
G1 X88.814 Y32.035 E27.81515
G1 E21.81515 F1800.00000
G92 E0
G1 X89.643 Y31.134 F9000.000
G1 E6.00000 F1800.00000
G1 X77.981 Y54.402 E7.08952 F600.000
G1 X78.232 Y54.653 E7.10440
G1 X90.309 Y30.558 E8.23264
G1 X90.911 Y30.109 F9000.000
G1 X78.483 Y54.905 E9.39368 F600.000
G1 X78.735 Y55.156 E9.40855
G1 X91.440 Y29.806 E10.59551
G1 X91.961 Y29.520 E10.62039
G1 X78.986 Y55.407 E11.83252
G1 X79.237 Y55.658 E11.84739
G1 X92.438 Y29.321 E13.08063
G1 X92.904 Y29.143 E13.10153
G1 X79.711 Y55.465 E14.33404
G1 X80.370 Y54.903 F9000.000
G1 X93.358 Y28.989 E15.54743 F600.000
G1 X93.785 Y28.890 E15.56575
G1 X81.029 Y54.341 E16.75742
G1 X81.688 Y53.778 F9000.000
G1 X94.211 Y28.792 E17.92736 F600.000
G1 X94.638 Y28.694 E17.94568
G1 X82.478 Y52.955 E19.08168
G1 E13.08168 F1800.00000
G92 E0
G1 X83.347 Y51.973 F9000.000
G1 E6.00000 F1800.00000
G1 X95.064 Y28.596 E7.09462 F600.000
G1 X95.491 Y28.498 E7.11294
G1 X84.538 Y50.351 E8.13618
G1 X85.073 Y50.034 F9000.000
G1 X95.917 Y28.399 E9.14922 F600.000
G1 X95.975 Y29.036 E9.17600
G1 X85.283 Y50.368 E10.17484
G1 X85.493 Y50.702 E10.19135
G1 X95.973 Y29.792 E11.17045
G1 X95.972 Y30.548 F9000.000
G1 X85.714 Y51.013 E12.12871 F600.000
G1 X85.944 Y51.308 E12.14435
G1 X95.970 Y31.304 E13.08102
G1 X95.924 Y32.148 F9000.000
G1 X86.173 Y51.602 E13.99196 F600.000
G1 X86.403 Y51.897 E14.00759
G1 X95.820 Y33.109 E14.88733
G1 E8.88733 F1800.00000
G92 E0
G1 X95.602 Y34.296 F9000.000
G1 E6.00000 F1800.00000
G1 X86.633 Y52.192 E6.83794 F600.000
G1 X86.869 Y52.472 E6.85329
G1 X95.167 Y35.916 E7.62850
G1 E1.62850 F1800.00000
G92 E0
G1 X94.381 Y38.236 F9000.000
G1 E6.00000 F1800.00000
G1 X93.955 Y39.086 E6.03980 F600.000
G1 E0.03980 F1800.00000
G92 E0
G1 X93.342 Y40.310 F9000.000
G1 E6.00000 F1800.00000
G1 X87.117 Y52.731 E6.58158 F600.000
G1 X87.364 Y52.989 E6.59656
G1 X94.736 Y38.281 E7.28524
G1 X95.090 Y38.327 E7.30020
G1 X87.612 Y53.248 E7.99887
G1 X87.859 Y53.507 E8.01386
G1 X95.445 Y38.372 E8.72253
G1 X95.800 Y38.417 E8.73749
G1 X88.107 Y53.765 E9.45615
G1 X88.371 Y53.991 E9.47069
G1 X96.154 Y38.462 E10.19780
G1 X96.499 Y38.528 E10.21248
G1 X88.635 Y54.217 E10.94710
G1 X88.899 Y54.442 E10.96163
G1 X96.827 Y38.625 E11.70223
G1 X97.155 Y38.723 E11.71656
G1 X89.164 Y54.667 E12.46313
G1 X89.428 Y54.893 E12.47767
G1 X97.469 Y38.850 E13.22886
G1 X97.772 Y38.997 E13.24298
G1 X89.692 Y55.118 E13.99783
G1 X89.956 Y55.344 E14.01237
G1 X98.075 Y39.144 E14.77088
G1 X98.360 Y39.329 E14.78508
G1 X90.220 Y55.569 E15.54553
G1 X90.485 Y55.794 E15.56006
G1 X98.639 Y39.525 E16.32186
G1 X98.918 Y39.722 E16.33613
G1 X91.281 Y54.957 E17.04953
G1 E11.04953 F1800.00000
G92 E0
G1 X92.138 Y54.000 F9000.000
G1 E6.00000 F1800.00000
G1 X93.932 Y50.422 E6.16757 F600.000
G1 X94.218 Y50.604 E6.18176
G1 X92.579 Y53.873 E6.33485
G1 X92.874 Y54.038 E6.34898
G1 X94.511 Y50.771 E6.50195
G1 X94.804 Y50.939 E6.51609
G1 X93.168 Y54.203 E6.66893
G1 X93.463 Y54.369 E6.68306
G1 X95.097 Y51.107 E6.83577
G1 X95.390 Y51.275 E6.84991
G1 X93.757 Y54.534 E7.00250
G1 X94.052 Y54.697 E7.01663
G1 X95.688 Y51.433 E7.16950
G1 X95.996 Y51.571 E7.18363
G1 X94.360 Y54.835 E7.33646
G1 X94.668 Y54.973 E7.35059
G1 X96.304 Y51.710 E7.50338
G1 X96.611 Y51.849 E7.51751
G1 X94.976 Y55.111 E7.67026
G1 X95.284 Y55.249 E7.68439
G1 X96.919 Y51.988 E7.83711
G1 X97.229 Y52.121 E7.85125
G1 X95.592 Y55.388 E8.00418
G1 X95.904 Y55.517 E8.01833
G1 X97.551 Y52.231 E8.17220
G1 X97.874 Y52.341 E8.18645
G1 X96.226 Y55.628 E8.34036
G1 X96.548 Y55.739 E8.35461
G1 X98.196 Y52.451 E8.50857
G1 X98.518 Y52.560 E8.52282
G1 X96.869 Y55.850 E8.67684
G1 X97.191 Y55.960 E8.69108
G1 X98.841 Y52.668 E8.84523
G1 X99.178 Y52.748 E8.85973
G1 X97.513 Y56.071 E9.01534
G1 X97.843 Y56.165 E9.02970
G1 X99.515 Y52.828 E9.18597
G1 X99.853 Y52.908 E9.20048
G1 X98.178 Y56.248 E9.35689
G1 X98.514 Y56.331 E9.37136
G1 X100.190 Y52.987 E9.52792
G1 X100.528 Y53.066 E9.54243
G1 X98.850 Y56.414 E9.69917
G1 X99.185 Y56.496 E9.71365
G1 X100.880 Y53.115 E9.87200
G1 X101.233 Y53.163 E9.88691
G1 X99.521 Y56.579 E10.04687
G1 X99.871 Y56.633 E10.06170
G1 X101.586 Y53.212 E10.22192
G1 X101.939 Y53.260 E10.23683
G1 X100.221 Y56.687 E10.39730
G1 X100.572 Y56.741 E10.41213
G1 X102.294 Y53.304 E10.57307
G1 X102.400 Y53.093 F9000.000
G1 X104.956 Y47.993 E10.81188 F600.000
G1 X105.142 Y48.375 E10.82964
G1 X100.922 Y56.795 E11.22389
G1 X101.272 Y56.848 E11.23873
G1 X105.328 Y48.756 E11.61764
G1 X105.514 Y49.137 E11.63541
G1 X101.630 Y56.886 E11.99824
G1 X101.996 Y56.909 E12.01358
G1 X105.672 Y49.576 E12.35695
G1 X105.828 Y50.016 E12.37651
G1 X102.362 Y56.932 E12.70035
G1 X102.728 Y56.955 E12.71569
G1 X105.985 Y50.456 E13.01999
G1 X106.124 Y50.932 E13.04073
G1 X103.093 Y56.978 E13.32383
G1 X103.463 Y56.994 E13.33930
G1 X106.244 Y51.445 E13.59910
G1 X106.364 Y51.958 E13.62117
G1 X103.845 Y56.983 E13.85645
G1 X104.227 Y56.973 E13.87247
G1 X106.464 Y52.510 E14.08146
G1 X106.536 Y53.119 E14.10713
G1 X104.610 Y56.963 E14.28711
G1 X104.992 Y56.952 E14.30312
G1 X106.608 Y53.728 E14.45410
G1 X106.630 Y54.438 E14.48382
G1 X105.375 Y56.942 E14.60108
G1 X105.757 Y56.931 E14.61710
G1 X106.634 Y55.182 E14.69901
G1 X106.638 Y55.926 E14.73018
G1 X106.139 Y56.921 E14.77675
G1 X106.642 Y56.671 E14.80025
G1 X106.522 Y56.911 E14.81148
G1 E8.81148 F1800.00000
G92 E0
G1 X104.765 Y47.621 F9000.000
G1 E6.00000 F1800.00000
G1 X102.300 Y52.540 E6.23030 F600.000
G1 X102.161 Y52.065 E6.25103
G1 X104.554 Y47.290 E6.47461
G1 X104.344 Y46.958 E6.49107
G1 X102.022 Y51.589 E6.70794
G1 X101.861 Y51.158 E6.72720
G1 X104.133 Y46.626 E6.93944
G1 X103.921 Y46.296 E6.95584
G1 X101.690 Y50.748 E7.16429
G1 X101.517 Y50.340 E7.18282
G1 X103.688 Y46.007 E7.38569
G1 X103.456 Y45.719 E7.40121
G1 X101.319 Y49.983 E7.60088
G1 X101.120 Y49.626 E7.61798
G1 X103.223 Y45.430 E7.81443
G1 X102.991 Y45.141 E7.82995
G1 X100.918 Y49.277 E8.02361
G1 X100.697 Y48.966 E8.03959
G1 X102.745 Y44.879 E8.23098
G1 X102.493 Y44.629 E8.24583
G1 X100.476 Y48.654 E8.43433
G1 X100.252 Y48.348 E8.45020
G1 X102.241 Y44.379 E8.63605
G1 X101.989 Y44.129 E8.65090
G1 X100.010 Y48.078 E8.83576
G1 X99.554 Y48.236 F9000.000
G1 X101.736 Y43.882 E9.03961 F600.000
G1 X101.466 Y43.669 E9.05402
G1 X98.802 Y48.982 E9.30282
G1 X98.215 Y49.402 E9.33302
G1 X101.195 Y43.456 E9.61144
G1 X100.941 Y43.210 E9.62623
G1 X97.683 Y49.710 E9.93060
G1 X97.201 Y49.920 E9.95261
G1 X100.823 Y42.692 E10.29103
G1 X100.677 Y42.231 E10.31128
G1 X96.745 Y50.077 E10.67863
G1 X96.313 Y50.187 E10.69732
G1 X100.507 Y41.819 E11.08914
G1 X100.317 Y41.445 E11.10670
G1 X95.896 Y50.266 E11.51975
G1 X95.501 Y50.302 E11.53635
G1 X100.118 Y41.090 E11.96769
G1 X99.894 Y40.784 E11.98356
G1 X95.107 Y50.335 E12.43078
G1 X94.743 Y50.309 E12.44606
G1 X99.670 Y40.478 E12.90639
G1 X99.425 Y40.215 E12.92144
G1 X94.379 Y50.283 E13.39285
G1 X94.026 Y50.233 E13.40774
G1 X99.172 Y39.967 E13.88844
G1 E7.88844 F1800.00000
G92 E0
G1 X83.320 Y33.212 F9000.000
G1 E6.00000 F1800.00000
G1 X85.208 Y29.447 E6.17632 F600.000
G1 X85.045 Y29.020 E6.19545
G1 X84.537 Y30.033 E6.24290
G1 E0.24290 F1800.00000
G92 E0
G1 X75.113 Y38.299 F9000.000
G1 E6.00000 F1800.00000
G1 X70.180 Y48.142 E6.46085 F600.000
G1 X69.880 Y47.987 F9000.000
G1 X74.710 Y38.351 E6.91204 F600.000
G1 X74.307 Y38.402 E6.92904
G1 X68.610 Y49.769 E7.46127
G1 X68.215 Y50.558 F9000.000
G1 X65.007 Y56.957 E7.76092 F600.000
G1 X65.379 Y56.967 E7.77650
G1 X67.548 Y52.640 E7.97911
G1 X67.590 Y53.308 F9000.000
G1 X65.751 Y56.978 E8.15092 F600.000
G1 X66.124 Y56.988 E8.16651
G1 X67.987 Y53.269 E8.34063
G1 X68.392 Y53.213 E8.35775
G1 X66.499 Y56.992 E8.53467
G1 X66.888 Y56.967 E8.55101
G1 X68.798 Y53.158 E8.72939
G1 X69.203 Y53.102 E8.74651
G1 X67.278 Y56.943 E8.92636
G1 X67.667 Y56.918 E8.94269
G1 X69.615 Y53.031 E9.12471
G1 X70.043 Y52.930 E9.14312
G1 X68.056 Y56.894 E9.32874
G1 X68.450 Y56.862 E9.34526
G1 X70.471 Y52.829 E9.53411
G1 X70.899 Y52.727 E9.55252
G1 X68.858 Y56.799 E9.74318
G1 X69.267 Y56.736 E9.76048
G1 X71.337 Y52.606 E9.95387
G1 X71.792 Y52.452 E9.97398
G1 X69.676 Y56.674 E10.17168
G1 X70.084 Y56.611 E10.18899
G1 X72.247 Y52.297 E10.39101
G1 X72.701 Y52.142 E10.41112
G1 X70.504 Y56.526 E10.61641
G1 X70.934 Y56.420 E10.63497
G1 X73.180 Y51.939 E10.84480
G1 X73.668 Y51.719 E10.86719
G1 X71.365 Y56.314 E11.08235
G1 X71.795 Y56.208 E11.10091
G1 X74.155 Y51.499 E11.32140
G1 X74.663 Y51.239 E11.34526
G1 X72.229 Y56.095 E11.57262
G1 X72.685 Y55.938 E11.59280
G1 X75.192 Y50.936 E11.82699
G1 X75.721 Y50.633 E11.85250
G1 X73.141 Y55.781 E12.09352
G1 E6.09352 F1800.00000
G92 E0
G1 X64.635 Y56.947 F9000.000
G1 E6.00000 F1800.00000
G1 X73.904 Y38.454 E6.86593 F600.000
G1 X73.489 Y38.528 E6.88356
G1 X64.263 Y56.937 E7.74554
G1 X63.891 Y56.927 E7.76112
G1 X73.046 Y38.660 E8.61644
G1 X72.591 Y38.816 E8.63659
G1 X63.519 Y56.917 E9.48413
G1 X63.259 Y56.682 E9.49877
G1 X72.092 Y39.058 E10.32400
G1 X71.552 Y39.383 E10.35040
G1 X63.263 Y55.921 E11.12477
G1 X63.267 Y55.161 F9000.000
G1 X70.944 Y39.843 E11.84199 F600.000
G1 E5.84199 F1800.00000
G92 E0
G1 X70.095 Y40.785 F9000.000
G1 E6.00000 F1800.00000
G1 X69.124 Y42.723 E6.09075 F600.000
G1 X68.732 Y43.505 F9000.000
G1 X63.271 Y54.400 E6.60086 F600.000
G1 X63.338 Y53.514 F9000.000
G1 X68.082 Y44.049 E7.04402 F600.000
G1 E1.04402 F1800.00000
G92 E0
G1 X67.333 Y44.792 F9000.000
G1 E6.00000 F1800.00000
G1 X63.455 Y52.529 E6.36231 F600.000
G1 E0.36231 F1800.00000
G92 E0
G1 X63.767 Y51.154 F9000.000
G1 E6.00000 F1800.00000
G1 X66.419 Y45.862 E6.24778 F600.000
M104 S195 ; set temperature
M140 S55 ; wait for bed temperature to be reached
;Layer change
G1 E0.24778 F1800.00000
G92 E0
G1 Z0.600 F9000.000
G1 X66.419 Y45.862 F9000.000
G1 E6.00000 F1800.00000
G1 X63.767 Y51.154 E6.24778 F3000.000
G1 E0.24778 F1800.00000
G92 E0
G1 X63.455 Y52.529 F9000.000
G1 E6.00000 F1800.00000
G1 X67.333 Y44.792 E6.36231 F3000.000
G1 E0.36231 F1800.00000
G92 E0
G1 X68.082 Y44.049 F9000.000
G1 E6.00000 F1800.00000
G1 X63.338 Y53.514 E6.44316 F3000.000
G1 X63.271 Y54.400 F9000.000
G1 X68.732 Y43.505 E6.95327 F3000.000
