; generated by Slic3r 1.2.9 on 2017-12-18 at 15:53:36

; external perimeters extrusion width = 0.40mm
; perimeters extrusion width = 0.62mm
; infill extrusion width = 0.33mm
; solid infill extrusion width = 0.62mm
; top infill extrusion width = 0.20mm

M106 S256; Turn on fan to 100% power
M104 S140; turn on extruder temperature at S value
M140 S60; turn on bed temperature at S value
G28; home all axes
M84; disable motors
G1 Z15 F15000; have Z move to 20mm at 15000 mm/min
M190 S55; turn on bed temperature at S value and wait
M140 S55; turn on bed temperature at S value (printing temperature)
M109 S200; turn on extruder temperature at S value and wait (printing temperature)
M104 S200; turn on extruder temperature at S value
G1 Z0 F12000; move Z back to home
G21 ; set units to millimeters
G90 ; use absolute coordinates
M82 ; use absolute distances for extrusion
G92 E0
M106 S255
;Layer change
G1 E-6.00000 F1800.00000
G92 E0
G1 Z0.300 F9000.000
G1 X67.184 Y11.923 F9000.000
G1 E6.00000 F1800.00000
G1 X67.267 Y11.491 E6.02188 F600.000
G1 X67.456 Y10.848 E6.05522
G1 X67.587 Y10.504 E6.07358
G1 X67.774 Y10.106 E6.09546
G1 X68.154 Y9.473 E6.13224
G1 X68.610 Y8.892 E6.16903
G1 X69.136 Y8.372 E6.20581
G1 X69.367 Y8.181 E6.22073
G1 X69.975 Y7.763 E6.25751
G1 X70.632 Y7.423 E6.29429
G1 X71.040 Y7.261 E6.31617
G1 X71.407 Y7.148 E6.33528
G1 X72.000 Y7.073 E6.36505
G1 X87.000 Y7.073 E7.11189
G1 X87.593 Y7.148 E7.14164
G1 X87.960 Y7.261 E7.16076 F600.000
G1 X88.639 Y7.551 E7.19754
G1 X89.278 Y7.923 E7.23432
G1 X89.864 Y8.372 E7.27111
G1 X90.390 Y8.892 E7.30789
G1 X90.846 Y9.473 E7.34467
G1 X91.226 Y10.106 E7.38146
G1 X91.413 Y10.504 E7.40334
G1 X91.659 Y11.201 E7.44013
G1 X91.810 Y11.890 E7.47527
G1 X91.853 Y12.220 E7.49182
G1 X91.881 Y12.958 E7.52860
G1 X91.816 Y13.694 E7.56538
G1 X91.659 Y14.416 E7.60217
G1 X91.523 Y14.834 E7.62405
G1 X91.226 Y15.510 E7.66084
G1 X90.846 Y16.144 E7.69762
G1 X90.670 Y16.386 E7.71253
G1 X90.238 Y16.891 E7.74560
G1 X77.184 Y29.943 E8.66469
G1 X76.633 Y30.435 E8.70147
G1 X76.025 Y30.854 E8.73826
G1 X75.368 Y31.193 E8.77504
G1 X74.960 Y31.355 E8.79692
G1 X74.249 Y31.557 E8.83371
G1 X73.519 Y31.668 E8.87049
G1 X73.220 Y31.687 E8.88540
G1 X72.780 Y31.687 E8.90729
G1 X72.045 Y31.613 E8.94407
G1 X71.325 Y31.448 E8.98085
G1 X71.040 Y31.355 E8.99577
G1 X70.632 Y31.193 E9.01765
G1 X69.975 Y30.854 E9.05444
G1 X69.696 Y30.674 E9.07099
G1 X69.136 Y30.244 E9.10613
G1 X68.816 Y29.943 E9.12802
G1 X68.351 Y29.412 E9.16316
G1 X68.154 Y29.144 E9.17971
G1 X67.919 Y28.773 E9.20160
G1 X67.587 Y28.112 E9.23838
G1 X67.477 Y27.834 E9.25330
G1 X67.341 Y27.416 E9.27519
G1 X67.184 Y26.694 E9.31196
G1 X67.147 Y26.397 E9.32688
G1 X67.114 Y25.808 E9.35622
G1 X67.114 Y12.808 E10.00348
G1 X67.177 Y11.982 E10.04473
G1 E4.04473 F1800.00000
G92 E0
G1 X74.229 Y22.784 F9000.000
G1 E6.00000 F1800.00000
G1 X74.396 Y22.846 E6.00887 F600.000
G1 X74.755 Y23.043 E6.02924
G1 X75.087 Y23.285 E6.04971
G1 X75.387 Y23.567 E6.07019
G1 X75.629 Y23.859 E6.08907
G1 X75.870 Y24.232 E6.11117
G1 X76.045 Y24.603 E6.13160
G1 X76.172 Y24.994 E6.15207
G1 X76.249 Y25.398 E6.17255
G1 X76.275 Y25.808 E6.19302
G1 X76.249 Y26.219 E6.21349
G1 X76.172 Y26.623 E6.23397
G1 X76.045 Y27.014 E6.25444
G1 X75.870 Y27.386 E6.27492
G1 X75.649 Y27.733 E6.29539
G1 X75.387 Y28.050 E6.31587
G1 X75.087 Y28.331 E6.33634
G1 X74.755 Y28.573 E6.35682
G1 X74.394 Y28.771 E6.37729
G1 X74.012 Y28.923 E6.39776
G1 X73.614 Y29.025 E6.41824
G1 X73.206 Y29.076 E6.43871
G1 X72.794 Y29.076 E6.45919
G1 X72.386 Y29.025 E6.47966
G1 X71.988 Y28.923 E6.50014
G1 X71.606 Y28.771 E6.52061
G1 X71.245 Y28.573 E6.54108
G1 X70.913 Y28.331 E6.56156
G1 X70.613 Y28.050 E6.58203
G1 X70.371 Y27.758 E6.60092
G1 X70.130 Y27.385 E6.62302
G1 X69.955 Y27.014 E6.64344
G1 X69.828 Y26.623 E6.66392
G1 X69.751 Y26.219 E6.68439
G1 X69.725 Y25.808 E6.70487
G1 X69.749 Y25.430 E6.72375
G1 X69.829 Y24.993 E6.74585
G1 X69.955 Y24.603 E6.76628
G1 X70.130 Y24.231 E6.78675
G1 X70.351 Y23.884 E6.80723
G1 X70.613 Y23.567 E6.82770
G1 X70.913 Y23.285 E6.84818
G1 X71.245 Y23.043 E6.86865
G1 X71.604 Y22.846 E6.88901
G1 X71.775 Y22.783 E6.89811
G1 X71.775 Y23.384 E6.92806
G1 X71.542 Y23.506 E6.94115
G1 X71.263 Y23.708 E6.95832
G1 X71.013 Y23.943 E6.97536
G1 X70.795 Y24.206 E6.99240
G1 X70.612 Y24.495 E7.00945
G1 X70.466 Y24.805 E7.02649
G1 X70.360 Y25.130 E7.04353
G1 X70.296 Y25.467 E7.06057
G1 X70.275 Y25.808 E7.07761
G1 X70.296 Y26.150 E7.09465
G1 X70.360 Y26.486 E7.11169
G1 X70.466 Y26.812 E7.12873
G1 X70.612 Y27.121 E7.14577
G1 X70.795 Y27.410 E7.16281
G1 X71.013 Y27.674 E7.17985
G1 X71.263 Y27.908 E7.19690
G1 X71.540 Y28.109 E7.21394
G1 X71.840 Y28.274 E7.23098
G1 X72.158 Y28.400 E7.24802
G1 X72.489 Y28.485 E7.26506
G1 X72.829 Y28.528 E7.28210
G1 X73.171 Y28.528 E7.29914
G1 X73.511 Y28.485 E7.31618
G1 X73.842 Y28.400 E7.33322
G1 X74.160 Y28.274 E7.35026
G1 X74.460 Y28.109 E7.36731
G1 X74.737 Y27.908 E7.38435
G1 X74.987 Y27.674 E7.40139
G1 X75.205 Y27.410 E7.41843
G1 X75.388 Y27.121 E7.43547
G1 X75.534 Y26.812 E7.45251
G1 X75.640 Y26.486 E7.46955
G1 X75.711 Y26.112 E7.48852
G1 X75.725 Y25.806 E7.50374
G1 X75.704 Y25.467 E7.52069
G1 X75.640 Y25.130 E7.53773
G1 X75.534 Y24.805 E7.55477
G1 X75.388 Y24.495 E7.57181
G1 X75.205 Y24.206 E7.58885
G1 X74.987 Y23.943 E7.60590
G1 X74.737 Y23.708 E7.62294
G1 X74.458 Y23.506 E7.64011
G1 X74.226 Y23.385 E7.65316
G1 X74.229 Y22.844 E7.68007
G1 X74.358 Y22.907 F9000.000
G1 X74.420 Y23.174 F9000.000
G1 X74.607 Y23.275 E7.69068 F600.000
G1 X74.912 Y23.497 E7.70944
G1 X75.187 Y23.755 E7.72820
G1 X75.423 Y24.042 E7.74670
G1 X75.626 Y24.359 E7.76545
G1 X75.789 Y24.704 E7.78445
G1 X75.907 Y25.067 E7.80346
G1 X75.976 Y25.432 E7.82197
G1 X75.999 Y25.800 E7.84030
G1 X75.981 Y26.149 E7.85773
G1 X75.906 Y26.554 E7.87824
G1 X75.787 Y26.917 E7.89725
G1 X75.629 Y27.253 E7.91575
G1 X75.430 Y27.567 E7.93425
G1 X75.187 Y27.862 E7.95326
G1 X74.908 Y28.123 E7.97227
G1 X74.607 Y28.341 E7.99078
G1 X74.282 Y28.520 E8.00928
G1 X73.927 Y28.661 E8.02829
G1 X73.557 Y28.756 E8.04730
G1 X73.188 Y28.802 E8.06580
G1 X72.817 Y28.802 E8.08430
G1 X72.438 Y28.755 E8.10331
G1 X72.068 Y28.660 E8.12232
G1 X71.723 Y28.523 E8.14083
G1 X71.397 Y28.344 E8.15933
G1 X71.088 Y28.120 E8.17834
G1 X70.810 Y27.858 E8.19735
G1 X70.577 Y27.575 E8.21560
G1 X70.374 Y27.258 E8.23435
G1 X70.211 Y26.913 E8.25335
G1 X70.094 Y26.554 E8.27211
G1 X70.023 Y26.179 E8.29112
G1 X70.000 Y25.808 E8.30962
G1 X70.022 Y25.463 E8.32685
G1 X70.095 Y25.060 E8.34724
G1 X70.211 Y24.704 E8.36588
G1 X70.371 Y24.363 E8.38464
G1 X70.570 Y24.049 E8.40314
G1 X70.813 Y23.755 E8.42215
G1 X71.088 Y23.497 E8.44091
G1 X71.393 Y23.275 E8.45967
G1 X71.582 Y23.173 E8.47039
G1 E2.47039 F1800.00000
G92 E0
G1 X74.229 Y9.784 F9000.000
G1 E6.00000 F1800.00000
G1 X74.396 Y9.846 E6.00887 F600.000
G1 X74.755 Y10.043 E6.02924
G1 X75.087 Y10.285 E6.04971
G1 X75.387 Y10.567 E6.07019
G1 X75.649 Y10.884 E6.09066
G1 X75.870 Y11.231 E6.11114
G1 X76.045 Y11.603 E6.13161
G1 X76.172 Y11.994 E6.15208
G1 X76.249 Y12.398 E6.17256
G1 X76.275 Y12.808 E6.19303
G1 X76.249 Y13.219 E6.21351
G1 X76.172 Y13.623 E6.23398
G1 X76.045 Y14.014 E6.25446
G1 X75.870 Y14.386 E6.27493
G1 X75.649 Y14.733 E6.29540
G1 X75.387 Y15.050 E6.31588
G1 X75.087 Y15.331 E6.33635
G1 X74.755 Y15.573 E6.35683
G1 X74.394 Y15.771 E6.37730
G1 X74.012 Y15.923 E6.39778
G1 X73.614 Y16.025 E6.41825
G1 X73.206 Y16.076 E6.43872
G1 X72.794 Y16.076 E6.45920
G1 X72.386 Y16.025 E6.47967
G1 X71.988 Y15.923 E6.50015
G1 X71.606 Y15.771 E6.52062
G1 X71.245 Y15.573 E6.54110
G1 X70.913 Y15.331 E6.56157
G1 X70.613 Y15.050 E6.58205
G1 X70.351 Y14.733 E6.60252
G1 X70.130 Y14.386 E6.62299
G1 X69.955 Y14.014 E6.64347
G1 X69.828 Y13.623 E6.66394
G1 X69.751 Y13.219 E6.68442
G1 X69.725 Y12.808 E6.70489
G1 X69.749 Y12.430 E6.72377
G1 X69.829 Y11.993 E6.74588
G1 X69.955 Y11.603 E6.76630
G1 X70.130 Y11.231 E6.78678
G1 X70.351 Y10.884 E6.80725
G1 X70.613 Y10.567 E6.82772
G1 X70.913 Y10.285 E6.84820
G1 X71.245 Y10.043 E6.86867
G1 X71.604 Y9.846 E6.88903
G1 X71.775 Y9.783 E6.89813
G1 X71.775 Y10.384 E6.92808
G1 X71.542 Y10.506 E6.94118
G1 X71.263 Y10.708 E6.95835
G1 X71.013 Y10.943 E6.97539
G1 X70.795 Y11.206 E6.99243
G1 X70.612 Y11.495 E7.00947
G1 X70.466 Y11.805 E7.02651
G1 X70.360 Y12.130 E7.04355
G1 X70.296 Y12.467 E7.06059
G1 X70.275 Y12.808 E7.07763
G1 X70.296 Y13.150 E7.09467
G1 X70.360 Y13.486 E7.11172
G1 X70.466 Y13.812 E7.12876
G1 X70.615 Y14.129 E7.14622
G1 X70.795 Y14.411 E7.16286
G1 X71.013 Y14.674 E7.17988
G1 X71.263 Y14.908 E7.19692
G1 X71.540 Y15.109 E7.21396
G1 X71.840 Y15.274 E7.23101
G1 X72.159 Y15.401 E7.24810
G1 X72.514 Y15.489 E7.26630
G1 X72.829 Y15.528 E7.28212
G1 X73.171 Y15.528 E7.29916
G1 X73.511 Y15.485 E7.31620
G1 X73.842 Y15.400 E7.33324
G1 X74.160 Y15.274 E7.35028
G1 X74.460 Y15.109 E7.36732
G1 X74.737 Y14.908 E7.38437
G1 X74.987 Y14.674 E7.40141
G1 X75.205 Y14.410 E7.41845
G1 X75.388 Y14.121 E7.43549
G1 X75.534 Y13.812 E7.45253
G1 X75.640 Y13.486 E7.46957
G1 X75.704 Y13.150 E7.48661
G1 X75.725 Y12.808 E7.50365
G1 X75.704 Y12.467 E7.52069
G1 X75.640 Y12.130 E7.53773
G1 X75.534 Y11.805 E7.55478
G1 X75.388 Y11.495 E7.57182
G1 X75.205 Y11.206 E7.58886
G1 X74.987 Y10.943 E7.60590
G1 X74.737 Y10.708 E7.62294
G1 X74.458 Y10.506 E7.64011
G1 X74.226 Y10.385 E7.65316
G1 X74.229 Y9.844 E7.68008
G1 X74.358 Y9.907 F9000.000
G1 X74.420 Y10.174 F9000.000
G1 X74.607 Y10.275 E7.69068 F600.000
G1 X74.912 Y10.497 E7.70944
G1 X75.187 Y10.755 E7.72820
G1 X75.427 Y11.045 E7.74696
G1 X75.626 Y11.359 E7.76546
G1 X75.789 Y11.704 E7.78447
G1 X75.907 Y12.067 E7.80348
G1 X75.976 Y12.432 E7.82198
G1 X76.000 Y12.803 E7.84048
G1 X75.976 Y13.184 E7.85949
G1 X75.906 Y13.554 E7.87825
G1 X75.787 Y13.917 E7.89726
G1 X75.629 Y14.253 E7.91576
G1 X75.430 Y14.567 E7.93427
G1 X75.187 Y14.862 E7.95328
G1 X74.908 Y15.123 E7.97229
G1 X74.607 Y15.341 E7.99079
G1 X74.282 Y15.520 E8.00929
G1 X73.927 Y15.661 E8.02830
G1 X73.557 Y15.756 E8.04731
G1 X73.188 Y15.802 E8.06582
G1 X72.817 Y15.802 E8.08432
G1 X72.438 Y15.754 E8.10332
G1 X72.070 Y15.660 E8.12224
G1 X71.723 Y15.523 E8.14083
G1 X71.397 Y15.344 E8.15934
G1 X71.088 Y15.120 E8.17835
G1 X70.810 Y14.858 E8.19736
G1 X70.573 Y14.572 E8.21586
G1 X70.378 Y14.266 E8.23391
G1 X70.211 Y13.913 E8.25337
G1 X70.094 Y13.554 E8.27213
G1 X70.023 Y13.179 E8.29114
G1 X70.000 Y12.808 E8.30964
G1 X70.022 Y12.463 E8.32687
G1 X70.095 Y12.060 E8.34725
G1 X70.211 Y11.704 E8.36590
G1 X70.374 Y11.359 E8.38491
G1 X70.573 Y11.045 E8.40341
G1 X70.813 Y10.755 E8.42217
G1 X71.088 Y10.497 E8.44093
G1 X71.393 Y10.275 E8.45969
G1 X71.582 Y10.173 E8.47041
G1 E2.47041 F1800.00000
G92 E0
G1 X84.775 Y9.783 F9000.000
G1 E6.00000 F1800.00000
G1 X84.775 Y10.384 E6.02995 F600.000
G1 X84.542 Y10.506 E6.04304
G1 X84.263 Y10.708 E6.06021
G1 X84.013 Y10.943 E6.07725
G1 X83.795 Y11.206 E6.09429
G1 X83.612 Y11.495 E6.11134
G1 X83.466 Y11.805 E6.12838
G1 X83.360 Y12.130 E6.14542
G1 X83.296 Y12.467 E6.16246
G1 X83.275 Y12.808 E6.17950
G1 X83.294 Y13.125 E6.19532
G1 X83.360 Y13.485 E6.21352
G1 X83.466 Y13.812 E6.23061
G1 X83.615 Y14.129 E6.24808
G1 X83.795 Y14.411 E6.26472
G1 X84.013 Y14.674 E6.28174
G1 X84.263 Y14.908 E6.29877
G1 X84.534 Y15.106 E6.31551
G1 X84.840 Y15.274 E6.33287
G1 X85.158 Y15.400 E6.34991
G1 X85.489 Y15.485 E6.36695
G1 X85.829 Y15.528 E6.38399
G1 X86.171 Y15.528 E6.40103
G1 X86.511 Y15.485 E6.41807
G1 X86.842 Y15.400 E6.43511
G1 X87.160 Y15.274 E6.45215
G1 X87.460 Y15.109 E6.46919
G1 X87.737 Y14.908 E6.48624
G1 X87.987 Y14.674 E6.50328
G1 X88.205 Y14.410 E6.52032
G1 X88.388 Y14.121 E6.53736
G1 X88.534 Y13.812 E6.55440
G1 X88.640 Y13.486 E6.57144
G1 X88.704 Y13.150 E6.58848
G1 X88.725 Y12.808 E6.60552
G1 X88.704 Y12.467 E6.62256
G1 X88.640 Y12.130 E6.63960
G1 X88.534 Y11.805 E6.65664
G1 X88.388 Y11.495 E6.67369
G1 X88.205 Y11.206 E6.69073
G1 X87.987 Y10.943 E6.70777
G1 X87.737 Y10.708 E6.72481
G1 X87.458 Y10.506 E6.74198
G1 X87.226 Y10.385 E6.75503
G1 X87.229 Y9.784 E6.78493
G1 X87.396 Y9.846 E6.79380
G1 X87.755 Y10.043 E6.81417
G1 X88.087 Y10.285 E6.83464
G1 X88.387 Y10.567 E6.85512
G1 X88.629 Y10.859 E6.87400
G1 X88.870 Y11.232 E6.89610
G1 X89.045 Y11.603 E6.91653
G1 X89.172 Y11.994 E6.93700
G1 X89.249 Y12.398 E6.95748
G1 X89.275 Y12.808 E6.97795
G1 X89.249 Y13.219 E6.99843
G1 X89.172 Y13.623 E7.01890
G1 X89.045 Y14.014 E7.03938
G1 X88.870 Y14.386 E7.05985
G1 X88.649 Y14.733 E7.08032
G1 X88.387 Y15.050 E7.10080
G1 X88.087 Y15.331 E7.12127
G1 X87.755 Y15.573 E7.14175
G1 X87.394 Y15.771 E7.16222
G1 X87.012 Y15.923 E7.18270
G1 X86.614 Y16.025 E7.20317
G1 X86.206 Y16.076 E7.22365
G1 X85.794 Y16.076 E7.24412
G1 X85.386 Y16.025 E7.26459
G1 X84.988 Y15.923 E7.28507
G1 X84.606 Y15.771 E7.30554
G1 X84.245 Y15.573 E7.32602
G1 X83.913 Y15.331 E7.34649
G1 X83.613 Y15.050 E7.36697
G1 X83.371 Y14.758 E7.38585
G1 X83.130 Y14.385 E7.40795
G1 X82.955 Y14.014 E7.42838
G1 X82.828 Y13.623 E7.44885
G1 X82.751 Y13.219 E7.46933
G1 X82.725 Y12.808 E7.48980
G1 X82.749 Y12.430 E7.50868
G1 X82.829 Y11.993 E7.53079
G1 X82.955 Y11.603 E7.55121
G1 X83.130 Y11.231 E7.57168
G1 X83.351 Y10.884 E7.59216
G1 X83.613 Y10.567 E7.61263
G1 X83.913 Y10.285 E7.63311
G1 X84.245 Y10.043 E7.65358
G1 X84.604 Y9.846 E7.67394
G1 X84.719 Y9.804 E7.68005
G1 X84.618 Y10.150 F9000.000
G1 X84.582 Y10.173 F9000.000
G1 X84.393 Y10.275 E7.69078 F600.000
G1 X84.088 Y10.497 E7.70953
G1 X83.813 Y10.755 E7.72829
G1 X83.573 Y11.045 E7.74705
G1 X83.374 Y11.359 E7.76555
G1 X83.211 Y11.704 E7.78456
G1 X83.095 Y12.060 E7.80321
G1 X83.022 Y12.463 E7.82360
G1 X83.000 Y12.808 E7.84082
G1 X83.022 Y13.154 E7.85806
G1 X83.094 Y13.554 E7.87832
G1 X83.211 Y13.913 E7.89708
G1 X83.378 Y14.266 E7.91654
G1 X83.578 Y14.575 E7.93487
G1 X83.810 Y14.858 E7.95309
G1 X84.088 Y15.120 E7.97210
G1 X84.393 Y15.341 E7.99085
G1 X84.723 Y15.523 E8.00961
G1 X85.068 Y15.660 E8.02811
G1 X85.438 Y15.755 E8.04712
G1 X85.817 Y15.802 E8.06613
G1 X86.188 Y15.802 E8.08464
G1 X86.557 Y15.756 E8.10314
G1 X86.927 Y15.661 E8.12215
G1 X87.282 Y15.520 E8.14116
G1 X87.607 Y15.341 E8.15966
G1 X87.908 Y15.123 E8.17816
G1 X88.187 Y14.862 E8.19717
G1 X88.430 Y14.567 E8.21618
G1 X88.629 Y14.253 E8.23469
G1 X88.787 Y13.917 E8.25319
G1 X88.906 Y13.554 E8.27220
G1 X88.976 Y13.184 E8.29096
G1 X89.000 Y12.803 E8.30997
G1 X88.976 Y12.432 E8.32847
G1 X88.907 Y12.067 E8.34697
G1 X88.789 Y11.704 E8.36598
G1 X88.626 Y11.359 E8.38499
G1 X88.423 Y11.042 E8.40374
G1 X88.187 Y10.755 E8.42224
G1 X87.912 Y10.497 E8.44100
G1 X87.607 Y10.275 E8.45976
G1 X87.420 Y10.174 E8.47036
M104 S199 ; set temperature
M140 S55 ; wait for bed temperature to be reached
;Layer change
G1 E2.47036 F1800.00000
G92 E0
G1 Z0.520 F9000.000
G1 X74.200 Y22.746 F9000.000
G1 E6.00000 F1800.00000
G1 X74.406 Y22.824 E6.00737 F900.000
G1 X74.768 Y23.022 E6.02115
G1 X75.103 Y23.266 E6.03499
G1 X75.405 Y23.550 E6.04883
G1 X75.613 Y23.801 E6.05974
G1 X75.892 Y24.221 E6.07657
G1 X76.068 Y24.594 E6.09034
G1 X76.196 Y24.988 E6.10418
G1 X76.274 Y25.395 E6.11802
G1 X76.300 Y25.808 E6.13186
G1 X76.274 Y26.222 E6.14570
G1 X76.196 Y26.629 E6.15954
G1 X76.068 Y27.023 E6.17339
G1 X75.891 Y27.398 E6.18723
G1 X75.669 Y27.748 E6.20107
G1 X75.405 Y28.067 E6.21491
G1 X75.103 Y28.351 E6.22875
G1 X74.768 Y28.594 E6.24259
G1 X74.405 Y28.794 E6.25643
G1 X74.020 Y28.946 E6.27027
G1 X73.618 Y29.049 E6.28412
G1 X73.207 Y29.101 E6.29796
G1 X72.793 Y29.101 E6.31180
G1 X72.382 Y29.049 E6.32564
G1 X71.980 Y28.946 E6.33948
G1 X71.595 Y28.794 E6.35332
G1 X71.232 Y28.594 E6.36716
G1 X70.897 Y28.351 E6.38100
G1 X70.595 Y28.067 E6.39485
G1 X70.331 Y27.748 E6.40869
G1 X70.109 Y27.398 E6.42253
G1 X69.932 Y27.023 E6.43637
G1 X69.804 Y26.629 E6.45021
G1 X69.726 Y26.222 E6.46405
G1 X69.700 Y25.808 E6.47789
G1 X69.726 Y25.395 E6.49173
G1 X69.804 Y24.988 E6.50558
G1 X69.932 Y24.594 E6.51942
G1 X70.109 Y24.219 E6.53326
G1 X70.331 Y23.869 E6.54710
G1 X70.595 Y23.550 E6.56094
G1 X70.897 Y23.266 E6.57478
G1 X71.232 Y23.022 E6.58862
G1 X71.593 Y22.824 E6.60240
G1 X71.800 Y22.747 E6.60976
G1 X71.800 Y23.399 E6.63157
G1 X71.555 Y23.527 E6.64080
G1 X71.279 Y23.728 E6.65220
G1 X71.031 Y23.960 E6.66353
G1 X70.815 Y24.221 E6.67486
