; generated by Slic3r 1.2.9 on 2017-04-08 at 12:30:25

; external perimeters extrusion width = 0.40mm
; perimeters extrusion width = 0.56mm
; infill extrusion width = 0.38mm
; solid infill extrusion width = 0.56mm
; top infill extrusion width = 0.22mm

M106 S256; Turn on fan to 100% power
M104 S140; turn on extruder temperature at S value
M140 S60; turn on bed temperature at S value
G28; home all axes
M84; disable motors
G1 Z15 F15000; have Z move to 20mm at 15000 mm/min
M190 S55; turn on bed temperature at S value and wait
M140 S55; turn on bed temperature at S value (printing temperature)
M109 S200; turn on extruder temperature at S value and wait (printing temperature)
M104 S200; turn on extruder temperature at S value
G1 Z0 F12000; move Z back to home
G21 ; set units to millimeters
G90 ; use absolute coordinates
M82 ; use absolute distances for extrusion
G92 E0
M106 S255
;Layer change
G1 E-6.00000 F1800.00000
G92 E0
G1 Z0.300 F9000.000
G1 X73.613 Y28.520 F9000.000
G1 E6.00000 F1800.00000
G1 X74.715 Y27.192 E6.08394 F600.000
G1 X76.990 Y26.429 E6.20069
G1 X98.490 Y26.429 E7.24669
G1 X100.170 Y26.823 E7.33063
G1 X101.498 Y27.925 E7.41457 F600.000
G1 X102.261 Y30.200 E7.53133
G1 X102.261 Y49.700 E8.48002
G1 X101.867 Y51.380 E8.56396
G1 X100.765 Y52.708 E8.64791
G1 X98.490 Y53.471 E8.76466
G1 X76.990 Y53.471 E9.81065
G1 X75.310 Y53.077 E9.89460
G1 X73.982 Y51.975 E9.97854
G1 X73.219 Y49.700 E10.09529
G1 X73.219 Y30.200 E11.04398
G1 X73.600 Y28.579 E11.12501
G1 X73.998 Y28.616 F9000.000
G1 X75.089 Y27.398 E11.20454 F600.000
G1 X76.990 Y26.814 E11.30129
G1 X98.490 Y26.814 E12.34729
G1 X100.075 Y27.208 E12.42676
G1 X101.292 Y28.299 E12.50624 F600.000
G1 X101.876 Y30.200 E12.60299
G1 X101.876 Y49.700 E13.55168
G1 X101.482 Y51.285 E13.63116
G1 X100.391 Y52.502 E13.71063
G1 X98.490 Y53.086 E13.80738
G1 X76.990 Y53.086 E14.85338
G1 X75.405 Y52.692 E14.93285
G1 X74.188 Y51.601 E15.01233
G1 X73.604 Y49.700 E15.10908
G1 X73.604 Y30.200 E16.05777
G1 X73.984 Y28.674 E16.13426
G1 E10.13426 F1800.00000
G92 E0
G1 X97.494 Y48.704 F9000.000
G1 E6.00000 F1800.00000
G1 X77.986 Y48.704 E6.94906 F600.000
G1 X77.986 Y38.422 E7.44927
G1 X79.232 Y38.419 E7.50986
G1 X79.706 Y38.354 E7.53317
G1 X80.170 Y38.226 E7.55657
G1 X80.613 Y38.037 E7.57999
G1 X81.027 Y37.791 E7.60344
G1 X81.407 Y37.493 E7.62693
G1 X81.747 Y37.149 E7.65048
G1 X82.042 Y36.764 E7.67407
G1 X82.289 Y36.345 E7.69772
G1 X82.484 Y35.899 E7.72141
G1 X82.624 Y35.431 E7.74514
G1 X82.709 Y34.951 E7.76891
G1 X82.738 Y34.463 E7.79268
G1 X82.709 Y33.975 E7.81646
G1 X82.624 Y33.494 E7.84022
G1 X82.484 Y33.027 E7.86396
G1 X82.289 Y32.580 E7.88765
G1 X82.042 Y32.161 E7.91130
G1 X81.608 Y31.595 E7.94603
G1 X77.986 Y31.595 E8.12223
G1 X77.986 Y31.196 E8.14163
G1 X97.494 Y31.196 E9.09069
G1 X97.494 Y48.644 E9.93953
G1 X97.879 Y49.089 F9000.000
G1 X77.601 Y49.089 E10.92611 F600.000
G1 X77.601 Y38.038 E11.46379
G1 X79.205 Y38.033 E11.54184
G1 X79.629 Y37.976 E11.56264
G1 X80.042 Y37.861 E11.58352
G1 X80.438 Y37.692 E11.60445
G1 X80.809 Y37.472 E11.62545
G1 X81.150 Y37.205 E11.64653
G1 X81.456 Y36.895 E11.66771
G1 X81.722 Y36.548 E11.68898
G1 X81.945 Y36.169 E11.71035
G1 X82.121 Y35.765 E11.73179
G1 X82.249 Y35.342 E11.75331
G1 X82.326 Y34.906 E11.77487
G1 X82.352 Y34.463 E11.79645
G1 X82.326 Y34.020 E11.81804
G1 X82.249 Y33.583 E11.83960
G1 X82.121 Y33.160 E11.86112
G1 X81.945 Y32.756 E11.88256
G1 X81.722 Y32.377 E11.90393
G1 X81.418 Y31.981 E11.92825
G1 X77.601 Y31.981 E12.11396
G1 X77.601 Y30.811 E12.17088
G1 X97.879 Y30.811 E13.15746
G1 X97.879 Y49.029 E14.04382
G1 X81.228 Y32.366 F9000.000
G1 X77.215 Y32.366 E14.23904 F600.000
G1 X77.215 Y30.425 E14.33348
G1 X98.265 Y30.425 E15.35758
G1 X98.265 Y49.475 E16.28439
G1 X77.215 Y49.475 E17.30849
G1 X77.215 Y37.653 E17.88364
G1 X79.178 Y37.648 E17.97916
G1 X79.551 Y37.597 E17.99744
G1 X79.914 Y37.496 E18.01580
G1 X80.263 Y37.347 E18.03424
G1 X80.591 Y37.153 E18.05279
G1 X80.893 Y36.916 E18.07146
G1 X81.165 Y36.641 E18.09027
G1 X81.402 Y36.332 E18.10923
G1 X81.601 Y35.994 E18.12831
G1 X81.758 Y35.632 E18.14751
G1 X81.873 Y35.252 E18.16680
G1 X81.942 Y34.861 E18.18616
G1 X81.965 Y34.463 E18.20556
G1 X81.942 Y34.065 E18.22495
G1 X81.873 Y33.673 E18.24431
G1 X81.758 Y33.293 E18.26361
G1 X81.601 Y32.931 E18.28281
G1 X81.402 Y32.593 E18.30189
G1 X81.264 Y32.414 E18.31290
G1 X81.141 Y31.976 F9000.000
G1 X82.470 Y32.224 F9000.000
G1 X97.210 Y46.964 E19.32778 F600.000
G1 X97.210 Y46.418 E19.35435
G1 X82.272 Y31.480 E20.38288
G1 X82.817 Y31.480 E20.40945
G1 X97.210 Y45.873 E21.40041
G1 X97.210 Y45.327 E21.42698
G1 X83.363 Y31.480 E22.38036
G1 X83.909 Y31.480 E22.40693
G1 X97.210 Y44.781 E23.32274
G1 X97.210 Y44.236 E23.34931
G1 X84.454 Y31.480 E24.22754
G1 X85.000 Y31.480 E24.25411
G1 X97.210 Y43.690 E25.09477
G1 X97.210 Y43.144 E25.12134
G1 X85.546 Y31.480 E25.92443
G1 X86.092 Y31.480 E25.95099
G1 X97.210 Y42.598 E26.71651
G1 X97.210 Y42.053 E26.74307
G1 X86.637 Y31.480 E27.47101
G1 X87.183 Y31.480 E27.49758
G1 X97.210 Y41.507 E28.18794
G1 X97.210 Y40.961 E28.21451
G1 X87.729 Y31.480 E28.86730
G1 X88.275 Y31.480 E28.89387
G1 X97.210 Y40.415 E29.50908
G1 X97.210 Y39.870 E29.53565
G1 X88.820 Y31.480 E30.11329
G1 X89.366 Y31.480 E30.13986
G1 X97.210 Y39.324 E30.67992
G1 X97.210 Y38.778 E30.70649
G1 X89.912 Y31.480 E31.20898
G1 X90.458 Y31.480 E31.23555
G1 X97.210 Y38.232 E31.70046
G1 X97.210 Y37.687 E31.72703
G1 X91.003 Y31.480 E32.15437
G1 X91.549 Y31.480 E32.18094
G1 X97.210 Y37.141 E32.57070
G1 X97.210 Y36.595 E32.59727
G1 X92.095 Y31.480 E32.94946
G1 X92.640 Y31.480 E32.97603
G1 X97.210 Y36.050 E33.29065
G1 X97.210 Y35.504 E33.31722
G1 X93.186 Y31.480 E33.59426
G1 X93.732 Y31.480 E33.62083
G1 X97.210 Y34.958 E33.86029
G1 X97.210 Y34.412 E33.88686
G1 X94.278 Y31.480 E34.08875
G1 X94.823 Y31.480 E34.11532
G1 X97.210 Y33.867 E34.27964
G1 X97.210 Y33.321 E34.30621
G1 X95.369 Y31.480 E34.43295
G1 X95.915 Y31.480 E34.45952
G1 X97.210 Y32.775 E34.54869
G1 X97.210 Y32.229 E34.57526
G1 X96.461 Y31.480 E34.62685
G1 X97.006 Y31.480 E34.65342
G1 X97.210 Y31.684 E34.66744
G1 X82.844 Y33.144 F9000.000
G1 X97.210 Y47.510 E35.65659 F600.000
G1 X97.210 Y48.056 E35.68316
G1 X82.989 Y33.834 E36.66232
G1 X83.021 Y34.412 E36.69049
G1 X97.029 Y48.420 E37.65496
G1 X96.483 Y48.420 E37.68153
G1 X82.989 Y34.926 E38.61061
G1 X82.907 Y35.390 E38.63354
G1 X95.937 Y48.420 E39.53069
G1 X95.391 Y48.420 E39.55726
G1 X82.785 Y35.813 E40.42525
G1 X82.631 Y36.206 E40.44575
G1 X94.846 Y48.420 E41.28674
G1 X94.300 Y48.420 E41.31331
G1 X82.450 Y36.571 E42.12916
G1 X82.246 Y36.911 E42.14852
G1 X93.754 Y48.420 E42.94091
G1 X93.208 Y48.420 E42.96747
G1 X82.009 Y37.220 E43.73860
G1 X81.747 Y37.504 E43.75740
G1 X92.663 Y48.420 E44.50895
G1 X92.117 Y48.420 E44.53552
G1 X81.464 Y37.767 E45.26899
G1 X81.158 Y38.007 E45.28791
G1 X91.571 Y48.420 E46.00487
G1 X91.025 Y48.420 E46.03144
G1 X80.816 Y38.211 E46.73437
G1 X80.448 Y38.388 E46.75427
G1 X90.480 Y48.420 E47.44500
G1 X89.934 Y48.420 E47.47157
G1 X80.048 Y38.534 E48.15221
G1 X79.611 Y38.643 E48.17413
G1 X89.388 Y48.420 E48.84729
G1 X88.843 Y48.420 E48.87386
G1 X79.125 Y38.703 E49.54291
G1 X78.581 Y38.704 E49.56941
G1 X88.297 Y48.420 E50.23836
G1 X87.751 Y48.420 E50.26493
G1 X78.270 Y38.939 E50.91771
G1 X78.270 Y39.485 E50.94428
G1 X87.205 Y48.420 E51.55949
G1 X86.660 Y48.420 E51.58606
G1 X78.270 Y40.030 E52.16369
G1 X78.270 Y40.576 E52.19026
G1 X86.114 Y48.420 E52.73032
G1 X85.568 Y48.420 E52.75689
G1 X78.270 Y41.122 E53.25938
G1 X78.270 Y41.668 E53.28595
G1 X85.022 Y48.420 E53.75086
G1 X84.477 Y48.420 E53.77743
G1 X78.270 Y42.213 E54.20476
G1 X78.270 Y42.759 E54.23133
G1 X83.931 Y48.420 E54.62109
G1 X83.385 Y48.420 E54.64766
G1 X78.270 Y43.305 E54.99985
G1 X78.270 Y43.851 E55.02642
G1 X82.839 Y48.420 E55.34103
G1 X82.294 Y48.420 E55.36760
G1 X78.270 Y44.396 E55.64464
G1 X78.270 Y44.942 E55.67121
G1 X81.748 Y48.420 E55.91067
G1 X81.202 Y48.420 E55.93724
G1 X78.270 Y45.488 E56.13913
G1 X78.270 Y46.033 E56.16570
G1 X80.657 Y48.420 E56.33001
G1 X80.111 Y48.420 E56.35658
G1 X78.270 Y46.579 E56.48332
G1 X78.270 Y47.125 E56.50989
G1 X79.565 Y48.420 E56.59905
G1 X79.019 Y48.420 E56.62562
G1 X78.270 Y47.671 E56.67721
G1 X78.270 Y48.216 E56.70378
G1 X78.474 Y48.420 E56.71780
M104 S200 ; set temperature
M140 S55 ; wait for bed temperature to be reached
;Layer change
G1 E50.71780 F1800.00000
G92 E0
G1 Z0.550 F9000.000
G1 X81.378 Y31.327 F9000.000
G1 E6.00000 F1800.00000
G1 X97.363 Y31.327 E6.84476 F3000.000
G1 X97.363 Y48.573 E7.75615
G1 X78.117 Y48.573 E8.77323
G1 X78.117 Y38.664 E9.29689
G1 X79.241 Y38.661 E9.35626
G1 X79.733 Y38.594 E9.38252
G1 X80.213 Y38.461 E9.40886
G1 X80.672 Y38.265 E9.43521
G1 X81.101 Y38.010 E9.46159
G1 X81.495 Y37.702 E9.48800
G1 X81.846 Y37.346 E9.51445
G1 X82.151 Y36.948 E9.54094
G1 X82.406 Y36.516 E9.56746
G1 X82.607 Y36.055 E9.59403
G1 X82.752 Y35.573 E9.62063
G1 X82.840 Y35.077 E9.64725
G1 X82.869 Y34.574 E9.67389
G1 X82.840 Y34.071 E9.70052
G1 X82.752 Y33.574 E9.72715
G1 X82.607 Y33.093 E9.75374
G1 X82.406 Y32.632 E9.78031
G1 X82.151 Y32.199 E9.80684
G1 X81.846 Y31.802 E9.83332
G1 X81.420 Y31.370 E9.86538
G1 X77.615 Y31.286 F9000.000
G1 X77.615 Y30.824 E9.88977 F3000.000
G1 X97.865 Y30.824 E10.95998
G1 X97.865 Y49.075 E11.92449
G1 X77.615 Y49.075 E12.99470
G1 X77.615 Y38.163 E13.57142
G1 X79.206 Y38.158 E13.65552
G1 X79.631 Y38.100 E13.67821
G1 X80.047 Y37.985 E13.70099
G1 X80.444 Y37.816 E13.72382
G1 X80.817 Y37.595 E13.74673
G1 X81.159 Y37.326 E13.76972
G1 X81.466 Y37.015 E13.79282
G1 X81.734 Y36.667 E13.81602
G1 X81.957 Y36.287 E13.83932
G1 X82.134 Y35.881 E13.86270
G1 X82.262 Y35.456 E13.88616
G1 X82.340 Y35.018 E13.90966
G1 X82.366 Y34.574 E13.93320
G1 X82.340 Y34.129 E13.95673
G1 X82.262 Y33.691 E13.98024
G1 X82.134 Y33.266 E14.00369
G1 X81.957 Y32.861 E14.02708
G1 X81.734 Y32.481 E14.05037
G1 X81.466 Y32.132 E14.07357
G1 X81.159 Y31.821 E14.09667
G1 X80.817 Y31.553 E14.11967
G1 X80.367 Y31.286 E14.14732
G1 X77.674 Y31.286 E14.28960
G1 X77.190 Y31.711 F9000.000
G1 X77.190 Y30.400 E14.33732 F1800.000
G1 X98.290 Y30.400 E15.10565
G1 X98.290 Y49.500 E15.80116
G1 X77.190 Y49.500 E16.56949
G1 X77.190 Y37.739 E16.99775
G1 X79.176 Y37.734 E17.07008
G1 X79.546 Y37.684 E17.08365
G1 X79.906 Y37.584 E17.09727
G1 X80.252 Y37.436 E17.11095
G1 X80.577 Y37.243 E17.12471
G1 X80.876 Y37.009 E17.13857
G1 X81.146 Y36.736 E17.15254
G1 X81.381 Y36.429 E17.16661
G1 X81.578 Y36.094 E17.18078
G1 X81.735 Y35.735 E17.19504
G1 X81.848 Y35.358 E17.20938
G1 X81.917 Y34.969 E17.22376
G1 X81.940 Y34.574 E17.23817
G1 X81.917 Y34.179 E17.25258
G1 X81.848 Y33.790 E17.26696
G1 X81.735 Y33.413 E17.28130
G1 X81.578 Y33.054 E17.29556
G1 X81.381 Y32.718 E17.30973
G1 X81.146 Y32.412 E17.32380
G1 X80.876 Y32.139 E17.33777
G1 X80.577 Y31.904 E17.35163
G1 X80.250 Y31.711 E17.36545
G1 X77.250 Y31.711 E17.47470
G1 X77.390 Y31.364 F9000.000
G1 E11.47470 F1800.00000
G92 E0
G1 X82.380 Y31.951 F9000.000
G1 E6.00000 F1800.00000
G1 X82.628 Y31.703 E6.01852 F1800.000
G1 X83.340 Y31.703 E6.05616
G1 X82.654 Y32.389 E6.10748
G1 X82.883 Y32.871 E6.13572
G1 X84.051 Y31.703 E6.22308
G1 X84.763 Y31.703 E6.26073
G1 X83.065 Y33.401 E6.38775
G1 X83.190 Y33.988 E6.41949
G1 X85.474 Y31.703 E6.59041
G1 X86.186 Y31.703 E6.62806
G1 X83.244 Y34.645 E6.84818
G1 X83.182 Y35.419 E6.88926
G1 X86.898 Y31.703 E7.16728
G1 X87.609 Y31.703 E7.20492
G1 X82.931 Y36.382 E7.55495
G1 X78.851 Y39.038 F9000.000
G1 X78.493 Y39.396 E7.58172 F1800.000
G1 X78.493 Y40.108 E7.61937
G1 X79.593 Y39.008 E7.70165
G1 X80.518 Y38.794 E7.75189
G1 X78.493 Y40.819 E7.90339
G1 X78.493 Y41.531 E7.94104
G1 X88.321 Y31.703 E8.67631
G1 X89.032 Y31.703 E8.71395
G1 X78.493 Y42.242 E9.50246
G1 X78.493 Y42.954 E9.54011
G1 X89.744 Y31.703 E10.38185
G1 X90.456 Y31.703 E10.41950
G1 X78.493 Y43.666 E11.31449
G1 X78.493 Y44.377 E11.35213
G1 X91.167 Y31.703 E12.30036
G1 X91.879 Y31.703 E12.33801
G1 X78.493 Y45.089 E13.33948
G1 X78.493 Y45.800 E13.37712
G1 X92.590 Y31.703 E14.43183
G1 X93.302 Y31.703 E14.46948
G1 X78.493 Y46.512 E15.57742
G1 X78.493 Y47.224 E15.61507
G1 X94.014 Y31.703 E16.77626
G1 X94.725 Y31.703 E16.81391
G1 X78.493 Y47.935 E18.02833
G1 X78.943 Y48.197 E18.05587
G1 X95.437 Y31.703 E19.28987
G1 X96.149 Y31.703 E19.32751
G1 X79.655 Y48.197 E20.56151
G1 X80.366 Y48.197 E20.59915
G1 X96.860 Y31.703 E21.83315
G1 X96.987 Y32.288 E21.86481
G1 X81.078 Y48.197 E23.05504
G1 X81.790 Y48.197 E23.09269
G1 X96.987 Y33.000 E24.22968
G1 X96.987 Y33.711 E24.26733
G1 X82.501 Y48.197 E25.35108
G1 X83.213 Y48.197 E25.38872
G1 X96.987 Y34.423 E26.41923
G1 X96.987 Y35.135 E26.45688
G1 X83.925 Y48.197 E27.43415
G1 X84.636 Y48.197 E27.47180
G1 X96.987 Y35.846 E28.39583
G1 X96.987 Y36.558 E28.43347
G1 X85.348 Y48.197 E29.30426
G1 X86.059 Y48.197 E29.34191
G1 X96.987 Y37.269 E30.15946
G1 X96.987 Y37.981 E30.19711
G1 X86.771 Y48.197 E30.96142
G1 X87.483 Y48.197 E30.99906
G1 X96.987 Y38.693 E31.71013
G1 X96.987 Y39.404 E31.74778
G1 X88.194 Y48.197 E32.40561
G1 X88.906 Y48.197 E32.44326
G1 X96.987 Y40.116 E33.04785
G1 X96.987 Y40.827 E33.08549
G1 X89.617 Y48.197 E33.63684
G1 X90.329 Y48.197 E33.67449
G1 X96.987 Y41.539 E34.17260
G1 X96.987 Y42.251 E34.21024
G1 X91.041 Y48.197 E34.65511
G1 X91.752 Y48.197 E34.69276
G1 X96.987 Y42.962 E35.08439
G1 X96.987 Y43.674 E35.12203
G1 X92.464 Y48.197 E35.46042
G1 X93.176 Y48.197 E35.49807
G1 X96.987 Y44.386 E35.78322
G1 X96.987 Y45.097 E35.82086
G1 X93.887 Y48.197 E36.05277
G1 X94.599 Y48.197 E36.09042
G1 X96.987 Y45.809 E36.26909
G1 X96.987 Y46.520 E36.30673
G1 X95.310 Y48.197 E36.43216
G1 X96.022 Y48.197 E36.46981
G1 X96.987 Y47.232 E36.54200
G1 X96.987 Y47.944 E36.57964
G1 X96.734 Y48.197 E36.59859
;Layer change
G1 E30.59859 F1800.00000
G92 E0
G1 Z0.800 F9000.000
G1 X81.278 Y31.327 F9000.000
G1 E6.00000 F1800.00000
G1 X97.363 Y31.327 E6.85003 F3000.000
G1 X97.363 Y48.573 E7.76142
G1 X78.117 Y48.573 E8.77850
G1 X78.117 Y38.765 E9.29682
G1 X79.241 Y38.762 E9.35620
G1 X79.733 Y38.695 E9.38245
G1 X80.213 Y38.562 E9.40879
G1 X80.672 Y38.366 E9.43515
G1 X81.101 Y38.111 E9.46153
G1 X81.495 Y37.803 E9.48794
G1 X81.846 Y37.447 E9.51438
G1 X82.151 Y37.049 E9.54087
G1 X82.406 Y36.617 E9.56740
G1 X82.607 Y36.156 E9.59396
G1 X82.752 Y35.674 E9.62056
G1 X82.840 Y35.178 E9.64718
G1 X82.869 Y34.675 E9.67382
G1 X82.840 Y34.172 E9.70045
G1 X82.752 Y33.675 E9.72708
G1 X82.607 Y33.194 E9.75368
G1 X82.406 Y32.733 E9.78024
G1 X82.151 Y32.300 E9.80677
G1 X81.846 Y31.903 E9.83326
G1 X81.320 Y31.370 E9.87281
G1 X79.319 Y31.106 F9000.000
G1 X79.338 Y30.824 E9.88771 F3000.000
G1 X97.865 Y30.824 E10.86681
G1 X97.865 Y49.075 E11.83133
G1 X77.615 Y49.075 E12.90153
G1 X77.615 Y38.264 E13.47292
G1 X79.206 Y38.259 E13.55701
G1 X79.631 Y38.201 E13.57971
G1 X80.047 Y38.086 E13.60248
G1 X80.444 Y37.917 E13.62532
G1 X80.817 Y37.696 E13.64822
G1 X81.159 Y37.427 E13.67122
G1 X81.466 Y37.116 E13.69432
G1 X81.734 Y36.768 E13.71752
G1 X81.957 Y36.388 E13.74081
G1 X82.134 Y35.982 E13.76420
G1 X82.262 Y35.557 E13.78765
G1 X82.340 Y35.119 E13.81116
G1 X82.366 Y34.675 E13.83469
G1 X82.340 Y34.230 E13.85823
G1 X82.262 Y33.792 E13.88173
G1 X82.134 Y33.367 E13.90519
G1 X81.957 Y32.962 E13.92857
G1 X81.734 Y32.582 E13.95187
G1 X81.466 Y32.233 E13.97507
G1 X81.159 Y31.922 E13.99817
G1 X80.817 Y31.654 E14.02116
G1 X80.444 Y31.433 E14.04407
G1 X80.047 Y31.263 E14.06690
G1 X79.631 Y31.148 E14.08968
G1 X79.379 Y31.114 E14.10315
G1 X77.190 Y31.509 F9000.000
G1 X77.190 Y30.400 E14.14354 F1800.000
G1 X98.290 Y30.400 E14.91187
G1 X98.290 Y49.500 E15.60738
G1 X77.190 Y49.500 E16.37571
G1 X77.190 Y37.840 E16.80029
G1 X79.176 Y37.835 E16.87263
G1 X79.546 Y37.785 E16.88619
G1 X79.906 Y37.685 E16.89981
G1 X80.252 Y37.537 E16.91349
G1 X80.577 Y37.344 E16.92725
G1 X80.876 Y37.110 E16.94111
G1 X81.146 Y36.837 E16.95508
G1 X81.381 Y36.530 E16.96915
G1 X81.578 Y36.195 E16.98332
G1 X81.735 Y35.836 E16.99759
G1 X81.848 Y35.459 E17.01192
G1 X81.917 Y35.070 E17.02630
G1 X81.940 Y34.675 E17.04071
G1 X81.917 Y34.280 E17.05512
G1 X81.848 Y33.891 E17.06951
G1 X81.735 Y33.514 E17.08384
G1 X81.578 Y33.155 E17.09810
G1 X81.381 Y32.819 E17.11227
