; generated by Slic3r 1.2.9 on 2018-01-31 at 20:40:26

; external perimeters extrusion width = 0.40mm
; perimeters extrusion width = 0.62mm
; infill extrusion width = 0.33mm
; solid infill extrusion width = 0.62mm
; top infill extrusion width = 0.20mm

M106 S256; Turn on fan to 100% power
M104 S140; turn on extruder temperature at S value
M140 S60; turn on bed temperature at S value
G28; home all axes
M84; disable motors
G1 Z15 F15000; have Z move to 20mm at 15000 mm/min
M190 S55; turn on bed temperature at S value and wait
M140 S55; turn on bed temperature at S value (printing temperature)
M109 S200; turn on extruder temperature at S value and wait (printing temperature)
M104 S200; turn on extruder temperature at S value
G1 Z0 F12000; move Z back to home
G21 ; set units to millimeters
G90 ; use absolute coordinates
M82 ; use absolute distances for extrusion
G92 E0
M106 S255
;Layer change
G1 E-6.00000 F1800.00000
G92 E0
G1 Z0.300 F9000.000
G1 X54.826 Y29.030 F9000.000
G1 E6.00000 F1800.00000
G1 X55.872 Y28.151 E6.06967 F600.000
G1 X56.820 Y27.954 E6.11900
G1 X156.820 Y27.954 E11.21574
G1 X158.130 Y28.346 E11.28541
G1 X159.009 Y29.392 E11.35508 F600.000
G1 X159.206 Y30.340 E11.40440
G1 X159.206 Y34.340 E11.60827
G1 X158.507 Y36.027 E11.70133
G1 X62.507 Y132.027 E18.62090
G1 X60.820 Y132.726 E18.71396
G1 X56.820 Y132.726 E18.91783
G1 X55.510 Y132.334 E18.98750
G1 X54.631 Y131.288 E19.05716
G1 X54.434 Y130.340 E19.10649
G1 X54.434 Y30.340 E24.20323
G1 X54.809 Y29.088 E24.26984
G1 E18.26984 F1800.00000
G92 E0
G1 X59.824 Y33.344 F9000.000
G1 E6.00000 F1800.00000
G1 X59.824 Y129.344 E10.89287 F600.000
G1 X57.816 Y129.344 E10.99519
G1 X57.816 Y31.336 E15.99038
G1 X155.824 Y31.336 E20.98557
G1 X155.824 Y33.344 E21.08788
G1 X59.884 Y33.344 E25.97770
G1 X60.209 Y33.729 F9000.000
G1 X60.209 Y129.729 E30.87057 F600.000
G1 X57.431 Y129.729 E31.01219
G1 X57.431 Y30.951 E36.04669
G1 X156.209 Y30.951 E41.08119
G1 X156.209 Y33.729 E41.22281
G1 X60.269 Y33.729 E46.11262
G1 X60.595 Y34.115 F9000.000
G1 X60.595 Y130.115 E51.00549 F600.000
G1 X57.045 Y130.115 E51.18643
G1 X57.045 Y30.565 E56.26023
G1 X156.595 Y30.565 E61.33404
G1 X156.595 Y34.115 E61.51497
G1 X60.655 Y34.115 E66.40478
G1 X60.195 Y34.115 F9000.000
G1 X58.202 Y31.722 F9000.000
G1 X155.438 Y31.722 E71.36375 F600.000
G1 X155.438 Y32.958 E71.42680
G1 X59.438 Y32.958 E76.32271
G1 X59.438 Y128.958 E81.21861
G1 X58.202 Y128.958 E81.28167
G1 X58.202 Y31.782 E86.23757
G1 X58.588 Y32.108 F9000.000
G1 X155.052 Y32.108 E91.15717 F600.000
G1 X155.052 Y32.572 E91.18086
G1 X59.052 Y32.572 E96.07677
G1 X59.052 Y128.572 E100.97268
G1 X58.588 Y128.572 E100.99638
G1 X58.588 Y32.168 E105.91292
M104 S195 ; set temperature
M140 S55 ; wait for bed temperature to be reached
;Layer change
G1 E99.91292 F1800.00000
G92 E0
G1 Z0.520 F9000.000
G1 X59.587 Y33.107 F9000.000
G1 E6.00000 F1800.00000
G1 X59.587 Y129.107 E11.31488 F3000.000
G1 X58.053 Y129.107 E11.39979
G1 X58.053 Y31.573 E16.79957
G1 X155.587 Y31.573 E22.19936
G1 X155.587 Y33.107 E22.28426
G1 X59.647 Y33.107 E27.59582
G1 X60.158 Y33.678 F9000.000
G1 X60.158 Y129.678 E32.91070 F3000.000
G1 X57.482 Y129.678 E33.05885
G1 X57.482 Y31.002 E38.52189
G1 X156.158 Y31.002 E43.98492
G1 X156.158 Y33.678 E44.13307
G1 X60.218 Y33.678 E49.44463
G1 X60.620 Y34.140 F9000.000
G1 X60.620 Y130.140 E52.72724 F1800.000
G1 X57.020 Y130.140 E52.85034
G1 X57.020 Y30.540 E56.25605
G1 X156.620 Y30.540 E59.66176
G1 X156.620 Y34.140 E59.78486
G1 X60.680 Y34.140 E63.06542
G1 X60.220 Y34.140 F9000.000
G1 X58.765 Y32.003 F9000.000
G1 X58.483 Y32.285 E63.08766 F1800.000
G1 X59.157 Y128.394 F9000.000
G1 X58.874 Y128.677 E63.10992 F1800.000
G1 X58.483 Y128.255 E63.14200
G1 X59.157 Y127.581 E63.19510
G1 X58.483 Y127.441 E63.23344
G1 X59.157 Y126.768 E63.28654
G1 X58.483 Y126.628 E63.32489
G1 X59.157 Y125.955 E63.37799
G1 X58.483 Y125.815 E63.41633
G1 X59.157 Y125.141 E63.46943
G1 X58.483 Y125.002 E63.50778
G1 X59.157 Y124.328 E63.56088
G1 X58.483 Y124.188 E63.59922
G1 X59.157 Y123.515 E63.65232
G1 X58.483 Y123.375 E63.69067
G1 X59.157 Y122.701 E63.74377
G1 X58.483 Y122.562 E63.78211
G1 X59.157 Y121.888 E63.83521
G1 X58.483 Y121.748 E63.87356
G1 X59.157 Y121.075 E63.92666
G1 X58.483 Y120.935 E63.96500
G1 X59.157 Y120.261 E64.01810
G1 X58.483 Y120.122 E64.05645
G1 X59.157 Y119.448 E64.10955
G1 X58.483 Y119.308 E64.14789
G1 X59.157 Y118.635 E64.20099
G1 X58.483 Y118.495 E64.23934
G1 X59.157 Y117.822 E64.29244
G1 X58.483 Y117.682 E64.33078
G1 X59.157 Y117.008 E64.38388
G1 X58.483 Y116.869 E64.42223
G1 X59.157 Y116.195 E64.47533
G1 X58.483 Y116.055 E64.51367
G1 X59.157 Y115.382 E64.56677
G1 X58.483 Y115.242 E64.60512
G1 X59.157 Y114.568 E64.65822
G1 X58.483 Y114.429 E64.69657
G1 X59.157 Y113.755 E64.74966
G1 X58.483 Y113.615 E64.78801
G1 X59.157 Y112.942 E64.84111
G1 X58.483 Y112.802 E64.87946
G1 X59.157 Y112.128 E64.93255
G1 X58.483 Y111.989 E64.97090
G1 X59.157 Y111.315 E65.02400
G1 X58.483 Y111.175 E65.06235
G1 X59.157 Y110.502 E65.11544
G1 X58.483 Y110.362 E65.15379
G1 X59.157 Y109.689 E65.20689
G1 X58.483 Y109.549 E65.24524
G1 X59.157 Y108.875 E65.29834
G1 X58.483 Y108.736 E65.33668
G1 X59.157 Y108.062 E65.38978
G1 X58.483 Y107.922 E65.42813
G1 X59.157 Y107.249 E65.48123
G1 X58.483 Y107.109 E65.51957
G1 X59.157 Y106.435 E65.57267
G1 X58.483 Y106.296 E65.61102
G1 X59.157 Y105.622 E65.66412
G1 X58.483 Y105.482 E65.70246
G1 X59.157 Y104.809 E65.75556
G1 X58.483 Y104.669 E65.79391
G1 X59.157 Y103.995 E65.84701
G1 X58.483 Y103.856 E65.88535
G1 X59.157 Y103.182 E65.93845
G1 X58.483 Y103.042 E65.97680
G1 X59.157 Y102.369 E66.02990
G1 X58.483 Y102.229 E66.06824
G1 X59.157 Y101.556 E66.12134
G1 X58.483 Y101.416 E66.15969
G1 X59.157 Y100.742 E66.21279
G1 X58.483 Y100.603 E66.25113
G1 X59.157 Y99.929 E66.30423
G1 X58.483 Y99.789 E66.34258
G1 X59.157 Y99.116 E66.39568
G1 X58.483 Y98.976 E66.43402
G1 X59.157 Y98.302 E66.48712
G1 X58.483 Y98.163 E66.52547
G1 X59.157 Y97.489 E66.57857
G1 X58.483 Y97.349 E66.61691
G1 X59.157 Y96.676 E66.67001
G1 X58.483 Y96.536 E66.70836
G1 X59.157 Y95.862 E66.76146
G1 X58.483 Y95.723 E66.79980
G1 X59.157 Y95.049 E66.85290
G1 X58.483 Y94.909 E66.89125
G1 X59.157 Y94.236 E66.94435
G1 X58.483 Y94.096 E66.98269
G1 X59.157 Y93.423 E67.03579
G1 X58.483 Y93.283 E67.07414
G1 X59.157 Y92.609 E67.12724
G1 X58.483 Y92.470 E67.16558
G1 X59.157 Y91.796 E67.21868
G1 X58.483 Y91.656 E67.25703
G1 X59.157 Y90.983 E67.31013
G1 X58.483 Y90.843 E67.34847
G1 X59.157 Y90.169 E67.40157
G1 X58.483 Y90.030 E67.43992
G1 X59.157 Y89.356 E67.49302
G1 X58.483 Y89.216 E67.53136
G1 X59.157 Y88.543 E67.58446
G1 X58.483 Y88.403 E67.62281
G1 X59.157 Y87.729 E67.67591
G1 X58.483 Y87.590 E67.71425
G1 X59.157 Y86.916 E67.76735
G1 X58.483 Y86.776 E67.80570
G1 X59.157 Y86.103 E67.85880
G1 X58.483 Y85.963 E67.89714
G1 X59.157 Y85.290 E67.95024
G1 X58.483 Y85.150 E67.98859
G1 X59.157 Y84.476 E68.04169
G1 X58.483 Y84.337 E68.08004
G1 X59.157 Y83.663 E68.13313
G1 X58.483 Y83.523 E68.17148
G1 X59.157 Y82.850 E68.22458
G1 X58.483 Y82.710 E68.26293
G1 X59.157 Y82.036 E68.31602
G1 X58.483 Y81.897 E68.35437
G1 X59.157 Y81.223 E68.40747
G1 X58.483 Y81.083 E68.44582
G1 X59.157 Y80.410 E68.49891
G1 X58.483 Y80.270 E68.53726
G1 X59.157 Y79.596 E68.59036
G1 X58.483 Y79.457 E68.62871
G1 X59.157 Y78.783 E68.68180
G1 X58.483 Y78.643 E68.72015
G1 X59.157 Y77.970 E68.77325
G1 X58.483 Y77.830 E68.81160
G1 X59.157 Y77.157 E68.86469
G1 X58.483 Y77.017 E68.90304
G1 X59.157 Y76.343 E68.95614
G1 X58.483 Y76.204 E68.99449
G1 X59.157 Y75.530 E69.04758
G1 X58.483 Y75.390 E69.08593
G1 X59.157 Y74.717 E69.13903
G1 X58.483 Y74.577 E69.17738
G1 X59.157 Y73.903 E69.23047
G1 X58.483 Y73.764 E69.26882
G1 X59.157 Y73.090 E69.32192
G1 X58.483 Y72.950 E69.36027
G1 X59.157 Y72.277 E69.41337
G1 X58.483 Y72.137 E69.45171
G1 X59.157 Y71.463 E69.50481
G1 X58.483 Y71.324 E69.54316
G1 X59.157 Y70.650 E69.59626
G1 X58.483 Y70.510 E69.63460
G1 X59.157 Y69.837 E69.68770
G1 X58.483 Y69.697 E69.72605
G1 X59.157 Y69.024 E69.77915
G1 X58.483 Y68.884 E69.81749
G1 X59.157 Y68.210 E69.87059
G1 X58.483 Y68.071 E69.90894
G1 X59.157 Y67.397 E69.96204
G1 X58.483 Y67.257 E70.00038
G1 X59.157 Y66.584 E70.05348
G1 X58.483 Y66.444 E70.09183
G1 X59.157 Y65.770 E70.14493
G1 X58.483 Y65.631 E70.18327
G1 X59.157 Y64.957 E70.23637
G1 X58.483 Y64.817 E70.27472
G1 X59.157 Y64.144 E70.32782
G1 X58.483 Y64.004 E70.36616
G1 X59.157 Y63.330 E70.41926
G1 X58.483 Y63.191 E70.45761
G1 X59.157 Y62.517 E70.51071
G1 X58.483 Y62.378 E70.54905
G1 X59.157 Y61.704 E70.60215
G1 X58.483 Y61.564 E70.64050
G1 X59.157 Y60.891 E70.69360
G1 X58.483 Y60.751 E70.73194
G1 X59.157 Y60.077 E70.78504
G1 X58.483 Y59.938 E70.82339
G1 X59.157 Y59.264 E70.87649
G1 X58.483 Y59.124 E70.91483
G1 X59.157 Y58.451 E70.96793
G1 X58.483 Y58.311 E71.00628
G1 X59.157 Y57.637 E71.05938
G1 X58.483 Y57.498 E71.09772
G1 X59.157 Y56.824 E71.15082
G1 X58.483 Y56.684 E71.18917
G1 X59.157 Y56.011 E71.24227
G1 X58.483 Y55.871 E71.28061
G1 X59.157 Y55.198 E71.33371
G1 X58.483 Y55.058 E71.37206
G1 X59.157 Y54.384 E71.42516
G1 X58.483 Y54.245 E71.46350
G1 X59.157 Y53.571 E71.51660
G1 X58.483 Y53.431 E71.55495
G1 X59.157 Y52.758 E71.60805
G1 X58.483 Y52.618 E71.64639
G1 X59.157 Y51.944 E71.69949
G1 X58.483 Y51.805 E71.73784
G1 X59.157 Y51.131 E71.79094
G1 X58.483 Y50.991 E71.82928
G1 X59.157 Y50.318 E71.88238
G1 X58.483 Y50.178 E71.92073
G1 X59.157 Y49.504 E71.97383
G1 X58.483 Y49.365 E72.01217
G1 X59.157 Y48.691 E72.06527
G1 X58.483 Y48.551 E72.10362
G1 X59.157 Y47.878 E72.15672
G1 X58.483 Y47.738 E72.19506
G1 X59.157 Y47.065 E72.24816
G1 X58.483 Y46.925 E72.28651
G1 X59.157 Y46.251 E72.33961
G1 X58.483 Y46.112 E72.37795
G1 X59.157 Y45.438 E72.43105
G1 X58.483 Y45.298 E72.46940
G1 X59.157 Y44.625 E72.52250
G1 X58.483 Y44.485 E72.56084
G1 X59.157 Y43.811 E72.61394
G1 X58.483 Y43.672 E72.65229
G1 X59.157 Y42.998 E72.70539
G1 X58.483 Y42.858 E72.74373
G1 X59.157 Y42.185 E72.79683
G1 X58.483 Y42.045 E72.83518
G1 X59.157 Y41.371 E72.88828
G1 X58.483 Y41.232 E72.92662
G1 X59.157 Y40.558 E72.97972
G1 X58.483 Y40.418 E73.01807
G1 X59.157 Y39.745 E73.07117
G1 X58.483 Y39.605 E73.10951
G1 X59.157 Y38.932 E73.16261
G1 X58.483 Y38.792 E73.20096
G1 X59.157 Y38.118 E73.25406
G1 X58.483 Y37.979 E73.29240
G1 X59.157 Y37.305 E73.34550
G1 X58.483 Y37.165 E73.38385
G1 X59.157 Y36.492 E73.43695
G1 X58.483 Y36.352 E73.47529
G1 X59.157 Y35.678 E73.52839
G1 X58.483 Y35.539 E73.56674
G1 X59.157 Y34.865 E73.61984
G1 X58.483 Y34.725 E73.65818
G1 X59.157 Y34.052 E73.71128
G1 X58.483 Y33.912 E73.74963
G1 X59.157 Y33.238 E73.80273
G1 X58.483 Y33.099 E73.84107
G1 X59.579 Y32.003 E73.92743
G1 X59.718 Y32.677 E73.96578
G1 X60.392 Y32.003 E74.01888
G1 X60.532 Y32.677 E74.05722
G1 X61.205 Y32.003 E74.11032
G1 X61.345 Y32.677 E74.14867
G1 X62.019 Y32.003 E74.20177
G1 X62.158 Y32.677 E74.24011
G1 X62.832 Y32.003 E74.29321
G1 X62.972 Y32.677 E74.33156
G1 X63.645 Y32.003 E74.38466
G1 X63.785 Y32.677 E74.42300
G1 X64.459 Y32.003 E74.47610
G1 X64.598 Y32.677 E74.51445
G1 X65.272 Y32.003 E74.56755
G1 X65.412 Y32.677 E74.60589
G1 X66.085 Y32.003 E74.65899
G1 X66.225 Y32.677 E74.69734
G1 X66.898 Y32.003 E74.75044
G1 X67.038 Y32.677 E74.78878
G1 X67.712 Y32.003 E74.84188
G1 X67.851 Y32.677 E74.88023
G1 X68.525 Y32.003 E74.93333
G1 X68.665 Y32.677 E74.97167
G1 X69.338 Y32.003 E75.02477
G1 X69.478 Y32.677 E75.06312
G1 X70.152 Y32.003 E75.11622
G1 X70.291 Y32.677 E75.15456
G1 X70.965 Y32.003 E75.20766
G1 X71.105 Y32.677 E75.24601
G1 X71.778 Y32.003 E75.29911
G1 X71.918 Y32.677 E75.33745
G1 X72.592 Y32.003 E75.39055
G1 X72.731 Y32.677 E75.42890
G1 X73.405 Y32.003 E75.48200
G1 X73.545 Y32.677 E75.52034
G1 X74.218 Y32.003 E75.57344
G1 X74.358 Y32.677 E75.61179
G1 X75.031 Y32.003 E75.66489
G1 X75.171 Y32.677 E75.70323
G1 X75.845 Y32.003 E75.75633
G1 X75.984 Y32.677 E75.79468
G1 X76.658 Y32.003 E75.84778
G1 X76.798 Y32.677 E75.88612
G1 X77.471 Y32.003 E75.93922
G1 X77.611 Y32.677 E75.97757
G1 X78.285 Y32.003 E76.03067
G1 X78.424 Y32.677 E76.06901
G1 X79.098 Y32.003 E76.12211
G1 X79.238 Y32.677 E76.16046
G1 X79.911 Y32.003 E76.21356
G1 X80.051 Y32.677 E76.25190
G1 X80.725 Y32.003 E76.30500
G1 X80.864 Y32.677 E76.34335
G1 X81.538 Y32.003 E76.39645
G1 X81.677 Y32.677 E76.43479
G1 X82.351 Y32.003 E76.48789
G1 X82.491 Y32.677 E76.52624
G1 X83.164 Y32.003 E76.57934
G1 X83.304 Y32.677 E76.61768
G1 X83.978 Y32.003 E76.67078
G1 X84.117 Y32.677 E76.70913
G1 X84.791 Y32.003 E76.76223
G1 X84.931 Y32.677 E76.80057
G1 X85.604 Y32.003 E76.85367
G1 X85.744 Y32.677 E76.89202
G1 X86.418 Y32.003 E76.94512
G1 X86.557 Y32.677 E76.98346
G1 X87.231 Y32.003 E77.03656
G1 X87.371 Y32.677 E77.07491
G1 X88.044 Y32.003 E77.12801
G1 X88.184 Y32.677 E77.16635
G1 X88.857 Y32.003 E77.21945
G1 X88.997 Y32.677 E77.25780
G1 X89.671 Y32.003 E77.31090
G1 X89.810 Y32.677 E77.34924
G1 X90.484 Y32.003 E77.40234
G1 X90.624 Y32.677 E77.44069
G1 X91.297 Y32.003 E77.49379
G1 X91.437 Y32.677 E77.53213
G1 X92.111 Y32.003 E77.58523
G1 X92.250 Y32.677 E77.62358
G1 X92.924 Y32.003 E77.67668
G1 X93.064 Y32.677 E77.71502
G1 X93.737 Y32.003 E77.76812
G1 X93.877 Y32.677 E77.80647
G1 X94.551 Y32.003 E77.85957
G1 X94.690 Y32.677 E77.89791
G1 X95.364 Y32.003 E77.95101
G1 X95.504 Y32.677 E77.98936
G1 X96.177 Y32.003 E78.04246
G1 X96.317 Y32.677 E78.08080
G1 X96.990 Y32.003 E78.13390
G1 X97.130 Y32.677 E78.17225
G1 X97.804 Y32.003 E78.22535
G1 X97.943 Y32.677 E78.26369
G1 X98.617 Y32.003 E78.31679
G1 X98.757 Y32.677 E78.35514
G1 X99.430 Y32.003 E78.40824
G1 X99.570 Y32.677 E78.44658
G1 X100.244 Y32.003 E78.49968
G1 X100.383 Y32.677 E78.53803
G1 X101.057 Y32.003 E78.59113
G1 X101.197 Y32.677 E78.62947
G1 X101.870 Y32.003 E78.68257
G1 X102.010 Y32.677 E78.72092
G1 X102.684 Y32.003 E78.77402
G1 X102.823 Y32.677 E78.81236
G1 X103.497 Y32.003 E78.86546
G1 X103.637 Y32.677 E78.90381
G1 X104.310 Y32.003 E78.95691
G1 X104.450 Y32.677 E78.99525
G1 X105.123 Y32.003 E79.04835
G1 X105.263 Y32.677 E79.08670
G1 X105.937 Y32.003 E79.13980
G1 X106.076 Y32.677 E79.17814
G1 X106.750 Y32.003 E79.23124
G1 X106.890 Y32.677 E79.26959
G1 X107.563 Y32.003 E79.32269
G1 X107.703 Y32.677 E79.36103
G1 X108.377 Y32.003 E79.41413
G1 X108.516 Y32.677 E79.45248
G1 X109.190 Y32.003 E79.50558
G1 X109.330 Y32.677 E79.54392
G1 X110.003 Y32.003 E79.59702
G1 X110.143 Y32.677 E79.63537
G1 X110.817 Y32.003 E79.68847
G1 X110.956 Y32.677 E79.72681
G1 X111.630 Y32.003 E79.77991
G1 X111.770 Y32.677 E79.81826
G1 X112.443 Y32.003 E79.87136
G1 X112.583 Y32.677 E79.90970
G1 X113.256 Y32.003 E79.96280
G1 X113.396 Y32.677 E80.00115
G1 X114.070 Y32.003 E80.05425
G1 X114.209 Y32.677 E80.09259
G1 X114.883 Y32.003 E80.14569
G1 X115.023 Y32.677 E80.18404
G1 X115.696 Y32.003 E80.23714
G1 X115.836 Y32.677 E80.27548
G1 X116.510 Y32.003 E80.32858
G1 X116.649 Y32.677 E80.36693
G1 X117.323 Y32.003 E80.42003
G1 X117.463 Y32.677 E80.45837
G1 X118.136 Y32.003 E80.51147
G1 X118.276 Y32.677 E80.54982
G1 X118.950 Y32.003 E80.60292
G1 X119.089 Y32.677 E80.64126
G1 X119.763 Y32.003 E80.69436
G1 X119.903 Y32.677 E80.73271
G1 X120.576 Y32.003 E80.78581
G1 X120.716 Y32.677 E80.82415
G1 X121.389 Y32.003 E80.87725
G1 X121.529 Y32.677 E80.91560
G1 X122.203 Y32.003 E80.96870
G1 X122.342 Y32.677 E81.00704
G1 X123.016 Y32.003 E81.06014
G1 X123.156 Y32.677 E81.09849
G1 X123.829 Y32.003 E81.15159
G1 X123.969 Y32.677 E81.18993
G1 X124.643 Y32.003 E81.24303
G1 X124.782 Y32.677 E81.28138
G1 X125.456 Y32.003 E81.33448
G1 X125.596 Y32.677 E81.37282
G1 X126.269 Y32.003 E81.42592
G1 X126.409 Y32.677 E81.46427
G1 X127.083 Y32.003 E81.51737
G1 X127.222 Y32.677 E81.55571
G1 X127.896 Y32.003 E81.60881
G1 X128.036 Y32.677 E81.64716
G1 X128.709 Y32.003 E81.70026
G1 X128.849 Y32.677 E81.73860
G1 X129.522 Y32.003 E81.79170
G1 X129.662 Y32.677 E81.83005
G1 X130.336 Y32.003 E81.88315
G1 X130.475 Y32.677 E81.92149
G1 X131.149 Y32.003 E81.97459
G1 X131.289 Y32.677 E82.01294
G1 X131.962 Y32.003 E82.06604
G1 X132.102 Y32.677 E82.10438
G1 X132.776 Y32.003 E82.15748
G1 X132.915 Y32.677 E82.19583
G1 X133.589 Y32.003 E82.24893
G1 X133.729 Y32.677 E82.28727
G1 X134.402 Y32.003 E82.34037
