; generated by Slic3r 1.2.9 on 2018-01-02 at 17:30:21

; external perimeters extrusion width = 0.40mm
; perimeters extrusion width = 0.62mm
; infill extrusion width = 0.33mm
; solid infill extrusion width = 0.62mm
; top infill extrusion width = 0.20mm

M106 S256; Turn on fan to 100% power
M104 S140; turn on extruder temperature at S value
M140 S60; turn on bed temperature at S value
G28; home all axes
M84; disable motors
G1 Z15 F15000; have Z move to 20mm at 15000 mm/min
M190 S55; turn on bed temperature at S value and wait
M140 S55; turn on bed temperature at S value (printing temperature)
M109 S200; turn on extruder temperature at S value and wait (printing temperature)
M104 S200; turn on extruder temperature at S value
G1 Z0 F12000; move Z back to home
G21 ; set units to millimeters
G90 ; use absolute coordinates
M82 ; use absolute distances for extrusion
G92 E0
M106 S255
;Layer change
G1 E-6.00000 F1800.00000
G92 E0
G1 Z0.300 F9000.000
G1 X92.585 Y118.071 F9000.000
G1 E6.00000 F1800.00000
G1 X93.510 Y117.884 E6.04755 F600.000
G1 X164.910 Y117.884 E9.64419
G1 X166.220 Y118.276 E9.71304
G1 X167.099 Y119.322 E9.78190 F600.000
G1 X167.296 Y120.270 E9.83065
G1 X167.296 Y171.270 E12.39968
G1 X166.904 Y172.580 E12.46853
G1 X165.858 Y173.459 E12.53739
G1 X164.910 Y173.656 E12.58614
G1 X93.010 Y173.656 E16.20796
G1 X91.700 Y173.264 E16.27682
G1 X90.821 Y172.218 E16.34568
G1 X90.624 Y171.270 E16.39443
G1 X90.625 Y169.246 E16.49640
G1 X91.125 Y120.246 E18.96481
G1 X91.529 Y118.940 E19.03367
G1 X92.538 Y118.109 E19.09950
G1 E13.09950 F1800.00000
G92 E0
G1 X103.835 Y145.924 F9000.000
G1 E6.00000 F1800.00000
G1 X102.235 Y145.924 E6.08060 F600.000
G1 X102.235 Y157.895 E6.68364
G1 X102.469 Y158.088 E6.69889
G1 X102.723 Y158.438 E6.72071
G1 X102.883 Y158.841 E6.74251
G1 X102.936 Y159.263 E6.76395
G1 X102.921 Y159.493 E6.77558
G1 X102.817 Y159.899 E6.79667
G1 X102.719 Y160.108 E6.80830
G1 X102.473 Y160.446 E6.82938
G1 X102.305 Y160.604 E6.84102
G1 X101.945 Y160.832 E6.86246
G1 X101.534 Y160.966 E6.88426
G1 X101.102 Y160.993 E6.90607
G1 X100.683 Y160.914 E6.92751
G1 X100.469 Y160.829 E6.93914
G1 X100.109 Y160.601 E6.96058
G1 X99.813 Y160.285 E6.98239
G1 X99.604 Y159.906 E7.00419
G1 X99.499 Y159.493 E7.02564
G1 X99.485 Y159.270 E7.03691
G1 X99.499 Y159.047 E7.04818
G1 X99.604 Y158.634 E7.06963
G1 X99.813 Y158.255 E7.09143
G1 X100.104 Y157.945 E7.11288
G1 X100.291 Y157.809 E7.12447
G1 X100.485 Y157.716 E7.13533
G1 X100.485 Y145.924 E7.72935
G1 X98.885 Y145.924 E7.80995
G1 X98.885 Y144.109 E7.90135
G1 X98.812 Y143.886 E7.91319
G1 X98.754 Y143.580 E7.92885
G1 X98.735 Y143.270 E7.94451
G1 X98.754 Y142.960 E7.96017
G1 X98.812 Y142.654 E7.97584
G1 X98.885 Y142.431 E7.98768
G1 X98.885 Y140.747 E8.07248
G1 X95.885 Y140.747 E8.22360
G1 X95.885 Y133.050 E8.61131
G1 X106.835 Y133.050 E9.16290
G1 X106.835 Y140.747 E9.55061
G1 X103.835 Y140.747 E9.70173
G1 X103.835 Y145.864 E9.95946
G1 X103.835 Y146.324 F9000.000
G1 E3.95946 F1800.00000
G92 E0
G1 X158.068 Y163.762 F9000.000
G1 E6.00000 F1800.00000
G1 X158.190 Y163.503 E6.01442 F600.000
G1 X158.459 Y163.133 E6.03741
G1 X158.667 Y162.937 E6.05183
G1 X159.069 Y162.682 E6.07579
G1 X159.521 Y162.536 E6.09976
G1 X159.786 Y162.502 E6.11321
G1 X160.053 Y162.502 E6.12665 F600.000
G1 X160.501 Y162.588 E6.14964
G1 X160.767 Y162.693 E6.16406
G1 X161.169 Y162.948 E6.18803
G1 X161.495 Y163.295 E6.21199
G1 X161.648 Y163.536 E6.22641
G1 X161.817 Y163.962 E6.24949
G1 X161.871 Y164.253 E6.26436
G1 X161.870 Y164.718 E6.28781
G1 X161.752 Y165.178 E6.31174
G1 X161.630 Y165.437 E6.32616
G1 X161.361 Y165.807 E6.34915
G1 X161.153 Y166.003 E6.36357
G1 X160.751 Y166.258 E6.38754
G1 X160.299 Y166.404 E6.41151
G1 X160.015 Y166.440 E6.42592
G1 X159.559 Y166.412 E6.44891
G1 X159.301 Y166.345 E6.46235
G1 X159.053 Y166.247 E6.47580
G1 X158.651 Y165.992 E6.49977
G1 X158.325 Y165.645 E6.52373
G1 X158.172 Y165.404 E6.53815
G1 X158.003 Y164.978 E6.56123
G1 X157.949 Y164.687 E6.57610
G1 X157.950 Y164.222 E6.59955
G1 X158.053 Y163.820 E6.62046
G1 X158.433 Y163.893 F9000.000
G1 X158.524 Y163.700 E6.63121 F600.000
G1 X158.749 Y163.390 E6.65053
G1 X158.905 Y163.244 E6.66127
G1 X159.234 Y163.034 E6.68095
G1 X159.606 Y162.914 E6.70062
G1 X159.810 Y162.888 E6.71101
G1 X160.017 Y162.888 E6.72140 F600.000
G1 X160.393 Y162.960 E6.74071
G1 X160.592 Y163.038 E6.75146
G1 X160.921 Y163.247 E6.77113
G1 X161.189 Y163.532 E6.79081
G1 X161.303 Y163.712 E6.80156
G1 X161.445 Y164.069 E6.82091
G1 X161.485 Y164.288 E6.83209
G1 X161.484 Y164.669 E6.85130
G1 X161.387 Y165.047 E6.87096
G1 X161.296 Y165.240 E6.88171
G1 X161.071 Y165.550 E6.90103
G1 X160.915 Y165.696 E6.91177
G1 X160.586 Y165.906 E6.93145
G1 X160.214 Y166.026 E6.95113
G1 X160.003 Y166.053 E6.96187
G1 X159.620 Y166.029 E6.98119
G1 X159.420 Y165.978 E6.99158
G1 X159.228 Y165.902 E7.00196
G1 X158.899 Y165.693 E7.02164
G1 X158.631 Y165.408 E7.04131
G1 X158.517 Y165.228 E7.05206
G1 X158.375 Y164.871 E7.07141
G1 X158.335 Y164.652 E7.08259
G1 X158.336 Y164.271 E7.10181
G1 X158.418 Y163.951 E7.11845
G1 X158.300 Y163.726 F9000.000
G1 E1.11845 F1800.00000
G92 E0
G1 X162.621 Y141.133 F9000.000
G1 E6.00000 F1800.00000
G1 X159.621 Y141.133 E6.15112 F600.000
G1 X159.621 Y144.369 E6.31411
G1 X159.775 Y144.423 E6.32238
G1 X159.991 Y144.154 E6.33973
G1 X160.192 Y143.958 E6.35390
G1 X160.417 Y143.789 E6.36806
G1 X160.661 Y143.650 E6.38220
G1 X160.921 Y143.543 E6.39634
G1 X161.192 Y143.471 E6.41047
G1 X161.470 Y143.435 E6.42460
G1 X161.750 Y143.435 E6.43873
G1 X162.028 Y143.471 E6.45286
G1 X162.299 Y143.543 E6.46699
G1 X162.559 Y143.650 E6.48113
G1 X162.803 Y143.789 E6.49527
G1 X163.028 Y143.958 E6.50943
G1 X163.229 Y144.154 E6.52360
G1 X163.405 Y144.374 E6.53777
G1 X163.552 Y144.614 E6.55196
G1 X163.669 Y144.870 E6.56616
G1 X163.754 Y145.141 E6.58045
G1 X163.809 Y145.447 E6.59611
G1 X163.808 Y145.963 E6.62208
G1 X163.753 Y146.258 E6.63722
G1 X163.669 Y146.527 E6.65142
G1 X163.552 Y146.784 E6.66562
G1 X163.405 Y147.024 E6.67981
G1 X163.229 Y147.244 E6.69398
G1 X163.028 Y147.440 E6.70815
G1 X162.803 Y147.609 E6.72231
G1 X162.559 Y147.748 E6.73646
G1 X162.299 Y147.854 E6.75059
G1 X162.028 Y147.926 E6.76472
G1 X161.750 Y147.963 E6.77885
G1 X161.470 Y147.963 E6.79298
G1 X161.192 Y147.926 E6.80711
G1 X160.921 Y147.854 E6.82124
G1 X160.661 Y147.748 E6.83538
G1 X160.417 Y147.609 E6.84952
G1 X160.192 Y147.440 E6.86369
G1 X159.991 Y147.244 E6.87785
G1 X159.815 Y147.024 E6.89202
G1 X159.668 Y146.784 E6.90622
G1 X159.551 Y146.527 E6.92041
G1 X159.483 Y146.309 E6.93191
G1 X158.021 Y146.309 E7.00556
G1 X158.021 Y157.713 E7.58001
G1 X158.152 Y157.821 E7.58857
G1 X158.464 Y158.251 E7.61532
G1 X158.659 Y158.744 E7.64203
G1 X158.723 Y159.253 E7.66785
G1 X158.702 Y159.565 E7.68365
G1 X158.581 Y160.032 E7.70793
G1 X158.446 Y160.315 E7.72371
G1 X158.163 Y160.703 E7.74790
G1 X157.942 Y160.910 E7.76318
G1 X157.511 Y161.184 E7.78891
G1 X157.006 Y161.348 E7.81562
G1 X156.477 Y161.381 E7.84233
G1 X155.975 Y161.286 E7.86807
G1 X155.693 Y161.174 E7.88337
G1 X155.262 Y160.900 E7.90910
G1 X154.899 Y160.513 E7.93581
G1 X154.643 Y160.049 E7.96253
G1 X154.516 Y159.554 E7.98826
G1 X154.498 Y159.268 E8.00269
G1 X154.518 Y158.975 E8.01751
G1 X154.643 Y158.491 E8.04268
G1 X154.899 Y158.026 E8.06937
G1 X155.248 Y157.654 E8.09510
G1 X155.499 Y157.472 E8.11074
G1 X155.499 Y146.309 E8.67302
G1 X153.737 Y146.309 E8.76178
G1 X153.669 Y146.527 E8.77327
G1 X153.552 Y146.784 E8.78747
G1 X153.405 Y147.024 E8.80166
G1 X153.230 Y147.244 E8.81584
G1 X153.028 Y147.440 E8.83001
G1 X152.803 Y147.609 E8.84417
G1 X152.559 Y147.748 E8.85831
G1 X152.299 Y147.854 E8.87245
G1 X152.028 Y147.926 E8.88658
G1 X151.749 Y147.963 E8.90079
G1 X151.460 Y147.961 E8.91534
G1 X151.192 Y147.926 E8.92896
G1 X150.921 Y147.854 E8.94309
G1 X150.661 Y147.748 E8.95723
G1 X150.417 Y147.609 E8.97137
G1 X150.192 Y147.440 E8.98554
G1 X149.991 Y147.244 E8.99970
G1 X149.815 Y147.024 E9.01388
G1 X149.668 Y146.784 E9.02807
G1 X149.551 Y146.527 E9.04227
G1 X149.467 Y146.258 E9.05647
G1 X149.415 Y145.980 E9.07069
G1 X149.398 Y145.699 E9.08491
G1 X149.415 Y145.417 E9.09913
G1 X149.467 Y145.139 E9.11334
G1 X149.551 Y144.870 E9.12755
G1 X149.668 Y144.614 E9.14175
G1 X149.815 Y144.374 E9.15594
G1 X149.991 Y144.154 E9.17011
G1 X150.192 Y143.958 E9.18428
G1 X150.417 Y143.789 E9.19844
G1 X150.661 Y143.650 E9.21259
G1 X150.921 Y143.543 E9.22672
G1 X151.192 Y143.471 E9.24085
G1 X151.470 Y143.435 E9.25498
G1 X151.750 Y143.435 E9.26911
G1 X152.028 Y143.471 E9.28324
G1 X152.299 Y143.543 E9.29737
G1 X152.559 Y143.650 E9.31151
G1 X152.803 Y143.789 E9.32565
G1 X153.028 Y143.958 E9.33981
G1 X153.230 Y144.154 E9.35398
G1 X153.405 Y144.374 E9.36816
G1 X153.552 Y144.614 E9.38234
G1 X153.703 Y144.979 E9.40224
G1 X153.899 Y144.949 E9.41225
G1 X153.899 Y144.170 E9.45146
G1 X153.838 Y143.982 E9.46145
G1 X153.771 Y143.629 E9.47956
G1 X153.748 Y143.270 E9.49766
G1 X153.771 Y142.911 E9.51576
G1 X153.838 Y142.558 E9.53387
G1 X153.899 Y142.370 E9.54386
G1 X153.899 Y141.133 E9.60616
G1 X150.899 Y141.133 E9.75728
G1 X150.899 Y132.665 E10.18384
G1 X162.621 Y132.665 E10.77428
G1 X162.621 Y141.073 E11.19782
G1 X162.235 Y140.747 F9000.000
G1 X159.235 Y140.747 E11.34894 F600.000
G1 X159.235 Y145.924 E11.60969
G1 X157.635 Y145.924 E11.69029
G1 X157.635 Y157.895 E12.29333
G1 X157.869 Y158.088 E12.30858
G1 X158.123 Y158.438 E12.33040
G1 X158.283 Y158.841 E12.35220
G1 X158.336 Y159.264 E12.37368
G1 X158.319 Y159.503 E12.38579
G1 X158.217 Y159.900 E12.40640
G1 X158.113 Y160.116 E12.41850
G1 X157.873 Y160.446 E12.43907
G1 X157.705 Y160.604 E12.45070
G1 X157.345 Y160.832 E12.47214
G1 X156.934 Y160.966 E12.49394
G1 X156.502 Y160.993 E12.51575
G1 X156.083 Y160.914 E12.53719
G1 X155.869 Y160.829 E12.54883
G1 X155.509 Y160.601 E12.57026
G1 X155.213 Y160.285 E12.59207
G1 X155.004 Y159.906 E12.61387
G1 X154.899 Y159.493 E12.63532
G1 X154.885 Y159.269 E12.64663
G1 X154.901 Y159.037 E12.65838
G1 X155.005 Y158.634 E12.67932
G1 X155.213 Y158.255 E12.70111
G1 X155.504 Y157.945 E12.72256
G1 X155.691 Y157.809 E12.73415
G1 X155.885 Y157.716 E12.74501
G1 X155.885 Y145.924 E13.33903
G1 X154.285 Y145.924 E13.41963
G1 X154.285 Y144.109 E13.51103
G1 X154.212 Y143.886 E13.52287
G1 X154.154 Y143.580 E13.53853
G1 X154.135 Y143.270 E13.55419
G1 X154.154 Y142.960 E13.56985
G1 X154.212 Y142.654 E13.58552
G1 X154.285 Y142.431 E13.59736
G1 X154.285 Y140.747 E13.68216
G1 X151.285 Y140.747 E13.83328
G1 X151.285 Y133.050 E14.22099
G1 X162.235 Y133.050 E14.77258
G1 X162.235 Y140.687 E15.15727
G1 X162.235 Y141.147 F9000.000
G1 E9.15727 F1800.00000
G92 E0
G1 X153.231 Y144.838 F9000.000
G1 E6.00000 F1800.00000
G1 X153.308 Y145.008 E6.00945 F600.000
G1 X153.379 Y145.233 E6.02131
G1 X153.423 Y145.481 E6.03400
G1 X153.422 Y145.927 E6.05646
G1 X153.378 Y146.165 E6.06865
G1 X153.308 Y146.389 E6.08048
G1 X153.211 Y146.602 E6.09229
G1 X153.089 Y146.802 E6.10407
G1 X152.943 Y146.984 E6.11582
G1 X152.777 Y147.146 E6.12754
G1 X152.591 Y147.286 E6.13923
G1 X152.390 Y147.400 E6.15089
G1 X152.176 Y147.488 E6.16252
G1 X151.953 Y147.547 E6.17413
G1 X151.725 Y147.577 E6.18576
G1 X151.486 Y147.576 E6.19778
G1 X151.267 Y147.547 E6.20893
G1 X151.044 Y147.488 E6.22054
G1 X150.830 Y147.400 E6.23217
G1 X150.629 Y147.286 E6.24383
G1 X150.443 Y147.146 E6.25552
G1 X150.277 Y146.984 E6.26724
G1 X150.131 Y146.802 E6.27899
G1 X150.009 Y146.602 E6.29077
G1 X149.912 Y146.389 E6.30258
G1 X149.842 Y146.165 E6.31441
G1 X149.799 Y145.934 E6.32626
G1 X149.785 Y145.699 E6.33811
G1 X149.799 Y145.464 E6.34997
G1 X149.842 Y145.233 E6.36182
G1 X149.912 Y145.008 E6.37365
G1 X150.009 Y144.795 E6.38546
G1 X150.131 Y144.596 E6.39724
G1 X150.277 Y144.413 E6.40899
G1 X150.443 Y144.251 E6.42071
G1 X150.629 Y144.112 E6.43240
G1 X150.830 Y143.997 E6.44406
G1 X151.044 Y143.910 E6.45569
G1 X151.267 Y143.850 E6.46730
G1 X151.495 Y143.821 E6.47890
G1 X151.725 Y143.821 E6.49050 F600.000
G1 X151.953 Y143.850 E6.50210
G1 X152.176 Y143.910 E6.51371
G1 X152.390 Y143.997 E6.52534
G1 X152.591 Y144.112 E6.53700
G1 X152.777 Y144.251 E6.54869
G1 X152.943 Y144.413 E6.56041
G1 X153.089 Y144.596 E6.57216
G1 X153.204 Y144.784 E6.58328
G1 X153.418 Y144.849 F9000.000
G1 E0.58328 F1800.00000
G92 E0
G1 X159.799 Y145.464 F9000.000
G1 E6.00000 F1800.00000
G1 X159.842 Y145.233 E6.01185 F600.000
G1 X159.912 Y145.008 E6.02368
G1 X160.009 Y144.795 E6.03549
G1 X160.131 Y144.596 E6.04727
G1 X160.277 Y144.413 E6.05902
G1 X160.443 Y144.251 E6.07074
G1 X160.629 Y144.112 E6.08243
G1 X160.830 Y143.997 E6.09409
G1 X161.044 Y143.910 E6.10572
G1 X161.267 Y143.850 E6.11733
G1 X161.495 Y143.821 E6.12893
G1 X161.725 Y143.821 E6.14053 F600.000
G1 X161.953 Y143.850 E6.15213
G1 X162.176 Y143.910 E6.16374
G1 X162.390 Y143.997 E6.17537
G1 X162.591 Y144.112 E6.18703
G1 X162.777 Y144.251 E6.19872
G1 X162.943 Y144.413 E6.21044
G1 X163.089 Y144.596 E6.22219
G1 X163.211 Y144.795 E6.23397
G1 X163.308 Y145.008 E6.24578
G1 X163.379 Y145.233 E6.25764
G1 X163.423 Y145.481 E6.27033
G1 X163.422 Y145.927 E6.29280
G1 X163.378 Y146.165 E6.30499
G1 X163.308 Y146.389 E6.31682
G1 X163.211 Y146.602 E6.32862
G1 X163.089 Y146.802 E6.34041
G1 X162.943 Y146.984 E6.35216
G1 X162.777 Y147.146 E6.36387
G1 X162.591 Y147.286 E6.37556
G1 X162.390 Y147.400 E6.38722
G1 X162.176 Y147.488 E6.39885
G1 X161.953 Y147.547 E6.41047
G1 X161.725 Y147.577 E6.42206
G1 X161.495 Y147.577 E6.43367
G1 X161.267 Y147.547 E6.44527
G1 X161.044 Y147.488 E6.45688
G1 X160.830 Y147.400 E6.46851
G1 X160.629 Y147.286 E6.48017
G1 X160.443 Y147.146 E6.49186
G1 X160.277 Y146.984 E6.50358
G1 X160.131 Y146.802 E6.51532
G1 X160.009 Y146.602 E6.52711
G1 X159.912 Y146.389 E6.53892
G1 X159.842 Y146.165 E6.55074
G1 X159.799 Y145.934 E6.56260
G1 X159.795 Y145.524 E6.58325
G1 X159.611 Y145.322 F9000.000
G1 E0.58325 F1800.00000
G92 E0
G1 X160.015 Y127.240 F9000.000
G1 E6.00000 F1800.00000
G1 X159.559 Y127.212 E6.02299 F600.000
G1 X159.301 Y127.145 E6.03643
G1 X159.053 Y127.047 E6.04988
G1 X158.651 Y126.792 E6.07385
G1 X158.325 Y126.445 E6.09781
G1 X158.172 Y126.204 E6.11223
G1 X158.003 Y125.778 E6.13531
G1 X157.949 Y125.487 E6.15018
G1 X157.950 Y125.022 E6.17363
G1 X158.073 Y124.543 E6.19855
G1 X158.302 Y124.126 E6.22251
G1 X158.473 Y123.920 E6.23596
G1 X158.667 Y123.737 E6.24940
G1 X159.052 Y123.493 E6.27239
G1 X159.319 Y123.388 E6.28681
G1 X159.767 Y123.302 E6.30980
G1 X160.053 Y123.302 E6.32422 F600.000
G1 X160.501 Y123.388 E6.34720
G1 X160.768 Y123.493 E6.36163
G1 X161.169 Y123.748 E6.38559
G1 X161.495 Y124.095 E6.40955
G1 X161.648 Y124.336 E6.42397
G1 X161.817 Y124.762 E6.44705
G1 X161.871 Y125.053 E6.46192
G1 X161.870 Y125.518 E6.48537
G1 X161.752 Y125.978 E6.50930
G1 X161.630 Y126.237 E6.52372
G1 X161.361 Y126.607 E6.54672
G1 X161.153 Y126.803 E6.56113
G1 X160.751 Y127.058 E6.58510
G1 X160.299 Y127.204 E6.60907
G1 X160.074 Y127.233 E6.62046
G1 X160.003 Y126.853 F9000.000
G1 X159.620 Y126.829 E6.63977 F600.000
G1 X159.420 Y126.778 E6.65016
G1 X159.228 Y126.702 E6.66055
G1 X158.899 Y126.493 E6.68023
G1 X158.631 Y126.208 E6.69990
G1 X158.517 Y126.028 E6.71065
G1 X158.375 Y125.671 E6.73000
G1 X158.335 Y125.452 E6.74118
G1 X158.336 Y125.071 E6.76039
G1 X158.435 Y124.686 E6.78042
G1 X158.623 Y124.344 E6.80009
G1 X158.754 Y124.185 E6.81048
G1 X158.905 Y124.044 E6.82087
G1 X159.228 Y123.838 E6.84018
G1 X159.427 Y123.760 E6.85093
G1 X159.803 Y123.688 E6.87025
G1 X160.017 Y123.688 E6.88099 F600.000
G1 X160.393 Y123.760 E6.90031
G1 X160.592 Y123.838 E6.91106
G1 X160.921 Y124.047 E6.93073
G1 X161.189 Y124.332 E6.95041
G1 X161.303 Y124.512 E6.96115
G1 X161.445 Y124.869 E6.98050
G1 X161.485 Y125.088 E6.99169
G1 X161.484 Y125.469 E7.01090
G1 X161.387 Y125.847 E7.03056
G1 X161.296 Y126.040 E7.04131
G1 X161.071 Y126.350 E7.06063
G1 X160.915 Y126.496 E7.07137
G1 X160.586 Y126.706 E7.09105
G1 X160.214 Y126.826 E7.11073
G1 X160.062 Y126.846 E7.11845
G1 X159.811 Y127.185 F9000.000
G1 E1.11845 F1800.00000
G92 E0
G1 X147.621 Y143.159 F9000.000
G1 E6.00000 F1800.00000
G1 X147.621 Y152.798 E6.48551 F600.000
G1 X147.778 Y153.567 E6.52504
G1 X147.822 Y154.270 E6.56054
G1 X147.778 Y154.973 E6.59605
