; generated by Slic3r 1.2.9 on 2017-12-27 at 22:55:39

; external perimeters extrusion width = 0.40mm
; perimeters extrusion width = 0.62mm
; infill extrusion width = 0.33mm
; solid infill extrusion width = 0.62mm
; top infill extrusion width = 0.20mm

M106 S256; Turn on fan to 100% power
M104 S140; turn on extruder temperature at S value
M140 S60; turn on bed temperature at S value
G28; home all axes
M84; disable motors
G1 Z15 F15000; have Z move to 20mm at 15000 mm/min
M190 S55; turn on bed temperature at S value and wait
M140 S55; turn on bed temperature at S value (printing temperature)
M109 S200; turn on extruder temperature at S value and wait (printing temperature)
M104 S200; turn on extruder temperature at S value
G1 Z0 F12000; move Z back to home
G21 ; set units to millimeters
G90 ; use absolute coordinates
M82 ; use absolute distances for extrusion
G92 E0
M106 S255
;Layer change
G1 E-6.00000 F1800.00000
G92 E0
G1 Z0.300 F9000.000
G1 X48.674 Y10.260 F9000.000
G1 E6.00000 F1800.00000
G1 X49.066 Y8.950 E6.06886 F600.000
G1 X50.112 Y8.071 E6.13771
G1 X51.060 Y7.874 E6.18647
G1 X122.460 Y7.874 E9.78310
G1 X123.770 Y8.266 E9.85196
G1 X124.649 Y9.312 E9.92081 F600.000
G1 X124.846 Y10.260 E9.96957
G1 X124.846 Y20.260 E10.47330
G1 X124.454 Y21.570 E10.54215
G1 X122.906 Y22.603 E10.63591
G1 X107.206 Y25.593 E11.44098
G1 X106.760 Y25.636 E11.46356
G1 X66.760 Y25.636 E13.47848
G1 X66.314 Y25.593 E13.50107
G1 X50.614 Y22.603 E14.30614
G1 X49.400 Y21.974 E14.37499
G1 X48.674 Y20.260 E14.46875
G1 X48.674 Y10.320 E14.96946
G1 E8.96946 F1800.00000
G92 E0
G1 X115.603 Y15.911 F9000.000
G1 E6.00000 F1800.00000
G1 X115.522 Y15.630 E6.01475 F600.000
G1 X115.487 Y15.260 E6.03346
G1 X115.522 Y14.890 E6.05217
G1 X115.625 Y14.534 E6.07087
G1 X115.794 Y14.203 E6.08958
G1 X116.022 Y13.909 E6.10829
G1 X116.300 Y13.664 E6.12700
G1 X116.620 Y13.474 E6.14571
G1 X116.978 Y13.345 E6.16489
G1 X117.445 Y13.286 E6.18861 F600.000
G1 X117.829 Y13.321 E6.20804
G1 X118.186 Y13.425 E6.22678
G1 X118.517 Y13.594 E6.24549
G1 X118.811 Y13.821 E6.26420
G1 X119.057 Y14.101 E6.28294
G1 X119.253 Y14.433 E6.30237
G1 X119.398 Y14.881 E6.32609
G1 X119.434 Y15.270 E6.34575
G1 X119.375 Y15.742 E6.36972
G1 X119.246 Y16.100 E6.38892
G1 X119.056 Y16.420 E6.40763
G1 X118.811 Y16.699 E6.42634
G1 X118.517 Y16.926 E6.44505
G1 X118.186 Y17.095 E6.46376
G1 X117.830 Y17.198 E6.48247
G1 X117.460 Y17.233 E6.50117
G1 X117.090 Y17.198 E6.51988
G1 X116.734 Y17.095 E6.53859
G1 X116.402 Y16.926 E6.55733
G1 X116.098 Y16.689 E6.57676
G1 X115.798 Y16.326 E6.60048
G1 X115.620 Y15.969 E6.62058
G1 X115.974 Y15.803 F9000.000
G1 X115.902 Y15.557 E6.63350 F600.000
G1 X115.874 Y15.260 E6.64853
G1 X115.902 Y14.963 E6.66357
G1 X115.985 Y14.676 E6.67861
G1 X116.121 Y14.410 E6.69364
G1 X116.304 Y14.174 E6.70868
G1 X116.528 Y13.977 E6.72372
G1 X116.785 Y13.825 E6.73875
G1 X117.069 Y13.723 E6.75397
G1 X117.452 Y13.674 E6.77341 F600.000
G1 X117.757 Y13.702 E6.78885
G1 X118.044 Y13.785 E6.80390
G1 X118.310 Y13.921 E6.81893
G1 X118.546 Y14.104 E6.83397
G1 X118.743 Y14.328 E6.84902
G1 X118.899 Y14.592 E6.86446
G1 X119.018 Y14.959 E6.88391
G1 X119.046 Y15.264 E6.89930
G1 X118.997 Y15.651 E6.91897
G1 X118.895 Y15.935 E6.93419
G1 X118.743 Y16.192 E6.94923
G1 X118.546 Y16.416 E6.96427
G1 X118.310 Y16.599 E6.97930
G1 X118.044 Y16.735 E6.99434
G1 X117.757 Y16.818 E7.00938
G1 X117.460 Y16.846 E7.02441
G1 X117.163 Y16.818 E7.03945
G1 X116.876 Y16.735 E7.05448
G1 X116.610 Y16.599 E7.06953
G1 X116.368 Y16.411 E7.08497
G1 X116.122 Y16.113 E7.10442
G1 X115.993 Y15.860 E7.11873
G1 X115.722 Y15.756 F9000.000
G1 E1.11873 F1800.00000
G92 E0
G1 X58.029 Y15.136 F9000.000
G1 E6.00000 F1800.00000
G1 X58.018 Y15.507 E6.01871 F600.000
G1 X57.937 Y15.870 E6.03742
G1 X57.789 Y16.211 E6.05612
G1 X57.575 Y16.526 E6.07533
G1 X57.228 Y16.852 E6.09929
G1 X56.900 Y17.046 E6.11849
G1 X56.551 Y17.171 E6.13720
G1 X56.192 Y17.228 E6.15552
G1 X55.864 Y17.226 E6.17203
G1 X55.452 Y17.138 E6.19322
G1 X55.100 Y16.985 E6.21254
G1 X54.716 Y16.706 E6.23651
G1 X54.464 Y16.420 E6.25570
G1 X54.274 Y16.100 E6.27441
G1 X54.149 Y15.751 E6.29313
G1 X54.091 Y15.384 E6.31183
G1 X54.102 Y15.013 E6.33054
G1 X54.183 Y14.650 E6.34925
G1 X54.331 Y14.309 E6.36799
G1 X54.548 Y13.990 E6.38742
G1 X54.892 Y13.668 E6.41114
G1 X55.220 Y13.474 E6.43032
G1 X55.569 Y13.349 E6.44903
G1 X55.936 Y13.291 E6.46774 F600.000
G1 X56.307 Y13.302 E6.48645
G1 X56.670 Y13.383 E6.50516
G1 X57.020 Y13.535 E6.52435
G1 X57.404 Y13.814 E6.54832
G1 X57.656 Y14.100 E6.56752
G1 X57.846 Y14.420 E6.58623
G1 X57.971 Y14.769 E6.60494
G1 X58.020 Y15.077 E6.62062
G1 X57.643 Y15.160 F9000.000
G1 X57.634 Y15.459 E6.63566 F600.000
G1 X57.568 Y15.750 E6.65070
G1 X57.450 Y16.024 E6.66573
G1 X57.280 Y16.274 E6.68095
G1 X56.995 Y16.541 E6.70062
G1 X56.735 Y16.695 E6.71584
G1 X56.454 Y16.796 E6.73088
G1 X56.162 Y16.842 E6.74577
G1 X55.906 Y16.841 E6.75869
G1 X55.571 Y16.769 E6.77596
G1 X55.293 Y16.648 E6.79123
G1 X54.977 Y16.419 E6.81090
G1 X54.777 Y16.192 E6.82612
G1 X54.625 Y15.935 E6.84116
G1 X54.524 Y15.654 E6.85619
G1 X54.477 Y15.360 E6.87123
G1 X54.486 Y15.061 E6.88627
G1 X54.552 Y14.770 E6.90130
G1 X54.670 Y14.496 E6.91635
G1 X54.843 Y14.243 E6.93179
G1 X55.125 Y13.979 E6.95124
G1 X55.385 Y13.825 E6.96645
G1 X55.666 Y13.724 E6.98149
G1 X55.960 Y13.677 E6.99652 F600.000
G1 X56.259 Y13.686 E7.01156
G1 X56.550 Y13.752 E7.02660
G1 X56.827 Y13.872 E7.04181
G1 X57.143 Y14.101 E7.06149
G1 X57.343 Y14.328 E7.07671
G1 X57.495 Y14.585 E7.09174
G1 X57.596 Y14.866 E7.10678
G1 X57.633 Y15.101 E7.11879
G1 X57.906 Y15.301 F9000.000
G1 X60.449 Y15.871 F9000.000
G1 X113.071 Y15.871 E9.76949 F600.000
G1 X113.071 Y10.871 E10.02135
G1 X121.849 Y10.871 E10.46356
G1 X121.849 Y19.649 E10.90578
G1 X106.149 Y19.649 E11.69663
G1 X106.149 Y22.639 E11.84725
G1 X67.371 Y22.639 E13.80065
G1 X67.371 Y19.649 E13.95127
G1 X51.671 Y19.649 E14.74212
G1 X51.671 Y10.871 E15.18434
G1 X60.449 Y10.871 E15.62655
G1 X60.449 Y15.811 E15.87539
G1 X60.835 Y15.485 F9000.000
G1 X112.685 Y15.485 E18.48723 F600.000
G1 X112.685 Y10.485 E18.73910
G1 X122.235 Y10.485 E19.22016
G1 X122.235 Y20.035 E19.70122
G1 X106.535 Y20.035 E20.49208
G1 X106.535 Y23.025 E20.64270
G1 X66.985 Y23.025 E22.63495
G1 X66.985 Y20.035 E22.78556
G1 X51.285 Y20.035 E23.57642
G1 X51.285 Y10.485 E24.05748
G1 X60.835 Y10.485 E24.53855
G1 X60.835 Y15.425 E24.78739
G1 X60.835 Y15.885 F9000.000
G1 X60.166 Y15.843 F9000.000
G1 X55.477 Y11.154 E25.12368 F600.000
G1 X56.026 Y11.154 E25.15152
G1 X60.166 Y15.294 E25.44844
G1 X60.166 Y14.745 E25.47628
G1 X56.575 Y11.154 E25.73382
G1 X57.124 Y11.154 E25.76166
G1 X60.166 Y14.196 E25.97982
G1 X60.166 Y13.647 E26.00767
G1 X57.673 Y11.154 E26.18645
G1 X58.222 Y11.154 E26.21429
G1 X60.166 Y13.098 E26.35369
G1 X60.166 Y12.549 E26.38154
G1 X58.771 Y11.154 E26.48156
G1 X59.320 Y11.154 E26.50941
G1 X60.166 Y12.000 E26.57005
G1 X60.166 Y11.451 E26.59790
G1 X59.869 Y11.154 E26.61917
G1 X56.907 Y13.134 F9000.000
G1 X54.928 Y11.154 E26.76115 F600.000
G1 X54.379 Y11.154 E26.78899
G1 X56.238 Y13.013 E26.92232
G1 X55.724 Y13.049 E26.94844
G1 X53.830 Y11.154 E27.08430
G1 X53.281 Y11.154 E27.11215
G1 X55.296 Y13.170 E27.25669
G1 X54.929 Y13.352 E27.27747
G1 X52.731 Y11.154 E27.43507
G1 X52.182 Y11.154 E27.46292
G1 X54.614 Y13.586 E27.63732
G1 X54.335 Y13.856 E27.65701
G1 X51.954 Y11.475 E27.82775
G1 X51.954 Y12.024 E27.85559
G1 X54.112 Y14.182 E28.01036
G1 X53.941 Y14.560 E28.03139
G1 X51.954 Y12.574 E28.17388
G1 X51.954 Y13.123 E28.20172
G1 X53.831 Y14.999 E28.33629
G1 X53.812 Y15.530 E28.36322
G1 X51.954 Y13.672 E28.49647
G1 X51.954 Y14.221 E28.52432
G1 X53.997 Y16.263 E28.67080
G1 X55.049 Y17.315 F9000.000
G1 X57.099 Y19.366 E28.81787 F600.000
G1 X57.648 Y19.366 E28.84572
G1 X55.793 Y17.510 E28.97880
G1 X56.316 Y17.484 E29.00536
G1 X58.197 Y19.366 E29.14031
G1 X58.746 Y19.366 E29.16815
G1 X56.756 Y17.375 E29.31093
G1 X57.133 Y17.203 E29.33194
G1 X59.296 Y19.366 E29.48707
G1 X59.845 Y19.366 E29.51491
G1 X57.458 Y16.979 E29.68609
G1 X57.741 Y16.713 E29.70579
G1 X60.394 Y19.366 E29.89604
G1 X60.943 Y19.366 E29.92388
G1 X57.970 Y16.393 E30.13708
G1 X58.151 Y16.025 E30.15789
G1 X61.492 Y19.366 E30.39749
G1 X62.041 Y19.366 E30.42534
G1 X58.272 Y15.597 E30.69562
G1 X58.312 Y15.088 E30.72151
G1 X62.590 Y19.366 E31.02829
G1 X63.139 Y19.366 E31.05613
G1 X58.175 Y14.402 E31.41211
G1 X60.477 Y16.154 F9000.000
G1 X63.688 Y19.366 E31.64242 F600.000
G1 X64.237 Y19.366 E31.67026
G1 X61.026 Y16.154 E31.90057
G1 X61.575 Y16.154 E31.92841
G1 X64.786 Y19.366 E32.15872
G1 X65.335 Y19.366 E32.18657
G1 X62.124 Y16.154 E32.41688
G1 X62.673 Y16.154 E32.44472
G1 X65.884 Y19.366 E32.67503
G1 X66.433 Y19.366 E32.70287
G1 X63.222 Y16.154 E32.93318
G1 X63.771 Y16.154 E32.96102
G1 X66.982 Y19.366 E33.19133
G1 X68.325 Y22.356 F9000.000
G1 X67.654 Y21.685 E33.23943 F600.000
G1 X67.654 Y21.136 E33.26727
G1 X68.874 Y22.356 E33.35474
G1 X69.423 Y22.356 E33.38259
G1 X67.654 Y20.587 E33.50944
G1 X67.654 Y20.038 E33.53728
G1 X69.972 Y22.356 E33.70351
G1 X70.521 Y22.356 E33.73135
G1 X64.320 Y16.154 E34.17611
G1 X64.869 Y16.154 E34.20395
G1 X71.070 Y22.356 E34.64871
G1 X71.619 Y22.356 E34.67655
G1 X65.418 Y16.154 E35.12130
G1 X65.967 Y16.154 E35.14915
G1 X72.168 Y22.356 E35.59390
G1 X72.717 Y22.356 E35.62175
G1 X66.516 Y16.154 E36.06650
G1 X67.065 Y16.154 E36.09434
G1 X73.266 Y22.356 E36.53910
G1 X73.815 Y22.356 E36.56694
G1 X67.614 Y16.154 E37.01170
G1 X68.163 Y16.154 E37.03954
G1 X74.364 Y22.356 E37.48430
G1 X74.914 Y22.356 E37.51214
G1 X68.712 Y16.154 E37.95689
G1 X69.261 Y16.154 E37.98474
G1 X75.463 Y22.356 E38.42949
G1 X76.012 Y22.356 E38.45734
G1 X69.810 Y16.154 E38.90209
G1 X70.359 Y16.154 E38.92993
G1 X76.561 Y22.356 E39.37469
G1 X77.110 Y22.356 E39.40253
G1 X70.909 Y16.154 E39.84729
G1 X71.458 Y16.154 E39.87513
G1 X77.659 Y22.356 E40.31988
G1 X78.208 Y22.356 E40.34773
G1 X72.007 Y16.154 E40.79248
G1 X72.556 Y16.154 E40.82033
G1 X78.757 Y22.356 E41.26508
G1 X79.306 Y22.356 E41.29293
G1 X73.105 Y16.154 E41.73768
G1 X73.654 Y16.154 E41.76552
G1 X79.855 Y22.356 E42.21028
G1 X80.404 Y22.356 E42.23812
G1 X74.203 Y16.154 E42.68288
G1 X74.752 Y16.154 E42.71072
G1 X80.953 Y22.356 E43.15547
G1 X81.502 Y22.356 E43.18332
G1 X75.301 Y16.154 E43.62807
G1 X75.850 Y16.154 E43.65592
G1 X82.051 Y22.356 E44.10067
G1 X82.600 Y22.356 E44.12852
G1 X76.399 Y16.154 E44.57327
G1 X76.948 Y16.154 E44.60111
G1 X83.149 Y22.356 E45.04587
G1 X83.698 Y22.356 E45.07371
G1 X77.497 Y16.154 E45.51847
G1 X78.046 Y16.154 E45.54631
G1 X84.247 Y22.356 E45.99106
G1 X84.796 Y22.356 E46.01891
G1 X78.595 Y16.154 E46.46366
G1 X79.144 Y16.154 E46.49151
G1 X85.345 Y22.356 E46.93626
G1 X85.894 Y22.356 E46.96411
G1 X79.693 Y16.154 E47.40886
G1 X80.242 Y16.154 E47.43670
G1 X86.443 Y22.356 E47.88146
G1 X86.992 Y22.356 E47.90930
G1 X80.791 Y16.154 E48.35406
G1 X81.340 Y16.154 E48.38190
G1 X87.542 Y22.356 E48.82665
G1 X88.091 Y22.356 E48.85450
G1 X81.889 Y16.154 E49.29925
G1 X82.438 Y16.154 E49.32710
G1 X88.640 Y22.356 E49.77185
G1 X89.189 Y22.356 E49.79970
G1 X82.987 Y16.154 E50.24445
G1 X83.537 Y16.154 E50.27229
G1 X89.738 Y22.356 E50.71705
G1 X90.287 Y22.356 E50.74489
G1 X84.086 Y16.154 E51.18965
G1 X84.635 Y16.154 E51.21749
G1 X90.836 Y22.356 E51.66224
G1 X91.385 Y22.356 E51.69009
G1 X85.184 Y16.154 E52.13484
G1 X85.733 Y16.154 E52.16269
G1 X91.934 Y22.356 E52.60744
G1 X92.483 Y22.356 E52.63528
G1 X86.282 Y16.154 E53.08004
G1 X86.831 Y16.154 E53.10788
G1 X93.032 Y22.356 E53.55264
G1 X93.581 Y22.356 E53.58048
G1 X87.380 Y16.154 E54.02524
G1 X87.929 Y16.154 E54.05308
G1 X94.130 Y22.356 E54.49783
G1 X94.679 Y22.356 E54.52568
G1 X88.478 Y16.154 E54.97043
G1 X89.027 Y16.154 E54.99828
G1 X95.228 Y22.356 E55.44303
G1 X95.777 Y22.356 E55.47087
G1 X89.576 Y16.154 E55.91563
G1 X90.125 Y16.154 E55.94347
G1 X96.326 Y22.356 E56.38823
G1 X96.875 Y22.356 E56.41607
G1 X90.674 Y16.154 E56.86083
G1 X91.223 Y16.154 E56.88867
G1 X97.424 Y22.356 E57.33342
G1 X97.973 Y22.356 E57.36127
G1 X91.772 Y16.154 E57.80602
G1 X92.321 Y16.154 E57.83387
G1 X98.522 Y22.356 E58.27862
G1 X99.071 Y22.356 E58.30646
G1 X92.870 Y16.154 E58.75122
G1 X93.419 Y16.154 E58.77906
G1 X99.620 Y22.356 E59.22382
G1 X100.170 Y22.356 E59.25166
G1 X93.968 Y16.154 E59.69642
G1 X94.517 Y16.154 E59.72426
G1 X100.719 Y22.356 E60.16901
G1 X101.268 Y22.356 E60.19686
G1 X95.066 Y16.154 E60.64161
G1 X95.616 Y16.154 E60.66946
G1 X101.817 Y22.356 E61.11421
G1 X102.366 Y22.356 E61.14206
G1 X96.165 Y16.154 E61.58681
G1 X96.714 Y16.154 E61.61465
G1 X102.915 Y22.356 E62.05941
G1 X103.464 Y22.356 E62.08725
G1 X97.263 Y16.154 E62.53201
G1 X97.812 Y16.154 E62.55985
G1 X104.013 Y22.356 E63.00460
G1 X104.562 Y22.356 E63.03245
G1 X98.361 Y16.154 E63.47720
G1 X98.910 Y16.154 E63.50505
G1 X105.111 Y22.356 E63.94980
G1 X105.660 Y22.356 E63.97764
G1 X99.459 Y16.154 E64.42240
G1 X100.008 Y16.154 E64.45024
G1 X105.866 Y22.012 E64.87037
G1 X105.866 Y21.463 E64.89821
G1 X100.557 Y16.154 E65.27895
G1 X101.106 Y16.154 E65.30680
G1 X105.866 Y20.914 E65.64816
G1 X105.866 Y20.365 E65.67601
G1 X101.655 Y16.154 E65.97800
G1 X102.204 Y16.154 E66.00584
G1 X105.866 Y19.816 E66.26845
G1 X105.964 Y19.366 E66.29183
G1 X102.753 Y16.154 E66.52214
G1 X103.302 Y16.154 E66.54999
G1 X106.513 Y19.366 E66.78029
G1 X107.062 Y19.366 E66.80814
G1 X103.851 Y16.154 E67.03845
G1 X104.400 Y16.154 E67.06629
G1 X107.611 Y19.366 E67.29660
G1 X108.160 Y19.366 E67.32444
G1 X104.949 Y16.154 E67.55475
G1 X105.498 Y16.154 E67.58260
G1 X108.709 Y19.366 E67.81290
G1 X109.259 Y19.366 E67.84075
G1 X106.047 Y16.154 E68.07106
G1 X106.596 Y16.154 E68.09890
G1 X109.808 Y19.366 E68.32921
G1 X110.357 Y19.366 E68.35705
G1 X107.145 Y16.154 E68.58736
G1 X107.694 Y16.154 E68.61521
G1 X110.906 Y19.366 E68.84551
G1 X111.455 Y19.366 E68.87336
G1 X108.244 Y16.154 E69.10367
G1 X108.793 Y16.154 E69.13151
G1 X112.004 Y19.366 E69.36182
G1 X112.553 Y19.366 E69.38966
G1 X109.342 Y16.154 E69.61997
G1 X109.891 Y16.154 E69.64782
G1 X113.102 Y19.366 E69.87812
G1 X113.651 Y19.366 E69.90597
G1 X110.440 Y16.154 E70.13628
G1 X110.989 Y16.154 E70.16412
G1 X114.200 Y19.366 E70.39443
G1 X114.749 Y19.366 E70.42227
G1 X111.538 Y16.154 E70.65258
G1 X112.087 Y16.154 E70.68043
G1 X115.298 Y19.366 E70.91074
G1 X115.847 Y19.366 E70.93858
G1 X112.636 Y16.154 E71.16889
G1 X113.185 Y16.154 E71.19673
G1 X116.396 Y19.366 E71.42704
G1 X116.945 Y19.366 E71.45488
G1 X113.354 Y15.775 E71.71241
G1 X113.354 Y15.226 E71.74026
G1 X117.494 Y19.366 E72.03717
G1 X118.043 Y19.366 E72.06501
G1 X113.354 Y14.677 E72.40130
G1 X113.354 Y14.128 E72.42914
G1 X115.339 Y16.112 E72.57149
G1 X115.210 Y15.434 E72.60650
G1 X113.354 Y13.579 E72.73959
G1 X113.354 Y13.030 E72.76743
G1 X115.241 Y14.917 E72.90277
G1 X115.363 Y14.489 E72.92531
G1 X113.354 Y12.481 E73.06937
G1 X113.354 Y11.932 E73.09721
G1 X115.547 Y14.124 E73.25446
G1 X115.781 Y13.809 E73.27436
G1 X113.354 Y11.383 E73.44843
G1 X113.675 Y11.154 E73.46839
G1 X116.061 Y13.540 E73.63952
G1 X116.387 Y13.317 E73.65956
G1 X114.224 Y11.154 E73.81468
G1 X114.773 Y11.154 E73.84253
G1 X116.764 Y13.145 E73.98531
G1 X117.208 Y13.040 E74.00844
G1 X115.322 Y11.154 E74.14366
G1 X115.872 Y11.154 E74.17150
G1 X117.737 Y13.020 E74.30531
G1 X118.461 Y13.195 E74.34309
G1 X116.421 Y11.154 E74.48944
G1 X116.970 Y11.154 E74.51729
G1 X121.566 Y15.750 E74.84691
G1 X121.566 Y15.201 E74.87476
G1 X117.519 Y11.154 E75.16501
G1 X118.068 Y11.154 E75.19285
G1 X121.566 Y14.652 E75.44372
G1 X121.566 Y14.103 E75.47157
G1 X118.617 Y11.154 E75.68306
G1 X119.166 Y11.154 E75.71090
G1 X121.566 Y13.554 E75.88302
G1 X121.566 Y13.005 E75.91086
G1 X119.715 Y11.154 E76.04360
G1 X120.264 Y11.154 E76.07144
G1 X121.566 Y12.456 E76.16480
G1 X121.566 Y11.907 E76.19265
G1 X120.813 Y11.154 E76.24663
G1 X121.362 Y11.154 E76.27447
G1 X121.566 Y11.358 E76.28908
G1 X119.525 Y14.259 F9000.000
G1 X121.566 Y16.299 E76.43541 F600.000
G1 X121.566 Y16.848 E76.46325
G1 X119.700 Y14.983 E76.59703
G1 X119.680 Y15.512 E76.62387
G1 X121.566 Y17.398 E76.75910
G1 X121.566 Y17.947 E76.78694
G1 X119.575 Y15.956 E76.92972
G1 X119.403 Y16.333 E76.95073
G1 X121.566 Y18.496 E77.10586
