; generated by Slic3r 1.2.9 on 2017-07-24 at 00:01:40

; external perimeters extrusion width = 0.40mm
; perimeters extrusion width = 0.62mm
; infill extrusion width = 0.33mm
; solid infill extrusion width = 0.62mm
; top infill extrusion width = 0.20mm

M106 S256; Turn on fan to 100% power
M104 S140; turn on extruder temperature at S value
M140 S60; turn on bed temperature at S value
G28; home all axes
M84; disable motors
G1 Z15 F15000; have Z move to 20mm at 15000 mm/min
M190 S55; turn on bed temperature at S value and wait
M140 S55; turn on bed temperature at S value (printing temperature)
M109 S200; turn on extruder temperature at S value and wait (printing temperature)
M104 S200; turn on extruder temperature at S value
G1 Z0 F12000; move Z back to home
G21 ; set units to millimeters
G90 ; use absolute coordinates
M82 ; use absolute distances for extrusion
G92 E0
M106 S255
;Layer change
G1 E-6.00000 F1800.00000
G92 E0
G1 Z0.300 F9000.000
G1 X52.569 Y63.170 F9000.000
G1 E6.00000 F1800.00000
G1 X53.625 Y62.301 E6.06806 F600.000
G1 X54.550 Y62.114 E6.11506
G1 X125.950 Y62.114 E9.66999
G1 X127.260 Y62.506 E9.73805
G1 X128.139 Y63.552 E9.80611 F600.000
G1 X128.336 Y64.500 E9.85430
G1 X128.336 Y115.500 E12.39354
G1 X127.944 Y116.810 E12.46159
G1 X126.898 Y117.689 E12.52965
G1 X125.950 Y117.886 E12.57784
G1 X54.050 Y117.886 E16.15767
G1 X52.740 Y117.494 E16.22573
G1 X51.861 Y116.448 E16.29379
G1 X51.664 Y115.500 E16.34197
G1 X51.665 Y113.476 E16.44276
G1 X52.165 Y64.476 E18.88255
G1 X52.552 Y63.227 E18.94762
G1 E12.94762 F1800.00000
G92 E0
G1 X114.025 Y92.225 F9000.000
G1 E6.00000 F1800.00000
G1 X114.025 Y85.275 E6.34603 F600.000
G1 X120.975 Y85.275 E6.69207
G1 X120.975 Y92.225 E7.03810
G1 X114.085 Y92.225 E7.38115
G1 X113.625 Y92.225 F9000.000
G1 X112.302 Y86.886 F9000.000
G1 X111.938 Y86.999 E7.40013 F600.000
G1 X111.646 Y87.026 E7.41471
G1 X111.274 Y86.979 E7.43341
G1 X111.000 Y86.881 E7.44789
G1 X110.753 Y86.735 E7.46219
G1 X110.538 Y86.545 E7.47649
G1 X110.362 Y86.318 E7.49079
G1 X110.231 Y86.062 E7.50508
G1 X110.151 Y85.786 E7.51939
G1 X110.124 Y85.500 E7.53369
G1 X110.151 Y85.214 E7.54799
G1 X110.231 Y84.938 E7.56229
G1 X110.362 Y84.682 E7.57659
G1 X110.538 Y84.455 E7.59089
G1 X110.753 Y84.265 E7.60519
G1 X111.000 Y84.119 E7.61949
G1 X111.274 Y84.021 E7.63396
G1 X111.638 Y83.974 E7.65223 F600.000
G1 X111.936 Y84.001 E7.66712
G1 X112.212 Y84.081 E7.68145
G1 X112.468 Y84.212 E7.69575
G1 X112.695 Y84.388 E7.71004
G1 X112.885 Y84.603 E7.72435
G1 X113.031 Y84.850 E7.73865
G1 X113.129 Y85.124 E7.75313
G1 X113.177 Y85.500 E7.77200
G1 X113.129 Y85.876 E7.79088
G1 X113.031 Y86.150 E7.80536
G1 X112.885 Y86.397 E7.81966
G1 X112.697 Y86.610 E7.83378
G1 X112.546 Y86.735 E7.84355
G1 X112.353 Y86.854 E7.85484
G1 X112.250 Y87.264 F9000.000
G1 E1.85484 F1800.00000
G92 E0
G1 X121.751 Y85.786 F9000.000
G1 E6.00000 F1800.00000
G1 X121.724 Y85.500 E6.01430 F600.000
G1 X121.751 Y85.214 E6.02860
G1 X121.831 Y84.938 E6.04290
G1 X121.962 Y84.682 E6.05720
G1 X122.138 Y84.455 E6.07150
G1 X122.353 Y84.265 E6.08580
G1 X122.600 Y84.119 E6.10010
G1 X122.874 Y84.021 E6.11457
G1 X123.238 Y83.974 E6.13284 F600.000
G1 X123.536 Y84.001 E6.14773
G1 X123.812 Y84.081 E6.16206
G1 X124.068 Y84.212 E6.17636
G1 X124.295 Y84.388 E6.19066
G1 X124.485 Y84.603 E6.20496
G1 X124.631 Y84.851 E6.21928
G1 X124.731 Y85.133 E6.23418
G1 X124.777 Y85.500 E6.25263
G1 X124.729 Y85.876 E6.27149
G1 X124.631 Y86.150 E6.28597
G1 X124.485 Y86.397 E6.30027
G1 X124.297 Y86.610 E6.31439
G1 X124.146 Y86.735 E6.32416
G1 X123.902 Y86.886 E6.33844
G1 X123.538 Y86.999 E6.35742
G1 X123.250 Y87.026 E6.37182
G1 X122.964 Y86.999 E6.38612
G1 X122.688 Y86.919 E6.40042
G1 X122.432 Y86.788 E6.41475
G1 X122.196 Y86.604 E6.42964
G1 X121.963 Y86.321 E6.44791
G1 X121.831 Y86.062 E6.46237
G1 X121.768 Y85.844 E6.47369
G1 X121.483 Y85.683 F9000.000
G1 X120.966 Y71.862 F9000.000
G1 X120.508 Y71.819 E6.49659 F600.000
G1 X120.081 Y71.695 E6.51871
G1 X119.684 Y71.493 E6.54088
G1 X119.317 Y71.207 E6.56404
G1 X118.964 Y70.778 E6.59171
G1 X118.755 Y70.369 E6.61459
G1 X118.631 Y69.942 E6.63670
G1 X118.589 Y69.500 E6.65883
G1 X118.631 Y69.058 E6.68095
G1 X118.755 Y68.631 E6.70307
G1 X118.957 Y68.235 E6.72519
G1 X119.229 Y67.884 E6.74731
G1 X119.562 Y67.590 E6.76943
G1 X119.945 Y67.364 E6.79156
G1 X120.377 Y67.208 E6.81444
G1 X120.928 Y67.138 E6.84210 F600.000
G1 X121.391 Y67.181 E6.86525
G1 X121.819 Y67.305 E6.88742
G1 X122.215 Y67.507 E6.90954
G1 X122.566 Y67.779 E6.93166
G1 X122.860 Y68.112 E6.95379
G1 X123.086 Y68.495 E6.97592
G1 X123.242 Y68.928 E6.99883
G1 X123.312 Y69.484 E7.02675
G1 X123.269 Y69.942 E7.04966
G1 X123.145 Y70.369 E7.07178
G1 X122.943 Y70.765 E7.09390
G1 X122.671 Y71.116 E7.11602
G1 X122.338 Y71.410 E7.13814
G1 X121.955 Y71.636 E7.16027
G1 X121.522 Y71.792 E7.18319
G1 X121.025 Y71.855 E7.20812
G1 X120.960 Y71.474 F9000.000
G1 X120.580 Y71.438 E7.22709 F600.000
G1 X120.224 Y71.335 E7.24558
G1 X119.892 Y71.166 E7.26411
G1 X119.588 Y70.929 E7.28332
G1 X119.288 Y70.566 E7.30676
G1 X119.115 Y70.226 E7.32572
G1 X119.012 Y69.870 E7.34421
G1 X118.977 Y69.500 E7.36270
G1 X119.012 Y69.130 E7.38119
G1 X119.115 Y68.774 E7.39968
G1 X119.284 Y68.443 E7.41818
G1 X119.512 Y68.149 E7.43667
G1 X119.790 Y67.904 E7.45516
G1 X120.110 Y67.714 E7.47365
G1 X120.468 Y67.585 E7.49261
G1 X120.935 Y67.526 E7.51605 F600.000
G1 X121.319 Y67.561 E7.53526
G1 X121.676 Y67.665 E7.55378
G1 X122.007 Y67.834 E7.57227
G1 X122.301 Y68.061 E7.59076
G1 X122.546 Y68.340 E7.60926
G1 X122.736 Y68.660 E7.62775
G1 X122.865 Y69.018 E7.64673
G1 X122.924 Y69.490 E7.67042
G1 X122.888 Y69.870 E7.68939
G1 X122.785 Y70.226 E7.70788
G1 X122.616 Y70.557 E7.72637
G1 X122.389 Y70.851 E7.74486
G1 X122.110 Y71.096 E7.76336
G1 X121.790 Y71.286 E7.78185
G1 X121.432 Y71.415 E7.80083
G1 X121.019 Y71.467 E7.82153
G1 X120.954 Y71.086 F9000.000
G1 X120.653 Y71.058 E7.83657 F600.000
G1 X120.366 Y70.975 E7.85143
G1 X120.100 Y70.839 E7.86630
G1 X119.858 Y70.651 E7.88156
G1 X119.612 Y70.353 E7.90079
G1 X119.475 Y70.084 E7.91582
G1 X119.392 Y69.797 E7.93068
G1 X119.364 Y69.500 E7.94554
G1 X119.392 Y69.203 E7.96041
G1 X119.475 Y68.916 E7.97527
G1 X119.611 Y68.650 E7.99013
G1 X119.794 Y68.414 E8.00499
G1 X120.018 Y68.217 E8.01986
G1 X120.275 Y68.065 E8.03472
G1 X120.559 Y67.963 E8.04976
G1 X120.942 Y67.914 E8.06898 F600.000
G1 X121.247 Y67.942 E8.08423
G1 X121.534 Y68.025 E8.09911
G1 X121.800 Y68.161 E8.11397
G1 X122.036 Y68.344 E8.12883
G1 X122.233 Y68.568 E8.14370
G1 X122.385 Y68.825 E8.15856
G1 X122.487 Y69.109 E8.17360
G1 X122.536 Y69.496 E8.19305
G1 X122.508 Y69.797 E8.20809
G1 X122.425 Y70.084 E8.22295
G1 X122.289 Y70.350 E8.23781
G1 X122.106 Y70.586 E8.25268
G1 X121.882 Y70.783 E8.26754
G1 X121.625 Y70.935 E8.28240
G1 X121.341 Y71.037 E8.29745
G1 X121.013 Y71.079 E8.31390
G1 X120.797 Y71.345 F9000.000
G1 X116.946 Y70.496 F9000.000
G1 X116.946 Y65.496 E8.56285 F600.000
G1 X124.954 Y65.496 E8.96154
G1 X124.954 Y83.923 E9.87897
G1 X124.483 Y83.557 E9.90865
G1 X124.097 Y83.361 E9.93020
G1 X123.679 Y83.239 E9.95187
G1 X123.223 Y83.198 E9.97468
G1 X122.692 Y83.267 E10.00135
G1 X122.270 Y83.418 E10.02364
G1 X121.898 Y83.639 E10.04520
G1 X121.573 Y83.925 E10.06676
G1 X121.307 Y84.267 E10.08832
G1 X121.187 Y84.504 E10.10154
G1 X113.722 Y84.504 E10.47321
G1 X113.511 Y84.148 E10.49381
G1 X113.225 Y83.823 E10.51537
G1 X112.883 Y83.557 E10.53693
G1 X112.497 Y83.361 E10.55848
G1 X112.079 Y83.239 E10.58015
G1 X111.623 Y83.198 E10.60296
G1 X111.092 Y83.267 E10.62963
G1 X110.670 Y83.418 E10.65193
G1 X110.246 Y83.669 E10.67646
G1 X110.246 Y70.496 E11.33233
G1 X116.886 Y70.496 E11.66293
G1 X116.561 Y70.111 F9000.000
G1 X116.561 Y65.111 E11.91187 F600.000
G1 X125.339 Y65.111 E12.34896
G1 X125.339 Y85.139 E13.34614
G1 X125.122 Y85.152 E13.35697
G1 X125.109 Y85.043 E13.36243
G1 X124.982 Y84.686 E13.38129
G1 X124.798 Y84.375 E13.39928
G1 X124.560 Y84.105 E13.41721
G1 X124.275 Y83.885 E13.43514
G1 X123.954 Y83.721 E13.45307
G1 X123.607 Y83.620 E13.47106
G1 X123.230 Y83.586 E13.48992
G1 X122.783 Y83.644 E13.51239
G1 X122.435 Y83.769 E13.53077
G1 X122.125 Y83.952 E13.54869
G1 X121.855 Y84.190 E13.56662
G1 X121.635 Y84.475 E13.58455
G1 X121.471 Y84.796 E13.60248
G1 X121.444 Y84.889 E13.60734
G1 X113.455 Y84.889 E14.00511
G1 X113.381 Y84.685 E14.01591
G1 X113.198 Y84.375 E14.03384
G1 X112.960 Y84.105 E14.05177
G1 X112.675 Y83.885 E14.06970
G1 X112.354 Y83.721 E14.08762
G1 X112.007 Y83.620 E14.10562
G1 X111.630 Y83.586 E14.12447
G1 X111.183 Y83.644 E14.14694
G1 X110.835 Y83.769 E14.16533
G1 X110.525 Y83.952 E14.18325
G1 X110.255 Y84.190 E14.20118
G1 X110.017 Y84.497 E14.22053
G1 X109.861 Y84.444 E14.22876
G1 X109.861 Y70.111 E14.94240
G1 X116.501 Y70.111 E15.27299
G1 E9.27299 F1800.00000
G92 E0
G1 X108.661 Y87.389 F9000.000
G1 E6.00000 F1800.00000
G1 X108.661 Y97.035 E6.48025 F600.000
G1 X108.760 Y97.442 E6.50113
G1 X108.818 Y97.806 E6.51947
G1 X108.862 Y98.500 E6.55408
G1 X108.818 Y99.194 E6.58870
G1 X108.760 Y99.558 E6.60704
G1 X108.661 Y99.965 E6.62792
G1 X108.661 Y108.611 E7.05838
G1 X87.361 Y108.611 E8.11888
G1 X87.361 Y110.111 E8.19356
G1 X74.139 Y110.111 E8.85184
G1 X74.139 Y108.611 E8.92652
G1 X70.639 Y108.611 E9.10078
G1 X70.639 Y107.087 E9.17662
G1 X70.250 Y107.112 E9.19605
G1 X69.547 Y107.068 E9.23114
G1 X68.854 Y106.936 E9.26623
G1 X68.184 Y106.718 E9.30130
G1 X67.570 Y106.429 E9.33509
G1 X67.236 Y106.233 E9.35438
G1 X66.673 Y105.824 E9.38904
G1 X66.159 Y105.342 E9.42413
G1 X65.710 Y104.799 E9.45921
G1 X65.332 Y104.204 E9.49430
G1 X65.036 Y103.575 E9.52891
G1 X64.914 Y103.234 E9.54694
G1 X64.813 Y102.886 E9.56497
G1 X64.682 Y102.203 E9.59958
G1 X64.638 Y101.500 E9.63467
G1 X64.682 Y100.797 E9.66976
G1 X64.814 Y100.104 E9.70485
G1 X65.029 Y99.443 E9.73945
G1 X65.337 Y98.788 E9.77549
G1 X65.705 Y98.210 E9.80962
G1 X65.933 Y97.916 E9.82813
G1 X66.402 Y97.416 E9.86226
G1 X66.681 Y97.170 E9.88076
G1 X67.235 Y96.767 E9.91489
G1 X67.555 Y96.578 E9.93340
G1 X68.175 Y96.286 E9.96753
G1 X68.525 Y96.160 E9.98604
G1 X69.189 Y95.990 E10.02017
G1 X69.556 Y95.932 E10.03867
G1 X70.250 Y95.888 E10.07328
G1 X70.639 Y95.913 E10.09271
G1 X70.639 Y87.240 E10.52449
G1 X70.317 Y87.357 E10.54157
G1 X69.850 Y87.415 E10.56499
G1 X69.383 Y87.357 E10.58841
G1 X69.035 Y87.231 E10.60683
G1 X68.725 Y87.048 E10.62475
G1 X68.455 Y86.810 E10.64269
G1 X68.235 Y86.525 E10.66061
G1 X68.138 Y86.336 E10.67120
G1 X67.961 Y86.378 E10.68028
G1 X67.961 Y92.611 E10.99058
G1 X60.239 Y92.611 E11.37502
G1 X60.239 Y86.163 E11.69602
G1 X60.048 Y86.130 E11.70570
G1 X59.981 Y86.315 E11.71549
G1 X59.798 Y86.625 E11.73341
G1 X59.560 Y86.895 E11.75134
G1 X59.275 Y87.115 E11.76927
G1 X58.954 Y87.279 E11.78720
G1 X58.609 Y87.379 E11.80513
G1 X58.240 Y87.414 E11.82355
G1 X57.783 Y87.357 E11.84648
G1 X57.435 Y87.231 E11.86490
G1 X57.125 Y87.048 E11.88283
G1 X56.855 Y86.810 E11.90076
G1 X56.635 Y86.525 E11.91869
G1 X56.471 Y86.204 E11.93661
G1 X56.371 Y85.859 E11.95455
G1 X56.337 Y85.500 E11.97248
G1 X56.371 Y85.141 E11.99041
G1 X56.471 Y84.796 E12.00834
G1 X56.635 Y84.475 E12.02627
G1 X56.855 Y84.190 E12.04420
G1 X57.125 Y83.952 E12.06213
G1 X57.435 Y83.769 E12.08006
G1 X57.783 Y83.644 E12.09844
G1 X58.230 Y83.586 E12.12091
G1 X58.607 Y83.620 E12.13976
G1 X58.954 Y83.721 E12.15776
G1 X59.275 Y83.885 E12.17568
G1 X59.560 Y84.105 E12.19361
G1 X59.798 Y84.375 E12.21154
G1 X59.981 Y84.685 E12.22947
G1 X60.055 Y84.889 E12.24027
G1 X68.044 Y84.889 E12.63804
G1 X68.071 Y84.796 E12.64290
G1 X68.235 Y84.475 E12.66083
G1 X68.455 Y84.190 E12.67876
G1 X68.725 Y83.952 E12.69669
G1 X69.035 Y83.769 E12.71461
G1 X69.383 Y83.644 E12.73299
G1 X69.830 Y83.586 E12.75546
G1 X70.207 Y83.620 E12.77432
G1 X70.554 Y83.721 E12.79231
G1 X70.875 Y83.885 E12.81024
G1 X71.160 Y84.105 E12.82817
G1 X71.398 Y84.375 E12.84610
G1 X71.581 Y84.685 E12.86403
G1 X71.707 Y85.033 E12.88244
G1 X71.764 Y85.490 E12.90538
G1 X71.729 Y85.859 E12.92379
G1 X71.629 Y86.204 E12.94173
G1 X71.465 Y86.525 E12.95965
G1 X71.245 Y86.810 E12.97758
G1 X70.975 Y87.048 E12.99551
G1 X70.685 Y87.219 E13.01225
G1 X70.732 Y87.389 E13.02104
G1 X72.140 Y87.389 E13.09115
G1 X72.147 Y78.807 E13.51845
G1 X72.216 Y78.502 E13.53404
G1 X72.344 Y78.205 E13.55014
G1 X72.630 Y77.836 E13.57340
G1 X72.886 Y77.638 E13.58947
G1 X73.156 Y77.500 E13.60459
G1 X73.448 Y77.415 E13.61971
G1 X73.722 Y77.389 E13.63342
G1 X74.881 Y77.392 E13.69112
G1 X75.336 Y77.493 E13.71435
G1 X75.700 Y77.693 E13.73501
G1 X75.995 Y77.970 E13.75517
G1 X76.212 Y78.312 E13.77532
G1 X76.334 Y78.688 E13.79500
G1 X76.361 Y78.971 E13.80917
G1 X76.361 Y87.389 E14.22830
G1 X108.601 Y87.389 E15.83350
G1 X108.275 Y87.775 F9000.000
G1 X108.275 Y97.082 E16.29686 F600.000
G1 X108.382 Y97.519 E16.31927
G1 X108.434 Y97.849 E16.33590
G1 X108.475 Y98.500 E16.36840
G1 X108.434 Y99.151 E16.40090
G1 X108.382 Y99.481 E16.41753
G1 X108.275 Y99.918 E16.43993
G1 X108.275 Y108.225 E16.85351
G1 X86.975 Y108.225 E17.91402
G1 X86.975 Y109.725 E17.98870
G1 X74.525 Y109.725 E18.60857
G1 X74.525 Y108.225 E18.68326
G1 X71.025 Y108.225 E18.85752
G1 X71.025 Y106.677 E18.93460
G1 X70.250 Y106.725 E18.97327
G1 X69.595 Y106.684 E19.00594
G1 X68.950 Y106.561 E19.03862
G1 X68.326 Y106.359 E19.07128
G1 X67.750 Y106.088 E19.10298
G1 X67.448 Y105.910 E19.12046
G1 X66.919 Y105.526 E19.15297
G1 X66.441 Y105.077 E19.18564
G1 X66.023 Y104.571 E19.21832
G1 X65.671 Y104.017 E19.25099
G1 X65.393 Y103.427 E19.28348
G1 X65.188 Y102.796 E19.31650
G1 X65.066 Y102.155 E19.34900
G1 X65.025 Y101.500 E19.38167
G1 X65.066 Y100.845 E19.41435
G1 X65.189 Y100.200 E19.44702
G1 X65.390 Y99.580 E19.47951
G1 X65.522 Y99.275 E19.49604
G1 X65.673 Y98.980 E19.51256
G1 X66.021 Y98.432 E19.54487
G1 X66.226 Y98.167 E19.56157
G1 X66.671 Y97.693 E19.59389
G1 X66.922 Y97.472 E19.61059
G1 X67.447 Y97.090 E19.64290
G1 X67.736 Y96.919 E19.65960
G1 X68.323 Y96.643 E19.69192
G1 X68.639 Y96.529 E19.70861
G1 X69.267 Y96.368 E19.74093
G1 X69.599 Y96.316 E19.75763
G1 X70.250 Y96.275 E19.79013
G1 X71.025 Y96.323 E19.82879
G1 X71.025 Y87.775 E20.25440
G1 X72.525 Y87.775 E20.32909
G1 X72.533 Y78.850 E20.77347
G1 X72.584 Y78.621 E20.78513
G1 X72.679 Y78.403 E20.79698
G1 X72.905 Y78.111 E20.81539
G1 X73.093 Y77.965 E20.82723
G1 X73.299 Y77.860 E20.83872
G1 X73.520 Y77.796 E20.85021
G1 X73.740 Y77.775 E20.86118
G1 X74.838 Y77.777 E20.91586
G1 X75.198 Y77.858 E20.93426
G1 X75.471 Y78.008 E20.94975
G1 X75.695 Y78.218 E20.96506
G1 X75.860 Y78.478 E20.98037
G1 X75.954 Y78.767 E20.99550
G1 X75.975 Y78.989 E21.00664
G1 X75.975 Y87.775 E21.44406
G1 X108.215 Y87.775 E23.04926
G1 X108.675 Y87.775 F9000.000
G1 E17.04926 F1800.00000
G92 E0
G1 X71.376 Y85.496 F9000.000
G1 E6.00000 F1800.00000
G1 X71.349 Y85.786 E6.01448 F600.000
G1 X71.269 Y86.062 E6.02878
G1 X71.138 Y86.318 E6.04308
G1 X70.962 Y86.545 E6.05738
G1 X70.747 Y86.735 E6.07168
G1 X70.500 Y86.881 E6.08598
G1 X70.226 Y86.979 E6.10046
G1 X69.850 Y87.027 E6.11934
G1 X69.474 Y86.979 E6.13821
G1 X69.200 Y86.881 E6.15269
G1 X68.953 Y86.735 E6.16699
G1 X68.738 Y86.545 E6.18129
G1 X68.562 Y86.318 E6.19559
G1 X68.431 Y86.062 E6.20989
G1 X68.351 Y85.786 E6.22419
G1 X68.324 Y85.500 E6.23849
G1 X68.351 Y85.214 E6.25279
G1 X68.431 Y84.938 E6.26710
G1 X68.562 Y84.682 E6.28140
G1 X68.738 Y84.455 E6.29569
G1 X68.953 Y84.265 E6.31000
G1 X69.200 Y84.119 E6.32429
G1 X69.474 Y84.021 E6.33876
G1 X69.838 Y83.974 E6.35703 F600.000
G1 X70.136 Y84.001 E6.37193
G1 X70.412 Y84.081 E6.38625
G1 X70.668 Y84.212 E6.40055
G1 X70.895 Y84.388 E6.41485
G1 X71.085 Y84.603 E6.42915
G1 X71.231 Y84.850 E6.44345
G1 X71.329 Y85.124 E6.45793
G1 X71.369 Y85.437 E6.47364
G1 X71.625 Y85.647 F9000.000
G1 E0.47364 F1800.00000
G92 E0
G1 X67.575 Y85.275 F9000.000
G1 E6.00000 F1800.00000
G1 X67.575 Y92.225 E6.34603 F600.000
G1 X60.625 Y92.225 E6.69207
G1 X60.625 Y85.275 E7.03810
G1 X67.515 Y85.275 E7.38115
G1 X67.975 Y85.275 F9000.000
G1 X59.777 Y85.500 F9000.000
G1 X59.729 Y85.876 E7.40002 F600.000
G1 X59.631 Y86.150 E7.41450
G1 X59.485 Y86.397 E7.42880
G1 X59.295 Y86.612 E7.44310
G1 X59.068 Y86.788 E7.45740
G1 X58.812 Y86.919 E7.47170
G1 X58.536 Y86.999 E7.48600
