; generated by Slic3r 1.2.9 on 2017-07-07 at 12:09:33

; external perimeters extrusion width = 0.40mm
; perimeters extrusion width = 0.62mm
; infill extrusion width = 0.33mm
; solid infill extrusion width = 0.62mm
; top infill extrusion width = 0.20mm

M106 S256; Turn on fan to 100% power
M104 S140; turn on extruder temperature at S value
M140 S60; turn on bed temperature at S value
G28; home all axes
M84; disable motors
G1 Z15 F15000; have Z move to 20mm at 15000 mm/min
M190 S55; turn on bed temperature at S value and wait
M140 S55; turn on bed temperature at S value (printing temperature)
M109 S200; turn on extruder temperature at S value and wait (printing temperature)
M104 S200; turn on extruder temperature at S value
G1 Z0 F12000; move Z back to home
G21 ; set units to millimeters
G90 ; use absolute coordinates
M82 ; use absolute distances for extrusion
G92 E0
M106 S255
;Layer change
G1 E-6.00000 F1800.00000
G92 E0
G1 Z0.300 F9000.000
G1 X52.056 Y53.690 F9000.000
G1 E6.00000 F1800.00000
G1 X53.102 Y52.811 E6.06806 F600.000
G1 X54.050 Y52.614 E6.11625
G1 X125.450 Y52.614 E9.67118
G1 X126.760 Y53.006 E9.73924 F600.000
G1 X127.639 Y54.052 E9.80730
G1 X127.835 Y54.937 E9.85242
G1 X128.336 Y74.000 E10.80186
G1 X128.336 Y125.000 E13.34110
G1 X127.944 Y126.310 E13.40916
G1 X126.898 Y127.189 E13.47722
G1 X125.950 Y127.386 E13.52541
G1 X54.050 Y127.386 E17.10524
G1 X52.740 Y126.994 E17.17330
G1 X51.861 Y125.948 E17.24135
G1 X51.664 Y125.000 E17.28954
G1 X51.664 Y55.000 E20.77477
G1 X52.039 Y53.748 E20.83984
G1 E14.83984 F1800.00000
G92 E0
G1 X114.025 Y101.725 F9000.000
G1 E6.00000 F1800.00000
G1 X114.025 Y94.775 E6.34603 F600.000
G1 X120.975 Y94.775 E6.69207
G1 X120.975 Y101.725 E7.03810
G1 X114.085 Y101.725 E7.38115
G1 X113.625 Y101.725 F9000.000
G1 X112.302 Y96.386 F9000.000
G1 X111.938 Y96.499 E7.40013 F600.000
G1 X111.646 Y96.526 E7.41471
G1 X111.274 Y96.479 E7.43341
G1 X111.000 Y96.381 E7.44789
G1 X110.753 Y96.235 E7.46219
G1 X110.538 Y96.045 E7.47649
G1 X110.362 Y95.818 E7.49079
G1 X110.231 Y95.562 E7.50508
G1 X110.151 Y95.286 E7.51939
G1 X110.124 Y95.000 E7.53369
G1 X110.151 Y94.714 E7.54799
G1 X110.231 Y94.438 E7.56229
G1 X110.362 Y94.182 E7.57659
G1 X110.538 Y93.955 E7.59089
G1 X110.753 Y93.765 E7.60519
G1 X111.000 Y93.619 E7.61949
G1 X111.274 Y93.521 E7.63396
G1 X111.638 Y93.474 E7.65223 F600.000
G1 X111.936 Y93.501 E7.66712
G1 X112.212 Y93.581 E7.68145
G1 X112.468 Y93.712 E7.69575
G1 X112.695 Y93.888 E7.71004
G1 X112.885 Y94.103 E7.72435
G1 X113.031 Y94.350 E7.73865
G1 X113.129 Y94.624 E7.75313
G1 X113.177 Y95.000 E7.77200
G1 X113.129 Y95.376 E7.79088
G1 X113.031 Y95.650 E7.80536
G1 X112.885 Y95.897 E7.81966
G1 X112.697 Y96.110 E7.83378
G1 X112.546 Y96.235 E7.84355
G1 X112.353 Y96.354 E7.85484
G1 X112.250 Y96.764 F9000.000
G1 E1.85484 F1800.00000
G92 E0
G1 X121.751 Y95.286 F9000.000
G1 E6.00000 F1800.00000
G1 X121.724 Y95.000 E6.01430 F600.000
G1 X121.751 Y94.714 E6.02860
G1 X121.831 Y94.438 E6.04290
G1 X121.962 Y94.182 E6.05720
G1 X122.138 Y93.955 E6.07150
G1 X122.353 Y93.765 E6.08580
G1 X122.600 Y93.619 E6.10010
G1 X122.874 Y93.521 E6.11457
G1 X123.238 Y93.474 E6.13284 F600.000
G1 X123.536 Y93.501 E6.14773
G1 X123.812 Y93.581 E6.16206
G1 X124.068 Y93.712 E6.17636
G1 X124.295 Y93.888 E6.19066
G1 X124.485 Y94.103 E6.20498
G1 X124.636 Y94.361 E6.21988
G1 X124.749 Y94.711 E6.23815
G1 X124.776 Y95.004 E6.25279
G1 X124.729 Y95.376 E6.27149
G1 X124.631 Y95.650 E6.28597
G1 X124.485 Y95.897 E6.30027
G1 X124.295 Y96.112 E6.31457
G1 X124.068 Y96.288 E6.32887
G1 X123.812 Y96.419 E6.34316
G1 X123.536 Y96.499 E6.35747
G1 X123.250 Y96.526 E6.37177
G1 X122.964 Y96.499 E6.38607
G1 X122.688 Y96.419 E6.40037
G1 X122.432 Y96.288 E6.41469
G1 X122.196 Y96.104 E6.42959
G1 X121.963 Y95.821 E6.44786
G1 X121.831 Y95.562 E6.46232
G1 X121.768 Y95.344 E6.47364
G1 X121.483 Y95.183 F9000.000
G1 X120.966 Y81.362 F9000.000
G1 X120.508 Y81.319 E6.49654 F600.000
G1 X120.081 Y81.195 E6.51866
G1 X119.684 Y80.993 E6.54083
G1 X119.317 Y80.707 E6.56399
G1 X118.964 Y80.278 E6.59166
G1 X118.755 Y79.869 E6.61454
G1 X118.631 Y79.442 E6.63665
G1 X118.589 Y79.000 E6.65877
G1 X118.631 Y78.558 E6.68090
G1 X118.755 Y78.131 E6.70302
G1 X118.957 Y77.735 E6.72514
G1 X119.229 Y77.384 E6.74726
G1 X119.562 Y77.090 E6.76938
G1 X119.945 Y76.864 E6.79151
G1 X120.377 Y76.708 E6.81439
G1 X120.928 Y76.638 E6.84205 F600.000
G1 X121.391 Y76.681 E6.86520
G1 X121.819 Y76.805 E6.88737
G1 X122.215 Y77.007 E6.90949
G1 X122.566 Y77.279 E6.93161
G1 X122.861 Y77.613 E6.95379
G1 X123.096 Y78.014 E6.97694
G1 X123.267 Y78.543 E7.00461
G1 X123.311 Y79.000 E7.02748
G1 X123.269 Y79.442 E7.04960
G1 X123.145 Y79.869 E7.07172
G1 X122.943 Y80.265 E7.09385
G1 X122.671 Y80.616 E7.11597
G1 X122.338 Y80.910 E7.13809
G1 X121.955 Y81.136 E7.16022
G1 X121.522 Y81.292 E7.18313
G1 X121.025 Y81.355 E7.20807
G1 X120.960 Y80.974 F9000.000
G1 X120.580 Y80.938 E7.22704 F600.000
G1 X120.224 Y80.835 E7.24553
G1 X119.892 Y80.666 E7.26405
G1 X119.588 Y80.429 E7.28326
G1 X119.288 Y80.066 E7.30671
G1 X119.115 Y79.726 E7.32567
G1 X119.012 Y79.370 E7.34416
G1 X118.977 Y79.000 E7.36265
G1 X119.012 Y78.630 E7.38114
G1 X119.115 Y78.274 E7.39963
G1 X119.284 Y77.943 E7.41812
G1 X119.512 Y77.649 E7.43662
G1 X119.790 Y77.404 E7.45511
G1 X120.110 Y77.214 E7.47360
G1 X120.468 Y77.086 E7.49256
G1 X120.935 Y77.026 E7.51600 F600.000
G1 X121.319 Y77.061 E7.53520
G1 X121.676 Y77.165 E7.55373
G1 X122.007 Y77.334 E7.57222
G1 X122.301 Y77.561 E7.59071
G1 X122.547 Y77.841 E7.60924
G1 X122.743 Y78.173 E7.62844
G1 X122.888 Y78.621 E7.65189
G1 X122.923 Y79.000 E7.67084
G1 X122.888 Y79.370 E7.68933
G1 X122.785 Y79.726 E7.70782
G1 X122.616 Y80.057 E7.72632
G1 X122.389 Y80.351 E7.74481
G1 X122.110 Y80.596 E7.76330
G1 X121.790 Y80.786 E7.78180
G1 X121.432 Y80.915 E7.80078
G1 X121.019 Y80.967 E7.82147
G1 X120.954 Y80.586 F9000.000
G1 X120.653 Y80.558 E7.83651 F600.000
G1 X120.366 Y80.475 E7.85137
G1 X120.100 Y80.339 E7.86625
G1 X119.858 Y80.151 E7.88151
G1 X119.612 Y79.853 E7.90073
G1 X119.475 Y79.584 E7.91577
G1 X119.392 Y79.297 E7.93063
G1 X119.364 Y79.000 E7.94549
G1 X119.392 Y78.703 E7.96035
G1 X119.475 Y78.416 E7.97521
G1 X119.611 Y78.150 E7.99008
G1 X119.794 Y77.914 E8.00494
G1 X120.018 Y77.717 E8.01980
G1 X120.275 Y77.565 E8.03466
G1 X120.559 Y77.463 E8.04970
G1 X120.942 Y77.414 E8.06892 F600.000
G1 X121.247 Y77.442 E8.08418
G1 X121.534 Y77.525 E8.09905
G1 X121.800 Y77.661 E8.11392
G1 X122.036 Y77.844 E8.12878
G1 X122.233 Y78.068 E8.14366
G1 X122.389 Y78.332 E8.15891
G1 X122.508 Y78.699 E8.17814
G1 X122.536 Y79.000 E8.19317
G1 X122.508 Y79.297 E8.20803
G1 X122.425 Y79.584 E8.22289
G1 X122.289 Y79.850 E8.23776
G1 X122.106 Y80.086 E8.25262
G1 X121.882 Y80.283 E8.26748
G1 X121.625 Y80.435 E8.28235
G1 X121.341 Y80.537 E8.29739
G1 X121.013 Y80.579 E8.31385
G1 X120.797 Y80.845 F9000.000
G1 X116.946 Y79.996 F9000.000
G1 X116.946 Y74.996 E8.56279 F600.000
G1 X124.954 Y74.996 E8.96148
G1 X124.954 Y93.423 E9.87892
G1 X124.483 Y93.057 E9.90859
G1 X124.097 Y92.861 E9.93015
G1 X123.679 Y92.739 E9.95181
G1 X123.223 Y92.698 E9.97462
G1 X122.692 Y92.767 E10.00129
G1 X122.270 Y92.918 E10.02359
G1 X121.898 Y93.139 E10.04514
G1 X121.573 Y93.425 E10.06670
G1 X121.307 Y93.767 E10.08826
G1 X121.187 Y94.004 E10.10148
G1 X113.722 Y94.004 E10.47316
G1 X113.511 Y93.648 E10.49375
G1 X113.225 Y93.323 E10.51531
G1 X112.883 Y93.057 E10.53687
G1 X112.497 Y92.861 E10.55843
G1 X112.079 Y92.739 E10.58010
G1 X111.623 Y92.698 E10.60291
G1 X111.092 Y92.767 E10.62958
G1 X110.670 Y92.918 E10.65187
G1 X110.246 Y93.169 E10.67640
G1 X110.246 Y79.996 E11.33227
G1 X116.886 Y79.996 E11.66287
G1 X116.561 Y79.611 F9000.000
G1 X116.561 Y74.611 E11.91182 F600.000
G1 X125.339 Y74.611 E12.34890
G1 X125.339 Y94.649 E13.34661
G1 X125.144 Y94.680 E13.35646
G1 X124.990 Y94.203 E13.38141
G1 X124.799 Y93.876 E13.40026
G1 X124.560 Y93.605 E13.41825
G1 X124.275 Y93.385 E13.43618
G1 X123.954 Y93.221 E13.45411
G1 X123.607 Y93.120 E13.47211
G1 X123.230 Y93.086 E13.49096
G1 X122.783 Y93.144 E13.51343
G1 X122.435 Y93.269 E13.53181
G1 X122.125 Y93.452 E13.54973
G1 X121.855 Y93.690 E13.56767
G1 X121.635 Y93.975 E13.58559
G1 X121.471 Y94.296 E13.60352
G1 X121.444 Y94.389 E13.60838
G1 X113.455 Y94.389 E14.00615
G1 X113.381 Y94.185 E14.01695
G1 X113.198 Y93.875 E14.03488
G1 X112.960 Y93.605 E14.05281
G1 X112.675 Y93.385 E14.07074
G1 X112.354 Y93.221 E14.08867
G1 X112.007 Y93.120 E14.10666
G1 X111.630 Y93.086 E14.12552
G1 X111.183 Y93.144 E14.14799
G1 X110.835 Y93.269 E14.16637
G1 X110.525 Y93.452 E14.18429
G1 X110.255 Y93.690 E14.20222
G1 X110.017 Y93.997 E14.22157
G1 X109.861 Y93.944 E14.22980
G1 X109.861 Y79.611 E14.94344
G1 X116.501 Y79.611 E15.27404
G1 E9.27404 F1800.00000
G92 E0
G1 X108.661 Y96.889 F9000.000
G1 E6.00000 F1800.00000
G1 X108.661 Y106.535 E6.48025 F600.000
G1 X108.760 Y106.942 E6.50113
G1 X108.818 Y107.306 E6.51947
G1 X108.862 Y108.000 E6.55408
G1 X108.818 Y108.694 E6.58870
G1 X108.760 Y109.058 E6.60704
G1 X108.661 Y109.465 E6.62792
G1 X108.661 Y118.111 E7.05838
G1 X87.361 Y118.111 E8.11888
G1 X87.361 Y119.611 E8.19356
G1 X74.139 Y119.611 E8.85184
G1 X74.139 Y118.111 E8.92652
G1 X70.639 Y118.111 E9.10078
G1 X70.639 Y116.587 E9.17662
G1 X70.250 Y116.612 E9.19605
G1 X69.547 Y116.568 E9.23114
G1 X68.854 Y116.436 E9.26623
G1 X68.184 Y116.218 E9.30130
G1 X67.570 Y115.929 E9.33509
G1 X67.236 Y115.733 E9.35438
G1 X66.673 Y115.324 E9.38904
G1 X66.159 Y114.842 E9.42413
G1 X65.710 Y114.299 E9.45921
G1 X65.332 Y113.704 E9.49430
G1 X65.036 Y113.075 E9.52891
G1 X64.914 Y112.734 E9.54694
G1 X64.813 Y112.386 E9.56497
G1 X64.682 Y111.703 E9.59958
G1 X64.638 Y111.000 E9.63467
G1 X64.682 Y110.297 E9.66976
G1 X64.814 Y109.604 E9.70485
G1 X65.029 Y108.943 E9.73945
G1 X65.337 Y108.288 E9.77549
G1 X65.705 Y107.710 E9.80962
G1 X65.933 Y107.416 E9.82813
G1 X66.402 Y106.916 E9.86226
G1 X66.681 Y106.670 E9.88076
G1 X67.235 Y106.267 E9.91489
G1 X67.555 Y106.078 E9.93340
G1 X68.175 Y105.786 E9.96753
G1 X68.525 Y105.660 E9.98604
G1 X69.189 Y105.490 E10.02017
G1 X69.556 Y105.432 E10.03867
G1 X70.250 Y105.388 E10.07328
G1 X70.639 Y105.413 E10.09271
G1 X70.639 Y96.740 E10.52449
G1 X70.317 Y96.857 E10.54157
G1 X69.850 Y96.915 E10.56499
G1 X69.383 Y96.857 E10.58841
G1 X69.035 Y96.731 E10.60683
G1 X68.725 Y96.548 E10.62476
G1 X68.455 Y96.310 E10.64269
G1 X68.237 Y96.029 E10.66038
G1 X68.136 Y95.838 E10.67115
G1 X67.961 Y95.881 E10.68016
G1 X67.961 Y102.111 E10.99031
G1 X60.239 Y102.111 E11.37474
G1 X60.239 Y95.663 E11.69575
G1 X60.048 Y95.630 E11.70543
G1 X59.981 Y95.815 E11.71521
G1 X59.798 Y96.125 E11.73314
G1 X59.560 Y96.395 E11.75107
G1 X59.275 Y96.615 E11.76900
G1 X58.954 Y96.779 E11.78692
G1 X58.609 Y96.879 E11.80486
G1 X58.240 Y96.914 E11.82327
G1 X57.783 Y96.857 E11.84621
G1 X57.435 Y96.731 E11.86463
G1 X57.125 Y96.548 E11.88255
G1 X56.855 Y96.310 E11.90048
G1 X56.635 Y96.025 E11.91841
G1 X56.471 Y95.704 E11.93634
G1 X56.371 Y95.359 E11.95427
G1 X56.337 Y95.000 E11.97220
G1 X56.371 Y94.641 E11.99013
G1 X56.471 Y94.296 E12.00807
G1 X56.635 Y93.975 E12.02600
G1 X56.855 Y93.690 E12.04392
G1 X57.125 Y93.452 E12.06186
G1 X57.435 Y93.269 E12.07978
G1 X57.783 Y93.144 E12.09816
G1 X58.230 Y93.086 E12.12063
G1 X58.607 Y93.120 E12.13948
G1 X58.954 Y93.221 E12.15748
G1 X59.275 Y93.385 E12.17541
G1 X59.560 Y93.605 E12.19334
G1 X59.798 Y93.875 E12.21127
G1 X59.981 Y94.185 E12.22919
G1 X60.055 Y94.389 E12.24000
G1 X68.044 Y94.389 E12.63776
G1 X68.071 Y94.296 E12.64263
G1 X68.235 Y93.975 E12.66055
G1 X68.455 Y93.690 E12.67848
G1 X68.725 Y93.452 E12.69641
G1 X69.035 Y93.269 E12.71434
G1 X69.383 Y93.144 E12.73272
G1 X69.830 Y93.086 E12.75519
G1 X70.207 Y93.120 E12.77404
G1 X70.554 Y93.221 E12.79204
G1 X70.875 Y93.385 E12.80997
G1 X71.160 Y93.605 E12.82789
G1 X71.398 Y93.875 E12.84583
G1 X71.581 Y94.185 E12.86375
G1 X71.707 Y94.533 E12.88217
G1 X71.764 Y94.990 E12.90511
G1 X71.729 Y95.359 E12.92352
G1 X71.629 Y95.704 E12.94145
G1 X71.465 Y96.025 E12.95938
G1 X71.245 Y96.310 E12.97731
G1 X70.975 Y96.548 E12.99524
G1 X70.685 Y96.719 E13.01198
G1 X70.732 Y96.889 E13.02077
G1 X72.140 Y96.889 E13.09087
G1 X72.147 Y88.307 E13.51818
G1 X72.216 Y88.002 E13.53377
G1 X72.344 Y87.705 E13.54986
G1 X72.630 Y87.336 E13.57312
G1 X72.886 Y87.138 E13.58920
G1 X73.156 Y87.000 E13.60432
G1 X73.448 Y86.915 E13.61944
G1 X73.722 Y86.889 E13.63315
G1 X74.881 Y86.892 E13.69085
G1 X75.336 Y86.993 E13.71408
G1 X75.700 Y87.193 E13.73473
G1 X75.995 Y87.470 E13.75489
G1 X76.212 Y87.812 E13.77505
G1 X76.334 Y88.188 E13.79473
G1 X76.361 Y88.471 E13.80889
G1 X76.361 Y96.889 E14.22803
G1 X108.601 Y96.889 E15.83322
G1 X108.275 Y97.275 F9000.000
G1 X108.275 Y106.582 E16.29659 F600.000
G1 X108.382 Y107.019 E16.31899
G1 X108.434 Y107.349 E16.33563
G1 X108.475 Y108.000 E16.36812
G1 X108.434 Y108.651 E16.40062
G1 X108.382 Y108.981 E16.41726
G1 X108.275 Y109.418 E16.43966
G1 X108.275 Y117.725 E16.85324
G1 X86.975 Y117.725 E17.91374
G1 X86.975 Y119.225 E17.98843
G1 X74.525 Y119.225 E18.60830
G1 X74.525 Y117.725 E18.68298
G1 X71.025 Y117.725 E18.85724
G1 X71.025 Y116.177 E18.93433
G1 X70.250 Y116.225 E18.97299
G1 X69.595 Y116.184 E19.00567
G1 X68.950 Y116.061 E19.03834
G1 X68.326 Y115.859 E19.07101
G1 X67.750 Y115.588 E19.10271
G1 X67.448 Y115.410 E19.12018
G1 X66.919 Y115.026 E19.15270
G1 X66.441 Y114.577 E19.18537
G1 X66.023 Y114.071 E19.21804
G1 X65.671 Y113.517 E19.25071
G1 X65.393 Y112.927 E19.28321
G1 X65.188 Y112.296 E19.31623
G1 X65.066 Y111.655 E19.34873
G1 X65.025 Y111.000 E19.38140
G1 X65.066 Y110.345 E19.41407
G1 X65.189 Y109.700 E19.44675
G1 X65.390 Y109.080 E19.47924
G1 X65.522 Y108.775 E19.49576
G1 X65.673 Y108.480 E19.51228
G1 X66.021 Y107.932 E19.54460
G1 X66.226 Y107.667 E19.56129
G1 X66.671 Y107.193 E19.59361
G1 X66.922 Y106.972 E19.61031
G1 X67.447 Y106.590 E19.64263
G1 X67.736 Y106.419 E19.65932
G1 X68.323 Y106.143 E19.69165
G1 X68.639 Y106.029 E19.70834
G1 X69.267 Y105.868 E19.74066
G1 X69.599 Y105.816 E19.75735
G1 X70.250 Y105.775 E19.78985
G1 X71.025 Y105.823 E19.82851
G1 X71.025 Y97.275 E20.25412
G1 X72.525 Y97.275 E20.32882
G1 X72.533 Y88.350 E20.77319
G1 X72.584 Y88.121 E20.78486
G1 X72.679 Y87.903 E20.79671
G1 X72.905 Y87.611 E20.81512
G1 X73.093 Y87.465 E20.82696
G1 X73.299 Y87.360 E20.83845
G1 X73.520 Y87.296 E20.84994
G1 X73.740 Y87.275 E20.86091
G1 X74.838 Y87.277 E20.91559
G1 X75.198 Y87.358 E20.93398
G1 X75.471 Y87.508 E20.94948
G1 X75.695 Y87.718 E20.96479
G1 X75.860 Y87.978 E20.98009
G1 X75.954 Y88.267 E20.99523
G1 X75.975 Y88.489 E21.00636
G1 X75.975 Y97.275 E21.44379
G1 X108.215 Y97.275 E23.04899
G1 X108.675 Y97.275 F9000.000
G1 E17.04899 F1800.00000
G92 E0
G1 X71.376 Y94.996 F9000.000
G1 E6.00000 F1800.00000
G1 X71.349 Y95.286 E6.01448 F600.000
G1 X71.269 Y95.562 E6.02878
G1 X71.138 Y95.818 E6.04308
G1 X70.962 Y96.045 E6.05738
G1 X70.747 Y96.235 E6.07168
G1 X70.500 Y96.381 E6.08598
G1 X70.226 Y96.479 E6.10046
G1 X69.850 Y96.527 E6.11934
G1 X69.474 Y96.479 E6.13821
G1 X69.200 Y96.381 E6.15269
G1 X68.953 Y96.235 E6.16699
G1 X68.738 Y96.045 E6.18129
G1 X68.563 Y95.819 E6.19550
G1 X68.441 Y95.589 E6.20844
G1 X68.351 Y95.287 E6.22417
G1 X68.324 Y95.000 E6.23850
G1 X68.351 Y94.714 E6.25280
G1 X68.431 Y94.438 E6.26711
G1 X68.562 Y94.182 E6.28141
G1 X68.738 Y93.955 E6.29570
G1 X68.953 Y93.765 E6.31000
G1 X69.200 Y93.619 E6.32430
G1 X69.474 Y93.521 E6.33877
G1 X69.838 Y93.474 E6.35704 F600.000
G1 X70.136 Y93.501 E6.37194
G1 X70.412 Y93.581 E6.38626
G1 X70.668 Y93.712 E6.40056
G1 X70.895 Y93.888 E6.41486
G1 X71.085 Y94.103 E6.42916
G1 X71.231 Y94.350 E6.44346
G1 X71.329 Y94.624 E6.45794
G1 X71.369 Y94.937 E6.47365
G1 X71.625 Y95.147 F9000.000
G1 E0.47365 F1800.00000
G92 E0
G1 X67.575 Y94.775 F9000.000
G1 E6.00000 F1800.00000
G1 X67.575 Y101.725 E6.34603 F600.000
G1 X60.625 Y101.725 E6.69207
G1 X60.625 Y94.775 E7.03810
G1 X67.515 Y94.775 E7.38115
G1 X67.975 Y94.775 F9000.000
G1 X59.777 Y95.000 F9000.000
G1 X59.729 Y95.376 E7.40002 F600.000
G1 X59.631 Y95.650 E7.41450
G1 X59.485 Y95.897 E7.42880
G1 X59.295 Y96.112 E7.44310
G1 X59.068 Y96.288 E7.45740
G1 X58.812 Y96.419 E7.47170
G1 X58.536 Y96.499 E7.48600
