; generated by Slic3r 1.2.9 on 2017-12-21 at 11:27:17

; external perimeters extrusion width = 0.40mm
; perimeters extrusion width = 0.62mm
; infill extrusion width = 0.33mm
; solid infill extrusion width = 0.62mm
; top infill extrusion width = 0.20mm

M106 S256; Turn on fan to 100% power
M104 S140; turn on extruder temperature at S value
M140 S60; turn on bed temperature at S value
G28; home all axes
M84; disable motors
G1 Z15 F15000; have Z move to 20mm at 15000 mm/min
M190 S55; turn on bed temperature at S value and wait
M140 S55; turn on bed temperature at S value (printing temperature)
M109 S200; turn on extruder temperature at S value and wait (printing temperature)
M104 S200; turn on extruder temperature at S value
G1 Z0 F12000; move Z back to home
G21 ; set units to millimeters
G90 ; use absolute coordinates
M82 ; use absolute distances for extrusion
G92 E0
M106 S255
;Layer change
G1 E-6.00000 F1800.00000
G92 E0
G1 Z0.300 F9000.000
G1 X47.135 Y8.906 F9000.000
G1 E6.00000 F1800.00000
G1 X47.539 Y7.600 E6.06886 F600.000
G1 X48.595 Y6.731 E6.13771
G1 X49.520 Y6.544 E6.18526
G1 X120.920 Y6.544 E9.78190
G1 X122.230 Y6.936 E9.85076
G1 X123.109 Y7.982 E9.91961 F600.000
G1 X123.306 Y8.930 E9.96837
G1 X123.306 Y59.930 E12.53739
G1 X122.914 Y61.240 E12.60625
G1 X121.868 Y62.119 E12.67510
G1 X120.920 Y62.316 E12.72386
G1 X49.020 Y62.316 E16.34568
G1 X47.710 Y61.924 E16.41453
G1 X46.831 Y60.878 E16.48339
G1 X46.634 Y59.930 E16.53214
G1 X46.635 Y57.906 E16.63412
G1 X47.134 Y8.966 E19.09950
G1 E13.09950 F1800.00000
G92 E0
G1 X109.295 Y23.137 F9000.000
G1 E6.00000 F1800.00000
G1 X116.245 Y23.137 E6.35009 F600.000
G1 X116.245 Y30.316 E6.71174
G1 X115.134 Y30.316 E6.76770
G1 X114.837 Y30.607 E6.78863
G1 X114.482 Y30.864 E6.81073
G1 X114.100 Y31.075 E6.83272
G1 X113.845 Y31.175 E6.84651
G1 X113.845 Y38.155 E7.19811
G1 X111.895 Y38.155 E7.29633
G1 X111.895 Y31.316 E7.64086
G1 X111.549 Y31.236 E7.65875
G1 X111.140 Y31.075 E7.68088
G1 X110.758 Y30.864 E7.70287
G1 X110.403 Y30.606 E7.72497
G1 X110.106 Y30.316 E7.74589
G1 X109.295 Y30.316 E7.78675
G1 X109.295 Y28.921 E7.85700
G1 X109.254 Y28.794 E7.86372
G1 X109.172 Y28.366 E7.88571
G1 X109.145 Y27.930 E7.90769
G1 X109.172 Y27.494 E7.92968
G1 X109.254 Y27.066 E7.95166
G1 X109.295 Y26.939 E7.95839
G1 X109.295 Y23.197 E8.14690
G1 X109.295 Y22.737 F9000.000
G1 X107.500 Y28.599 F9000.000
G1 X107.835 Y28.762 E8.16566 F600.000
G1 X107.995 Y28.883 E8.17580
G1 X108.140 Y29.023 E8.18594
G1 X108.359 Y29.336 E8.20520
G1 X108.497 Y29.695 E8.22457
G1 X108.535 Y29.902 E8.23515
G1 X108.535 Y30.280 E8.25421
G1 X108.497 Y30.487 E8.26479
G1 X108.359 Y30.846 E8.28415
G1 X108.140 Y31.159 E8.30342
G1 X107.990 Y31.304 E8.31393
G1 X107.673 Y31.513 E8.33305
G1 X107.315 Y31.633 E8.35209
G1 X107.109 Y31.660 E8.36254
G1 X106.740 Y31.636 E8.38117
G1 X106.539 Y31.583 E8.39162
G1 X106.205 Y31.420 E8.41036
G1 X106.033 Y31.289 E8.42123
G1 X105.783 Y31.012 E8.44004
G1 X105.603 Y30.673 E8.45935
G1 X105.540 Y30.473 E8.46992
G1 X105.493 Y30.091 E8.48933
G1 X105.540 Y29.708 E8.50874
G1 X105.685 Y29.330 E8.52913
G1 X105.904 Y29.017 E8.54840
G1 X106.193 Y28.769 E8.56757
G1 X106.374 Y28.667 E8.57805
G1 X106.725 Y28.548 E8.59672
G1 X106.931 Y28.522 E8.60715 F600.000
G1 X107.286 Y28.544 E8.62506
G1 X107.442 Y28.584 E8.63316
G1 X107.794 Y28.370 F9000.000
G1 E2.63316 F1800.00000
G92 E0
G1 X117.132 Y29.773 F9000.000
G1 E6.00000 F1800.00000
G1 X117.201 Y29.515 E6.01346 F600.000
G1 X117.285 Y29.330 E6.02366
G1 X117.504 Y29.017 E6.04294
G1 X117.793 Y28.769 E6.06211
G1 X117.974 Y28.667 E6.07258
G1 X118.325 Y28.548 E6.09125
G1 X118.531 Y28.522 E6.10170 F600.000
G1 X118.907 Y28.546 E6.12068
G1 X119.252 Y28.661 E6.13902
G1 X119.446 Y28.769 E6.15016
G1 X119.736 Y29.017 E6.16939
G1 X119.955 Y29.330 E6.18866
G1 X120.100 Y29.708 E6.20905
G1 X120.147 Y30.091 E6.22846
G1 X120.100 Y30.473 E6.24787
G1 X120.039 Y30.667 E6.25809
G1 X119.955 Y30.851 E6.26829
G1 X119.740 Y31.159 E6.28721
G1 X119.590 Y31.304 E6.29772
G1 X119.273 Y31.513 E6.31684
G1 X118.915 Y31.633 E6.33588
G1 X118.709 Y31.660 E6.34633
G1 X118.340 Y31.636 E6.36496
G1 X118.139 Y31.583 E6.37541
G1 X117.799 Y31.417 E6.39448
G1 X117.504 Y31.165 E6.41402
G1 X117.285 Y30.851 E6.43329
G1 X117.201 Y30.667 E6.44350
G1 X117.140 Y30.473 E6.45372
G1 X117.093 Y30.091 E6.47313
G1 X117.125 Y29.832 E6.48624
G1 X116.934 Y29.593 F9000.000
G1 E0.48624 F1800.00000
G92 E0
G1 X64.747 Y30.091 F9000.000
G1 E6.00000 F1800.00000
G1 X64.700 Y30.473 E6.01941 F600.000
G1 X64.555 Y30.851 E6.03979
G1 X64.340 Y31.159 E6.05871
G1 X64.190 Y31.304 E6.06922
G1 X63.873 Y31.513 E6.08835
G1 X63.515 Y31.633 E6.10739
G1 X63.309 Y31.660 E6.11783
G1 X62.940 Y31.636 E6.13646
G1 X62.739 Y31.583 E6.14691
G1 X62.399 Y31.417 E6.16599
G1 X62.104 Y31.165 E6.18552
G1 X61.885 Y30.851 E6.20480
G1 X61.801 Y30.667 E6.21500
G1 X61.740 Y30.473 E6.22522
G1 X61.693 Y30.091 E6.24463
G1 X61.740 Y29.708 E6.26404
G1 X61.885 Y29.330 E6.28443
G1 X62.104 Y29.017 E6.30370
G1 X62.393 Y28.769 E6.32287
G1 X62.574 Y28.667 E6.33335
G1 X62.925 Y28.548 E6.35202
G1 X63.131 Y28.522 E6.36245 F600.000
G1 X63.486 Y28.544 E6.38036
G1 X63.700 Y28.599 E6.39149
G1 X64.035 Y28.762 E6.41025
G1 X64.201 Y28.887 E6.42075
G1 X64.457 Y29.169 E6.43996
G1 X64.637 Y29.508 E6.45928
G1 X64.700 Y29.708 E6.46985
G1 X64.739 Y30.031 E6.48624
G1 X65.072 Y30.297 F9000.000
G1 E0.48624 F1800.00000
G92 E0
G1 X60.845 Y30.316 F9000.000
G1 E6.00000 F1800.00000
G1 X59.734 Y30.316 E6.05597 F600.000
G1 X59.437 Y30.606 E6.07689
G1 X59.082 Y30.864 E6.09900
G1 X58.700 Y31.075 E6.12099
G1 X58.445 Y31.175 E6.13478
G1 X58.445 Y38.155 E6.48637
G1 X56.495 Y38.155 E6.58460
G1 X56.495 Y31.316 E6.92912
G1 X56.149 Y31.236 E6.94701
G1 X55.740 Y31.075 E6.96915
G1 X55.358 Y30.864 E6.99113
G1 X55.003 Y30.606 E7.01324
G1 X54.706 Y30.316 E7.03416
G1 X53.895 Y30.316 E7.07502
G1 X53.895 Y28.921 E7.14526
G1 X53.854 Y28.794 E7.15199
G1 X53.772 Y28.366 E7.17398
G1 X53.745 Y27.930 E7.19596
G1 X53.772 Y27.494 E7.21794
G1 X53.854 Y27.066 E7.23993
G1 X53.895 Y26.939 E7.24665
G1 X53.895 Y23.137 E7.43818
G1 X60.845 Y23.137 E7.78828
G1 X60.845 Y30.256 E8.14690
G1 X60.845 Y30.716 F9000.000
G1 E2.14690 F1800.00000
G92 E0
G1 X53.135 Y30.280 F9000.000
G1 E6.00000 F1800.00000
G1 X53.097 Y30.487 E6.01058 F600.000
G1 X52.959 Y30.846 E6.02994
G1 X52.740 Y31.159 E6.04921
G1 X52.590 Y31.304 E6.05972
G1 X52.273 Y31.513 E6.07885
G1 X51.915 Y31.633 E6.09789
G1 X51.709 Y31.660 E6.10833
G1 X51.340 Y31.636 E6.12696
G1 X51.139 Y31.583 E6.13741
G1 X50.799 Y31.417 E6.15649
G1 X50.504 Y31.165 E6.17602
G1 X50.285 Y30.851 E6.19530
G1 X50.140 Y30.473 E6.21568
G1 X50.093 Y30.091 E6.23509
G1 X50.140 Y29.708 E6.25450
G1 X50.285 Y29.330 E6.27489
G1 X50.504 Y29.017 E6.29416
G1 X50.793 Y28.769 E6.31333
G1 X50.974 Y28.667 E6.32381
G1 X51.325 Y28.548 E6.34248
G1 X51.531 Y28.522 E6.35291 F600.000
G1 X51.886 Y28.544 E6.37083
G1 X52.100 Y28.599 E6.38195
G1 X52.435 Y28.762 E6.40071
G1 X52.595 Y28.883 E6.41085
G1 X52.740 Y29.023 E6.42099
G1 X52.959 Y29.336 E6.44026
G1 X53.097 Y29.695 E6.45962
G1 X53.135 Y29.902 E6.47020
G1 X53.135 Y30.220 E6.48624
G1 X53.303 Y30.406 F9000.000
G1 X54.415 Y51.160 F9000.000
G1 X54.860 Y51.187 E6.50870 F600.000
G1 X55.128 Y51.254 E6.52260
G1 X55.377 Y51.353 E6.53614
G1 X55.779 Y51.608 E6.56011
G1 X56.105 Y51.955 E6.58407
G1 X56.258 Y52.196 E6.59849
G1 X56.426 Y52.621 E6.62148
G1 X56.480 Y52.902 E6.63589
G1 X56.480 Y53.358 E6.65889
G1 X56.426 Y53.639 E6.67330
G1 X56.258 Y54.064 E6.69629
G1 X56.105 Y54.305 E6.71071
G1 X55.779 Y54.652 E6.73467
G1 X55.361 Y54.918 E6.75962
G1 X54.909 Y55.064 E6.78359
G1 X54.625 Y55.100 E6.79800
G1 X54.169 Y55.072 E6.82099
G1 X53.911 Y55.005 E6.83443
G1 X53.635 Y54.896 E6.84939
G1 X53.258 Y54.649 E6.87211
G1 X52.935 Y54.305 E6.89584
G1 X52.782 Y54.064 E6.91026
G1 X52.613 Y53.638 E6.93334
G1 X52.559 Y53.347 E6.94820
G1 X52.560 Y52.882 E6.97166
G1 X52.679 Y52.420 E6.99568
G1 X52.806 Y52.153 E7.01055
G1 X53.069 Y51.793 E7.03302
G1 X53.277 Y51.597 E7.04741
G1 X53.679 Y51.342 E7.07138
G1 X54.131 Y51.196 E7.09535
G1 X54.355 Y51.167 E7.10672 F600.000
G1 X54.427 Y51.547 F9000.000
G1 X54.801 Y51.570 E7.12557 F600.000
G1 X55.009 Y51.622 E7.13639
G1 X55.202 Y51.698 E7.14681
G1 X55.531 Y51.907 E7.16649
G1 X55.799 Y52.192 E7.18617
G1 X55.913 Y52.372 E7.19691
G1 X56.054 Y52.729 E7.21623
G1 X56.094 Y52.938 E7.22697
G1 X56.094 Y53.322 E7.24629
G1 X56.054 Y53.531 E7.25703
G1 X55.913 Y53.888 E7.27635
G1 X55.799 Y54.068 E7.28710
G1 X55.531 Y54.353 E7.30677
G1 X55.196 Y54.566 E7.32681
G1 X54.824 Y54.686 E7.34649
G1 X54.612 Y54.713 E7.35723
G1 X54.230 Y54.689 E7.37655
G1 X54.030 Y54.638 E7.38693
G1 X53.813 Y54.552 E7.39869
G1 X53.507 Y54.351 E7.41711
G1 X53.241 Y54.068 E7.43670
G1 X53.127 Y53.888 E7.44744
G1 X52.985 Y53.531 E7.46679
G1 X52.945 Y53.312 E7.47797
G1 X52.946 Y52.931 E7.49719
G1 X53.043 Y52.552 E7.51689
G1 X53.139 Y52.352 E7.52807
G1 X53.359 Y52.049 E7.54692
G1 X53.515 Y51.904 E7.55766
G1 X53.844 Y51.694 E7.57733
G1 X54.216 Y51.574 E7.59701
G1 X54.368 Y51.554 E7.60473 F600.000
G1 X54.614 Y51.223 F9000.000
G1 X65.609 Y53.041 F9000.000
G1 X65.609 Y51.531 E7.68078 F600.000
G1 X64.868 Y51.531 E7.71815
G1 X64.168 Y51.442 E7.75365
G1 X63.486 Y51.267 E7.78915
G1 X62.831 Y51.008 E7.82465
G1 X62.213 Y50.668 E7.86014
G1 X61.643 Y50.254 E7.89564
G1 X61.129 Y49.772 E7.93115
G1 X60.680 Y49.229 E7.96665
G1 X60.302 Y48.634 E8.00214
G1 X60.002 Y47.996 E8.03765
G1 X59.784 Y47.326 E8.07314
G1 X59.652 Y46.633 E8.10864
G1 X59.608 Y45.930 E8.14414
G1 X59.652 Y45.227 E8.17965
G1 X59.785 Y44.533 E8.21524
G1 X60.016 Y43.834 E8.25231
G1 X60.302 Y43.226 E8.28614
G1 X60.680 Y42.631 E8.32163
G1 X61.129 Y42.088 E8.35713
G1 X61.643 Y41.606 E8.39263
G1 X62.213 Y41.192 E8.42813
G1 X62.831 Y40.852 E8.46363
G1 X63.486 Y40.593 E8.49913
G1 X64.168 Y40.418 E8.53463
G1 X64.868 Y40.329 E8.57013
G1 X65.609 Y40.329 E8.60749
G1 X65.609 Y31.819 E9.03616
G1 X103.631 Y31.819 E10.95141
G1 X103.631 Y41.458 E11.43692
G1 X103.788 Y42.227 E11.47645
G1 X103.832 Y42.930 E11.51195
G1 X103.788 Y43.633 E11.54746
G1 X103.631 Y44.402 E11.58698
G1 X103.631 Y53.041 E12.02213
G1 X82.331 Y53.041 E13.09507
G1 X82.331 Y54.541 E13.17063
G1 X69.109 Y54.541 E13.83662
G1 X69.109 Y53.041 E13.91218
G1 X65.669 Y53.041 E14.08547
G1 X65.995 Y52.655 F9000.000
G1 X65.995 Y51.083 E14.16463 F600.000
G1 X65.549 Y51.145 E14.18729
G1 X64.892 Y51.145 E14.22041
G1 X64.241 Y51.063 E14.25347
G1 X63.605 Y50.900 E14.28652
G1 X62.995 Y50.658 E14.31958
G1 X62.420 Y50.342 E14.35263
G1 X61.889 Y49.956 E14.38569
G1 X61.411 Y49.507 E14.41874
G1 X60.993 Y49.001 E14.45180
G1 X60.641 Y48.447 E14.48485
G1 X60.361 Y47.854 E14.51791
G1 X60.159 Y47.230 E14.55096
G1 X60.036 Y46.585 E14.58402
G1 X59.995 Y45.930 E14.61708
G1 X60.036 Y45.275 E14.65013
G1 X60.159 Y44.630 E14.68323
G1 X60.375 Y43.977 E14.71785
G1 X60.641 Y43.413 E14.74929
G1 X60.993 Y42.859 E14.78234
G1 X61.411 Y42.353 E14.81540
G1 X61.889 Y41.904 E14.84846
G1 X62.420 Y41.518 E14.88151
G1 X62.995 Y41.202 E14.91456
G1 X63.605 Y40.960 E14.94762
G1 X64.241 Y40.797 E14.98068
G1 X64.892 Y40.715 E15.01373
G1 X65.549 Y40.715 E15.04686
G1 X65.995 Y40.777 E15.06951
G1 X65.995 Y32.205 E15.50129
G1 X103.245 Y32.205 E17.37768
G1 X103.245 Y41.519 E17.84685
G1 X103.404 Y42.275 E17.88578
G1 X103.445 Y42.930 E17.91883
G1 X103.404 Y43.585 E17.95189
G1 X103.245 Y44.341 E17.99082
G1 X103.245 Y52.655 E18.40961
G1 X81.945 Y52.655 E19.48256
G1 X81.945 Y54.155 E19.55812
G1 X69.495 Y54.155 E20.18526
G1 X69.495 Y52.655 E20.26082
G1 X66.055 Y52.655 E20.43411
G1 X65.595 Y52.655 F9000.000
G1 E14.43411 F1800.00000
G92 E0
G1 X54.909 Y15.864 F9000.000
G1 E6.00000 F1800.00000
G1 X54.625 Y15.900 E6.01441 F600.000
G1 X54.169 Y15.872 E6.03740
G1 X53.911 Y15.805 E6.05084
G1 X53.635 Y15.696 E6.06580
G1 X53.258 Y15.449 E6.08852
G1 X52.935 Y15.105 E6.11225
G1 X52.782 Y14.864 E6.12667
G1 X52.614 Y14.439 E6.14965
G1 X52.560 Y14.158 E6.16407
G1 X52.560 Y13.702 E6.18706
G1 X52.614 Y13.421 E6.20148
G1 X52.782 Y12.996 E6.22446
G1 X52.935 Y12.755 E6.23888
G1 X53.261 Y12.408 E6.26285
G1 X53.662 Y12.153 E6.28681
G1 X53.929 Y12.048 E6.30123
G1 X54.377 Y11.962 E6.32422
G1 X54.663 Y11.962 E6.33864 F600.000
G1 X55.111 Y12.048 E6.36163
G1 X55.378 Y12.153 E6.37605
G1 X55.779 Y12.408 E6.40001
G1 X56.105 Y12.755 E6.42398
G1 X56.258 Y12.996 E6.43840
G1 X56.426 Y13.421 E6.46139
G1 X56.480 Y13.702 E6.47580
G1 X56.480 Y14.158 E6.49880
G1 X56.426 Y14.439 E6.51321
G1 X56.258 Y14.864 E6.53620
G1 X56.105 Y15.105 E6.55062
G1 X55.779 Y15.452 E6.57458
G1 X55.361 Y15.718 E6.59953
G1 X54.966 Y15.846 E6.62048
G1 X54.824 Y15.486 F9000.000
G1 X54.612 Y15.513 E6.63122 F600.000
G1 X54.230 Y15.489 E6.65053
G1 X54.030 Y15.438 E6.66092
G1 X53.813 Y15.352 E6.67267
G1 X53.507 Y15.151 E6.69110
G1 X53.241 Y14.868 E6.71069
G1 X53.127 Y14.688 E6.72143
G1 X52.986 Y14.331 E6.74075
G1 X52.946 Y14.122 E6.75149
G1 X52.946 Y13.738 E6.77081
G1 X52.986 Y13.529 E6.78155
G1 X53.127 Y13.172 E6.80087
G1 X53.241 Y12.992 E6.81161
G1 X53.509 Y12.707 E6.83129
G1 X53.838 Y12.498 E6.85097
G1 X54.037 Y12.420 E6.86171
G1 X54.413 Y12.348 E6.88103
G1 X54.627 Y12.348 E6.89177 F600.000
G1 X55.003 Y12.420 E6.91109
G1 X55.202 Y12.498 E6.92184
G1 X55.531 Y12.707 E6.94151
G1 X55.799 Y12.992 E6.96119
G1 X55.913 Y13.172 E6.97194
G1 X56.054 Y13.529 E6.99125
G1 X56.094 Y13.738 E7.00200
G1 X56.094 Y14.122 E7.02131
G1 X56.054 Y14.331 E7.03206
G1 X55.913 Y14.688 E7.05137
G1 X55.799 Y14.868 E7.06212
G1 X55.531 Y15.153 E7.08179
G1 X55.196 Y15.366 E7.10183
G1 X54.881 Y15.468 E7.11849
G1 X54.754 Y15.688 F9000.000
G1 E1.11849 F1800.00000
G92 E0
G1 X113.959 Y14.147 F9000.000
G1 E6.00000 F1800.00000
G1 X113.960 Y13.682 E6.02345 F600.000
G1 X114.083 Y13.203 E6.04837
G1 X114.312 Y12.786 E6.07233
G1 X114.483 Y12.580 E6.08578
G1 X114.677 Y12.397 E6.09922
G1 X115.062 Y12.153 E6.12221
G1 X115.329 Y12.048 E6.13663
G1 X115.777 Y11.962 E6.15962
G1 X116.063 Y11.962 E6.17404 F600.000
G1 X116.511 Y12.048 E6.19703
G1 X116.778 Y12.153 E6.21145
G1 X117.179 Y12.408 E6.23541
G1 X117.505 Y12.755 E6.25938
G1 X117.658 Y12.996 E6.27379
G1 X117.826 Y13.421 E6.29678
G1 X117.880 Y13.702 E6.31120
G1 X117.880 Y14.158 E6.33419
G1 X117.826 Y14.439 E6.34860
G1 X117.658 Y14.864 E6.37159
G1 X117.505 Y15.105 E6.38601
G1 X117.179 Y15.452 E6.40998
G1 X116.761 Y15.718 E6.43492
G1 X116.309 Y15.864 E6.45889
G1 X116.025 Y15.900 E6.47331
G1 X115.569 Y15.872 E6.49629
G1 X115.311 Y15.805 E6.50974
G1 X115.063 Y15.707 E6.52318
G1 X114.661 Y15.452 E6.54715
G1 X114.335 Y15.105 E6.57112
G1 X114.182 Y14.864 E6.58554
G1 X114.013 Y14.438 E6.60862
G1 X113.970 Y14.206 E6.62046
G1 X114.345 Y14.112 F9000.000
G1 X114.346 Y13.731 E6.63968 F600.000
G1 X114.445 Y13.346 E6.65970
G1 X114.633 Y13.004 E6.67938
G1 X114.764 Y12.845 E6.68977
G1 X114.915 Y12.704 E6.70015
G1 X115.238 Y12.498 E6.71947
G1 X115.437 Y12.420 E6.73021
G1 X115.813 Y12.348 E6.74953
G1 X116.027 Y12.348 E6.76028 F600.000
G1 X116.403 Y12.420 E6.77960
G1 X116.602 Y12.498 E6.79034
G1 X116.931 Y12.707 E6.81001
G1 X117.199 Y12.992 E6.82969
G1 X117.313 Y13.172 E6.84044
G1 X117.454 Y13.529 E6.85975
G1 X117.494 Y13.738 E6.87050
G1 X117.494 Y14.122 E6.88982
G1 X117.454 Y14.331 E6.90056
G1 X117.313 Y14.688 E6.91988
G1 X117.199 Y14.868 E6.93062
G1 X116.931 Y15.153 E6.95030
G1 X116.596 Y15.366 E6.97033
G1 X116.224 Y15.486 E6.99001
G1 X116.012 Y15.513 E7.00076
G1 X115.630 Y15.489 E7.02007
G1 X115.430 Y15.438 E7.03046
G1 X115.238 Y15.362 E7.04085
G1 X114.909 Y15.153 E7.06052
G1 X114.641 Y14.868 E7.08020
G1 X114.527 Y14.688 E7.09095
G1 X114.385 Y14.331 E7.11030
G1 X114.356 Y14.171 E7.11845
G1 X114.004 Y13.942 F9000.000
G1 E1.11845 F1800.00000
G92 E0
G1 X115.815 Y51.160 F9000.000
G1 E6.00000 F1800.00000
G1 X116.260 Y51.187 E6.02246 F600.000
G1 X116.528 Y51.254 E6.03636
G1 X116.777 Y51.353 E6.04990
G1 X117.179 Y51.608 E6.07387
G1 X117.505 Y51.955 E6.09783
G1 X117.658 Y52.196 E6.11225
G1 X117.826 Y52.621 E6.13524
G1 X117.880 Y52.902 E6.14966
G1 X117.880 Y53.358 E6.17265
G1 X117.826 Y53.639 E6.18706
G1 X117.658 Y54.064 E6.21005
G1 X117.505 Y54.305 E6.22447
G1 X117.179 Y54.652 E6.24844
G1 X116.761 Y54.918 E6.27338
G1 X116.309 Y55.064 E6.29735
