; generated by Slic3r 1.2.9 on 2017-12-20 at 16:30:44

; external perimeters extrusion width = 0.40mm
; perimeters extrusion width = 0.62mm
; infill extrusion width = 0.33mm
; solid infill extrusion width = 0.62mm
; top infill extrusion width = 0.20mm

M106 S256; Turn on fan to 100% power
M104 S140; turn on extruder temperature at S value
M140 S60; turn on bed temperature at S value
G28; home all axes
M84; disable motors
G1 Z15 F15000; have Z move to 20mm at 15000 mm/min
M190 S55; turn on bed temperature at S value and wait
M140 S55; turn on bed temperature at S value (printing temperature)
M109 S200; turn on extruder temperature at S value and wait (printing temperature)
M104 S200; turn on extruder temperature at S value
G1 Z0 F12000; move Z back to home
G21 ; set units to millimeters
G90 ; use absolute coordinates
M82 ; use absolute distances for extrusion
G92 E0
M106 S255
;Layer change
G1 E-6.00000 F1800.00000
G92 E0
G1 Z0.300 F9000.000
G1 X58.262 Y18.515 F9000.000
G1 E6.00000 F1800.00000
G1 X58.650 Y17.322 E6.06245 F600.000
G1 X58.853 Y16.867 E6.08728
G1 X59.480 Y15.780 E6.14974
G1 X59.773 Y15.377 E6.17457
G1 X60.612 Y14.445 E6.23702
G1 X60.983 Y14.111 E6.26185
G1 X61.998 Y13.374 E6.32430
G1 X62.430 Y13.125 E6.34913
G1 X63.576 Y12.614 E6.41159
G1 X64.050 Y12.460 E6.43642
G1 X65.277 Y12.199 E6.49887
G1 X65.648 Y12.151 E6.51751
G1 X66.400 Y12.114 E6.55499
G1 X102.400 Y12.114 E8.34740
G1 X103.710 Y12.506 E8.41546
G1 X104.589 Y13.552 E8.48351 F600.000
G1 X104.786 Y14.500 E8.53170
G1 X104.786 Y26.500 E9.12917
G1 X104.394 Y27.810 E9.19723
G1 X103.348 Y28.689 E9.26529
G1 X102.400 Y28.886 E9.31348
G1 X66.400 Y28.886 E11.10588
G1 X65.648 Y28.849 E11.14337
G1 X65.277 Y28.801 E11.16200
G1 X64.050 Y28.540 E11.22445
G1 X63.576 Y28.386 E11.24929
G1 X62.430 Y27.876 E11.31174
G1 X61.998 Y27.626 E11.33657
G1 X60.983 Y26.889 E11.39903
G1 X60.612 Y26.555 E11.42385
G1 X59.773 Y25.623 E11.48630
G1 X59.480 Y25.220 E11.51114
G1 X58.853 Y24.133 E11.57359
G1 X58.650 Y23.678 E11.59842
G1 X58.262 Y22.485 E11.66088
G1 X58.159 Y21.997 E11.68571
G1 X58.027 Y20.749 E11.74816
G1 X58.027 Y20.251 E11.77299
G1 X58.159 Y19.003 E11.83544
G1 X58.250 Y18.574 E11.85729
G1 E5.85729 F1800.00000
G92 E0
G1 X69.341 Y20.858 F9000.000
G1 E6.00000 F1800.00000
G1 X69.082 Y21.908 E6.05381 F600.000
G1 X68.121 Y22.993 E6.12599
G1 X66.765 Y23.507 E6.19817
G1 X65.326 Y23.332 E6.27035
G1 X64.133 Y22.509 E6.34253
G1 X63.459 Y21.225 E6.41471
G1 X63.459 Y19.775 E6.48689
G1 X64.133 Y18.491 E6.55907
G1 X65.326 Y17.668 E6.63125
G1 X66.559 Y17.518 E6.69307
G1 X66.765 Y17.493 E6.70343 F600.000
G1 X68.121 Y18.007 E6.77561
G1 X69.082 Y19.092 E6.84779
G1 X69.429 Y20.500 E6.91997
G1 X69.355 Y20.800 E6.93536
G1 X68.966 Y20.766 F9000.000
G1 X68.730 Y21.723 E6.98443 F600.000
G1 X67.895 Y22.666 E7.04714
G1 X66.717 Y23.113 E7.10986
G1 X65.467 Y22.961 E7.17258
G1 X64.430 Y22.245 E7.23529
G1 X63.845 Y21.130 E7.29801
G1 X63.845 Y19.870 E7.36072
G1 X64.430 Y18.755 E7.42344
G1 X65.467 Y18.039 E7.48615
G1 X66.605 Y17.901 E7.54325
G1 X66.717 Y17.887 E7.54887 F600.000
G1 X67.895 Y18.334 E7.61159
G1 X68.730 Y19.277 E7.67430
G1 X69.032 Y20.500 E7.73702
G1 X68.981 Y20.708 E7.74767
G1 X69.255 Y21.043 F9000.000
G1 X101.789 Y25.889 F9000.000
G1 X67.011 Y25.889 E9.47927 F600.000
G1 X67.011 Y25.856 E9.48091
G1 X65.837 Y25.856 E9.53934
G1 X64.736 Y25.622 E9.59540
G1 X63.707 Y25.164 E9.65146
G1 X62.796 Y24.503 E9.70753
G1 X62.043 Y23.666 E9.76359
G1 X61.480 Y22.691 E9.81965
G1 X61.132 Y21.620 E9.87571
G1 X61.014 Y20.500 E9.93177
G1 X61.132 Y19.380 E9.98784
G1 X61.480 Y18.309 E10.04390
G1 X62.043 Y17.334 E10.09996
G1 X62.794 Y16.500 E10.15587
G1 X63.761 Y15.811 E10.21499
G1 X64.736 Y15.378 E10.26808
G1 X65.837 Y15.143 E10.32414
G1 X67.011 Y15.143 E10.38257
G1 X67.011 Y15.111 E10.38421
G1 X101.789 Y15.111 E12.11581
G1 X101.789 Y25.829 E12.64949
G1 X102.175 Y26.275 F9000.000
G1 X66.625 Y26.275 E14.41948 F600.000
G1 X66.625 Y26.242 E14.42112
G1 X65.796 Y26.242 E14.46237
G1 X64.616 Y25.991 E14.52247
G1 X63.513 Y25.500 E14.58257
G1 X62.537 Y24.791 E14.64267
G1 X61.729 Y23.894 E14.70276
G1 X61.125 Y22.848 E14.76286
G1 X60.752 Y21.700 E14.82296
G1 X60.626 Y20.500 E14.88306
G1 X60.752 Y19.300 E14.94315
G1 X61.125 Y18.152 E15.00325
G1 X61.729 Y17.106 E15.06335
G1 X62.536 Y16.210 E15.12339
G1 X63.569 Y15.475 E15.18655
G1 X64.616 Y15.009 E15.24358
G1 X65.796 Y14.758 E15.30367
G1 X66.625 Y14.758 E15.34493
G1 X66.625 Y14.725 E15.34656
G1 X102.175 Y14.725 E17.11656
G1 X102.175 Y26.215 E17.68864
G1 X101.829 Y26.075 F9000.000
G1 X101.506 Y15.598 F9000.000
G1 X101.302 Y15.394 E17.70302 F600.000
G1 X100.755 Y15.394 E17.73037
G1 X101.506 Y16.145 E17.78343
G1 X101.506 Y16.693 E17.81077
G1 X100.207 Y15.394 E17.90251
G1 X99.660 Y15.394 E17.92985
G1 X101.506 Y17.240 E18.06026
G1 X101.506 Y17.787 E18.08760
G1 X99.113 Y15.394 E18.25668
G1 X98.566 Y15.394 E18.28403
G1 X101.506 Y18.334 E18.49178
G1 X101.506 Y18.882 E18.51912
G1 X98.018 Y15.394 E18.76554
G1 X97.471 Y15.394 E18.79289
G1 X101.506 Y19.429 E19.07798
G1 X101.506 Y19.976 E19.10533
G1 X96.924 Y15.394 E19.42910
G1 X96.376 Y15.394 E19.45644
G1 X101.506 Y20.524 E19.81888
G1 X101.506 Y21.071 E19.84623
G1 X95.829 Y15.394 E20.24734
G1 X95.282 Y15.394 E20.27469
G1 X101.506 Y21.618 E20.71447
G1 X101.506 Y22.165 E20.74182
G1 X94.735 Y15.394 E21.22027
G1 X94.187 Y15.394 E21.24762
G1 X101.506 Y22.713 E21.76475
G1 X101.506 Y23.260 E21.79210
G1 X93.640 Y15.394 E22.34790
G1 X93.093 Y15.394 E22.37524
G1 X101.506 Y23.807 E22.96972
G1 X101.506 Y24.355 E22.99706
G1 X92.545 Y15.394 E23.63021
G1 X91.998 Y15.394 E23.65756
G1 X101.506 Y24.902 E24.32938
G1 X101.506 Y25.449 E24.35672
G1 X91.451 Y15.394 E25.06722
G1 X90.904 Y15.394 E25.09456
G1 X101.115 Y25.606 E25.81611
G1 X100.567 Y25.606 E25.84345
G1 X90.356 Y15.394 E26.56500
G1 X89.809 Y15.394 E26.59235
G1 X100.020 Y25.606 E27.31389
G1 X99.473 Y25.606 E27.34124
G1 X89.262 Y15.394 E28.06278
G1 X88.714 Y15.394 E28.09013
G1 X98.926 Y25.606 E28.81167
G1 X98.378 Y25.606 E28.83902
G1 X88.167 Y15.394 E29.56056
G1 X87.620 Y15.394 E29.58791
G1 X97.831 Y25.606 E30.30946
G1 X97.284 Y25.606 E30.33680
G1 X87.073 Y15.394 E31.05835
G1 X86.525 Y15.394 E31.08569
G1 X96.736 Y25.606 E31.80724
G1 X96.189 Y25.606 E31.83458
G1 X85.978 Y15.394 E32.55613
G1 X85.431 Y15.394 E32.58348
G1 X95.642 Y25.606 E33.30502
G1 X95.095 Y25.606 E33.33237
G1 X84.883 Y15.394 E34.05391
G1 X84.336 Y15.394 E34.08126
G1 X94.547 Y25.606 E34.80280
G1 X94.000 Y25.606 E34.83015
G1 X83.789 Y15.394 E35.55170
G1 X83.242 Y15.394 E35.57904
G1 X93.453 Y25.606 E36.30059
G1 X92.905 Y25.606 E36.32793
G1 X82.694 Y15.394 E37.04948
G1 X82.147 Y15.394 E37.07682
G1 X92.358 Y25.606 E37.79837
G1 X91.811 Y25.606 E37.82572
G1 X81.600 Y15.394 E38.54726
G1 X81.052 Y15.394 E38.57461
G1 X91.264 Y25.606 E39.29615
G1 X90.716 Y25.606 E39.32350
G1 X80.505 Y15.394 E40.04504
G1 X79.958 Y15.394 E40.07239
G1 X90.169 Y25.606 E40.79394
G1 X89.622 Y25.606 E40.82128
G1 X79.411 Y15.394 E41.54283
G1 X78.863 Y15.394 E41.57017
G1 X89.074 Y25.606 E42.29172
G1 X88.527 Y25.606 E42.31906
G1 X78.316 Y15.394 E43.04061
G1 X77.769 Y15.394 E43.06796
G1 X87.980 Y25.606 E43.78950
G1 X87.433 Y25.606 E43.81685
G1 X77.221 Y15.394 E44.53839
G1 X76.674 Y15.394 E44.56574
G1 X86.885 Y25.606 E45.28728
G1 X86.338 Y25.606 E45.31463
G1 X76.127 Y15.394 E46.03618
G1 X75.580 Y15.394 E46.06352
G1 X85.791 Y25.606 E46.78507
G1 X85.243 Y25.606 E46.81241
G1 X75.032 Y15.394 E47.53396
G1 X74.485 Y15.394 E47.56130
G1 X84.696 Y25.606 E48.28285
G1 X84.149 Y25.606 E48.31020
G1 X73.938 Y15.394 E49.03174
G1 X73.390 Y15.394 E49.05909
G1 X83.602 Y25.606 E49.78063
G1 X83.054 Y25.606 E49.80798
G1 X72.843 Y15.394 E50.52952
G1 X72.296 Y15.394 E50.55687
G1 X82.507 Y25.606 E51.27842
G1 X81.960 Y25.606 E51.30576
G1 X71.749 Y15.394 E52.02731
G1 X71.201 Y15.394 E52.05465
G1 X81.412 Y25.606 E52.77620
G1 X80.865 Y25.606 E52.80354
G1 X70.654 Y15.394 E53.52509
G1 X70.107 Y15.394 E53.55244
G1 X80.318 Y25.606 E54.27398
G1 X79.771 Y25.606 E54.30133
G1 X69.559 Y15.394 E55.02287
G1 X69.012 Y15.394 E55.05022
G1 X79.223 Y25.606 E55.77176
G1 X78.676 Y25.606 E55.79911
G1 X68.465 Y15.394 E56.52066
G1 X67.918 Y15.394 E56.54800
G1 X78.129 Y25.606 E57.26955
G1 X77.581 Y25.606 E57.29689
G1 X67.370 Y15.394 E58.01844
G1 X66.856 Y15.427 E58.04419
G1 X77.034 Y25.606 E58.76342
G1 X76.487 Y25.606 E58.79076
G1 X66.309 Y15.427 E59.50999
G1 X65.767 Y15.433 E59.53705
G1 X67.928 Y17.594 E59.68975
G1 X67.046 Y17.260 F9000.000
G1 X65.316 Y15.529 E59.81205 F600.000
G1 X64.864 Y15.625 E59.83511
G1 X66.490 Y17.250 E59.94995
G1 X66.001 Y17.309 E59.97452
G1 X64.470 Y15.778 E60.08274
G1 X64.091 Y15.946 E60.10345
G1 X65.513 Y17.369 E60.20394
G1 X65.109 Y17.512 E60.22537
G1 X63.736 Y16.138 E60.32241
G1 X63.416 Y16.366 E60.34202
G1 X64.785 Y17.735 E60.43878
G1 X64.462 Y17.959 E60.45844
G1 X63.096 Y16.593 E60.55492
G1 X62.817 Y16.861 E60.57426
G1 X64.138 Y18.182 E60.66760
G1 X63.864 Y18.455 E60.68694
G1 X62.551 Y17.143 E60.77967
G1 X62.292 Y17.431 E60.79904
G1 X63.675 Y18.814 E60.89678
G1 X63.487 Y19.173 E60.91704
G1 X62.084 Y17.770 E61.01617
G1 X61.884 Y18.117 E61.03619
G1 X63.299 Y19.532 E61.13617
G1 X63.175 Y19.956 E61.15823
G1 X61.700 Y18.481 E61.26248
G1 X61.566 Y18.894 E61.28418
G1 X63.175 Y20.503 E61.39792
G1 X63.175 Y21.051 E61.42526
G1 X61.432 Y19.307 E61.54848
G1 X61.366 Y19.789 E61.57278
G1 X63.397 Y21.820 E61.71633
G1 X61.679 Y22.291 F9000.000
G1 X64.592 Y25.204 E61.92217 F600.000
G1 X65.387 Y25.452 E61.96379
G1 X61.415 Y21.480 E62.24444
G1 X61.347 Y20.864 E62.27542
G1 X66.056 Y25.573 E62.60816
G1 X66.603 Y25.573 E62.63551
G1 X61.314 Y20.284 E63.00923
G1 X62.704 Y23.863 F9000.000
G1 X63.227 Y24.387 E63.04624 F600.000
G1 X65.189 Y23.612 F9000.000
G1 X67.150 Y25.573 E63.18480 F600.000
G1 X67.730 Y25.606 E63.21383
G1 X65.812 Y23.688 E63.34937
G1 X66.435 Y23.763 E63.38072
G1 X68.278 Y25.606 E63.51091
G1 X68.825 Y25.606 E63.53825
G1 X66.939 Y23.719 E63.67155
G1 X67.335 Y23.569 E63.69275
G1 X69.372 Y25.606 E63.83668
G1 X69.919 Y25.606 E63.86403
G1 X67.732 Y23.418 E64.01859
G1 X68.129 Y23.268 E64.03979
G1 X70.467 Y25.606 E64.20499
G1 X71.014 Y25.606 E64.23234
G1 X68.430 Y23.021 E64.41496
G1 X68.687 Y22.731 E64.43433
G1 X71.561 Y25.606 E64.63746
G1 X72.109 Y25.606 E64.66480
G1 X68.944 Y22.441 E64.88844
G1 X69.201 Y22.151 E64.90781
G1 X72.656 Y25.606 E65.15195
G1 X73.203 Y25.606 E65.17929
G1 X69.386 Y21.788 E65.44903
G1 X69.494 Y21.349 E65.47162
G1 X73.750 Y25.606 E65.77238
G1 X74.298 Y25.606 E65.79973
G1 X69.602 Y20.910 E66.13151
G1 X69.711 Y20.471 E66.15411
G1 X74.845 Y25.606 E66.51692
G1 X75.392 Y25.606 E66.54427
G1 X69.566 Y19.779 E66.95595
G1 X69.387 Y19.053 E66.99333
G1 X75.940 Y25.606 E67.45634
M104 S199 ; set temperature
M140 S55 ; wait for bed temperature to be reached
;Layer change
G1 E61.45634 F1800.00000
G92 E0
G1 Z0.520 F9000.000
G1 X69.482 Y20.500 F9000.000
G1 E6.00000 F1800.00000
G1 X69.129 Y21.932 E6.07978 F900.000
G1 X68.151 Y23.036 E6.15955
G1 X66.771 Y23.559 E6.23933
G1 X65.307 Y23.382 E6.31910
G1 X64.093 Y22.544 E6.39888
G1 X63.408 Y21.238 E6.47865
G1 X63.408 Y19.762 E6.55843
G1 X64.093 Y18.456 E6.63820
G1 X65.307 Y17.618 E6.71798 F900.000
G1 X66.771 Y17.441 E6.79775
G1 X68.151 Y17.964 E6.87753
G1 X69.129 Y19.068 E6.95730
G1 X69.467 Y20.442 E7.03384
G1 X69.006 Y20.500 F9000.000
G1 X68.707 Y21.711 E7.07550 F900.000
G1 X67.880 Y22.645 E7.11716
G1 X66.714 Y23.087 E7.15883
G1 X65.476 Y22.937 E7.20049
G1 X64.449 Y22.228 E7.24216
G1 X63.870 Y21.124 E7.28382
G1 X63.870 Y19.876 E7.32548
G1 X64.449 Y18.772 E7.36715
G1 X65.476 Y18.063 E7.40881
G1 X66.509 Y17.938 E7.44359
G1 X66.714 Y17.913 E7.45048 F900.000
G1 X67.880 Y18.355 E7.49214
G1 X68.707 Y19.289 E7.53380
G1 X68.992 Y20.442 E7.57346
G1 X69.335 Y20.727 F9000.000
G1 X101.738 Y15.162 F9000.000
G1 X101.738 Y25.838 E8.15086 F3000.000
G1 X67.062 Y25.838 E10.02625
G1 X67.062 Y25.805 E10.02803
G1 X65.842 Y25.805 E10.09399
G1 X64.752 Y25.573 E10.15430
G1 X63.733 Y25.120 E10.21461
G1 X62.831 Y24.464 E10.27493
G1 X62.084 Y23.635 E10.33524
G1 X61.527 Y22.670 E10.39555
G1 X61.182 Y21.609 E10.45587
G1 X61.066 Y20.500 E10.51618
G1 X61.182 Y19.391 E10.57649
G1 X61.527 Y18.330 E10.63681
G1 X62.084 Y17.365 E10.69712
G1 X62.831 Y16.536 E10.75743
G1 X63.733 Y15.880 E10.81774
G1 X64.752 Y15.427 E10.87806
G1 X65.842 Y15.195 E10.93837
G1 X67.062 Y15.195 E11.00433
G1 X67.062 Y15.162 E11.00611
G1 X101.678 Y15.162 E12.87825
G1 X102.200 Y14.700 F9000.000
G1 X102.200 Y26.300 E13.26573 F1800.000
G1 X66.600 Y26.300 E14.45489
G1 X66.600 Y26.267 E14.45599
G1 X65.794 Y26.267 E14.48292
G1 X64.608 Y26.015 E14.52341
G1 X63.501 Y25.522 E14.56391
G1 X62.520 Y24.809 E14.60440
G1 X61.709 Y23.909 E14.64489
G1 X61.102 Y22.859 E14.68539
G1 X60.728 Y21.706 E14.72589
G1 X60.601 Y20.500 E14.76638
G1 X60.728 Y19.294 E14.80687
G1 X61.102 Y18.141 E14.84737
G1 X61.709 Y17.091 E14.88786
G1 X62.520 Y16.191 E14.92836
G1 X63.501 Y15.478 E14.96885
G1 X64.608 Y14.985 E15.00935
G1 X65.794 Y14.733 E15.04984
G1 X66.600 Y14.733 E15.07677
G1 X66.600 Y14.700 E15.07787
G1 X102.140 Y14.700 E16.26502
G1 X102.000 Y15.046 F9000.000
G1 X101.026 Y25.408 F9000.000
G1 X101.308 Y25.126 E16.28672 F1800.000
G1 X101.308 Y24.314 E16.33081
G1 X100.214 Y25.408 E16.41486
G1 X99.403 Y25.408 E16.45895
G1 X101.308 Y23.503 E16.60535
G1 X101.308 Y22.691 E16.64944
G1 X98.591 Y25.408 E16.85820
G1 X97.780 Y25.408 E16.90229
G1 X101.308 Y21.880 E17.17340
G1 X101.308 Y21.068 E17.21749
G1 X96.968 Y25.408 E17.55096
G1 X96.157 Y25.408 E17.59505
G1 X101.308 Y20.257 E17.99087
G1 X101.308 Y19.445 E18.03496
G1 X95.345 Y25.408 E18.49313
G1 X94.534 Y25.408 E18.53722
G1 X101.308 Y18.634 E19.05775
G1 X101.308 Y17.822 E19.10184
G1 X93.722 Y25.408 E19.68473
G1 X92.911 Y25.408 E19.72882
G1 X101.308 Y17.011 E20.37405
G1 X101.308 Y16.199 E20.41815
G1 X92.099 Y25.408 E21.12574
G1 X91.288 Y25.408 E21.16983
G1 X101.104 Y15.592 E21.92406
G1 X100.292 Y15.592 E21.96815
G1 X90.476 Y25.408 E22.72238
G1 X89.664 Y25.408 E22.76648
G1 X99.480 Y15.592 E23.52071
G1 X98.669 Y15.592 E23.56480
G1 X88.853 Y25.408 E24.31903
G1 X88.041 Y25.408 E24.36312
G1 X97.857 Y15.592 E25.11736
G1 X97.046 Y15.592 E25.16145
G1 X87.230 Y25.408 E25.91568
G1 X86.418 Y25.408 E25.95977
G1 X96.234 Y15.592 E26.71400
G1 X95.423 Y15.592 E26.75809
G1 X85.607 Y25.408 E27.51233
G1 X84.795 Y25.408 E27.55642
G1 X94.611 Y15.592 E28.31065
G1 X93.800 Y15.592 E28.35474
G1 X83.984 Y25.408 E29.10897
G1 X83.172 Y25.408 E29.15307
G1 X92.988 Y15.592 E29.90730
G1 X92.177 Y15.592 E29.95139
G1 X82.361 Y25.408 E30.70562
G1 X81.549 Y25.408 E30.74971
G1 X91.365 Y15.592 E31.50395
G1 X90.554 Y15.592 E31.54804
G1 X80.738 Y25.408 E32.30227
G1 X79.926 Y25.408 E32.34636
G1 X89.742 Y15.592 E33.10059
G1 X88.931 Y15.592 E33.14469
G1 X79.115 Y25.408 E33.89892
G1 X78.303 Y25.408 E33.94301
G1 X88.119 Y15.592 E34.69724
G1 X87.308 Y15.592 E34.74133
G1 X77.492 Y25.408 E35.49557
G1 X76.680 Y25.408 E35.53966
G1 X86.496 Y15.592 E36.29389
G1 X85.685 Y15.592 E36.33798
G1 X75.869 Y25.408 E37.09221
G1 X75.057 Y25.408 E37.13630
G1 X84.873 Y15.592 E37.89054
G1 X84.062 Y15.592 E37.93463
G1 X74.246 Y25.408 E38.68886
G1 X73.434 Y25.408 E38.73295
G1 X83.250 Y15.592 E39.48719
G1 X82.439 Y15.592 E39.53128
G1 X72.623 Y25.408 E40.28551
G1 X71.811 Y25.408 E40.32960
G1 X81.627 Y15.592 E41.08383
G1 X80.816 Y15.592 E41.12792
G1 X71.000 Y25.408 E41.88216
G1 X70.188 Y25.408 E41.92625
G1 X80.004 Y15.592 E42.68048
G1 X79.193 Y15.592 E42.72457
G1 X69.377 Y25.408 E43.47880
G1 X68.565 Y25.408 E43.52290
G1 X78.381 Y15.592 E44.27713
G1 X77.570 Y15.592 E44.32122
G1 X67.754 Y25.408 E45.07545
G1 X66.975 Y25.375 E45.11779
G1 X76.758 Y15.592 E45.86950
G1 X75.947 Y15.592 E45.91359
G1 X69.605 Y21.934 E46.40088
G1 X69.870 Y20.857 E46.46115
G1 X75.135 Y15.592 E46.86569
G1 X74.324 Y15.592 E46.90978
G1 X69.803 Y20.113 E47.25713
G1 X69.642 Y19.462 E47.29356
G1 X73.512 Y15.592 E47.59089
G1 X72.701 Y15.592 E47.63498
G1 X69.443 Y18.849 E47.88527
G1 X69.062 Y18.419 E47.91651
G1 X71.889 Y15.592 E48.13373
G1 X71.078 Y15.592 E48.17782
G1 X68.681 Y17.989 E48.36199
G1 X68.271 Y17.587 E48.39317
G1 X70.266 Y15.592 E48.54646
