; generated by Slic3r 1.2.9 on 2017-12-11 at 12:11:20

; external perimeters extrusion width = 0.40mm
; perimeters extrusion width = 0.62mm
; infill extrusion width = 0.33mm
; solid infill extrusion width = 0.62mm
; top infill extrusion width = 0.20mm

M106 S256; Turn on fan to 100% power
M104 S140; turn on extruder temperature at S value
M140 S60; turn on bed temperature at S value
G28; home all axes
M84; disable motors
G1 Z15 F15000; have Z move to 20mm at 15000 mm/min
M190 S55; turn on bed temperature at S value and wait
M140 S55; turn on bed temperature at S value (printing temperature)
M109 S200; turn on extruder temperature at S value and wait (printing temperature)
M104 S200; turn on extruder temperature at S value
G1 Z0 F12000; move Z back to home
G21 ; set units to millimeters
G90 ; use absolute coordinates
M82 ; use absolute distances for extrusion
G92 E0
M106 S255
;Layer change
G1 E-6.00000 F1800.00000
G92 E0
G1 Z0.300 F9000.000
G1 X37.181 Y21.467 F9000.000
G1 E6.00000 F1800.00000
G1 X37.394 Y21.098 E6.02120 F600.000
G1 X37.687 Y20.694 E6.04603
G1 X38.527 Y19.762 E6.10849
G1 X38.897 Y19.428 E6.13332
G1 X39.912 Y18.691 E6.19577
G1 X40.344 Y18.442 E6.22060
G1 X41.490 Y17.932 E6.28305
G1 X41.964 Y17.777 E6.30788
G1 X43.191 Y17.517 E6.37034
G1 X43.562 Y17.468 E6.38897
G1 X44.314 Y17.432 E6.42646
G1 X80.338 Y17.432 E8.22005
G1 X129.029 Y17.917 E10.64445 F600.000
G1 X130.335 Y18.322 E10.71251
G1 X131.204 Y19.377 E10.78057
G1 X131.391 Y20.303 E10.82759
G1 X131.391 Y32.303 E11.42506
G1 X131.000 Y33.612 E11.49312
G1 X129.953 Y34.492 E11.56118
G1 X129.006 Y34.688 E11.60937
G1 X95.983 Y34.688 E13.25352
G1 X44.292 Y34.203 E15.82728
G1 X43.562 Y34.167 E15.86365
G1 X43.191 Y34.118 E15.88229
G1 X41.964 Y33.857 E15.94474
G1 X41.490 Y33.703 E15.96957
G1 X40.344 Y33.193 E16.03203
G1 X39.912 Y32.943 E16.05686
G1 X38.897 Y32.206 E16.11932
G1 X38.527 Y31.872 E16.14414
G1 X37.688 Y30.940 E16.20659
G1 X37.394 Y30.537 E16.23143
G1 X36.767 Y29.450 E16.29388
G1 X36.564 Y28.995 E16.31871
G1 X36.177 Y27.802 E16.38116
G1 X36.073 Y27.314 E16.40599
G1 X35.948 Y26.129 E16.46532
G1 X35.942 Y25.568 E16.49326
G1 X36.073 Y24.320 E16.55572
G1 X36.177 Y23.833 E16.58055
G1 X36.564 Y22.640 E16.64300
G1 X36.767 Y22.184 E16.66783
G1 X37.151 Y21.519 E16.70609
G1 E10.70609 F1800.00000
G92 E0
G1 X93.738 Y28.311 F9000.000
G1 E6.00000 F1800.00000
G1 X93.065 Y27.028 E6.07218 F600.000
G1 X93.065 Y25.578 E6.14436
G1 X93.738 Y24.294 E6.21654
G1 X94.931 Y23.471 E6.28872
G1 X96.164 Y23.321 E6.35055
G1 X96.371 Y23.296 E6.36090 F600.000
G1 X97.726 Y23.810 E6.43308
G1 X98.687 Y24.895 E6.50526
G1 X99.034 Y26.303 E6.57744
G1 X98.687 Y27.710 E6.64962
G1 X97.726 Y28.795 E6.72180
G1 X96.371 Y29.310 E6.79398
G1 X94.931 Y29.135 E6.86616
G1 X93.788 Y28.345 E6.93536
G1 X94.036 Y28.048 F9000.000
G1 X93.450 Y26.933 E6.99807 F600.000
G1 X93.450 Y25.673 E7.06079
G1 X94.036 Y24.558 E7.12350
G1 X95.072 Y23.842 E7.18622
G1 X96.211 Y23.704 E7.24331
G1 X96.323 Y23.690 E7.24893 F600.000
G1 X97.501 Y24.137 E7.31165
G1 X98.336 Y25.080 E7.37437
G1 X98.637 Y26.303 E7.43708
G1 X98.336 Y27.526 E7.49980
G1 X97.501 Y28.469 E7.56251
G1 X96.323 Y28.915 E7.62523
G1 X95.072 Y28.763 E7.68794
G1 X94.085 Y28.082 E7.74767
G1 X93.639 Y28.096 F9000.000
G1 E1.74767 F1800.00000
G92 E0
G1 X128.395 Y31.692 F9000.000
G1 E6.00000 F1800.00000
G1 X96.616 Y31.692 E7.58223 F600.000
G1 X96.616 Y31.659 E7.58387
G1 X95.443 Y31.659 E7.64230
G1 X94.341 Y31.425 E7.69837
G1 X93.313 Y30.967 E7.75443
G1 X92.402 Y30.305 E7.81049
G1 X91.648 Y29.469 E7.86655
G1 X91.085 Y28.493 E7.92261
G1 X90.737 Y27.423 E7.97867
G1 X90.620 Y26.303 E8.03474
G1 X90.737 Y25.183 E8.09080
G1 X91.085 Y24.112 E8.14686
G1 X91.618 Y23.189 E8.19995
G1 X92.404 Y22.298 E8.25907
G1 X93.313 Y21.638 E8.31498
G1 X94.341 Y21.180 E8.37104
G1 X95.443 Y20.946 E8.42710
G1 X96.616 Y20.946 E8.48553
G1 X96.616 Y20.913 E8.48717
G1 X128.395 Y20.913 E10.06940
G1 X128.395 Y31.632 E10.60308
G1 X128.781 Y32.078 F9000.000
G1 X96.231 Y32.078 E12.22371 F600.000
G1 X96.231 Y32.045 E12.22535
G1 X95.402 Y32.045 E12.26660
G1 X94.221 Y31.794 E12.32670
G1 X93.119 Y31.303 E12.38680
G1 X92.142 Y30.593 E12.44689
G1 X91.334 Y29.696 E12.50699
G1 X90.731 Y28.651 E12.56709
G1 X90.358 Y27.503 E12.62719
G1 X90.232 Y26.303 E12.68728
G1 X90.358 Y25.102 E12.74738
G1 X90.731 Y23.954 E12.80748
G1 X91.304 Y22.962 E12.86451
G1 X92.143 Y22.011 E12.92767
G1 X93.119 Y21.302 E12.98771
G1 X94.221 Y20.812 E13.04780
G1 X95.402 Y20.561 E13.10790
G1 X96.231 Y20.561 E13.14915
G1 X96.231 Y20.528 E13.15079
G1 X128.781 Y20.528 E14.77142
G1 X128.781 Y32.018 E15.34350
G1 X128.434 Y31.878 F9000.000
G1 X128.111 Y21.401 F9000.000
G1 X127.908 Y21.197 E15.35798 F600.000
G1 X127.357 Y21.197 E15.38568
G1 X128.111 Y21.952 E15.43933
G1 X128.111 Y22.502 E15.46704
G1 X126.806 Y21.197 E15.55987
G1 X126.255 Y21.197 E15.58757
G1 X128.111 Y23.053 E15.71957
G1 X128.111 Y23.604 E15.74728
G1 X125.704 Y21.197 E15.91846
G1 X125.153 Y21.197 E15.94616
G1 X128.111 Y24.155 E16.15652
G1 X128.111 Y24.706 E16.18422
G1 X124.603 Y21.197 E16.43375
G1 X124.052 Y21.197 E16.46145
G1 X128.111 Y25.257 E16.75016
G1 X128.111 Y25.807 E16.77786
G1 X123.501 Y21.197 E17.10574
G1 X122.950 Y21.197 E17.13345
G1 X128.111 Y26.358 E17.50050
G1 X128.111 Y26.909 E17.52820
G1 X122.399 Y21.197 E17.93444
G1 X121.848 Y21.197 E17.96214
G1 X128.111 Y27.460 E18.40755
G1 X128.111 Y28.011 E18.43525
G1 X121.298 Y21.197 E18.91984
G1 X120.747 Y21.197 E18.94754
G1 X128.111 Y28.562 E19.47130
G1 X128.111 Y29.112 E19.49900
G1 X120.196 Y21.197 E20.06193
G1 X119.645 Y21.197 E20.08963
G1 X128.111 Y29.663 E20.69174
G1 X128.111 Y30.214 E20.71945
G1 X119.094 Y21.197 E21.36073
G1 X118.543 Y21.197 E21.38843
G1 X128.111 Y30.765 E22.06889
G1 X128.111 Y31.316 E22.09660
G1 X117.993 Y21.197 E22.81623
G1 X117.442 Y21.197 E22.84393
G1 X127.653 Y31.408 E23.57016
G1 X127.102 Y31.408 E23.59786
G1 X116.891 Y21.197 E24.32408
G1 X116.340 Y21.197 E24.35178
G1 X126.551 Y31.408 E25.07800
G1 X126.000 Y31.408 E25.10570
G1 X115.789 Y21.197 E25.83192
G1 X115.238 Y21.197 E25.85962
G1 X125.450 Y31.408 E26.58585
G1 X124.899 Y31.408 E26.61355
G1 X114.688 Y21.197 E27.33977
G1 X114.137 Y21.197 E27.36747
G1 X124.348 Y31.408 E28.09369
G1 X123.797 Y31.408 E28.12139
G1 X113.586 Y21.197 E28.84761
G1 X113.035 Y21.197 E28.87532
G1 X123.246 Y31.408 E29.60154
G1 X122.695 Y31.408 E29.62924
G1 X112.484 Y21.197 E30.35546
G1 X111.933 Y21.197 E30.38316
G1 X122.145 Y31.408 E31.10938
G1 X121.594 Y31.408 E31.13708
G1 X111.383 Y21.197 E31.86331
G1 X110.832 Y21.197 E31.89101
G1 X121.043 Y31.408 E32.61723
G1 X120.492 Y31.408 E32.64493
G1 X110.281 Y21.197 E33.37115
G1 X109.730 Y21.197 E33.39885
G1 X119.941 Y31.408 E34.12507
G1 X119.390 Y31.408 E34.15277
G1 X109.179 Y21.197 E34.87900
G1 X108.628 Y21.197 E34.90670
G1 X118.840 Y31.408 E35.63292
G1 X118.289 Y31.408 E35.66062
G1 X108.078 Y21.197 E36.38684
G1 X107.527 Y21.197 E36.41454
G1 X117.738 Y31.408 E37.14076
G1 X117.187 Y31.408 E37.16847
G1 X106.976 Y21.197 E37.89469
G1 X106.425 Y21.197 E37.92239
G1 X116.636 Y31.408 E38.64861
G1 X116.085 Y31.408 E38.67631
G1 X105.874 Y21.197 E39.40253
G1 X105.323 Y21.197 E39.43023
G1 X115.535 Y31.408 E40.15646
G1 X114.984 Y31.408 E40.18416
G1 X104.773 Y21.197 E40.91038
G1 X104.222 Y21.197 E40.93808
G1 X114.433 Y31.408 E41.66430
G1 X113.882 Y31.408 E41.69200
G1 X103.671 Y21.197 E42.41822
G1 X103.120 Y21.197 E42.44592
G1 X113.331 Y31.408 E43.17215
G1 X112.780 Y31.408 E43.19985
G1 X102.569 Y21.197 E43.92607
G1 X102.018 Y21.197 E43.95377
G1 X112.230 Y31.408 E44.67999
G1 X111.679 Y31.408 E44.70769
G1 X101.468 Y21.197 E45.43391
G1 X100.917 Y21.197 E45.46162
G1 X111.128 Y31.408 E46.18784
G1 X110.577 Y31.408 E46.21554
G1 X100.366 Y21.197 E46.94176
G1 X99.815 Y21.197 E46.96946
G1 X110.026 Y31.408 E47.69568
G1 X109.475 Y31.408 E47.72338
G1 X99.264 Y21.197 E48.44960
G1 X98.713 Y21.197 E48.47731
G1 X108.925 Y31.408 E49.20353
G1 X108.374 Y31.408 E49.23123
G1 X98.163 Y21.197 E49.95745
G1 X97.612 Y21.197 E49.98515
G1 X107.823 Y31.408 E50.71137
G1 X107.272 Y31.408 E50.73907
G1 X97.061 Y21.197 E51.46529
G1 X96.543 Y21.230 E51.49140
G1 X106.721 Y31.408 E52.21528
G1 X106.170 Y31.408 E52.24298
G1 X95.992 Y21.230 E52.96686
G1 X95.441 Y21.230 E52.99457
G1 X97.654 Y23.442 E53.15190
G1 X96.766 Y23.106 F9000.000
G1 X94.980 Y21.319 E53.27895 F600.000
G1 X94.525 Y21.416 E53.30231
G1 X96.155 Y23.046 E53.41822
G1 X95.664 Y23.105 E53.44310
G1 X94.120 Y21.561 E53.55293
G1 X93.739 Y21.731 E53.57391
G1 X95.173 Y23.165 E53.67592
G1 X94.748 Y23.291 E53.69819
G1 X93.367 Y21.910 E53.79645
G1 X93.048 Y22.141 E53.81628
G1 X94.422 Y23.516 E53.91405
G1 X94.096 Y23.741 E53.93396
G1 X92.729 Y22.373 E54.03124
G1 X92.446 Y22.641 E54.05084
G1 X93.771 Y23.966 E54.14507
G1 X93.484 Y24.230 E54.16467
G1 X92.182 Y22.928 E54.25727
G1 X91.924 Y23.221 E54.27689
G1 X93.294 Y24.591 E54.37438
G1 X93.105 Y24.953 E54.39489
G1 X91.703 Y23.550 E54.49461
G1 X91.501 Y23.900 E54.51489
G1 X92.915 Y25.314 E54.61547
G1 X92.781 Y25.730 E54.63748
G1 X91.312 Y24.262 E54.74191
G1 X91.177 Y24.678 E54.76389
G1 X92.781 Y26.281 E54.87793
G1 X92.781 Y26.832 E54.90563
G1 X91.042 Y25.093 E55.02928
G1 X90.973 Y25.575 E55.05376
G1 X92.983 Y27.585 E55.19672
G1 X91.283 Y28.088 F9000.000
G1 X94.204 Y31.009 E55.40448 F600.000
G1 X95.002 Y31.256 E55.44648
G1 X91.017 Y27.272 E55.72984
G1 X90.951 Y26.655 E55.76107
G1 X95.672 Y31.375 E56.09681
G1 X96.223 Y31.375 E56.12451
G1 X90.921 Y26.074 E56.50158
G1 X92.309 Y29.666 F9000.000
G1 X92.833 Y30.189 E56.53882 F600.000
G1 X94.815 Y29.417 F9000.000
G1 X96.773 Y31.375 E56.67810 F600.000
G1 X97.357 Y31.408 E56.70751
G1 X95.442 Y29.493 E56.84371
G1 X96.069 Y29.569 E56.87547
G1 X97.908 Y31.408 E57.00626
G1 X98.459 Y31.408 E57.03396
G1 X96.565 Y29.514 E57.16867
G1 X96.964 Y29.363 E57.19015
G1 X99.010 Y31.408 E57.33564
G1 X99.560 Y31.408 E57.36334
G1 X97.363 Y29.211 E57.51960
G1 X97.763 Y29.060 E57.54108
G1 X100.111 Y31.408 E57.70811
G1 X100.662 Y31.408 E57.73581
G1 X98.055 Y28.801 E57.92122
G1 X98.314 Y28.509 E57.94084
G1 X101.213 Y31.408 E58.14703
G1 X101.764 Y31.408 E58.17473
G1 X98.573 Y28.217 E58.40168
G1 X98.831 Y27.925 E58.42131
G1 X102.315 Y31.408 E58.66903
G1 X102.865 Y31.408 E58.69673
G1 X99.003 Y27.546 E58.97146
G1 X99.112 Y27.104 E58.99434
G1 X103.416 Y31.408 E59.30049
G1 X103.967 Y31.408 E59.32820
G1 X99.221 Y26.662 E59.66577
G1 X99.329 Y26.219 E59.68869
G1 X104.518 Y31.408 E60.05775
G1 X105.069 Y31.408 E60.08545
G1 X99.149 Y25.488 E60.50650
G1 X98.968 Y24.757 E60.54436
G1 X105.620 Y31.408 E61.01740
G1 E55.01740 F1800.00000
G92 E0
G1 X47.343 Y25.817 F9000.000
G1 E6.00000 F1800.00000
G1 X46.996 Y27.225 E6.07218 F600.000
G1 X46.035 Y28.310 E6.14436
G1 X44.680 Y28.824 E6.21654
G1 X43.240 Y28.649 E6.28872
G1 X42.047 Y27.826 E6.36090
G1 X41.374 Y26.542 E6.43308
G1 X41.374 Y25.092 E6.50526
G1 X42.047 Y23.809 E6.57744
G1 X43.240 Y22.985 E6.64962
G1 X44.429 Y22.841 E6.70925
G1 X44.680 Y22.810 E6.72180 F600.000
G1 X46.035 Y23.325 E6.79398
G1 X46.996 Y24.410 E6.86616
G1 X47.329 Y25.759 E6.93536
G1 X46.946 Y25.817 F9000.000
G1 X46.645 Y27.040 E6.99807 F600.000
G1 X45.809 Y27.983 E7.06079
G1 X44.632 Y28.430 E7.12350
G1 X43.381 Y28.278 E7.18622
G1 X42.345 Y27.562 E7.24893
G1 X41.759 Y26.447 E7.31165
G1 X41.759 Y25.187 E7.37437
G1 X42.345 Y24.072 E7.43708
G1 X43.381 Y23.357 E7.49980
G1 X44.476 Y23.224 E7.55469
G1 X44.632 Y23.205 E7.56251 F600.000
G1 X45.809 Y23.651 E7.62523
G1 X46.645 Y24.594 E7.68794
G1 X46.932 Y25.759 E7.74767
G1 X47.275 Y26.045 F9000.000
G1 X79.704 Y20.428 F9000.000
G1 X79.704 Y31.207 E8.28434 F600.000
G1 X44.925 Y31.207 E10.01594
G1 X44.925 Y31.174 E10.01757
G1 X43.751 Y31.174 E10.07601
G1 X42.650 Y30.940 E10.13207
G1 X41.621 Y30.482 E10.18813
G1 X40.711 Y29.820 E10.24419
G1 X39.957 Y28.983 E10.30025
G1 X39.394 Y28.008 E10.35631
G1 X39.046 Y26.937 E10.41238
G1 X38.928 Y25.817 E10.46844
G1 X39.046 Y24.697 E10.52450
G1 X39.394 Y23.627 E10.58056
G1 X39.957 Y22.651 E10.63662
G1 X40.708 Y21.817 E10.69253
G1 X41.676 Y21.129 E10.75165
G1 X42.650 Y20.695 E10.80474
G1 X43.751 Y20.461 E10.86080
G1 X44.925 Y20.461 E10.91924
G1 X44.925 Y20.428 E10.92087
G1 X79.644 Y20.428 E12.64949
G1 X80.089 Y20.042 F9000.000
G1 X80.089 Y31.592 E13.22455 F600.000
G1 X44.539 Y31.592 E14.99455
G1 X44.539 Y31.559 E14.99618
G1 X43.711 Y31.559 E15.03744
G1 X42.530 Y31.308 E15.09753
G1 X41.428 Y30.818 E15.15763
G1 X40.451 Y30.108 E15.21773
G1 X39.643 Y29.211 E15.27782
G1 X39.040 Y28.166 E15.33792
G1 X38.667 Y27.018 E15.39802
G1 X38.541 Y25.817 E15.45812
G1 X38.667 Y24.617 E15.51822
G1 X39.040 Y23.469 E15.57831
G1 X39.643 Y22.424 E15.63841
G1 X40.450 Y21.527 E15.69845
G1 X41.484 Y20.792 E15.76161
G1 X42.530 Y20.326 E15.81864
G1 X43.711 Y20.075 E15.87874
G1 X44.539 Y20.075 E15.91999
G1 X44.539 Y20.042 E15.92162
G1 X80.029 Y20.042 E17.68864
G1 X79.889 Y20.389 F9000.000
G1 X79.420 Y20.915 F9000.000
G1 X79.216 Y20.712 E17.70302 F600.000
G1 X78.669 Y20.712 E17.73037
G1 X79.420 Y21.463 E17.78343
G1 X79.420 Y22.010 E17.81077
G1 X78.122 Y20.712 E17.90251
G1 X77.575 Y20.712 E17.92985
G1 X79.420 Y22.557 E18.06026
G1 X79.420 Y23.104 E18.08760
G1 X77.027 Y20.712 E18.25668
G1 X76.480 Y20.712 E18.28402
G1 X79.420 Y23.652 E18.49177
G1 X79.420 Y24.199 E18.51912
G1 X75.933 Y20.712 E18.76554
G1 X75.385 Y20.712 E18.79289
G1 X79.420 Y24.746 E19.07798
G1 X79.420 Y25.294 E19.10533
G1 X74.838 Y20.712 E19.42910
G1 X74.291 Y20.712 E19.45644
G1 X79.420 Y25.841 E19.81888
G1 X79.420 Y26.388 E19.84623
G1 X73.744 Y20.712 E20.24734
G1 X73.196 Y20.712 E20.27469
G1 X79.420 Y26.935 E20.71447
G1 X79.420 Y27.483 E20.74182
G1 X72.649 Y20.712 E21.22027
G1 X72.102 Y20.712 E21.24762
G1 X79.420 Y28.030 E21.76475
G1 X79.420 Y28.577 E21.79209
G1 X71.554 Y20.712 E22.34790
G1 X71.007 Y20.712 E22.37524
G1 X79.420 Y29.125 E22.96972
G1 X79.420 Y29.672 E22.99706
G1 X70.460 Y20.712 E23.63021
G1 X69.913 Y20.712 E23.65756
G1 X79.420 Y30.219 E24.32938
G1 X79.420 Y30.766 E24.35672
G1 X69.365 Y20.712 E25.06722
G1 X68.818 Y20.712 E25.09456
G1 X79.029 Y30.923 E25.81611
G1 X78.482 Y30.923 E25.84345
G1 X68.271 Y20.712 E26.56500
G1 X67.723 Y20.712 E26.59234
G1 X77.935 Y30.923 E27.31389
G1 X77.387 Y30.923 E27.34124
G1 X67.176 Y20.712 E28.06278
G1 X66.629 Y20.712 E28.09013
G1 X76.840 Y30.923 E28.81167
G1 X76.293 Y30.923 E28.83902
G1 X66.082 Y20.712 E29.56056
G1 X65.534 Y20.712 E29.58791
G1 X75.745 Y30.923 E30.30946
G1 X75.198 Y30.923 E30.33680
G1 X64.987 Y20.712 E31.05835
G1 X64.440 Y20.712 E31.08569
G1 X74.651 Y30.923 E31.80724
G1 X74.104 Y30.923 E31.83458
G1 X63.892 Y20.712 E32.55613
G1 X63.345 Y20.712 E32.58347
G1 X73.556 Y30.923 E33.30502
G1 X73.009 Y30.923 E33.33237
G1 X62.798 Y20.712 E34.05391
G1 X62.251 Y20.712 E34.08126
G1 X72.462 Y30.923 E34.80280
G1 X71.914 Y30.923 E34.83015
G1 X61.703 Y20.712 E35.55169
G1 X61.156 Y20.712 E35.57904
G1 X71.367 Y30.923 E36.30059
G1 X70.820 Y30.923 E36.32793
G1 X60.609 Y20.712 E37.04948
G1 X60.061 Y20.712 E37.07682
G1 X70.273 Y30.923 E37.79837
G1 X69.725 Y30.923 E37.82571
G1 X59.514 Y20.712 E38.54726
G1 X58.967 Y20.712 E38.57461
G1 X69.178 Y30.923 E39.29615
G1 X68.631 Y30.923 E39.32350
G1 X58.420 Y20.712 E40.04504
G1 X57.872 Y20.712 E40.07239
G1 X68.083 Y30.923 E40.79393
G1 X67.536 Y30.923 E40.82128
G1 X57.325 Y20.712 E41.54283
G1 X56.778 Y20.712 E41.57017
G1 X66.989 Y30.923 E42.29172
G1 X66.442 Y30.923 E42.31906
G1 X56.230 Y20.712 E43.04061
G1 X55.683 Y20.712 E43.06795
G1 X65.894 Y30.923 E43.78950
G1 X65.347 Y30.923 E43.81685
G1 X55.136 Y20.712 E44.53839
G1 X54.589 Y20.712 E44.56574
G1 X64.800 Y30.923 E45.28728
G1 X64.252 Y30.923 E45.31463
G1 X54.041 Y20.712 E46.03617
G1 X53.494 Y20.712 E46.06352
G1 X63.705 Y30.923 E46.78506
G1 X63.158 Y30.923 E46.81241
G1 X52.947 Y20.712 E47.53396
G1 X52.399 Y20.712 E47.56130
G1 X62.611 Y30.923 E48.28285
G1 X62.063 Y30.923 E48.31019
G1 X51.852 Y20.712 E49.03174
G1 X51.305 Y20.712 E49.05908
G1 X61.516 Y30.923 E49.78063
G1 X60.969 Y30.923 E49.80798
G1 X50.758 Y20.712 E50.52952
G1 X50.210 Y20.712 E50.55687
G1 X60.421 Y30.923 E51.27841
G1 X59.874 Y30.923 E51.30576
G1 X49.663 Y20.712 E52.02730
G1 X49.116 Y20.712 E52.05465
G1 X59.327 Y30.923 E52.77620
