; generated by Slic3r 1.2.9 on 2020-07-26 at 16:05:32

; external perimeters extrusion width = 0.40mm
; perimeters extrusion width = 0.62mm
; infill extrusion width = 0.33mm
; solid infill extrusion width = 0.62mm
; top infill extrusion width = 0.20mm

M106 S256; Turn on fan to 100% power
M104 S140; turn on extruder temperature at S value
M140 S60; turn on bed temperature at S value
G28; home all axes
M84; disable motors
G1 Z15 F15000; have Z move to 20mm at 15000 mm/min
M190 S55; turn on bed temperature at S value and wait
M140 S55; turn on bed temperature at S value (printing temperature)
M109 S200; turn on extruder temperature at S value and wait (printing temperature)
M104 S200; turn on extruder temperature at S value
G1 Z0 F12000; move Z back to home
G21 ; set units to millimeters
G90 ; use absolute coordinates
M82 ; use absolute distances for extrusion
G92 E0
M106 S255
;Layer change
G1 E-6.00000 F1800.00000
G92 E0
G1 Z0.300 F9000.000
G1 X57.573 Y38.367 F9000.000
G1 E6.00000 F1800.00000
G1 X57.861 Y38.018 E6.02229 F600.000
G1 X75.103 Y19.650 E7.26212
G1 X75.462 Y19.337 E7.28554
G1 X75.816 Y19.086 E7.30692
G1 X76.180 Y18.873 E7.32768
G1 X76.630 Y18.662 E7.35212
G1 X77.230 Y18.471 E7.38310
G1 X77.873 Y18.357 E7.41527
G1 X78.198 Y18.322 E7.43135
G1 X80.613 Y18.237 E7.55026
G1 X122.570 Y17.775 E9.61531
G1 X124.864 Y17.778 E9.72820
G1 X125.991 Y17.844 E9.78376 F600.000
G1 X127.168 Y17.982 E9.84211
G1 X128.172 Y18.167 E9.89236
G1 X129.137 Y18.412 E9.94137
G1 X130.071 Y18.716 E9.98970
G1 X130.993 Y19.081 E10.03849
G1 X131.888 Y19.493 E10.08697
G1 X132.957 Y20.119 E10.14794
G1 X134.354 Y21.134 E10.23291
G1 X140.117 Y25.646 E10.59313
G1 X142.028 Y27.176 E10.71362
G1 X143.063 Y28.088 E10.78152
G1 X143.657 Y28.896 E10.83087
G1 X143.856 Y29.338 E10.85471
G1 X144.031 Y29.906 E10.88398
G1 X144.134 Y30.495 E10.91341
G1 X144.183 Y31.188 E10.94762
G1 X144.186 Y31.984 E10.98676
G1 X144.136 Y32.574 E11.01590
G1 X143.992 Y33.171 E11.04613
G1 X143.866 Y33.502 E11.06359
G1 X143.609 Y33.994 E11.09088
G1 X143.354 Y34.368 E11.11317
G1 X143.151 Y34.625 E11.12927
G1 X142.617 Y35.208 E11.16818
G1 X141.930 Y35.867 E11.21505
G1 X135.577 Y41.532 E11.63397
G1 X134.370 Y42.574 E11.71244
G1 X133.384 Y43.346 E11.77406
G1 X132.559 Y43.877 E11.82236
G1 X131.599 Y44.386 E11.87579
G1 X130.753 Y44.760 E11.92132
G1 X130.004 Y45.043 E11.96074
G1 X129.095 Y45.330 E12.00768
G1 X128.032 Y45.596 E12.06159
G1 X127.219 Y45.751 E12.10231
G1 X126.264 Y45.880 E12.14973
G1 X122.881 Y45.984 E12.31631
G1 X63.292 Y46.546 E15.24912
G1 X60.952 Y46.502 E15.36431
G1 X60.196 Y46.418 E15.40176
G1 X59.165 Y46.049 E15.45566
G1 X58.805 Y45.816 E15.47677
G1 X58.471 Y45.554 E15.49764
G1 X58.102 Y45.209 E15.52253
G1 X57.860 Y44.946 E15.54009
G1 X57.661 Y44.693 E15.55594
G1 X57.391 Y44.265 E15.58083
G1 X57.279 Y44.037 E15.59334
G1 X57.069 Y43.385 E15.62703
G1 X56.994 Y42.882 E15.65205
G1 X56.926 Y41.949 E15.69812
G1 X56.920 Y40.593 E15.76487
G1 X56.971 Y39.889 E15.79959
G1 X57.165 Y39.101 E15.83953
G1 X57.257 Y38.892 E15.85077
G1 X57.542 Y38.418 E15.87797
G1 E9.87797 F1800.00000
G92 E0
G1 X120.203 Y40.231 F9000.000
G1 E6.00000 F1800.00000
G1 X119.022 Y39.992 E6.05931 F600.000
G1 X117.876 Y39.658 E6.11803
G1 X116.776 Y39.233 E6.17607
G1 X115.731 Y38.721 E6.23336
G1 X114.751 Y38.126 E6.28979
G1 X113.844 Y37.452 E6.34538
G1 X113.023 Y36.704 E6.40008
G1 X112.485 Y36.109 E6.43954
G1 X112.019 Y35.495 E6.47746
G1 X111.625 Y34.859 E6.51430
G1 X111.303 Y34.200 E6.55039
G1 X111.054 Y33.520 E6.58605
G1 X110.876 Y32.819 E6.62162
G1 X110.770 Y32.098 E6.65750
G1 X110.734 Y31.356 E6.69403
G1 X110.773 Y30.592 E6.73170
G1 X110.881 Y29.865 E6.76785
G1 X111.064 Y29.171 E6.80321
G1 X111.323 Y28.502 E6.83850
G1 X111.661 Y27.855 E6.87441
G1 X112.079 Y27.225 E6.91164
G1 X112.578 Y26.604 E6.95088
G1 X113.165 Y25.985 E6.99285
G1 X114.035 Y25.212 E7.05011
G1 X114.983 Y24.532 E7.10751
G1 X116.001 Y23.948 E7.16530
G1 X117.089 Y23.460 E7.22398
G1 X118.242 Y23.070 E7.28385
G1 X119.457 Y22.781 E7.34533
G1 X120.730 Y22.592 E7.40866
G1 X122.074 Y22.505 E7.47498
G1 X123.001 Y22.498 E7.52061 F600.000
G1 X123.908 Y22.537 E7.56528
G1 X124.780 Y22.624 E7.60839
G1 X125.624 Y22.760 E7.65046
G1 X126.443 Y22.944 E7.69176
G1 X127.241 Y23.179 E7.73272
G1 X128.023 Y23.465 E7.77371
G1 X128.795 Y23.800 E7.81512
G1 X129.675 Y24.250 E7.86378
G1 X130.437 Y24.725 E7.90796
G1 X131.162 Y25.284 E7.95298
G1 X131.937 Y25.987 E8.00449
G1 X132.819 Y26.946 E8.06862
G1 X133.193 Y27.455 E8.09970
G1 X133.518 Y27.979 E8.13005
G1 X133.796 Y28.522 E8.16006
G1 X134.349 Y29.795 E8.22839
G1 X134.502 Y30.925 E8.28453
G1 X134.427 Y31.476 E8.31185
G1 X134.464 Y31.808 E8.32831
G1 X134.460 Y32.184 E8.34681
G1 X134.353 Y33.160 E8.39512
G1 X134.157 Y33.924 E8.43396
G1 X133.614 Y35.056 E8.49574
G1 X132.946 Y36.064 E8.55525
G1 X132.134 Y36.976 E8.61536
G1 X131.164 Y37.811 E8.67835
G1 X130.472 Y38.289 E8.71973
G1 X129.697 Y38.734 E8.76370
G1 X128.860 Y39.140 E8.80951
G1 X127.978 Y39.500 E8.85636
G1 X127.073 Y39.807 E8.90340
G1 X126.163 Y40.054 E8.94982
G1 X125.269 Y40.233 E8.99471
G1 X124.410 Y40.335 E9.03725
G1 X122.702 Y40.428 E9.12147
G1 X121.409 Y40.370 E9.18514
G1 X120.263 Y40.238 E9.24194
G1 X119.947 Y40.538 F9000.000
G1 E3.24194 F1800.00000
G92 E0
G1 X135.371 Y33.848 F9000.000
G1 E6.00000 F1800.00000
G1 X135.848 Y34.188 E6.02885 F600.000
G1 X136.912 Y34.575 E6.08457
G1 X137.632 Y34.657 E6.12022
G1 X133.079 Y38.712 E6.42025
G1 X131.935 Y39.700 E6.49467
G1 X131.125 Y40.330 E6.54515
G1 X130.605 Y40.655 E6.57532
G1 X130.018 Y40.966 E6.60805
G1 X129.384 Y41.250 E6.64222
G1 X128.712 Y41.504 E6.67758
G1 X128.011 Y41.722 E6.71370
G1 X127.290 Y41.902 E6.75029
G1 X126.555 Y42.042 E6.78711
G1 X125.846 Y42.135 E6.82230
G1 X122.836 Y42.216 E6.97047
G1 X116.783 Y42.248 E7.26837
G1 X109.900 Y42.215 E7.60714
G1 X109.225 Y42.169 E7.64044
G1 X109.030 Y42.021 E7.65247
G1 X108.536 Y41.757 E7.68003
G1 X107.996 Y41.583 E7.70799
G1 X107.435 Y41.512 E7.73579
G1 X106.865 Y41.548 E7.76388
G1 X106.303 Y41.700 E7.79256
G1 X105.773 Y41.971 E7.82184
G1 X105.619 Y42.097 E7.83164
G1 X105.461 Y41.977 E7.84142
G1 X104.959 Y41.717 E7.86927
G1 X104.402 Y41.560 E7.89773
G1 X103.821 Y41.527 E7.92639
G1 X103.249 Y41.621 E7.95491
G1 X102.720 Y41.827 E7.98286
G1 X102.199 Y42.148 E8.01298
G1 X101.698 Y41.783 E8.04347
G1 X101.140 Y41.596 E8.07243
G1 X100.607 Y41.545 E8.09879
G1 X99.905 Y41.636 E8.13362
G1 X99.239 Y41.868 E8.16835
G1 X98.744 Y42.160 E8.19660
G1 X98.558 Y42.022 E8.20799
G1 X97.959 Y41.740 E8.24058
G1 X97.281 Y41.602 E8.27463
G1 X96.609 Y41.648 E8.30779
G1 X96.031 Y41.820 E8.33743
G1 X95.508 Y42.059 E8.36575
G1 X95.267 Y42.205 E8.37961
G1 X94.704 Y41.865 E8.41195
G1 X94.152 Y41.697 E8.44039
G1 X93.616 Y41.641 E8.46687
G1 X93.083 Y41.696 E8.49326
G1 X92.520 Y41.866 E8.52221
G1 X91.909 Y42.242 E8.55752
G1 X91.814 Y42.155 E8.56386
G1 X91.276 Y41.856 E8.59414
G1 X90.673 Y41.738 E8.62438
G1 X89.652 Y41.738 E8.67465
G1 X89.049 Y41.856 E8.70485
G1 X88.512 Y42.155 E8.73511
G1 X88.415 Y42.244 E8.74158
G1 X87.958 Y41.973 E8.76770
G1 X87.406 Y41.780 E8.79652
G1 X86.832 Y41.698 E8.82501
G1 X86.251 Y41.727 E8.85366
G1 X85.679 Y41.874 E8.88272
G1 X85.130 Y42.146 E8.91286
G1 X84.939 Y42.302 E8.92502
G1 X84.230 Y41.910 E8.96487
G1 X83.424 Y41.719 E9.00568
G1 X82.566 Y41.806 E9.04810
G1 X81.804 Y42.136 E9.08895
G1 X81.534 Y42.339 E9.10562
G1 X81.462 Y42.281 E9.11018
G1 X80.960 Y42.002 E9.13843
G1 X80.398 Y41.827 E9.16742
G1 X79.815 Y41.775 E9.19622
G1 X79.236 Y41.843 E9.22489
G1 X78.688 Y42.022 E9.25326
G1 X78.200 Y42.287 E9.28061
G1 X78.112 Y42.353 E9.28601
G1 X77.645 Y42.071 E9.31288
G1 X77.079 Y41.882 E9.34220
G1 X76.501 Y41.815 E9.37085
G1 X75.929 Y41.859 E9.39910
G1 X75.373 Y42.008 E9.42740
G1 X74.846 Y42.257 E9.45610
G1 X74.335 Y42.637 E9.48746
G1 X63.271 Y42.778 E10.03203
G1 X61.305 Y42.751 E10.12880
G1 X60.946 Y42.710 E10.14658
G1 X60.753 Y42.530 E10.15959
G1 X60.747 Y42.059 E10.18276
G1 X60.691 Y41.758 E10.19782
G1 X60.682 Y40.805 E10.24471
G1 X60.705 Y40.492 E10.26018
G1 X60.807 Y40.449 E10.26565
G1 X61.018 Y40.401 E10.27629
G1 X62.259 Y40.293 E10.33760
G1 X65.097 Y40.196 E10.47733
G1 X66.537 Y40.111 E10.54835
G1 X67.243 Y40.183 E10.58328
G1 X68.170 Y40.076 E10.62921
G1 X69.054 Y39.742 E10.67569
G1 X69.826 Y39.104 E10.72497
G1 X73.791 Y30.784 E11.17858
G1 X76.598 Y24.662 E11.51004
G1 X77.088 Y23.692 E11.56352
G1 X77.265 Y23.413 E11.57978
G1 X77.343 Y23.140 E11.59376
G1 X77.564 Y22.611 E11.62199
G1 X77.677 Y22.419 E11.63293
G1 X77.765 Y22.322 E11.63938
G1 X77.896 Y22.229 E11.64728
G1 X78.068 Y22.149 E11.65662
G1 X78.432 Y22.084 E11.67483
G1 X79.211 Y22.060 E11.71315
G1 X79.568 Y22.079 E11.73079
G1 X79.844 Y22.030 E11.74458
G1 X80.624 Y22.006 E11.78295
G1 X81.404 Y22.048 E11.82140
G1 X81.576 Y22.082 E11.83004
G1 X81.321 Y22.720 E11.86388
G1 X75.918 Y34.455 E12.49968
G1 X75.275 Y36.019 E12.58291
G1 X75.088 Y36.920 E12.62817
G1 X75.203 Y37.852 E12.67442
G1 X75.334 Y38.165 E12.69109
G1 X75.354 Y38.441 E12.70472
G1 X76.004 Y39.410 E12.76214
G1 X77.008 Y39.898 E12.81707
G1 X78.034 Y39.953 E12.86765
G1 X78.513 Y39.844 E12.89183
G1 X78.874 Y39.900 E12.90980
G1 X80.550 Y39.962 E12.99232
G1 X92.003 Y39.809 E13.55605
G1 X96.322 Y39.707 E13.76869
G1 X97.112 Y39.613 E13.80781
G1 X97.496 Y39.542 E13.82705
G1 X100.455 Y39.542 E13.97267
G1 X100.957 Y39.346 E13.99920
G1 X101.832 Y38.937 E14.04673
G1 X102.664 Y38.474 E14.09359
G1 X103.441 Y37.965 E14.13928
G1 X104.119 Y37.455 E14.18108
G1 X104.726 Y36.931 E14.22054
G1 X105.284 Y36.361 E14.25977
G1 X105.792 Y35.731 E14.29961
G1 X106.262 Y35.031 E14.34112
G1 X106.717 Y34.235 E14.38624
G1 X107.622 Y32.355 E14.48890
G1 X109.433 Y28.492 E14.69890
G1 X109.766 Y27.840 E14.73492
G1 X110.129 Y27.272 E14.76809
G1 X110.579 Y26.691 E14.80426
G1 X111.162 Y26.046 E14.84704
G1 X111.815 Y25.396 E14.89237
G1 X111.978 Y25.556 E14.90359
G1 X111.706 Y25.842 E14.92299
G1 X111.144 Y26.541 E14.96717
G1 X110.663 Y27.267 E15.01000
G1 X110.268 Y28.024 E15.05203
G1 X109.961 Y28.813 E15.09370
G1 X109.746 Y29.632 E15.13539
G1 X109.620 Y30.477 E15.17743
G1 X109.576 Y31.355 E15.22069
G1 X109.617 Y32.210 E15.26281
G1 X109.740 Y33.047 E15.30443
G1 X109.947 Y33.862 E15.34586
G1 X110.238 Y34.654 E15.38737
G1 X110.611 Y35.418 E15.42923
G1 X111.064 Y36.150 E15.47160
G1 X111.593 Y36.848 E15.51469
G1 X112.203 Y37.521 E15.55938
G1 X113.108 Y38.346 E15.61964
G1 X114.104 Y39.087 E15.68073
G1 X115.175 Y39.737 E15.74241
G1 X116.312 Y40.294 E15.80475
G1 X117.506 Y40.755 E15.86769
G1 X118.745 Y41.116 E15.93121
G1 X120.021 Y41.375 E15.99532
G1 X121.317 Y41.524 E16.05951
G1 X122.707 Y41.586 E16.12800
G1 X124.510 Y41.488 E16.21686
G1 X125.451 Y41.376 E16.26348
G1 X126.428 Y41.181 E16.31252
G1 X127.411 Y40.914 E16.36266
G1 X128.383 Y40.584 E16.41319
G1 X129.331 Y40.197 E16.46356
G1 X130.238 Y39.758 E16.51317
G1 X131.090 Y39.268 E16.56153
G1 X131.872 Y38.728 E16.60830
G1 X132.947 Y37.803 E16.67808
G1 X133.865 Y36.772 E16.74603
G1 X134.623 Y35.628 E16.81355
G1 X135.249 Y34.322 E16.88486
G1 X135.356 Y33.906 E16.90600
G1 X135.298 Y29.076 F9000.000
G1 X134.843 Y28.027 E16.96228 F600.000
G1 X134.526 Y27.409 E16.99645
G1 X134.152 Y26.806 E17.03134
G1 X133.713 Y26.210 E17.06777
G1 X132.753 Y25.165 E17.13761
G1 X131.904 Y24.396 E17.19400
G1 X131.098 Y23.774 E17.24411
G1 X130.246 Y23.243 E17.29352
G1 X129.290 Y22.754 E17.34639
G1 X128.366 Y22.352 E17.39594
G1 X128.444 Y22.146 E17.40677
G1 X128.740 Y22.241 E17.42210
G1 X129.455 Y22.521 E17.45986
G1 X130.243 Y22.883 E17.50257
G1 X130.960 Y23.315 E17.54373
G1 X132.049 Y24.114 E17.61022
G1 X137.329 Y28.249 E17.94028
G1 X136.932 Y28.293 E17.95995
G1 X135.851 Y28.681 E18.01649
G1 X135.347 Y29.041 E18.04696
G1 X135.134 Y29.667 F9000.000
G1 X134.494 Y28.192 E18.12610 F600.000
G1 X134.190 Y27.599 E18.15888
G1 X133.832 Y27.023 E18.19226
G1 X133.415 Y26.455 E18.22690
G1 X132.481 Y25.439 E18.29484
G1 X131.657 Y24.692 E18.34961
G1 X130.878 Y24.091 E18.39802
G1 X130.056 Y23.579 E18.44568
G1 X129.125 Y23.103 E18.49715
G1 X128.310 Y22.748 E18.54090
G1 X127.482 Y22.446 E18.58424
G1 X126.637 Y22.197 E18.62762
G1 X125.770 Y22.002 E18.67134
G1 X124.880 Y21.859 E18.71573
G1 X123.963 Y21.768 E18.76104
G1 X123.015 Y21.726 E18.80775
G1 X122.046 Y21.734 E18.85543
G1 X120.648 Y21.824 E18.92439
G1 X119.311 Y22.023 E18.99094
G1 X118.028 Y22.328 E19.05582
G1 X116.807 Y22.741 E19.11925
G1 X115.651 Y23.260 E19.18162
G1 X114.565 Y23.883 E19.24324
G1 X113.553 Y24.609 E19.30453
G1 X112.628 Y25.430 E19.36539
G1 X111.997 Y26.096 E19.41054
G1 X111.456 Y26.769 E19.45307
G1 X110.996 Y27.463 E19.49403
G1 X110.620 Y28.183 E19.53403
G1 X110.329 Y28.932 E19.57357
G1 X110.124 Y29.710 E19.61315
G1 X110.004 Y30.515 E19.65322
G1 X109.962 Y31.355 E19.69462
G1 X110.001 Y32.173 E19.73488
G1 X110.118 Y32.971 E19.77459
G1 X110.316 Y33.748 E19.81406
G1 X110.593 Y34.503 E19.85363
G1 X110.949 Y35.232 E19.89356
G1 X111.383 Y35.932 E19.93409
G1 X111.890 Y36.602 E19.97545
G1 X112.476 Y37.249 E20.01840
G1 X113.353 Y38.048 E20.07680
G1 X114.319 Y38.767 E20.13606
G1 X115.360 Y39.399 E20.19599
G1 X116.467 Y39.941 E20.25665
G1 X117.629 Y40.389 E20.31796
G1 X118.837 Y40.741 E20.37988
G1 X120.082 Y40.994 E20.44239
G1 X121.348 Y41.140 E20.50510
G1 X122.705 Y41.200 E20.57198
G1 X124.477 Y41.104 E20.65930
G1 X125.390 Y40.995 E20.70455
G1 X126.340 Y40.805 E20.75221
G1 X127.299 Y40.545 E20.80111
G1 X128.248 Y40.222 E20.85048
G1 X129.174 Y39.844 E20.89967
G1 X130.058 Y39.416 E20.94802
G1 X130.884 Y38.942 E20.99491
G1 X131.636 Y38.422 E21.03989
G1 X132.676 Y37.527 E21.10740
G1 X133.559 Y36.536 E21.17274
G1 X134.287 Y35.438 E21.23759
G1 X134.885 Y34.189 E21.30572
G1 X135.137 Y33.207 E21.35565
G1 X136.029 Y33.844 E21.40960
G1 X137.001 Y34.197 E21.46048
G1 X138.042 Y34.315 E21.51204
G1 X138.395 Y34.275 E21.52953
G1 X138.464 Y34.430 E21.53786
G1 X133.333 Y39.002 E21.87607
G1 X132.179 Y39.998 E21.95111
G1 X131.347 Y40.647 E22.00306
G1 X130.798 Y40.989 E22.03489
G1 X130.187 Y41.313 E22.06891
G1 X129.531 Y41.607 E22.10428
G1 X128.837 Y41.868 E22.14078
G1 X128.115 Y42.093 E22.17799
G1 X127.373 Y42.279 E22.21567
G1 X126.616 Y42.423 E22.25358
G1 X125.876 Y42.520 E22.29029
G1 X122.843 Y42.602 E22.43965
G1 X116.784 Y42.633 E22.73785
G1 X109.886 Y42.601 E23.07732
G1 X109.084 Y42.545 E23.11690
G1 X108.822 Y42.347 E23.13309
G1 X108.385 Y42.113 E23.15745
G1 X107.912 Y41.961 E23.18193
G1 X107.423 Y41.899 E23.20616
G1 X106.929 Y41.930 E23.23055
G1 X106.443 Y42.062 E23.25532
G1 X105.986 Y42.295 E23.28057
G1 X105.628 Y42.589 E23.30334
G1 X105.254 Y42.304 E23.32647
G1 X104.816 Y42.077 E23.35074
G1 X104.338 Y41.942 E23.37520
G1 X103.841 Y41.914 E23.39969
G1 X103.351 Y41.995 E23.42413
G1 X102.892 Y42.173 E23.44838
G1 X102.475 Y42.430 E23.47250
G1 X102.225 Y42.644 E23.48867
G1 X101.519 Y42.130 E23.53169
G1 X101.059 Y41.975 E23.55555
G1 X100.613 Y41.933 E23.57759
G1 X99.994 Y42.013 E23.60832
G1 X99.402 Y42.220 E23.63921
G1 X98.874 Y42.530 E23.66933
G1 X98.752 Y42.646 E23.67760
G1 X98.359 Y42.354 E23.70168
G1 X97.837 Y42.109 E23.73010
G1 X97.255 Y41.991 E23.75931
G1 X96.678 Y42.030 E23.78780
G1 X96.167 Y42.182 E23.81400
G1 X95.689 Y42.400 E23.83990
G1 X95.264 Y42.657 E23.86433
G1 X94.546 Y42.220 E23.90569
G1 X94.075 Y42.076 E23.92994
G1 X93.616 Y42.029 E23.95263
G1 X93.159 Y42.076 E23.97526
G1 X92.679 Y42.220 E23.99992
G1 X91.864 Y42.723 E24.04703
G1 X91.587 Y42.470 E24.06547
G1 X91.142 Y42.223 E24.09054
G1 X90.636 Y42.124 E24.11593
G1 X89.689 Y42.124 E24.16252
G1 X89.184 Y42.223 E24.18787
G1 X88.739 Y42.470 E24.21293
G1 X88.425 Y42.756 E24.23379
G1 X88.244 Y42.591 E24.24585
G1 X87.795 Y42.324 E24.27155
G1 X87.314 Y42.156 E24.29663
G1 X86.815 Y42.085 E24.32144
G1 X86.310 Y42.110 E24.34633
G1 X85.814 Y42.238 E24.37151
G1 X85.341 Y42.472 E24.39752
G1 X84.963 Y42.781 E24.42155
G1 X84.648 Y42.572 E24.44014
G1 X84.093 Y42.274 E24.47117
G1 X83.398 Y42.109 E24.50630
G1 X82.664 Y42.184 E24.54259
G1 X81.999 Y42.471 E24.57825
G1 X81.524 Y42.829 E24.60749
G1 X81.245 Y42.601 E24.62524
G1 X80.808 Y42.358 E24.64986
G1 X80.322 Y42.207 E24.67486
G1 X79.820 Y42.163 E24.69968
G1 X79.320 Y42.221 E24.72448
G1 X78.842 Y42.378 E24.74924
