; generated by Slic3r 1.2.9 on 2020-07-26 at 19:47:31

; external perimeters extrusion width = 0.40mm
; perimeters extrusion width = 0.62mm
; infill extrusion width = 0.33mm
; solid infill extrusion width = 0.62mm
; top infill extrusion width = 0.20mm

M106 S256; Turn on fan to 100% power
M104 S140; turn on extruder temperature at S value
M140 S60; turn on bed temperature at S value
G28; home all axes
M84; disable motors
G1 Z15 F15000; have Z move to 20mm at 15000 mm/min
M190 S55; turn on bed temperature at S value and wait
M140 S55; turn on bed temperature at S value (printing temperature)
M109 S200; turn on extruder temperature at S value and wait (printing temperature)
M104 S200; turn on extruder temperature at S value
G1 Z0 F12000; move Z back to home
G21 ; set units to millimeters
G90 ; use absolute coordinates
M82 ; use absolute distances for extrusion
G92 E0
M106 S255
;Layer change
G1 E-6.00000 F1800.00000
G92 E0
G1 Z0.300 F9000.000
G1 X49.543 Y39.665 F9000.000
G1 E6.00000 F1800.00000
G1 X70.362 Y17.475 E7.49749 F600.000
G1 X70.720 Y17.162 E7.52091
G1 X71.145 Y16.860 E7.54655
G1 X71.510 Y16.647 E7.56733
G1 X72.049 Y16.394 E7.59666
G1 X72.649 Y16.203 E7.62763
G1 X73.421 Y16.066 E7.66623
G1 X73.746 Y16.031 E7.68232
G1 X76.630 Y15.930 E7.82437
G1 X126.979 Y15.375 E10.30243
G1 X129.680 Y15.379 E10.43536
G1 X131.049 Y15.457 E10.50285 F600.000
G1 X132.262 Y15.595 E10.56291
G1 X133.428 Y15.799 E10.62116
G1 X134.709 Y16.117 E10.68616
G1 X135.802 Y16.472 E10.74269
G1 X136.882 Y16.899 E10.79986
G1 X137.956 Y17.393 E10.85804
G1 X139.192 Y18.120 E10.92861
G1 X140.821 Y19.304 E11.02771
G1 X147.736 Y24.719 E11.45996
G1 X150.025 Y26.552 E11.60430
G1 X151.249 Y27.631 E11.68461
G1 X151.844 Y28.439 E11.73396
G1 X152.082 Y28.969 E11.76258
G1 X152.257 Y29.538 E11.79185
G1 X152.380 Y30.244 E11.82715
G1 X152.433 Y31.015 E11.86517
G1 X152.436 Y31.948 E11.91112
G1 X152.379 Y32.606 E11.94358
G1 X152.235 Y33.203 E11.97381
G1 X152.083 Y33.601 E11.99477
G1 X151.826 Y34.092 E12.02206
G1 X151.520 Y34.541 E12.04880
G1 X151.318 Y34.798 E12.06491
G1 X150.699 Y35.473 E12.10997
G1 X149.887 Y36.253 E12.16536
G1 X142.265 Y43.051 E12.66801
G1 X140.822 Y44.296 E12.76181
G1 X139.658 Y45.207 E12.83458
G1 X138.708 Y45.815 E12.89010
G1 X137.614 Y46.395 E12.95101
G1 X136.625 Y46.834 E13.00424
G1 X135.726 Y47.173 E13.05154
G1 X134.662 Y47.509 E13.10648
G1 X133.439 Y47.815 E13.16849
G1 X132.464 Y48.000 E13.21736
G1 X131.345 Y48.151 E13.27290
G1 X127.343 Y48.271 E13.46997
G1 X55.836 Y48.946 E16.98934
G1 X53.086 Y48.897 E17.12474
G1 X52.178 Y48.795 E17.16966
G1 X51.147 Y48.426 E17.22357
G1 X50.715 Y48.146 E17.24891
G1 X50.381 Y47.885 E17.26976
G1 X49.938 Y47.470 E17.29964
G1 X49.697 Y47.207 E17.31720
G1 X49.457 Y46.904 E17.33622
G1 X49.188 Y46.476 E17.36111
G1 X49.054 Y46.202 E17.37611
G1 X48.844 Y45.551 E17.40981
G1 X48.759 Y44.990 E17.43771
G1 X48.678 Y43.895 E17.49175
G1 X48.670 Y42.313 E17.56961
G1 X48.731 Y41.469 E17.61126
G1 X48.926 Y40.680 E17.65125
G1 X49.036 Y40.430 E17.66469
G1 X49.352 Y39.905 E17.69485
G1 X49.505 Y39.712 E17.70700
G1 E11.70700 F1800.00000
G92 E0
G1 X116.532 Y38.475 F9000.000
G1 E6.00000 F1800.00000
G1 X115.549 Y37.580 E6.06542 F600.000
G1 X114.906 Y36.870 E6.11257
G1 X114.350 Y36.137 E6.15787
G1 X113.880 Y35.377 E6.20186
G1 X113.495 Y34.590 E6.24494
G1 X113.198 Y33.778 E6.28751
G1 X112.985 Y32.942 E6.32996
G1 X112.858 Y32.081 E6.37280
G1 X112.816 Y31.196 E6.41642
G1 X112.862 Y30.283 E6.46141
G1 X112.996 Y29.387 E6.50600
G1 X113.209 Y28.586 E6.54677
G1 X113.519 Y27.789 E6.58885
G1 X113.922 Y27.017 E6.63171
G1 X114.421 Y26.264 E6.67616
G1 X115.018 Y25.522 E6.72305
G1 X115.719 Y24.782 E6.77323
G1 X116.761 Y23.858 E6.84174
G1 X117.893 Y23.044 E6.91038
G1 X119.104 Y22.349 E6.97908
G1 X120.414 Y21.762 E7.04971
G1 X121.793 Y21.296 E7.12136
G1 X123.247 Y20.949 E7.19494
G1 X124.770 Y20.723 E7.27074
G1 X126.377 Y20.619 E7.34998
G1 X127.491 Y20.610 E7.40480 F600.000
G1 X128.577 Y20.658 E7.45829
G1 X129.620 Y20.761 E7.50990
G1 X130.630 Y20.924 E7.56024
G1 X131.610 Y21.145 E7.60967
G1 X132.565 Y21.426 E7.65867
G1 X133.501 Y21.767 E7.70773
G1 X134.425 Y22.169 E7.75729
G1 X135.478 Y22.708 E7.81551
G1 X136.389 Y23.276 E7.86832
G1 X137.255 Y23.943 E7.92215
G1 X138.183 Y24.784 E7.98378
G1 X139.238 Y25.932 E8.06050
G1 X139.684 Y26.539 E8.09760
G1 X140.072 Y27.165 E8.13383
G1 X140.405 Y27.813 E8.16968
G1 X141.065 Y29.334 E8.25130
G1 X141.246 Y30.679 E8.31806
G1 X141.158 Y31.338 E8.35082
G1 X141.202 Y31.740 E8.37072
G1 X141.197 Y32.186 E8.39267
G1 X141.069 Y33.352 E8.45037
G1 X140.836 Y34.261 E8.49660
G1 X140.188 Y35.613 E8.57037
G1 X139.390 Y36.817 E8.64147
G1 X138.419 Y37.907 E8.71330
G1 X137.259 Y38.906 E8.78862
G1 X136.433 Y39.477 E8.83807
G1 X135.506 Y40.009 E8.89067
G1 X134.503 Y40.494 E8.94549
G1 X133.448 Y40.925 E9.00158
G1 X132.365 Y41.293 E9.05788
G1 X131.276 Y41.589 E9.11343
G1 X130.233 Y41.799 E9.16580
G1 X129.179 Y41.925 E9.21804
G1 X127.132 Y42.036 E9.31892
G1 X125.585 Y41.968 E9.39514
G1 X124.141 Y41.801 E9.46668
G1 X122.727 Y41.515 E9.53766
G1 X121.356 Y41.115 E9.60794
G1 X120.039 Y40.607 E9.67740
G1 X118.788 Y39.994 E9.74595
G1 X117.616 Y39.282 E9.81346
G1 X116.580 Y38.511 E9.87701
G1 X116.155 Y38.609 F9000.000
G1 X106.640 Y44.437 F9000.000
G1 X106.295 Y44.174 E9.89831 F600.000
G1 X105.738 Y43.887 E9.92916
G1 X105.127 Y43.714 E9.96045
G1 X104.489 Y43.678 E9.99186
G1 X103.862 Y43.781 E10.02316
G1 X103.277 Y44.008 E10.05404
G1 X102.749 Y44.334 E10.08454
G1 X102.551 Y44.504 E10.09741
G1 X101.799 Y43.956 E10.14320
G1 X101.200 Y43.755 E10.17429
G1 X100.623 Y43.700 E10.20283
G1 X99.840 Y43.801 E10.24169
G1 X99.093 Y44.062 E10.28061
G1 X98.365 Y44.491 E10.32218
G1 X98.017 Y44.232 E10.34350
G1 X97.353 Y43.920 E10.37963
G1 X96.609 Y43.769 E10.41702
G1 X95.870 Y43.819 E10.45346
G1 X95.225 Y44.011 E10.48656
G1 X94.629 Y44.283 E10.51881
G1 X94.211 Y44.537 E10.54287
G1 X93.438 Y44.070 E10.58731
G1 X92.875 Y43.882 E10.61652
G1 X92.230 Y43.815 E10.64843
G1 X91.644 Y43.876 E10.67741
G1 X91.041 Y44.057 E10.70839
G1 X90.139 Y44.594 E10.76007
G1 X89.904 Y44.380 E10.77569
G1 X89.325 Y44.058 E10.80829
G1 X88.690 Y43.934 E10.84014
G1 X88.085 Y43.917 E10.86993
G1 X87.480 Y43.934 E10.89973
G1 X86.845 Y44.058 E10.93154
G1 X86.267 Y44.380 E10.96412
G1 X86.000 Y44.623 E10.98187
G1 X85.894 Y44.526 E10.98893
G1 X85.323 Y44.188 E11.02162
G1 X84.711 Y43.974 E11.05352
G1 X84.076 Y43.882 E11.08507
G1 X83.433 Y43.915 E11.11676
G1 X82.802 Y44.078 E11.14884
G1 X82.197 Y44.377 E11.18205
G1 X81.834 Y44.674 E11.20516
G1 X81.564 Y44.494 E11.22112
G1 X80.868 Y44.121 E11.25999
G1 X79.980 Y43.911 E11.30489
G1 X79.040 Y44.006 E11.35140
G1 X78.195 Y44.371 E11.39670
G1 X77.724 Y44.726 E11.42572
G1 X77.488 Y44.535 E11.44064
G1 X76.933 Y44.225 E11.47194
G1 X76.313 Y44.033 E11.50386
G1 X75.672 Y43.976 E11.53557
G1 X75.033 Y44.051 E11.56720
G1 X74.426 Y44.250 E11.59866
G1 X73.879 Y44.546 E11.62927
G1 X73.614 Y44.743 E11.64550
G1 X73.526 Y44.655 E11.65162
G1 X72.947 Y44.305 E11.68494
G1 X72.325 Y44.098 E11.71721
G1 X71.686 Y44.024 E11.74887
G1 X71.051 Y44.072 E11.78020
G1 X70.434 Y44.238 E11.81166
G1 X69.846 Y44.515 E11.84364
G1 X69.352 Y44.871 E11.87360
G1 X69.195 Y45.010 E11.88395
G1 X55.815 Y45.178 E12.54248
G1 X53.438 Y45.145 E12.65948
G1 X52.922 Y45.087 E12.68504
G1 X52.590 Y44.792 E12.70692
G1 X52.518 Y44.701 E12.71262
G1 X52.510 Y44.066 E12.74388
G1 X52.441 Y43.694 E12.76248
G1 X52.433 Y43.348 E12.77951
G1 X52.453 Y43.070 E12.79322
G1 X52.434 Y42.509 E12.82089
G1 X52.466 Y42.050 E12.84353
G1 X52.649 Y41.895 E12.85530
G1 X52.774 Y41.842 E12.86197
G1 X53.069 Y41.775 E12.87687
G1 X54.584 Y41.643 E12.95173
G1 X57.993 Y41.527 E13.11959
G1 X59.741 Y41.424 E13.20575
G1 X60.580 Y41.510 E13.24727
G1 X61.629 Y41.389 E13.29923
G1 X62.614 Y41.016 E13.35106
G1 X63.458 Y40.319 E13.40493
G1 X68.189 Y30.392 E13.94615
G1 X71.559 Y23.043 E14.34406
G1 X72.155 Y21.862 E14.40916
G1 X72.354 Y21.550 E14.42737
G1 X72.440 Y21.245 E14.44296
G1 X72.719 Y20.576 E14.47860
G1 X72.879 Y20.306 E14.49405
G1 X73.024 Y20.147 E14.50464
G1 X73.225 Y20.004 E14.51682
G1 X73.487 Y19.881 E14.53105
G1 X73.980 Y19.793 E14.55568
G1 X74.946 Y19.763 E14.60324
G1 X75.355 Y19.785 E14.62342
G1 X75.675 Y19.728 E14.63939
G1 X76.641 Y19.698 E14.68698
G1 X77.609 Y19.750 E14.73466
G1 X78.042 Y19.836 E14.75641
G1 X78.145 Y19.899 E14.76236
G1 X77.729 Y20.941 E14.81759
G1 X71.245 Y35.024 E15.58061
G1 X70.485 Y36.872 E15.67894
G1 X70.276 Y37.883 E15.72974
G1 X70.404 Y38.919 E15.78113
G1 X70.563 Y39.300 E15.80147
G1 X70.586 Y39.604 E15.81645
G1 X71.283 Y40.644 E15.87808
G1 X72.370 Y41.172 E15.93757
G1 X73.507 Y41.234 E15.99362
G1 X74.096 Y41.100 E16.02334
G1 X74.565 Y41.173 E16.04670
G1 X76.553 Y41.246 E16.14462
G1 X90.288 Y41.062 E16.82065
G1 X95.457 Y40.941 E17.07511
G1 X96.382 Y40.830 E17.12096
G1 X96.860 Y40.742 E17.14487
G1 X100.384 Y40.742 E17.31830
G1 X100.930 Y40.529 E17.34713
G1 X101.962 Y40.046 E17.40324
G1 X102.944 Y39.500 E17.45851
G1 X103.860 Y38.900 E17.51240
G1 X104.659 Y38.298 E17.56165
G1 X105.372 Y37.684 E17.60798
G1 X106.024 Y37.017 E17.65383
G1 X106.618 Y36.281 E17.70040
G1 X107.170 Y35.459 E17.74911
G1 X107.706 Y34.521 E17.80229
G1 X108.787 Y32.276 E17.92493
G1 X110.961 Y27.636 E18.17710
G1 X111.369 Y26.839 E18.22121
G1 X111.818 Y26.135 E18.26228
G1 X112.373 Y25.420 E18.30682
G1 X113.084 Y24.633 E18.35902
G1 X113.891 Y23.829 E18.41510
G1 X114.661 Y23.161 E18.46524
G1 X115.483 Y22.552 E18.51558
G1 X116.448 Y21.932 E18.57205
G1 X117.630 Y21.270 E18.63870
G1 X118.796 Y20.713 E18.70231
G1 X119.972 Y20.253 E18.76447
G1 X121.189 Y19.881 E18.82710
G1 X122.478 Y19.589 E18.89213
G1 X123.866 Y19.371 E18.96131
G1 X125.380 Y19.223 E19.03616
G1 X127.038 Y19.142 E19.11786
G1 X129.633 Y19.146 E19.24558
G1 X130.779 Y19.215 E19.30204
G1 X131.785 Y19.332 E19.35193
G1 X132.718 Y19.499 E19.39855
G1 X133.604 Y19.719 E19.44346
G1 X134.471 Y19.997 E19.48828
G1 X135.344 Y20.338 E19.53443
G1 X136.312 Y20.783 E19.58684
G1 X137.195 Y21.315 E19.63760
G1 X138.516 Y22.285 E19.71822
G1 X145.387 Y27.665 E20.14775
G1 X144.268 Y27.792 E20.20322
G1 X143.040 Y28.232 E20.26743
G1 X142.130 Y28.882 E20.32243
G1 X141.451 Y27.318 E20.40635
G1 X141.080 Y26.595 E20.44636
G1 X140.643 Y25.891 E20.48715
G1 X140.132 Y25.196 E20.52958
G1 X138.999 Y23.962 E20.61203
G1 X137.998 Y23.055 E20.67853
G1 X137.050 Y22.324 E20.73745
G1 X136.049 Y21.700 E20.79549
G1 X134.919 Y21.122 E20.85793
G1 X133.931 Y20.693 E20.91099
G1 X132.927 Y20.327 E20.96357
G1 X131.901 Y20.025 E21.01621
G1 X130.849 Y19.787 E21.06925
G1 X129.769 Y19.614 E21.12308
G1 X128.659 Y19.503 E21.17799
G1 X127.512 Y19.453 E21.23453
G1 X126.335 Y19.463 E21.29243
G1 X124.648 Y19.572 E21.37564
G1 X123.027 Y19.812 E21.45627
G1 X121.472 Y20.183 E21.53495
G1 X119.991 Y20.684 E21.61193
G1 X118.578 Y21.317 E21.68812
G1 X117.266 Y22.070 E21.76256
G1 X116.037 Y22.953 E21.83703
G1 X114.914 Y23.950 E21.91093
G1 X114.146 Y24.760 E21.96588
G1 X113.486 Y25.581 E22.01770
G1 X112.924 Y26.428 E22.06776
G1 X112.464 Y27.311 E22.11675
G1 X112.108 Y28.227 E22.16509
G1 X111.861 Y29.151 E22.21220
G1 X111.709 Y30.168 E22.26278
G1 X111.658 Y31.194 E22.31336
G1 X111.705 Y32.193 E22.36257
G1 X111.849 Y33.170 E22.41115
G1 X112.091 Y34.121 E22.45946
G1 X112.430 Y35.045 E22.50788
G1 X112.866 Y35.936 E22.55673
G1 X113.395 Y36.792 E22.60625
G1 X114.015 Y37.609 E22.65672
G1 X114.729 Y38.398 E22.70910
G1 X115.795 Y39.369 E22.78008
G1 X116.969 Y40.243 E22.85208
G1 X118.233 Y41.010 E22.92484
G1 X119.576 Y41.668 E22.99844
G1 X120.985 Y42.212 E23.07280
G1 X122.450 Y42.639 E23.14788
G1 X123.959 Y42.944 E23.22366
G1 X125.493 Y43.122 E23.29963
G1 X127.137 Y43.194 E23.38067
G1 X129.279 Y43.078 E23.48620
G1 X130.416 Y42.943 E23.54257
G1 X131.542 Y42.715 E23.59909
G1 X132.703 Y42.400 E23.65830
G1 X133.853 Y42.009 E23.71811
G1 X134.974 Y41.552 E23.77771
G1 X136.047 Y41.033 E23.83634
G1 X137.051 Y40.456 E23.89331
G1 X137.967 Y39.822 E23.94815
G1 X139.232 Y38.734 E24.03026
G1 X140.309 Y37.525 E24.10993
G1 X141.196 Y36.185 E24.18904
G1 X141.928 Y34.659 E24.27233
G1 X142.168 Y33.726 E24.31977
G1 X143.037 Y34.347 E24.37237
G1 X144.248 Y34.787 E24.43576
G1 X145.692 Y34.951 E24.50727
G1 X139.767 Y40.230 E24.89778
G1 X138.387 Y41.421 E24.98753
G1 X137.399 Y42.191 E25.04916
G1 X136.755 Y42.593 E25.08655
G1 X136.033 Y42.976 E25.12675
G1 X135.256 Y43.323 E25.16862
G1 X134.434 Y43.634 E25.21187
G1 X133.578 Y43.901 E25.25599
G1 X132.697 Y44.121 E25.30068
G1 X131.800 Y44.291 E25.34565
G1 X130.927 Y44.406 E25.38896
G1 X127.298 Y44.504 E25.56762
G1 X120.030 Y44.542 E25.92532
G1 X111.760 Y44.502 E26.33234
G1 X110.859 Y44.440 E26.37681
G1 X110.577 Y44.226 E26.39422
G1 X110.025 Y43.932 E26.42500
G1 X109.425 Y43.738 E26.45605
G1 X108.804 Y43.660 E26.48686
G1 X108.174 Y43.699 E26.51792
G1 X107.554 Y43.867 E26.54953
G1 X106.970 Y44.165 E26.58177
G1 X106.686 Y44.399 E26.59988
G1 X106.649 Y44.928 F9000.000
G1 X106.088 Y44.502 E26.63453 F600.000
G1 X105.596 Y44.247 E26.66181
G1 X105.063 Y44.096 E26.68909
G1 X104.510 Y44.065 E26.71633
G1 X103.964 Y44.155 E26.74355
G1 X103.450 Y44.355 E26.77073
G1 X102.978 Y44.646 E26.79802
G1 X102.571 Y44.995 E26.82441
G1 X101.620 Y44.303 E26.88228
G1 X101.119 Y44.135 E26.90827
G1 X100.629 Y44.088 E26.93249
G1 X99.929 Y44.179 E26.96725
G1 X99.256 Y44.413 E27.00233
G1 X98.644 Y44.774 E27.03729
G1 X98.415 Y45.008 E27.05340
G1 X97.818 Y44.565 E27.08995
G1 X97.231 Y44.289 E27.12189
G1 X96.583 Y44.157 E27.15444
G1 X95.939 Y44.201 E27.18622
G1 X95.361 Y44.373 E27.21589
G1 X94.810 Y44.625 E27.24571
G1 X94.299 Y44.934 E27.27507
G1 X94.223 Y45.008 E27.28030
G1 X93.275 Y44.422 E27.33515
G1 X92.793 Y44.261 E27.36016
G1 X92.230 Y44.203 E27.38803
G1 X91.720 Y44.256 E27.41325
G1 X91.197 Y44.413 E27.44014
G1 X90.109 Y45.073 E27.50277
G1 X89.677 Y44.695 E27.53098
G1 X89.191 Y44.425 E27.55838
G1 X88.647 Y44.318 E27.58565
G1 X88.085 Y44.302 E27.61333
G1 X87.523 Y44.318 E27.64102
G1 X86.980 Y44.425 E27.66825
G1 X86.493 Y44.695 E27.69563
G1 X86.174 Y44.986 E27.71689
G1 X85.982 Y45.128 E27.72863
G1 X85.664 Y44.838 E27.74983
G1 X85.159 Y44.539 E27.77868
G1 X84.619 Y44.350 E27.80685
G1 X84.058 Y44.270 E27.83472
G1 X83.492 Y44.298 E27.86265
G1 X82.937 Y44.441 E27.89085
G1 X82.407 Y44.703 E27.91992
G1 X81.857 Y45.153 E27.95491
G1 X81.365 Y44.825 E27.98400
G1 X80.730 Y44.485 E28.01948
G1 X79.954 Y44.301 E28.05871
G1 X79.138 Y44.384 E28.09909
G1 X78.390 Y44.707 E28.13919
G1 X77.715 Y45.215 E28.18079
G1 X77.271 Y44.855 E28.20889
G1 X76.780 Y44.582 E28.23657
G1 X76.238 Y44.413 E28.26450
G1 X75.677 Y44.363 E28.29223
G1 X75.117 Y44.429 E28.32000
G1 X74.579 Y44.605 E28.34784
G1 X74.087 Y44.872 E28.37538
G1 X73.578 Y45.251 E28.40662
G1 X73.287 Y44.961 E28.42681
G1 X72.784 Y44.657 E28.45574
G1 X72.241 Y44.476 E28.48393
G1 X71.678 Y44.411 E28.51179
G1 X71.116 Y44.454 E28.53953
G1 X70.567 Y44.601 E28.56753
G1 X70.043 Y44.849 E28.59604
G1 X69.593 Y45.173 E28.62331
G1 X69.344 Y45.393 E28.63971
G1 X55.815 Y45.564 E29.30560
G1 X53.414 Y45.530 E29.42378
G1 X52.789 Y45.460 E29.45474
G1 X52.628 Y45.356 E29.46413
G1 X52.305 Y45.053 E29.48595
G1 X52.154 Y44.844 E29.49867
G1 X52.133 Y44.717 E29.50499
G1 X52.125 Y44.104 E29.53518
G1 X52.057 Y43.734 E29.55367
G1 X52.047 Y43.339 E29.57312
G1 X52.067 Y43.063 E29.58673
G1 X52.047 Y42.501 E29.61440
G1 X52.091 Y41.894 E29.64437
G1 X52.151 Y41.818 E29.64912
G1 X52.320 Y41.654 E29.66072
G1 X52.461 Y41.556 E29.66920
G1 X52.655 Y41.474 E29.67955
G1 X53.009 Y41.393 E29.69741
G1 X54.561 Y41.258 E29.77408
G1 X57.975 Y41.141 E29.94221
G1 X59.749 Y41.037 E30.02966
G1 X60.578 Y41.122 E30.07065
G1 X61.537 Y41.011 E30.11818
G1 X62.417 Y40.678 E30.16451
G1 X63.147 Y40.076 E30.21104
G1 X67.839 Y30.228 E30.74791
G1 X71.211 Y22.875 E31.14604
G1 X71.820 Y21.671 E31.21243
G1 X71.998 Y21.390 E31.22881
G1 X72.076 Y21.118 E31.24276
G1 X72.373 Y20.403 E31.28086
G1 X72.567 Y20.076 E31.29956
G1 X72.766 Y19.857 E31.31413
G1 X73.030 Y19.669 E31.33007
G1 X73.369 Y19.510 E31.34851
G1 X73.940 Y19.409 E31.37704
G1 X74.950 Y19.377 E31.42677
G1 X75.331 Y19.398 E31.44557
G1 X75.635 Y19.344 E31.46073
G1 X76.646 Y19.312 E31.51050
