; generated by Slic3r 1.2.9 on 2017-05-15 at 20:28:48

; external perimeters extrusion width = 0.40mm
; perimeters extrusion width = 0.56mm
; infill extrusion width = 0.38mm
; solid infill extrusion width = 0.56mm
; top infill extrusion width = 0.22mm

M106 S256; Turn on fan to 100% power
M104 S140; turn on extruder temperature at S value
M140 S60; turn on bed temperature at S value
G28; home all axes
M84; disable motors
G1 Z15 F15000; have Z move to 20mm at 15000 mm/min
M190 S55; turn on bed temperature at S value and wait
M140 S55; turn on bed temperature at S value (printing temperature)
M109 S200; turn on extruder temperature at S value and wait (printing temperature)
M104 S200; turn on extruder temperature at S value
G1 Z0 F12000; move Z back to home
G21 ; set units to millimeters
G90 ; use absolute coordinates
M82 ; use absolute distances for extrusion
G92 E0
M106 S255
;Layer change
G1 E-6.00000 F1800.00000
G92 E0
G1 Z0.300 F9000.000
G1 X42.374 Y42.374 F9000.000
G1 E6.00000 F1800.00000
G1 X43.927 Y40.828 E6.11169 F600.000
G1 X47.105 Y38.032 E6.32745
G1 X50.453 Y35.441 E6.54321
G1 X53.830 Y33.146 E6.75133
G1 X57.603 Y30.915 E6.97471
G1 X61.241 Y29.061 E7.18283
G1 X65.124 Y27.375 E7.39859
G1 X69.248 Y25.890 E7.62198
G1 X73.315 Y24.714 E7.83774
G1 X77.447 Y23.795 E8.05349
G1 X81.480 Y23.156 E8.26161
G1 X85.694 Y22.753 E8.47737
G1 X89.925 Y22.616 E8.69312
G1 X90.320 Y22.623 E8.71324
G1 X94.306 Y22.753 E8.91651 F600.000
G1 X98.371 Y23.137 E9.12463
G1 X102.700 Y23.823 E9.34802
G1 X106.685 Y24.714 E9.55614
G1 X110.752 Y25.890 E9.77189
G1 X114.736 Y27.320 E9.98765
G1 X118.623 Y28.997 E10.20341
G1 X122.528 Y30.987 E10.42680
G1 X126.043 Y33.065 E10.63491
G1 X129.547 Y35.441 E10.85067
G1 X133.010 Y38.127 E11.07406
G1 X136.182 Y40.930 E11.28982
G1 X139.070 Y43.818 E11.49794
G1 X141.873 Y46.990 E11.71369
G1 X144.559 Y50.453 E11.93708
G1 X146.854 Y53.830 E12.14520
G1 X149.013 Y57.472 E12.36096
G1 X150.939 Y61.241 E12.57671
G1 X152.680 Y65.264 E12.80010
G1 X154.063 Y69.106 E13.00822
G1 X155.249 Y73.170 E13.22398
G1 X156.205 Y77.447 E13.44736
G1 X156.863 Y81.629 E13.66312
G1 X157.247 Y85.694 E13.87124
G1 X157.384 Y89.925 E14.08699
G1 X157.256 Y94.156 E14.30275
G1 X156.844 Y98.520 E14.52614
G1 X156.205 Y102.553 E14.73426
G1 X155.286 Y106.685 E14.95001
G1 X154.063 Y110.894 E15.17340
G1 X152.680 Y114.736 E15.38152
G1 X151.003 Y118.623 E15.59728
G1 X149.085 Y122.397 E15.81304
G1 X146.854 Y126.170 E16.03642
G1 X144.559 Y129.547 E16.24454
G1 X141.968 Y132.895 E16.46030
G1 X139.070 Y136.182 E16.68369
G1 X136.073 Y139.172 E16.89944
G1 X132.895 Y141.968 E17.11520
G1 X129.668 Y144.471 E17.32332
G1 X126.170 Y146.854 E17.53908
G1 X122.397 Y149.085 E17.76246
G1 X118.623 Y151.003 E17.97822
G1 X114.876 Y152.625 E18.18634
G1 X110.752 Y154.110 E18.40973
G1 X106.830 Y155.249 E18.61785
G1 X102.700 Y156.177 E18.83360
G1 X98.371 Y156.863 E19.05699
G1 X94.156 Y157.256 E19.27275
G1 X89.925 Y157.384 E19.48850
G1 X85.844 Y157.256 E19.69662
G1 X81.480 Y156.844 E19.92001
G1 X77.300 Y156.177 E20.13577
G1 X73.315 Y155.286 E20.34389
G1 X69.248 Y154.110 E20.55964
G1 X65.264 Y152.680 E20.77540
G1 X61.241 Y150.939 E20.99879
G1 X57.603 Y149.085 E21.20691
G1 X53.957 Y146.935 E21.42266
G1 X50.332 Y144.471 E21.64605
G1 X46.990 Y141.873 E21.86181
G1 X43.927 Y139.172 E22.06993
G1 X40.930 Y136.183 E22.28568
G1 X38.032 Y132.895 E22.50907
G1 X35.529 Y129.668 E22.71720
G1 X33.146 Y126.170 E22.93295
G1 X30.987 Y122.528 E23.14870
G1 X28.997 Y118.623 E23.37209
G1 X27.375 Y114.876 E23.58021
G1 X25.937 Y110.894 E23.79597
G1 X24.714 Y106.685 E24.01936
G1 X23.823 Y102.700 E24.22748
G1 X23.195 Y98.762 E24.43074
G1 X23.137 Y98.371 E24.45087
G1 X22.753 Y94.306 E24.65899
G1 X22.616 Y89.925 E24.88238
G1 X22.744 Y85.844 E25.09050
G1 X23.137 Y81.629 E25.30625
G1 X23.823 Y77.300 E25.52964
G1 X24.714 Y73.315 E25.73776
G1 X25.890 Y69.248 E25.95352
G1 X27.320 Y65.264 E26.16927
G1 X29.061 Y61.241 E26.39267
G1 X30.915 Y57.603 E26.60079
G1 X32.941 Y54.168 E26.80405
G1 X33.146 Y53.830 E26.82417
G1 X35.441 Y50.453 E27.03229
G1 X38.127 Y46.990 E27.25568
G1 X40.828 Y43.927 E27.46380
G1 X42.331 Y42.416 E27.57244
G1 E21.57244 F1800.00000
G92 E0
G1 X79.038 Y123.010 F9000.000
G1 E6.00000 F1800.00000
G1 X81.352 Y123.682 E6.12282 F600.000
G1 X83.484 Y124.159 E6.23416
G1 X85.642 Y124.501 E6.34551
G1 X87.816 Y124.706 E6.45685
G1 X90.225 Y124.782 E6.57967
G1 X90.225 Y154.232 E8.08067
G1 X85.967 Y154.098 E8.29778
G1 X81.950 Y153.719 E8.50342
G1 X77.965 Y153.088 E8.70906
G1 X74.028 Y152.207 E8.91470
G1 X69.937 Y151.019 E9.13181
G1 X79.019 Y123.067 E10.62975
G1 X79.153 Y122.627 F9000.000
G1 X69.738 Y118.271 F9000.000
G1 X52.427 Y142.097 E12.13075 F600.000
G1 X49.061 Y139.486 E12.34786
G1 X46.035 Y136.818 E12.55350
G1 X43.182 Y133.965 E12.75914
G1 X40.514 Y130.939 E12.96478
G1 X37.903 Y127.573 E13.18189
G1 X61.729 Y110.262 E14.68290
G1 X63.205 Y112.166 E14.80571
G1 X64.650 Y113.805 E14.91705
G1 X66.195 Y115.350 E15.02840
G1 X67.834 Y116.795 E15.13975
G1 X69.690 Y118.235 E15.25950
G1 X70.059 Y118.510 F9000.000
G1 X87.936 Y92.840 F9000.000
G1 X87.441 Y92.403 E15.29318 F600.000
G1 X87.036 Y91.881 E15.32686
G1 X86.736 Y91.292 E15.36053
G1 X86.552 Y90.658 E15.39421
G1 X86.489 Y90.000 E15.42789
G1 X86.552 Y89.342 E15.46157
G1 X86.736 Y88.708 E15.49524
G1 X87.036 Y88.119 E15.52892
G1 X87.441 Y87.597 E15.56260
G1 X87.936 Y87.160 E15.59628
G1 X88.505 Y86.823 E15.62996
G1 X89.112 Y86.605 E15.66283
G1 X89.560 Y86.520 E15.68605
G1 X90.002 Y86.491 E15.70863 F600.000
G1 X90.656 Y86.551 E15.74213
G1 X91.292 Y86.736 E15.77589
G1 X91.881 Y87.036 E15.80957
G1 X92.403 Y87.441 E15.84324
G1 X92.840 Y87.936 E15.87692
G1 X93.169 Y88.492 E15.90980
G1 X93.337 Y88.916 E15.93305
G1 X93.450 Y89.358 E15.95631
G1 X93.511 Y90.000 E15.98918
G1 X93.450 Y90.642 E16.02206
G1 X93.337 Y91.084 E16.04531
G1 X93.169 Y91.508 E16.06857
G1 X92.840 Y92.064 E16.10144
G1 X92.403 Y92.559 E16.13512
G1 X91.881 Y92.964 E16.16880
G1 X91.292 Y93.264 E16.20248
G1 X90.658 Y93.448 E16.23615
G1 X90.000 Y93.511 E16.26983
G1 X89.358 Y93.450 E16.30270
G1 X88.916 Y93.337 E16.32596
G1 X88.492 Y93.169 E16.34922
G1 X87.988 Y92.871 E16.37903
G1 X88.164 Y92.527 F9000.000
G1 X87.723 Y92.138 E16.40900 F600.000
G1 X87.363 Y91.674 E16.43896
G1 X87.096 Y91.150 E16.46892
G1 X86.932 Y90.585 E16.49888
G1 X86.877 Y90.000 E16.52884
G1 X86.932 Y89.415 E16.55880
G1 X87.096 Y88.850 E16.58877
G1 X87.363 Y88.326 E16.61873
G1 X87.723 Y87.862 E16.64869
G1 X88.164 Y87.473 E16.67865
G1 X88.670 Y87.174 E16.70861
G1 X89.214 Y86.978 E16.73808
G1 X89.608 Y86.903 E16.75854
G1 X89.996 Y86.878 E16.77836 F600.000
G1 X90.584 Y86.932 E16.80845
G1 X91.150 Y87.096 E16.83846
G1 X91.674 Y87.363 E16.86842
G1 X92.138 Y87.723 E16.89838
G1 X92.527 Y88.164 E16.92834
G1 X92.821 Y88.662 E16.95781
G1 X92.969 Y89.035 E16.97828
G1 X93.069 Y89.424 E16.99876
G1 X93.123 Y90.000 E17.02823
G1 X93.069 Y90.576 E17.05770
G1 X92.969 Y90.965 E17.07817
G1 X92.821 Y91.338 E17.09864
G1 X92.527 Y91.836 E17.12811
G1 X92.138 Y92.277 E17.15807
G1 X91.674 Y92.637 E17.18803
G1 X91.150 Y92.904 E17.21800
G1 X90.585 Y93.068 E17.24796
G1 X90.000 Y93.123 E17.27792
G1 X89.424 Y93.069 E17.30739
G1 X89.035 Y92.969 E17.32786
G1 X88.662 Y92.821 E17.34834
G1 X88.216 Y92.557 E17.37475
G1 X88.392 Y92.213 F9000.000
G1 X88.006 Y91.873 E17.40099 F600.000
G1 X87.690 Y91.466 E17.42724
G1 X87.456 Y91.007 E17.45349
G1 X87.312 Y90.513 E17.47973
G1 X87.264 Y90.000 E17.50598
G1 X87.312 Y89.487 E17.53222
G1 X87.456 Y88.993 E17.55847
G1 X87.690 Y88.534 E17.58472
G1 X88.006 Y88.127 E17.61096
G1 X88.392 Y87.787 E17.63721
G1 X88.835 Y87.524 E17.66346
G1 X89.316 Y87.351 E17.68952
G1 X89.657 Y87.286 E17.70720
G1 X89.991 Y87.265 E17.72427 F600.000
G1 X90.512 Y87.312 E17.75094
G1 X91.007 Y87.456 E17.77721
G1 X91.466 Y87.690 E17.80345
G1 X91.873 Y88.006 E17.82970
G1 X92.213 Y88.392 E17.85594
G1 X92.474 Y88.832 E17.88201
G1 X92.602 Y89.155 E17.89970
G1 X92.688 Y89.491 E17.91739
G1 X92.736 Y90.000 E17.94345
G1 X92.688 Y90.509 E17.96952
G1 X92.602 Y90.845 E17.98721
G1 X92.474 Y91.168 E18.00490
G1 X92.213 Y91.608 E18.03096
G1 X91.873 Y91.994 E18.05721
G1 X91.466 Y92.310 E18.08345
G1 X91.007 Y92.544 E18.10970
G1 X90.513 Y92.688 E18.13595
G1 X90.000 Y92.736 E18.16219
G1 X89.491 Y92.688 E18.18826
G1 X89.155 Y92.602 E18.20595
G1 X88.832 Y92.474 E18.22364
G1 X88.443 Y92.244 E18.24664
G1 X88.021 Y92.365 F9000.000
G1 X70.801 Y118.120 F9000.000
G1 X68.326 Y116.200 E18.40631 F600.000
G1 X66.723 Y114.787 E18.51519
G1 X65.213 Y113.277 E18.62406
G1 X63.800 Y111.674 E18.73294
G1 X61.880 Y109.199 E18.89261
G1 X37.660 Y126.796 E20.41844
G1 X35.960 Y124.295 E20.57257
G1 X33.914 Y120.834 E20.77749
G1 X32.088 Y117.251 E20.98242
G1 X30.491 Y113.561 E21.18735
G1 X29.467 Y110.716 E21.34148
G1 X57.939 Y101.465 E22.86731
G1 X57.065 Y98.456 E23.02698
G1 X56.599 Y96.372 E23.13586
G1 X56.265 Y94.262 E23.24473
G1 X56.064 Y92.135 E23.35360
G1 X55.965 Y89.004 E23.51328
G1 X26.028 Y89.004 E25.03911
G1 X26.123 Y85.981 E25.19324
G1 X26.501 Y81.978 E25.39817
G1 X27.130 Y78.007 E25.60309
G1 X28.008 Y74.083 E25.80802
G1 X28.851 Y71.179 E25.96215
G1 X57.323 Y80.430 E27.48798
G1 X58.385 Y77.483 E27.64766
G1 X59.233 Y75.522 E27.75653
G1 X60.203 Y73.619 E27.86541
G1 X61.290 Y71.780 E27.97427
G1 X63.051 Y69.189 E28.13395
G1 X38.831 Y51.592 E29.65978
G1 X40.685 Y49.203 E29.81391
G1 X43.344 Y46.187 E30.01884
G1 X46.187 Y43.344 E30.22377
G1 X49.203 Y40.685 E30.42869
G1 X51.592 Y38.831 E30.58282
G1 X69.189 Y63.051 E32.10865
G1 X71.780 Y61.290 E32.26833
G1 X73.619 Y60.203 E32.37720
G1 X75.522 Y59.233 E32.48607
G1 X77.483 Y58.385 E32.59494
G1 X80.430 Y57.323 E32.75462
G1 X71.179 Y28.851 E34.28045
G1 X74.083 Y28.008 E34.43458
G1 X78.007 Y27.130 E34.63951
G1 X81.978 Y26.501 E34.84444
G1 X85.981 Y26.123 E35.04937
G1 X89.004 Y26.028 E35.20349
G1 X89.004 Y55.965 E36.72932
G1 X92.135 Y56.064 E36.88900
G1 X94.262 Y56.265 E36.99787
G1 X96.372 Y56.599 E37.10674
G1 X98.456 Y57.065 E37.21562
G1 X101.465 Y57.939 E37.37529
G1 X110.716 Y29.467 E38.90112
G1 X113.561 Y30.491 E39.05525
G1 X117.251 Y32.088 E39.26018
G1 X120.834 Y33.914 E39.46511
G1 X124.295 Y35.960 E39.67003
G1 X126.796 Y37.660 E39.82416
G1 X109.199 Y61.880 E41.34999
G1 X111.674 Y63.800 E41.50966
G1 X113.277 Y65.213 E41.61854
G1 X114.672 Y66.608 E41.71912
G1 X116.201 Y68.327 E41.83639
G1 X118.120 Y70.801 E41.99594
G1 X142.340 Y53.204 E43.52177
G1 X144.040 Y55.705 E43.67590
G1 X146.086 Y59.166 E43.88083
G1 X147.912 Y62.749 E44.08576
G1 X149.509 Y66.439 E44.29069
G1 X150.533 Y69.284 E44.44482
G1 X122.061 Y78.535 E45.97065
G1 X122.935 Y81.544 E46.13032
G1 X123.401 Y83.628 E46.23919
G1 X123.735 Y85.738 E46.34807
G1 X123.936 Y87.865 E46.45694
G1 X124.035 Y90.996 E46.61661
G1 X153.972 Y90.996 E48.14244
G1 X153.877 Y94.019 E48.29657
G1 X153.499 Y98.022 E48.50150
G1 X152.870 Y101.993 E48.70643
G1 X151.992 Y105.917 E48.91136
G1 X151.149 Y108.821 E49.06549
G1 X122.677 Y99.570 E50.59132
G1 X121.671 Y102.364 E50.74270
G1 X120.766 Y104.480 E50.85996
G1 X119.797 Y106.381 E50.96872
G1 X118.710 Y108.220 E51.07759
G1 X116.949 Y110.811 E51.23727
G1 X141.169 Y128.408 E52.76310
G1 X139.315 Y130.797 E52.91723
G1 X136.656 Y133.813 E53.12216
G1 X133.813 Y136.656 E53.32708
G1 X130.797 Y139.315 E53.53201
G1 X128.408 Y141.169 E53.68614
G1 X110.811 Y116.949 E55.21197
G1 X108.220 Y118.710 E55.37165
G1 X106.381 Y119.797 E55.48052
G1 X104.478 Y120.767 E55.58939
G1 X102.517 Y121.615 E55.69826
G1 X99.570 Y122.677 E55.85794
G1 X108.821 Y151.149 E57.38377
G1 X105.917 Y151.992 E57.53790
G1 X101.993 Y152.870 E57.74283
G1 X98.022 Y153.499 E57.94776
G1 X94.019 Y153.877 E58.15268
G1 X90.996 Y153.972 E58.30681
G1 X90.996 Y124.035 E59.83264
G1 X87.865 Y123.936 E59.99232
G1 X85.738 Y123.735 E60.10119
G1 X83.628 Y123.401 E60.21006
G1 X81.544 Y122.935 E60.31894
G1 X78.535 Y122.061 E60.47861
G1 X69.284 Y150.533 E62.00444
G1 X66.439 Y149.509 E62.15857
G1 X62.749 Y147.912 E62.36350
G1 X59.166 Y146.086 E62.56843
G1 X55.705 Y144.040 E62.77335
G1 X53.204 Y142.340 E62.92748
G1 X70.766 Y118.169 E64.45025
G1 X70.269 Y118.196 F9000.000
G1 X68.080 Y116.497 E64.59150 F600.000
G1 X66.459 Y115.069 E64.70161
G1 X64.931 Y113.541 E64.81172
G1 X63.503 Y111.920 E64.92183
G1 X61.804 Y109.731 E65.06307
G1 X37.565 Y127.342 E66.59013
G1 X35.635 Y124.501 E66.76516
G1 X33.575 Y121.020 E66.97133
G1 X31.739 Y117.416 E67.17749
G1 X30.133 Y113.703 E67.38365
G1 X28.969 Y110.472 E67.55868
G1 X57.464 Y101.213 E69.08575
G1 X56.691 Y98.552 E69.22699
G1 X56.220 Y96.444 E69.33710
G1 X55.882 Y94.310 E69.44721
G1 X55.679 Y92.159 E69.55732
G1 X55.592 Y89.389 E69.69856
G1 X25.630 Y89.389 E71.22563
G1 X25.738 Y85.957 E71.40066
G1 X26.119 Y81.930 E71.60682
G1 X26.751 Y77.935 E71.81298
G1 X27.634 Y73.987 E72.01915
G1 X28.592 Y70.689 E72.19418
G1 X57.087 Y79.948 E73.72124
G1 X58.026 Y77.340 E73.86249
G1 X58.884 Y75.358 E73.97260
G1 X59.865 Y73.433 E74.08271
G1 X60.964 Y71.573 E74.19281
G1 X62.522 Y69.281 E74.33406
G1 X38.283 Y51.670 E75.86113
G1 X40.387 Y48.957 E76.03615
G1 X43.062 Y45.923 E76.24232
G1 X45.923 Y43.062 E76.44848
G1 X48.957 Y40.387 E76.65464
G1 X51.670 Y38.283 E76.82967
G1 X69.281 Y62.522 E78.35673
G1 X71.573 Y60.964 E78.49798
G1 X73.433 Y59.865 E78.60809
G1 X75.358 Y58.884 E78.71820
G1 X77.340 Y58.026 E78.82830
G1 X79.948 Y57.087 E78.96955
G1 X70.689 Y28.592 E80.49662
G1 X73.987 Y27.634 E80.67165
G1 X77.935 Y26.751 E80.87781
G1 X81.930 Y26.119 E81.08397
G1 X85.957 Y25.738 E81.29014
G1 X89.389 Y25.630 E81.46517
G1 X89.389 Y55.592 E82.99223
G1 X92.159 Y55.679 E83.13348
G1 X94.310 Y55.882 E83.24359
G1 X96.444 Y56.220 E83.35369
G1 X98.552 Y56.691 E83.46380
G1 X101.213 Y57.464 E83.60505
G1 X110.472 Y28.969 E85.13211
G1 X113.703 Y30.133 E85.30714
G1 X117.416 Y31.739 E85.51331
G1 X121.020 Y33.575 E85.71947
G1 X124.501 Y35.635 E85.92563
G1 X127.342 Y37.565 E86.10066
G1 X109.731 Y61.804 E87.62772
G1 X111.920 Y63.503 E87.76897
G1 X113.541 Y64.931 E87.87908
G1 X114.953 Y66.343 E87.98085
G1 X116.498 Y68.081 E88.09935
G1 X118.196 Y70.269 E88.24052
G1 X142.435 Y52.658 E89.76759
G1 X144.365 Y55.499 E89.94262
G1 X146.425 Y58.980 E90.14878
G1 X148.261 Y62.584 E90.35494
G1 X149.867 Y66.297 E90.56111
G1 X151.031 Y69.528 E90.73614
G1 X122.536 Y78.787 E92.26320
G1 X123.309 Y81.448 E92.40445
G1 X123.780 Y83.556 E92.51456
G1 X124.118 Y85.690 E92.62466
G1 X124.321 Y87.841 E92.73477
G1 X124.408 Y90.611 E92.87602
G1 X154.370 Y90.611 E94.40308
G1 X154.262 Y94.043 E94.57811
G1 X153.881 Y98.070 E94.78427
G1 X153.249 Y102.065 E94.99044
G1 X152.366 Y106.013 E95.19660
G1 X151.408 Y109.311 E95.37163
G1 X122.913 Y100.052 E96.89870
G1 X122.030 Y102.506 E97.03161
G1 X121.116 Y104.643 E97.15011
G1 X120.135 Y106.567 E97.26015
G1 X119.036 Y108.427 E97.37025
G1 X117.478 Y110.719 E97.51150
G1 X141.717 Y128.330 E99.03856
G1 X139.613 Y131.043 E99.21359
G1 X136.938 Y134.077 E99.41975
G1 X134.077 Y136.938 E99.62592
G1 X131.043 Y139.613 E99.83208
G1 X128.330 Y141.717 E100.00711
G1 X110.719 Y117.478 E101.53417
G1 X108.427 Y119.036 E101.67542
G1 X106.567 Y120.135 E101.78553
G1 X104.642 Y121.116 E101.89563
G1 X102.659 Y121.974 E102.00574
G1 X100.052 Y122.913 E102.14699
G1 X109.311 Y151.408 E103.67406
G1 X106.013 Y152.366 E103.84909
G1 X102.065 Y153.249 E104.05525
G1 X98.070 Y153.881 E104.26141
G1 X94.043 Y154.262 E104.46758
G1 X90.611 Y154.370 E104.64260
G1 X90.611 Y124.408 E106.16967
G1 X87.841 Y124.321 E106.31092
G1 X85.690 Y124.118 E106.42102
G1 X83.556 Y123.780 E106.53113
G1 X81.448 Y123.309 E106.64124
G1 X78.787 Y122.536 E106.78249
G1 X69.528 Y151.031 E108.30955
G1 X66.297 Y149.867 E108.48458
G1 X62.584 Y148.261 E108.69074
G1 X58.980 Y146.425 E108.89691
G1 X55.499 Y144.365 E109.10307
G1 X52.658 Y142.435 E109.27810
G1 X70.234 Y118.244 E110.80211
G1 X56.990 Y100.962 F9000.000
G1 X28.981 Y110.063 E112.30310 F600.000
G1 X27.793 Y105.972 E112.52021
G1 X26.912 Y102.035 E112.72586
G1 X26.281 Y98.050 E112.93150
G1 X25.902 Y94.033 E113.13713
G1 X25.768 Y89.775 E113.35425
G1 X55.218 Y89.775 E114.85525
G1 X55.294 Y92.184 E114.97807
G1 X55.499 Y94.358 E115.08941
G1 X55.841 Y96.516 E115.20075
G1 X56.318 Y98.648 E115.31210
G1 X56.973 Y100.905 E115.43186
