; generated by Slic3r 1.2.9 on 2017-02-24 at 17:45:48

; external perimeters extrusion width = 0.40mm
; perimeters extrusion width = 0.56mm
; infill extrusion width = 0.38mm
; solid infill extrusion width = 0.56mm
; top infill extrusion width = 0.22mm
; support material extrusion width = 0.40mm

M106 S256; Turn on fan to 100% power
M104 S140; turn on extruder temperature at S value
M140 S60; turn on bed temperature at S value
G28; home all axes
M84; disable motors
G1 Z15 F15000; have Z move to 20mm at 15000 mm/min
M190 S55; turn on bed temperature at S value and wait
M140 S55; turn on bed temperature at S value (printing temperature)
M109 S205; turn on extruder temperature at S value and wait (printing temperature)
M104 S205; turn on extruder temperature at S value
G1 Z0 F12000; move Z back to home
G21 ; set units to millimeters
G90 ; use absolute coordinates
M82 ; use absolute distances for extrusion
G92 E0
M106 S255
;Layer change
G1 E-6.00000 F1800.00000
G92 E0
G1 Z0.300 F9000.000
G1 X29.193 Y28.140 F9000.000
G1 E6.00000 F1800.00000
G1 X29.957 Y27.366 E6.05228 F600.000
G1 X30.223 Y27.122 E6.06967
G1 X31.090 Y26.411 E6.12358
G1 X46.234 Y15.746 E7.01449
G1 X48.405 Y15.059 E7.12398
G1 X130.799 Y15.059 E11.08687
G1 X132.974 Y15.749 E11.19661 F600.000
G1 X147.703 Y26.146 E12.06374
G1 X148.519 Y26.768 E12.11310
G1 X149.093 Y27.265 E12.14960
G1 X149.494 Y27.652 E12.17642
G1 X149.930 Y28.099 E12.20645
G1 X150.445 Y28.693 E12.24427
G1 X150.859 Y29.223 E12.27660
G1 X151.365 Y29.943 E12.31891
G1 X152.013 Y31.041 E12.38024
G1 X152.270 Y31.553 E12.40782
G1 X152.671 Y32.467 E12.45578
G1 X152.899 Y33.085 E12.48748
G1 X153.100 Y33.728 E12.51990
G1 X153.272 Y34.383 E12.55245
G1 X153.424 Y35.094 E12.58742
G1 X153.574 Y36.106 E12.63661
G1 X153.643 Y37.003 E12.67990
G1 X153.657 Y37.727 E12.71471
G1 X153.603 Y38.860 E12.76929
G1 X153.410 Y40.263 E12.83739
G1 X153.278 Y40.839 E12.86582
G1 X152.649 Y42.846 E12.96697
G1 X152.422 Y43.407 E12.99608
G1 X151.780 Y44.688 E13.06500
G1 X151.464 Y45.209 E13.09430
G1 X150.239 Y46.901 E13.19478
G1 X149.867 Y47.341 E13.22250
G1 X149.103 Y48.114 E13.27477
G1 X148.190 Y48.899 E13.33267
G1 X147.383 Y49.490 E13.38079
G1 X132.825 Y59.734 E14.23694
G1 X130.655 Y60.421 E14.34643
G1 X48.261 Y60.421 E18.30932
G1 X46.086 Y59.731 E18.41906
G1 X31.357 Y49.334 E19.28620
G1 X30.674 Y48.820 E19.32728
G1 X29.967 Y48.215 E19.37206
G1 X29.566 Y47.828 E19.39888
G1 X29.130 Y47.381 E19.42890
G1 X28.615 Y46.787 E19.46673
G1 X28.201 Y46.257 E19.49907
G1 X27.695 Y45.536 E19.54140
G1 X27.047 Y44.439 E19.60269
G1 X26.561 Y43.422 E19.65692
G1 X26.161 Y42.395 E19.70992
G1 X25.915 Y41.593 E19.75027
G1 X25.746 Y40.917 E19.78375
G1 X25.636 Y40.386 E19.80987
G1 X25.486 Y39.374 E19.85906
G1 X25.417 Y38.477 E19.90235
G1 X25.409 Y37.467 E19.95091
G1 X25.492 Y36.282 E20.00804
G1 X25.650 Y35.216 E20.05986
G1 X26.009 Y34.079 E20.11720
G1 X28.504 Y29.100 E20.38509
G1 X29.158 Y28.189 E20.43903
G1 X29.467 Y28.411 F9000.000
G1 X30.470 Y27.418 E20.50690 F600.000
G1 X31.314 Y26.725 E20.55945
G1 X46.456 Y16.061 E21.45020
G1 X48.405 Y15.444 E21.54849
G1 X130.799 Y15.444 E25.51138
G1 X132.752 Y16.064 E25.60990 F600.000
G1 X147.481 Y26.461 E26.47704
G1 X148.269 Y27.062 E26.52471
G1 X148.838 Y27.555 E26.56090
G1 X149.224 Y27.927 E26.58671
G1 X149.641 Y28.354 E26.61541
G1 X150.152 Y28.944 E26.65294
G1 X150.547 Y29.449 E26.68380
G1 X151.046 Y30.160 E26.72555
G1 X151.669 Y31.216 E26.78454
G1 X151.920 Y31.714 E26.81135
G1 X152.315 Y32.616 E26.85871
G1 X152.536 Y33.216 E26.88945
G1 X152.731 Y33.841 E26.92096
G1 X152.899 Y34.479 E26.95269
G1 X153.046 Y35.172 E26.98676
G1 X153.190 Y36.139 E27.03380
G1 X153.258 Y37.010 E27.07581
G1 X153.271 Y37.734 E27.11062
G1 X153.218 Y38.838 E27.16380
G1 X153.029 Y40.206 E27.23023
G1 X152.910 Y40.724 E27.25575
G1 X152.281 Y42.730 E27.35691
G1 X152.077 Y43.234 E27.38303
G1 X151.435 Y44.515 E27.45196
G1 X151.151 Y44.983 E27.47826
G1 X149.927 Y46.675 E27.57874
G1 X149.592 Y47.070 E27.60362
G1 X148.829 Y47.843 E27.65589
G1 X147.943 Y48.603 E27.71202
G1 X147.158 Y49.176 E27.75877
G1 X132.603 Y59.419 E28.61476
G1 X130.655 Y60.036 E28.71306
G1 X48.261 Y60.036 E32.67594
G1 X46.308 Y59.416 E32.77447
G1 X31.247 Y48.775 E33.66144
G1 X30.791 Y48.418 E33.68928
G1 X30.222 Y47.925 E33.72546
G1 X29.419 Y47.126 E33.77997
G1 X28.908 Y46.536 E33.81751
G1 X28.513 Y46.030 E33.84838
G1 X28.014 Y45.320 E33.89014
G1 X27.713 Y44.832 E33.91767
G1 X27.201 Y43.892 E33.96919
G1 X26.745 Y42.864 E34.02327
G1 X26.471 Y42.105 E34.06205
G1 X26.289 Y41.496 E34.09264
G1 X26.124 Y40.839 E34.12521
G1 X25.981 Y40.125 E34.16026
G1 X25.895 Y39.547 E34.18838
G1 X25.815 Y38.701 E34.22922
G1 X25.794 Y37.489 E34.28754
G1 X25.873 Y36.339 E34.34299
G1 X26.031 Y35.273 E34.39481
G1 X26.354 Y34.252 E34.44629
G1 X28.849 Y29.273 E34.71418
G1 X29.432 Y28.459 E34.76231
G1 E28.76231 F1800.00000
G92 E0
G1 X31.876 Y30.790 F9000.000
G1 E6.00000 F1800.00000
G1 X29.380 Y35.769 E6.23315 F600.000
G1 E0.23315 F1800.00000
G92 E0
G1 X29.222 Y36.835 F9000.000
G1 E6.00000 F1800.00000
G1 X32.640 Y30.017 E6.31927 F600.000
G1 X33.287 Y29.476 F9000.000
G1 X29.174 Y37.683 E6.70351 F600.000
G1 X29.187 Y38.406 E6.73381
G1 X33.874 Y29.056 E7.17165
G1 X34.420 Y28.717 E7.19853
G1 X29.243 Y39.045 E7.68213
G1 X29.330 Y39.623 E7.70660
G1 X34.935 Y28.439 E8.23029
G1 X35.428 Y28.207 E8.25310
G1 X29.439 Y40.155 E8.81257
G1 X29.567 Y40.651 E8.83400
G1 X35.903 Y28.010 E9.42589
G1 X36.362 Y27.845 E9.44631
G1 X29.710 Y41.117 E10.06779
G1 X29.867 Y41.554 E10.08722
G1 X36.803 Y27.714 E10.73526
G1 X37.235 Y27.604 E10.75391
G1 X30.038 Y41.963 E11.42625
G1 X30.218 Y42.355 E11.44430
G1 X37.658 Y27.510 E12.13940
G1 X38.067 Y27.445 E12.15672
G1 X30.408 Y42.727 E12.87228
G1 X30.608 Y43.077 E12.88917
G1 X38.469 Y27.393 E13.62355
G1 X38.864 Y27.356 E13.64015
G1 X30.814 Y43.417 E14.39219
G1 X31.031 Y43.736 E14.40831
G1 X39.249 Y27.340 E15.17604
G1 X39.630 Y27.330 E15.19199
G1 X31.253 Y44.042 E15.97454
G1 X31.482 Y44.337 E15.99015
G1 X40.006 Y27.330 E16.78648
G1 X40.382 Y27.330 E16.80223
G1 X31.719 Y44.615 E17.61157
G1 X31.959 Y44.887 E17.62675
G1 X40.758 Y27.330 E18.44882
G1 X41.135 Y27.330 E18.46457
G1 X32.209 Y45.138 E19.29841
G1 X32.461 Y45.386 E19.31321
G1 X41.511 Y27.330 E20.15865
G1 X41.887 Y27.330 E20.17440
G1 X32.722 Y45.616 E21.03061
G1 X32.986 Y45.840 E21.04511
G1 X42.263 Y27.330 E21.91183
G1 X42.640 Y27.330 E21.92758
G1 X33.257 Y46.050 E22.80415
G1 X33.532 Y46.253 E22.81844
G1 X43.016 Y27.330 E23.70449
G1 X43.392 Y27.330 E23.72024
G1 X33.812 Y46.444 E24.61523
G1 X34.097 Y46.625 E24.62938
G1 X43.768 Y27.330 E25.53287
G1 X44.145 Y27.330 E25.54862
G1 X34.388 Y46.797 E26.46015
G1 X34.683 Y46.958 E26.47424
G1 X44.521 Y27.330 E27.39332
G1 X44.897 Y27.330 E27.40906
G1 X34.983 Y47.111 E28.33529
G1 X35.288 Y47.252 E28.34938
G1 X45.273 Y27.330 E29.28220
G1 X45.649 Y27.330 E29.29795
G1 X35.597 Y47.386 E30.23704
G1 X35.913 Y47.506 E30.25119
G1 X46.026 Y27.330 E31.19592
G1 X46.402 Y27.330 E31.21167
G1 X36.232 Y47.621 E32.16178
G1 X36.558 Y47.721 E32.17606
G1 X46.778 Y27.330 E33.13082
G1 X47.154 Y27.330 E33.14657
G1 X36.887 Y47.816 E34.10581
G1 X37.224 Y47.894 E34.12029
G1 X47.531 Y27.330 E35.08317
G1 X47.907 Y27.330 E35.09892
G1 X37.562 Y47.969 E36.06532
G1 X37.911 Y48.024 E36.08009
G1 X52.543 Y18.830 E37.44708
G1 X52.920 Y18.830 E37.46283
G1 X38.262 Y48.076 E38.83222
G1 X38.621 Y48.109 E38.84733
G1 X53.296 Y18.830 E40.21831
G1 X53.672 Y18.830 E40.23406
G1 X38.984 Y48.135 E41.60623
G1 X39.355 Y48.147 E41.62174
G1 X54.048 Y18.830 E42.99445
G1 X54.424 Y18.830 E43.01020
G1 X39.729 Y48.150 E44.38309
G1 X40.105 Y48.150 E44.39884
G1 X54.801 Y18.830 E45.77172
G1 X55.177 Y18.830 E45.78747
G1 X40.482 Y48.150 E47.16035
G1 X40.858 Y48.150 E47.17610
G1 X55.553 Y18.830 E48.54899
G1 X55.929 Y18.830 E48.56474
G1 X41.234 Y48.150 E49.93762
G1 X41.610 Y48.150 E49.95337
G1 X56.306 Y18.830 E51.32625
G1 X56.682 Y18.830 E51.34200
G1 X41.986 Y48.150 E52.71489
G1 X42.363 Y48.150 E52.73063
G1 X57.058 Y18.830 E54.10352
G1 X57.434 Y18.830 E54.11927
G1 X42.739 Y48.150 E55.49215
G1 X43.115 Y48.150 E55.50790
G1 X57.811 Y18.830 E56.88078
G1 X58.187 Y18.830 E56.89653
G1 X43.491 Y48.150 E58.26942
G1 X43.868 Y48.150 E58.28517
G1 X58.563 Y18.830 E59.65805
G1 X58.939 Y18.830 E59.67380
G1 X44.244 Y48.150 E61.04668
G1 X44.620 Y48.150 E61.06243
G1 X59.315 Y18.830 E62.43532
G1 X59.692 Y18.830 E62.45107
G1 X44.996 Y48.150 E63.82395
G1 X45.373 Y48.150 E63.83970
G1 X60.068 Y18.830 E65.21258
G1 X60.444 Y18.830 E65.22833
G1 X45.749 Y48.150 E66.60122
G1 X46.125 Y48.150 E66.61696
G1 X60.820 Y18.830 E67.98985
G1 X61.197 Y18.830 E68.00560
G1 X46.501 Y48.150 E69.37848
G1 X46.877 Y48.150 E69.39423
G1 X61.573 Y18.830 E70.76711
G1 X61.949 Y18.830 E70.78286
G1 X47.254 Y48.150 E72.15575
G1 X47.630 Y48.150 E72.17150
G1 X62.325 Y18.830 E73.54438
G1 X62.702 Y18.830 E73.56013
G1 X48.006 Y48.150 E74.93301
G1 X48.170 Y48.574 F9000.000
G1 X63.078 Y18.830 E76.32576 F600.000
G1 X63.454 Y18.830 E76.34151
G1 X48.170 Y49.325 E77.76940
G1 X48.170 Y50.076 E77.80082
G1 X63.830 Y18.830 E79.26386
G1 X64.206 Y18.830 E79.27961
G1 X48.170 Y50.826 E80.77780
G1 X48.170 Y51.577 E80.80922
G1 X64.583 Y18.830 E82.34256
G1 X64.959 Y18.830 E82.35831
G1 X48.170 Y52.328 E83.92680
G1 X48.170 Y53.078 E83.95822
G1 X65.335 Y18.830 E85.56186
G1 X65.711 Y18.830 E85.57760
G1 X48.170 Y53.829 E87.21639
G1 X48.170 Y54.579 E87.24781
G1 X66.088 Y18.830 E88.92174
G1 X66.464 Y18.830 E88.93749
G1 X48.170 Y55.330 E90.64657
G1 X48.170 Y56.081 E90.67799
G1 X66.840 Y18.830 E92.42222
G1 X67.216 Y18.830 E92.43797
G1 X48.261 Y56.650 E94.20886
G1 X48.637 Y56.650 E94.22461
G1 X67.593 Y18.830 E95.99549
G1 X67.969 Y18.830 E96.01124
G1 X49.013 Y56.650 E97.78213
G1 X49.389 Y56.650 E97.79788
G1 X68.345 Y18.830 E99.56876
G1 X68.721 Y18.830 E99.58451
G1 X49.766 Y56.650 E101.35540
G1 X50.142 Y56.650 E101.37115
G1 X69.097 Y18.830 E103.14203
G1 X69.474 Y18.830 E103.15778
G1 X50.518 Y56.650 E104.92867
G1 X50.894 Y56.650 E104.94442
G1 X69.850 Y18.830 E106.71530
G1 X70.226 Y18.830 E106.73105
G1 X51.271 Y56.650 E108.50194
G1 X51.647 Y56.650 E108.51769
G1 X70.602 Y18.830 E110.28857
G1 X70.979 Y18.830 E110.30432
G1 X52.023 Y56.650 E112.07521
G1 X52.399 Y56.650 E112.09096
G1 X71.355 Y18.830 E113.86184
G1 X71.731 Y18.830 E113.87759
G1 X52.775 Y56.650 E115.64848
G1 X53.152 Y56.650 E115.66423
G1 X72.107 Y18.830 E117.43511
G1 X72.483 Y18.830 E117.45086
G1 X53.528 Y56.650 E119.22175
G1 X53.904 Y56.650 E119.23750
G1 X72.860 Y18.830 E121.00838
G1 X73.236 Y18.830 E121.02413
G1 X54.280 Y56.650 E122.79502
G1 X54.657 Y56.650 E122.81077
G1 X73.612 Y18.830 E124.58166
G1 X73.988 Y18.830 E124.59740
G1 X55.033 Y56.650 E126.36829
G1 X55.409 Y56.650 E126.38404
G1 X74.365 Y18.830 E128.15493
G1 X74.741 Y18.830 E128.17067
G1 X55.785 Y56.650 E129.94156
G1 X56.162 Y56.650 E129.95731
G1 X75.117 Y18.830 E131.72820
G1 X75.493 Y18.830 E131.74394
G1 X56.538 Y56.650 E133.51483
G1 X56.914 Y56.650 E133.53058
G1 X75.870 Y18.830 E135.30147
G1 X76.246 Y18.830 E135.31722
G1 X57.290 Y56.650 E137.08810
G1 X57.666 Y56.650 E137.10385
G1 X76.622 Y18.830 E138.87474
G1 X76.998 Y18.830 E138.89049
G1 X58.043 Y56.650 E140.66137
G1 X58.419 Y56.650 E140.67712
G1 X77.374 Y18.830 E142.44801
G1 X77.751 Y18.830 E142.46376
G1 X58.795 Y56.650 E144.23464
G1 X59.171 Y56.650 E144.25039
G1 X78.127 Y18.830 E146.02128
G1 X78.503 Y18.830 E146.03703
G1 X59.548 Y56.650 E147.80791
G1 X59.924 Y56.650 E147.82366
G1 X78.879 Y18.830 E149.59455
G1 X79.256 Y18.830 E149.61030
G1 X60.300 Y56.650 E151.38118
G1 X60.676 Y56.650 E151.39693
G1 X79.632 Y18.830 E153.16782
G1 X80.008 Y18.830 E153.18357
G1 X61.052 Y56.650 E154.95445
G1 X61.429 Y56.650 E154.97020
G1 X80.384 Y18.830 E156.74109
G1 X80.761 Y18.830 E156.75684
G1 X61.805 Y56.650 E158.52772
G1 X62.181 Y56.650 E158.54347
G1 X81.137 Y18.830 E160.31436
G1 X81.513 Y18.830 E160.33011
G1 X62.557 Y56.650 E162.10099
G1 X62.934 Y56.650 E162.11674
G1 X81.889 Y18.830 E163.88763
G1 X82.265 Y18.830 E163.90338
G1 X63.310 Y56.650 E165.67426
G1 X63.686 Y56.650 E165.69001
G1 X82.642 Y18.830 E167.46090
G1 X83.018 Y18.830 E167.47665
G1 X64.062 Y56.650 E169.24753
G1 X64.439 Y56.650 E169.26328
G1 X83.394 Y18.830 E171.03417
G1 X83.770 Y18.830 E171.04992
G1 X64.815 Y56.650 E172.82080
G1 X65.191 Y56.650 E172.83655
G1 X84.147 Y18.830 E174.60744
G1 X84.523 Y18.830 E174.62319
G1 X65.567 Y56.650 E176.39407
G1 X65.943 Y56.650 E176.40982
G1 X84.899 Y18.830 E178.18071
G1 X85.275 Y18.830 E178.19646
G1 X66.320 Y56.650 E179.96734
G1 X66.696 Y56.650 E179.98309
G1 X85.652 Y18.830 E181.75398
G1 X86.028 Y18.830 E181.76973
G1 X67.072 Y56.650 E183.54062
G1 X67.448 Y56.650 E183.55636
G1 X86.404 Y18.830 E185.32725
G1 X86.780 Y18.830 E185.34300
G1 X67.825 Y56.650 E187.11389
G1 X68.201 Y56.650 E187.12963
G1 X87.156 Y18.830 E188.90052
G1 X87.533 Y18.830 E188.91627
G1 X68.577 Y56.650 E190.68716
G1 X68.953 Y56.650 E190.70290
G1 X87.909 Y18.830 E192.47379
G1 X88.285 Y18.830 E192.48954
G1 X69.330 Y56.650 E194.26043
G1 X69.706 Y56.650 E194.27618
G1 X88.661 Y18.830 E196.04706
G1 X89.038 Y18.830 E196.06281
G1 X70.082 Y56.650 E197.83370
G1 X70.458 Y56.650 E197.84945
G1 X89.414 Y18.830 E199.62033
G1 X89.790 Y18.830 E199.63608
G1 X70.834 Y56.650 E201.40697
G1 X71.211 Y56.650 E201.42272
G1 X90.166 Y18.830 E203.19360
G1 X90.543 Y18.830 E203.20935
G1 X71.587 Y56.650 E204.98024
G1 X71.963 Y56.650 E204.99599
G1 X90.919 Y18.830 E206.76687
G1 X91.295 Y18.830 E206.78262
G1 X72.339 Y56.650 E208.55351
G1 X72.716 Y56.650 E208.56926
G1 X91.671 Y18.830 E210.34014
G1 X92.047 Y18.830 E210.35589
G1 X73.092 Y56.650 E212.12678
G1 X73.468 Y56.650 E212.14253
G1 X92.424 Y18.830 E213.91341
G1 X92.800 Y18.830 E213.92916
G1 X73.844 Y56.650 E215.70005
G1 X74.221 Y56.650 E215.71580
G1 X93.176 Y18.830 E217.48668
G1 X93.552 Y18.830 E217.50243
G1 X74.597 Y56.650 E219.27332
G1 X74.973 Y56.650 E219.28907
G1 X93.929 Y18.830 E221.05995
G1 X94.305 Y18.830 E221.07570
G1 X75.349 Y56.650 E222.84659
G1 X75.725 Y56.650 E222.86234
G1 X94.681 Y18.830 E224.63322
G1 X95.057 Y18.830 E224.64897
G1 X76.102 Y56.650 E226.41986
G1 X76.478 Y56.650 E226.43561
G1 X95.434 Y18.830 E228.20649
G1 X95.810 Y18.830 E228.22224
G1 X76.854 Y56.650 E229.99313
G1 X77.230 Y56.650 E230.00888
G1 X96.186 Y18.830 E231.77976
G1 X96.562 Y18.830 E231.79551
G1 X77.607 Y56.650 E233.56640
G1 X77.983 Y56.650 E233.58215
G1 X96.938 Y18.830 E235.35303
G1 X97.315 Y18.830 E235.36878
G1 X78.359 Y56.650 E237.13967
G1 X78.735 Y56.650 E237.15542
G1 X97.691 Y18.830 E238.92630
G1 X98.067 Y18.830 E238.94205
G1 X79.112 Y56.650 E240.71294
G1 X79.488 Y56.650 E240.72869
G1 X98.443 Y18.830 E242.49957
G1 X98.820 Y18.830 E242.51532
G1 X79.864 Y56.650 E244.28621
G1 X80.240 Y56.650 E244.30196
G1 X99.196 Y18.830 E246.07285
G1 X99.572 Y18.830 E246.08859
G1 X80.616 Y56.650 E247.85948
G1 X80.993 Y56.650 E247.87523
G1 X99.948 Y18.830 E249.64612
G1 X100.325 Y18.830 E249.66186
G1 X81.369 Y56.650 E251.43275
G1 X81.745 Y56.650 E251.44850
G1 X100.701 Y18.830 E253.21939
G1 X101.077 Y18.830 E253.23513
G1 X82.121 Y56.650 E255.00602
G1 X82.498 Y56.650 E255.02177
G1 X101.453 Y18.830 E256.79266
G1 X101.829 Y18.830 E256.80841
G1 X82.874 Y56.650 E258.57929
G1 X83.250 Y56.650 E258.59504
G1 X102.206 Y18.830 E260.36593
G1 X102.582 Y18.830 E260.38168
G1 X83.626 Y56.650 E262.15256
G1 X84.003 Y56.650 E262.16831
G1 X102.958 Y18.830 E263.93920
G1 X103.334 Y18.830 E263.95495
G1 X84.379 Y56.650 E265.72583
G1 X84.755 Y56.650 E265.74158
G1 X103.711 Y18.830 E267.51247
G1 X104.087 Y18.830 E267.52822
G1 X85.131 Y56.650 E269.29910
G1 X85.507 Y56.650 E269.31485
G1 X104.463 Y18.830 E271.08574
G1 X104.839 Y18.830 E271.10149
G1 X85.884 Y56.650 E272.87237
G1 X86.260 Y56.650 E272.88812
G1 X105.216 Y18.830 E274.65901
G1 X105.592 Y18.830 E274.67476
G1 X86.636 Y56.650 E276.44564
G1 X87.012 Y56.650 E276.46139
G1 X105.968 Y18.830 E278.23228
G1 X106.344 Y18.830 E278.24803
G1 X87.389 Y56.650 E280.01891
G1 X87.765 Y56.650 E280.03466
G1 X106.720 Y18.830 E281.80555
G1 X107.097 Y18.830 E281.82130
G1 X88.141 Y56.650 E283.59218
G1 X88.517 Y56.650 E283.60793
G1 X107.473 Y18.830 E285.37882
G1 X107.849 Y18.830 E285.39457
