; generated by Slic3r 1.2.9 on 2019-11-01 at 21:48:22

; external perimeters extrusion width = 0.40mm
; perimeters extrusion width = 0.62mm
; infill extrusion width = 0.33mm
; solid infill extrusion width = 0.62mm
; top infill extrusion width = 0.20mm

M106 S256; Turn on fan to 100% power
M104 S140; turn on extruder temperature at S value
M140 S60; turn on bed temperature at S value
G28; home all axes
M84; disable motors
G1 Z15 F15000; have Z move to 20mm at 15000 mm/min
M190 S55; turn on bed temperature at S value and wait
M140 S55; turn on bed temperature at S value (printing temperature)
M109 S200; turn on extruder temperature at S value and wait (printing temperature)
M104 S200; turn on extruder temperature at S value
G1 Z0 F12000; move Z back to home
G21 ; set units to millimeters
G90 ; use absolute coordinates
M82 ; use absolute distances for extrusion
G92 E0
M106 S255
;Layer change
G1 E-6.00000 F1800.00000
G92 E0
G1 Z0.300 F9000.000
G1 X86.971 Y13.750 F9000.000
G1 E6.00000 F1800.00000
G1 X87.362 Y12.440 E6.06727 F600.000
G1 X88.409 Y11.561 E6.13455
G1 X89.356 Y11.364 E6.18218
G1 X104.419 Y11.364 E6.92350
G1 X105.729 Y11.756 E6.99078
G1 X106.609 Y12.802 E7.05805 F600.000
G1 X106.805 Y13.750 E7.10568
G1 X106.805 Y25.750 E7.69626
G1 X106.413 Y27.060 E7.76354
G1 X105.367 Y27.939 E7.83081
G1 X104.419 Y28.136 E7.87844
G1 X89.356 Y28.136 E8.61976
G1 X88.047 Y27.744 E8.68704
G1 X87.167 Y26.698 E8.75431
G1 X86.971 Y25.750 E8.80194
G1 X86.971 Y13.810 E9.38957
G1 E3.38957 F1800.00000
G92 E0
G1 X102.652 Y23.983 F9000.000
G1 E6.00000 F1800.00000
G1 X91.124 Y23.983 E6.56735 F600.000
G1 X91.124 Y15.517 E6.98396
G1 X102.652 Y15.517 E7.55131
G1 X102.652 Y23.923 E7.96496
G1 X103.037 Y24.368 F9000.000
G1 X90.738 Y24.368 E8.57027 F600.000
G1 X90.738 Y15.132 E9.02483
G1 X103.037 Y15.132 E9.63014
G1 X103.037 Y24.308 E10.08175
G1 X103.423 Y24.754 F9000.000
G1 X90.353 Y24.754 E10.72501 F600.000
G1 X90.353 Y14.746 E11.21753
G1 X103.423 Y14.746 E11.86079
G1 X103.423 Y24.694 E12.35036
G1 X103.809 Y25.139 F9000.000
G1 X89.967 Y25.139 E13.03158 F600.000
G1 X89.967 Y14.361 E13.56206
G1 X103.809 Y14.361 E14.24327
G1 X103.809 Y25.079 E14.77080
G1 X104.194 Y25.525 F9000.000
G1 X89.581 Y25.525 E15.48997 F600.000
G1 X89.581 Y13.975 E16.05841
G1 X104.194 Y13.975 E16.77758
G1 X104.194 Y25.465 E17.34306
G1 X103.848 Y25.325 F9000.000
G1 X102.368 Y16.005 F9000.000
G1 X102.164 Y15.801 E17.35759 F600.000
G1 X101.605 Y15.801 E17.38580
G1 X102.368 Y16.564 E17.44023
G1 X102.368 Y17.123 E17.46844
G1 X101.046 Y15.801 E17.56276
G1 X100.487 Y15.801 E17.59097
G1 X102.368 Y17.682 E17.72519
G1 X102.368 Y18.241 E17.75340
G1 X99.928 Y15.801 E17.92751
G1 X99.369 Y15.801 E17.95572
G1 X102.368 Y18.800 E18.16973
G1 X102.368 Y19.360 E18.19795
G1 X98.810 Y15.801 E18.45185
G1 X98.251 Y15.801 E18.48006
G1 X102.368 Y19.919 E18.77387
G1 X102.368 Y20.478 E18.80208
G1 X97.692 Y15.801 E19.13578
G1 X97.132 Y15.801 E19.16399
G1 X102.368 Y21.037 E19.53758
G1 X102.368 Y21.596 E19.56580
G1 X96.573 Y15.801 E19.97929
G1 X96.014 Y15.801 E20.00750
G1 X102.368 Y22.155 E20.46089
G1 X102.368 Y22.714 E20.48910
G1 X95.455 Y15.801 E20.98238
G1 X94.896 Y15.801 E21.01059
G1 X102.368 Y23.273 E21.54378
G1 X102.234 Y23.699 E21.56628
G1 X94.337 Y15.801 E22.12981
G1 X93.778 Y15.801 E22.15802
G1 X101.675 Y23.699 E22.72156
G1 X101.116 Y23.699 E22.74977
G1 X93.219 Y15.801 E23.31331
G1 X92.660 Y15.801 E23.34152
G1 X100.557 Y23.699 E23.90506
G1 X99.998 Y23.699 E23.93327
G1 X92.100 Y15.801 E24.49681
G1 X91.541 Y15.801 E24.52502
G1 X99.439 Y23.699 E25.08856
G1 X98.880 Y23.699 E25.11677
G1 X91.408 Y16.227 E25.64995
G1 X91.408 Y16.786 E25.67816
G1 X98.321 Y23.699 E26.17145
G1 X97.762 Y23.699 E26.19966
G1 X91.408 Y17.345 E26.65304
G1 X91.408 Y17.904 E26.68125
G1 X97.202 Y23.699 E27.09475
G1 X96.643 Y23.699 E27.12296
G1 X91.408 Y18.463 E27.49655
G1 X91.408 Y19.022 E27.52476
G1 X96.084 Y23.699 E27.85846
G1 X95.525 Y23.699 E27.88667
G1 X91.408 Y19.581 E28.18047
G1 X91.408 Y20.140 E28.20868
G1 X94.966 Y23.699 E28.46259
G1 X94.407 Y23.699 E28.49080
G1 X91.408 Y20.700 E28.70481
G1 X91.408 Y21.259 E28.73302
G1 X93.848 Y23.699 E28.90713
G1 X93.289 Y23.699 E28.93534
G1 X91.408 Y21.818 E29.06956
G1 X91.408 Y22.377 E29.09777
G1 X92.730 Y23.699 E29.19209
G1 X92.170 Y23.699 E29.22030
G1 X91.408 Y22.936 E29.27472
G1 X91.408 Y23.495 E29.30294
G1 X91.611 Y23.699 E29.31746
M104 S205 ; set temperature
M140 S55 ; wait for bed temperature to be reached
;Layer change
G1 E23.31746 F1800.00000
G92 E0
G1 Z0.520 F9000.000
G1 X102.153 Y23.374 F9000.000
G1 E6.00000 F1800.00000
G1 X91.732 Y23.374 E6.55709 F900.000
G1 X91.732 Y16.126 E6.94461
G1 X102.153 Y16.126 E7.50171
G1 X102.153 Y23.314 E7.88602
G1 X102.724 Y23.946 F9000.000
G1 X91.161 Y23.946 E8.50418 F900.000
G1 X91.161 Y15.554 E8.95278
G1 X102.724 Y15.554 E9.57094
G1 X102.724 Y23.886 E10.01633
G1 X103.295 Y24.517 F9000.000
G1 X90.590 Y24.517 E10.69556 F3000.000
G1 X90.590 Y14.983 E11.20523
G1 X103.295 Y14.983 E11.88447
G1 X103.295 Y24.457 E12.39092
G1 X103.866 Y25.088 F9000.000
G1 X90.018 Y25.088 E13.13123 F3000.000
G1 X90.018 Y14.412 E13.70197
G1 X103.866 Y14.412 E14.44228
G1 X103.866 Y25.028 E15.00981
G1 X104.328 Y25.550 F9000.000
G1 X89.556 Y25.550 E15.49755 F1800.000
G1 X89.556 Y13.950 E15.88057
G1 X104.328 Y13.950 E16.36831
G1 X104.328 Y25.490 E16.74934
G1 X103.982 Y25.350 F9000.000
G1 X101.440 Y22.944 F9000.000
G1 X101.723 Y22.662 E16.77074 F1800.000
G1 X101.723 Y21.852 E16.81413
G1 X100.631 Y22.944 E16.89689
G1 X99.821 Y22.944 E16.94028
G1 X101.723 Y21.043 E17.08441
G1 X101.723 Y20.233 E17.12780
G1 X99.011 Y22.944 E17.33329
G1 X98.202 Y22.944 E17.37668
G1 X101.723 Y19.423 E17.64354
G1 X101.723 Y18.613 E17.68693
G1 X97.392 Y22.944 E18.01516
G1 X96.582 Y22.944 E18.05855
G1 X101.723 Y17.804 E18.44814
G1 X101.723 Y16.994 E18.49153
G1 X95.772 Y22.944 E18.94248
G1 X94.963 Y22.944 E18.98587
G1 X101.351 Y16.556 E19.47005
G1 X100.542 Y16.556 E19.51344
G1 X94.153 Y22.944 E19.99761
G1 X93.343 Y22.944 E20.04100
G1 X99.732 Y16.556 E20.52518
G1 X98.922 Y16.556 E20.56857
G1 X92.533 Y22.944 E21.05274
G1 X92.162 Y22.506 E21.08353
G1 X98.112 Y16.556 E21.53448
G1 X97.303 Y16.556 E21.57787
G1 X92.162 Y21.696 E21.96746
G1 X92.162 Y20.887 E22.01085
G1 X96.493 Y16.556 E22.33907
G1 X95.683 Y16.556 E22.38247
G1 X92.162 Y20.077 E22.64932
G1 X92.162 Y19.267 E22.69271
G1 X94.874 Y16.556 E22.89821
G1 X94.064 Y16.556 E22.94160
G1 X92.162 Y18.457 E23.08572
G1 X92.162 Y17.648 E23.12911
G1 X93.254 Y16.556 E23.21188
G1 X92.444 Y16.556 E23.25527
G1 X92.162 Y16.838 E23.27666
;Layer change
G1 E17.27666 F1800.00000
G92 E0
G1 Z0.740 F9000.000
G1 X102.245 Y23.374 F9000.000
G1 E6.00000 F1800.00000
G1 X91.732 Y23.374 E6.56202 F900.000
G1 X91.732 Y16.126 E6.94955
G1 X102.245 Y16.126 E7.51157
G1 X102.245 Y23.314 E7.89588
G1 X102.816 Y23.946 F9000.000
G1 X91.161 Y23.946 E8.51898 F900.000
G1 X91.161 Y15.554 E8.96757
G1 X102.816 Y15.554 E9.59067
G1 X102.816 Y23.886 E10.03605
G1 X103.387 Y24.517 F9000.000
G1 X90.590 Y24.517 E10.72022 F3000.000
G1 X90.590 Y14.983 E11.22989
G1 X103.387 Y14.983 E11.91406
G1 X103.387 Y24.457 E12.42052
G1 X103.959 Y25.088 F9000.000
G1 X90.018 Y25.088 E13.16576 F3000.000
G1 X90.018 Y14.412 E13.73649
G1 X103.959 Y14.412 E14.48173
G1 X103.959 Y25.028 E15.04927
G1 X104.421 Y25.550 F9000.000
G1 X89.556 Y25.550 E15.54005 F1800.000
G1 X89.556 Y13.950 E15.92307
G1 X104.421 Y13.950 E16.41385
G1 X104.421 Y25.490 E16.79489
G1 X104.074 Y25.350 F9000.000
G1 X101.723 Y16.838 F9000.000
G1 X101.440 Y16.556 E16.81628 F1800.000
G1 X100.631 Y16.556 E16.85967
G1 X101.723 Y17.648 E16.94244
G1 X101.723 Y18.457 E16.98583
G1 X99.821 Y16.556 E17.12995
G1 X99.011 Y16.556 E17.17335
G1 X101.723 Y19.267 E17.37884
G1 X101.723 Y20.077 E17.42223
G1 X98.201 Y16.556 E17.68909
G1 X97.392 Y16.556 E17.73248
G1 X101.723 Y20.887 E18.06070
G1 X101.723 Y21.696 E18.10409
G1 X96.582 Y16.556 E18.49368
G1 X95.772 Y16.556 E18.53707
G1 X101.723 Y22.506 E18.98802
G1 X101.351 Y22.944 E19.01881
G1 X94.963 Y16.556 E19.50298
G1 X94.153 Y16.556 E19.54637
G1 X100.542 Y22.944 E20.03055
G1 X99.732 Y22.944 E20.07394
G1 X93.343 Y16.556 E20.55811
G1 X92.533 Y16.556 E20.60150
G1 X98.922 Y22.944 E21.08568
G1 X98.112 Y22.944 E21.12907
G1 X92.162 Y16.994 E21.58002
G1 X92.162 Y17.804 E21.62341
G1 X97.303 Y22.944 E22.01300
G1 X96.493 Y22.944 E22.05639
G1 X92.162 Y18.613 E22.38461
G1 X92.162 Y19.423 E22.42800
G1 X95.683 Y22.944 E22.69485
G1 X94.874 Y22.944 E22.73825
G1 X92.162 Y20.233 E22.94374
G1 X92.162 Y21.043 E22.98713
G1 X94.064 Y22.944 E23.13125
G1 X93.254 Y22.944 E23.17465
G1 X92.162 Y21.852 E23.25741
G1 X92.162 Y22.662 E23.30080
G1 X92.444 Y22.944 E23.32219
;Layer change
G1 E17.32219 F1800.00000
G92 E0
G1 Z0.960 F9000.000
G1 X102.337 Y23.374 F9000.000
G1 E6.00000 F1800.00000
G1 X91.732 Y23.374 E6.56696 F900.000
G1 X91.732 Y16.126 E6.95448
G1 X102.337 Y16.126 E7.52143
G1 X102.337 Y23.314 E7.90575
G1 X102.908 Y23.946 F9000.000
G1 X91.161 Y23.946 E8.53377 F900.000
G1 X91.161 Y15.554 E8.98237
G1 X102.908 Y15.554 E9.61040
G1 X102.908 Y23.886 E10.05578
G1 X103.480 Y24.517 F9000.000
G1 X90.590 Y24.517 E10.74488 F3000.000
G1 X90.590 Y14.983 E11.25455
G1 X103.480 Y14.983 E11.94365
G1 X103.480 Y24.457 E12.45011
G1 X104.051 Y25.088 F9000.000
G1 X90.018 Y25.088 E13.20028 F3000.000
G1 X90.018 Y14.412 E13.77102
G1 X104.051 Y14.412 E14.52119
G1 X104.051 Y25.028 E15.08872
G1 X104.513 Y25.550 F9000.000
G1 X89.556 Y25.550 E15.58255 F1800.000
G1 X89.556 Y13.950 E15.96557
G1 X104.513 Y13.950 E16.45940
G1 X104.513 Y25.490 E16.84043
G1 X104.166 Y25.350 F9000.000
G1 X101.910 Y16.606 F9000.000
G1 X101.639 Y16.606 E16.85205 F6000.000
G1 X101.585 Y16.553 E16.85528
G1 X100.693 Y16.553 E16.89343
G1 X100.640 Y16.606 E16.89666
G1 X99.753 Y16.606 E16.93457
G1 X99.700 Y16.553 E16.93780
G1 X98.808 Y16.553 E16.97595
G1 X98.755 Y16.606 E16.97918
G1 X97.868 Y16.606 E17.01709
G1 X97.815 Y16.553 E17.02032
G1 X96.923 Y16.553 E17.05847
G1 X96.869 Y16.606 E17.06171
G1 X95.983 Y16.606 E17.09961
G1 X95.930 Y16.553 E17.10285
G1 X95.038 Y16.553 E17.14100
G1 X94.984 Y16.606 E17.14423
G1 X94.098 Y16.606 E17.18214
G1 X94.044 Y16.553 E17.18537
G1 X93.152 Y16.553 E17.22352
G1 X93.099 Y16.606 E17.22675
G1 X92.212 Y16.606 E17.26466
G1 X92.159 Y16.553 E17.26789
G1 X92.159 Y17.546 E17.31037
G1 X92.212 Y17.492 E17.31360
G1 X93.099 Y17.492 E17.35151
G1 X93.155 Y17.549 E17.35491
G1 X94.041 Y17.549 E17.39282
G1 X94.098 Y17.492 E17.39623
G1 X94.984 Y17.492 E17.43413
G1 X95.040 Y17.549 E17.43754
G1 X95.927 Y17.549 E17.47544
G1 X95.983 Y17.492 E17.47885
G1 X96.869 Y17.492 E17.51675
G1 X96.926 Y17.549 E17.52016
G1 X97.812 Y17.549 E17.55807
G1 X97.868 Y17.492 E17.56147
G1 X98.755 Y17.492 E17.59938
G1 X98.811 Y17.549 E17.60278
G1 X99.697 Y17.549 E17.64069
G1 X99.753 Y17.492 E17.64409
G1 X100.640 Y17.492 E17.68200
G1 X100.696 Y17.549 E17.68541
G1 X101.582 Y17.549 E17.72331
G1 X101.639 Y17.492 E17.72672
G1 X101.910 Y17.492 E17.73833
G1 X101.910 Y18.491 E17.78105
G1 X101.639 Y18.491 E17.79267
G1 X101.582 Y18.435 E17.79607
G1 X100.696 Y18.435 E17.83398
G1 X100.640 Y18.491 E17.83738
G1 X99.753 Y18.491 E17.87529
G1 X99.697 Y18.435 E17.87870
G1 X98.811 Y18.435 E17.91660
G1 X98.755 Y18.491 E17.92001
G1 X97.868 Y18.491 E17.95791
G1 X97.812 Y18.435 E17.96132
G1 X96.926 Y18.435 E17.99922
G1 X96.869 Y18.491 E18.00263
G1 X95.983 Y18.491 E18.04054
G1 X95.927 Y18.435 E18.04394
G1 X95.040 Y18.435 E18.08185
G1 X94.984 Y18.491 E18.08525
G1 X94.098 Y18.491 E18.12316
G1 X94.041 Y18.435 E18.12656
G1 X93.155 Y18.435 E18.16447
G1 X93.099 Y18.491 E18.16787
G1 X92.212 Y18.491 E18.20578
G1 X92.159 Y18.438 E18.20901
G1 X92.159 Y19.431 E18.25149
G1 X92.212 Y19.378 E18.25473
G1 X93.099 Y19.378 E18.29263
G1 X93.155 Y19.434 E18.29604
G1 X94.041 Y19.434 E18.33394
G1 X94.098 Y19.378 E18.33735
G1 X94.984 Y19.378 E18.37526
G1 X95.040 Y19.434 E18.37866
G1 X95.927 Y19.434 E18.41657
G1 X95.983 Y19.378 E18.41997
G1 X96.869 Y19.378 E18.45788
G1 X96.926 Y19.434 E18.46128
G1 X97.812 Y19.434 E18.49919
G1 X97.868 Y19.378 E18.50259
G1 X98.755 Y19.378 E18.54050
G1 X98.811 Y19.434 E18.54391
G1 X99.697 Y19.434 E18.58181
G1 X99.753 Y19.378 E18.58522
G1 X100.640 Y19.378 E18.62312
G1 X100.696 Y19.434 E18.62653
G1 X101.582 Y19.434 E18.66444
G1 X101.639 Y19.378 E18.66784
G1 X101.910 Y19.378 E18.67945
G1 X101.910 Y20.377 E18.72218
G1 X101.639 Y20.377 E18.73379
G1 X101.582 Y20.320 E18.73720
G1 X100.696 Y20.320 E18.77510
G1 X100.640 Y20.377 E18.77851
G1 X99.753 Y20.377 E18.81641
G1 X99.697 Y20.320 E18.81982
G1 X98.811 Y20.320 E18.85773
G1 X98.755 Y20.377 E18.86113
G1 X97.868 Y20.377 E18.89904
G1 X97.812 Y20.320 E18.90244
G1 X96.926 Y20.320 E18.94035
G1 X96.869 Y20.377 E18.94375
G1 X95.983 Y20.377 E18.98166
G1 X95.927 Y20.320 E18.98506
G1 X95.040 Y20.320 E19.02297
G1 X94.984 Y20.377 E19.02638
G1 X94.098 Y20.377 E19.06428
G1 X94.041 Y20.320 E19.06769
G1 X93.155 Y20.320 E19.10559
G1 X93.099 Y20.377 E19.10900
G1 X92.212 Y20.377 E19.14690
G1 X92.159 Y20.323 E19.15014
G1 X92.159 Y21.316 E19.19262
G1 X92.212 Y21.263 E19.19585
G1 X93.099 Y21.263 E19.23376
G1 X93.155 Y21.319 E19.23716
G1 X94.041 Y21.319 E19.27507
G1 X94.098 Y21.263 E19.27847
G1 X94.984 Y21.263 E19.31638
G1 X95.040 Y21.319 E19.31978
G1 X95.927 Y21.319 E19.35769
G1 X95.983 Y21.263 E19.36110
G1 X96.869 Y21.263 E19.39900
G1 X96.926 Y21.319 E19.40241
G1 X97.812 Y21.319 E19.44031
G1 X97.868 Y21.263 E19.44372
G1 X98.755 Y21.263 E19.48162
G1 X98.811 Y21.319 E19.48503
G1 X99.697 Y21.319 E19.52294
G1 X99.753 Y21.263 E19.52634
G1 X100.640 Y21.263 E19.56425
G1 X100.696 Y21.319 E19.56765
G1 X101.582 Y21.319 E19.60556
G1 X101.639 Y21.263 E19.60896
G1 X101.910 Y21.263 E19.62058
G1 X101.910 Y22.262 E19.66330
G1 X101.639 Y22.262 E19.67491
G1 X101.582 Y22.205 E19.67832
G1 X100.696 Y22.205 E19.71623
G1 X100.640 Y22.262 E19.71963
G1 X99.753 Y22.262 E19.75754
G1 X99.697 Y22.205 E19.76094
G1 X98.811 Y22.205 E19.79885
G1 X98.755 Y22.262 E19.80225
G1 X97.868 Y22.262 E19.84016
G1 X97.812 Y22.205 E19.84357
G1 X96.926 Y22.205 E19.88147
G1 X96.869 Y22.262 E19.88488
G1 X95.983 Y22.262 E19.92278
G1 X95.927 Y22.205 E19.92619
G1 X95.040 Y22.205 E19.96409
G1 X94.984 Y22.262 E19.96750
G1 X94.098 Y22.262 E20.00541
G1 X94.041 Y22.205 E20.00881
G1 X93.155 Y22.205 E20.04672
G1 X93.099 Y22.262 E20.05012
G1 X92.212 Y22.262 E20.08803
G1 X92.159 Y22.208 E20.09126
;Layer change
G1 E14.09126 F1800.00000
G92 E0
G1 Z1.180 F9000.000
G1 X102.430 Y23.374 F9000.000
G1 E6.00000 F1800.00000
G1 X91.732 Y23.374 E6.57189 F900.000
G1 X91.732 Y16.126 E6.95941
G1 X102.430 Y16.126 E7.53130
G1 X102.430 Y23.314 E7.91561
G1 X103.001 Y23.946 F9000.000
G1 X91.161 Y23.946 E8.54857 F900.000
G1 X91.161 Y15.554 E8.99716
G1 X103.001 Y15.554 E9.63012
G1 X103.001 Y23.886 E10.07551
G1 X103.572 Y24.517 F9000.000
G1 X90.590 Y24.517 E10.76954 F3000.000
G1 X90.590 Y14.983 E11.27921
G1 X103.572 Y14.983 E11.97324
G1 X103.572 Y24.457 E12.47970
G1 X104.143 Y25.088 F9000.000
G1 X90.018 Y25.088 E13.23480 F3000.000
G1 X90.018 Y14.412 E13.80554
G1 X104.143 Y14.412 E14.56064
G1 X104.143 Y25.028 E15.12817
G1 X104.605 Y25.550 F9000.000
G1 X89.556 Y25.550 E15.62506 F1800.000
G1 X89.556 Y13.950 E16.00807
G1 X104.605 Y13.950 E16.50495
G1 X104.605 Y25.490 E16.88598
G1 X104.259 Y25.350 F9000.000
G1 X101.636 Y16.553 F9000.000
G1 X101.483 Y16.705 E16.89522 F6000.000
G1 X101.483 Y17.393 E16.92463
G1 X101.738 Y17.648 E16.94004
G1 X101.738 Y18.336 E16.96946
G1 X101.483 Y18.591 E16.98487
G1 X101.483 Y19.278 E17.01429
G1 X101.738 Y19.533 E17.02970
G1 X101.738 Y20.221 E17.05912
G1 X101.483 Y20.476 E17.07453
G1 X101.483 Y21.164 E17.10395
G1 X101.738 Y21.418 E17.11936
G1 X101.738 Y22.106 E17.14877
G1 X101.483 Y22.361 E17.16419
G1 X101.483 Y22.947 E17.18927
G1 X100.795 Y22.947 E17.21868
G1 X100.795 Y22.361 E17.24376
G1 X100.541 Y22.106 E17.25917
G1 X100.541 Y21.418 E17.28859
G1 X100.795 Y21.164 E17.30400
G1 X100.795 Y20.476 E17.33342
G1 X100.541 Y20.221 E17.34883
G1 X100.541 Y19.533 E17.37824
G1 X100.795 Y19.278 E17.39366
G1 X100.795 Y18.591 E17.42307
G1 X100.541 Y18.336 E17.43849
G1 X100.541 Y17.648 E17.46790
G1 X100.795 Y17.393 E17.48331
G1 X100.795 Y16.705 E17.51273
