; generated by Slic3r 1.2.9 on 2019-11-08 at 20:46:32

; external perimeters extrusion width = 0.40mm
; perimeters extrusion width = 0.62mm
; infill extrusion width = 0.33mm
; solid infill extrusion width = 0.62mm
; top infill extrusion width = 0.20mm
; support material extrusion width = 0.40mm

M106 S256; Turn on fan to 100% power
M104 S140; turn on extruder temperature at S value
M140 S60; turn on bed temperature at S value
G28; home all axes
M84; disable motors
G1 Z15 F15000; have Z move to 20mm at 15000 mm/min
M190 S55; turn on bed temperature at S value and wait
M140 S55; turn on bed temperature at S value (printing temperature)
M109 S200; turn on extruder temperature at S value and wait (printing temperature)
M104 S200; turn on extruder temperature at S value
G1 Z0 F12000; move Z back to home
G21 ; set units to millimeters
G90 ; use absolute coordinates
M82 ; use absolute distances for extrusion
G92 E0
M106 S255
;Layer change
G1 E-6.00000 F1800.00000
G92 E0
G1 Z0.300 F9000.000
G1 X56.524 Y13.173 F9000.000
G1 E6.00000 F1800.00000
G1 X56.777 Y12.105 E6.05401 F600.000
G1 X58.161 Y9.343 E6.20606
G1 X58.946 Y8.443 E6.26484
G1 X60.260 Y7.544 E6.34315
G1 X60.877 Y7.242 E6.37697
G1 X61.905 Y6.911 E6.43014
G1 X62.410 Y6.807 E6.45552
G1 X63.316 Y6.721 E6.50030
G1 X139.445 Y6.737 E10.24699
G1 X140.320 Y6.743 E10.29007 F600.000
G1 X140.751 Y6.785 E10.31137
G1 X141.538 Y6.935 E10.35082
G1 X141.979 Y7.064 E10.37340
G1 X142.697 Y7.352 E10.41149
G1 X142.985 Y7.491 E10.42719
G1 X143.657 Y7.871 E10.46519
G1 X144.050 Y8.149 E10.48892
G1 X144.650 Y8.673 E10.52812
G1 X144.956 Y8.994 E10.54992
G1 X145.483 Y9.663 E10.59185
G1 X145.732 Y10.051 E10.61454
G1 X146.168 Y10.902 E10.66159
G1 X146.365 Y11.433 E10.68949
G1 X146.645 Y12.597 E10.74839
G1 X146.711 Y13.154 E10.77597
G1 X146.732 Y87.124 E14.41643
G1 X146.479 Y88.194 E14.47052
G1 X144.409 Y92.324 E14.69793
G1 X143.339 Y93.391 E14.77227
G1 X142.190 Y93.963 E14.83547
G1 X141.582 Y94.170 E14.86705
G1 X140.626 Y94.355 E14.91498
G1 X140.173 Y94.399 E14.93737
G1 X63.376 Y94.433 E18.71696
G1 X62.311 Y94.337 E18.76957
G1 X61.905 Y94.259 E18.78994
G1 X61.149 Y94.045 E18.82859
G1 X60.769 Y93.901 E18.84861
G1 X60.073 Y93.568 E18.88657
G1 X59.722 Y93.361 E18.90662
G1 X59.085 Y92.910 E18.94503
G1 X58.768 Y92.640 E18.96553
G1 X58.196 Y92.060 E19.00562
G1 X57.921 Y91.725 E19.02692
G1 X57.425 Y90.994 E19.07040
G1 X57.173 Y90.515 E19.09706
G1 X56.798 Y89.543 E19.14832
G1 X56.648 Y88.917 E19.18000
G1 X56.495 Y87.244 E19.26270
G1 X56.524 Y13.233 E22.90517
G1 E16.90517 F1800.00000
G92 E0
G1 X136.918 Y16.587 F9000.000
G1 E6.00000 F1800.00000
G1 X136.918 Y84.553 E9.34491 F600.000
G1 X66.302 Y84.553 E12.82023
G1 X66.302 Y16.587 E16.16513
G1 X136.858 Y16.587 E19.63751
G1 X137.303 Y16.202 F9000.000
G1 X137.303 Y84.938 E23.02037 F600.000
G1 X65.917 Y84.938 E26.53365
G1 X65.917 Y16.202 E29.91651
G1 X137.243 Y16.202 E33.42684
G1 X137.689 Y15.816 F9000.000
G1 X137.689 Y85.324 E36.84766 F600.000
G1 X65.531 Y85.324 E40.39889
G1 X65.531 Y15.816 E43.81971
G1 X137.629 Y15.816 E47.36800
G1 X138.074 Y15.431 F9000.000
G1 X138.074 Y85.709 E50.82677 F600.000
G1 X65.146 Y85.709 E54.41597
G1 X65.146 Y15.431 E57.87474
G1 X138.014 Y15.431 E61.46098
G1 X138.460 Y15.045 F9000.000
G1 X138.460 Y86.095 E64.95771 F600.000
G1 X64.760 Y86.095 E68.58486
G1 X64.760 Y15.045 E72.08159
G1 X138.400 Y15.045 E75.70579
G1 X138.260 Y15.391 F9000.000
G1 X136.634 Y17.075 F9000.000
G1 X136.430 Y16.871 E75.71998 F600.000
G1 X135.884 Y16.871 E75.74688
G1 X136.634 Y17.621 E75.79911
G1 X136.634 Y18.167 E75.82601
G1 X135.338 Y16.871 E75.91628
G1 X134.792 Y16.871 E75.94318
G1 X136.634 Y18.713 E76.07150
G1 X136.634 Y19.259 E76.09840
G1 X134.246 Y16.871 E76.26476
G1 X133.700 Y16.871 E76.29166
G1 X136.634 Y19.805 E76.49606
G1 X136.634 Y20.351 E76.52296
G1 X133.154 Y16.871 E76.76540
G1 X132.608 Y16.871 E76.79230
G1 X136.634 Y20.897 E77.07279
G1 X136.634 Y21.443 E77.09969
G1 X132.062 Y16.871 E77.41822
G1 X131.516 Y16.871 E77.44512
G1 X136.634 Y21.989 E77.80169
G1 X136.634 Y22.535 E77.82859
G1 X130.970 Y16.871 E78.22321
G1 X130.424 Y16.871 E78.25011
G1 X136.634 Y23.081 E78.68277
G1 X136.634 Y23.626 E78.70967
G1 X129.879 Y16.871 E79.18037
G1 X129.333 Y16.871 E79.20727
G1 X136.634 Y24.172 E79.71601
G1 X136.634 Y24.718 E79.74291
G1 X128.787 Y16.871 E80.28970
G1 X128.241 Y16.871 E80.31660
G1 X136.634 Y25.264 E80.90143
G1 X136.634 Y25.810 E80.92833
G1 X127.695 Y16.871 E81.55120
G1 X127.149 Y16.871 E81.57811
G1 X136.634 Y26.356 E82.23902
G1 X136.634 Y26.902 E82.26592
G1 X126.603 Y16.871 E82.96488
G1 X126.057 Y16.871 E82.99178
G1 X136.634 Y27.448 E83.72878
G1 X136.634 Y27.994 E83.75568
G1 X125.511 Y16.871 E84.53073
G1 X124.965 Y16.871 E84.55763
G1 X136.634 Y28.540 E85.37071
G1 X136.634 Y29.086 E85.39761
G1 X124.419 Y16.871 E86.24874
G1 X123.873 Y16.871 E86.27564
G1 X136.634 Y29.632 E87.16481
G1 X136.634 Y30.178 E87.19172
G1 X123.327 Y16.871 E88.11893
G1 X122.781 Y16.871 E88.14583
G1 X136.634 Y30.724 E89.11109
G1 X136.634 Y31.270 E89.13799
G1 X122.235 Y16.871 E90.14129
G1 X121.689 Y16.871 E90.16819
G1 X136.634 Y31.816 E91.20953
G1 X136.634 Y32.362 E91.23644
G1 X121.143 Y16.871 E92.31582
G1 X120.597 Y16.871 E92.34272
G1 X136.634 Y32.908 E93.46015
G1 X136.634 Y33.454 E93.48705
G1 X120.051 Y16.871 E94.64252
G1 X119.505 Y16.871 E94.66942
G1 X136.634 Y34.000 E95.86294
G1 X136.634 Y34.546 E95.88984
G1 X118.959 Y16.871 E97.12140
G1 X118.413 Y16.871 E97.14830
G1 X136.634 Y35.092 E98.41790
G1 X136.634 Y35.638 E98.44480
G1 X117.867 Y16.871 E99.75244
G1 X117.321 Y16.871 E99.77934
G1 X136.634 Y36.184 E101.12503
G1 X136.634 Y36.730 E101.15193
G1 X116.775 Y16.871 E102.53566
G1 X116.229 Y16.871 E102.56256
G1 X136.634 Y37.276 E103.98433
G1 X136.634 Y37.822 E104.01123
G1 X115.683 Y16.871 E105.47105
G1 X115.137 Y16.871 E105.49795
G1 X136.634 Y38.368 E106.99581
G1 X136.634 Y38.914 E107.02271
G1 X114.591 Y16.871 E108.55861
G1 X114.045 Y16.871 E108.58551
G1 X136.634 Y39.460 E110.15945
G1 X136.634 Y40.006 E110.18635
G1 X113.499 Y16.871 E111.79834
G1 X112.954 Y16.871 E111.82524
G1 X136.634 Y40.551 E113.47527
G1 X136.634 Y41.097 E113.50217
G1 X112.408 Y16.871 E115.19024
G1 X111.862 Y16.871 E115.21714
G1 X136.634 Y41.643 E116.94326
G1 X136.634 Y42.189 E116.97016
G1 X111.316 Y16.871 E118.73431
G1 X110.770 Y16.871 E118.76121
G1 X136.634 Y42.735 E120.56341
G1 X136.634 Y43.281 E120.59032
G1 X110.224 Y16.871 E122.43056
G1 X109.678 Y16.871 E122.45746
G1 X136.634 Y43.827 E124.33575
G1 X136.634 Y44.373 E124.36265
G1 X109.132 Y16.871 E126.27897
G1 X108.586 Y16.871 E126.30588
G1 X136.634 Y44.919 E128.26025
G1 X136.634 Y45.465 E128.28715
G1 X108.040 Y16.871 E130.27956
G1 X107.494 Y16.871 E130.30646
G1 X136.634 Y46.011 E132.33692
G1 X136.634 Y46.557 E132.36382
G1 X106.948 Y16.871 E134.43232
G1 X106.402 Y16.871 E134.45922
G1 X136.634 Y47.103 E136.56577
G1 X136.634 Y47.649 E136.59267
G1 X105.856 Y16.871 E138.73725
G1 X105.310 Y16.871 E138.76415
G1 X136.634 Y48.195 E140.94678
G1 X136.634 Y48.741 E140.97368
G1 X104.764 Y16.871 E143.19435
G1 X104.218 Y16.871 E143.22125
G1 X136.634 Y49.287 E145.47997
G1 X136.634 Y49.833 E145.50687
G1 X103.672 Y16.871 E147.80363
G1 X103.126 Y16.871 E147.83053
G1 X136.634 Y50.379 E150.16533
G1 X136.634 Y50.925 E150.19223
G1 X102.580 Y16.871 E152.56507
G1 X102.034 Y16.871 E152.59197
G1 X136.634 Y51.471 E155.00286
G1 X136.634 Y52.017 E155.02976
G1 X101.488 Y16.871 E157.47869
G1 X100.942 Y16.871 E157.50559
G1 X136.634 Y52.563 E159.99256
G1 X136.634 Y53.109 E160.01946
G1 X100.396 Y16.871 E162.54447
G1 X99.850 Y16.871 E162.57137
G1 X136.634 Y53.655 E165.13443
G1 X136.634 Y54.201 E165.16133
G1 X99.304 Y16.871 E167.76243
G1 X98.758 Y16.871 E167.78933
G1 X136.634 Y54.747 E170.42848
G1 X136.634 Y55.293 E170.45538
G1 X98.212 Y16.871 E173.13256
G1 X97.666 Y16.871 E173.15946
G1 X136.634 Y55.839 E175.87469
G1 X136.634 Y56.385 E175.90159
G1 X97.120 Y16.871 E178.65486
G1 X96.574 Y16.871 E178.68176
G1 X136.634 Y56.931 E181.47308
G1 X136.634 Y57.476 E181.49998
G1 X96.029 Y16.871 E184.32934
G1 X95.483 Y16.871 E184.35624
G1 X136.634 Y58.022 E187.22364
G1 X136.634 Y58.568 E187.25054
G1 X94.937 Y16.871 E190.15598
G1 X94.391 Y16.871 E190.18288
G1 X136.634 Y59.114 E193.12637
G1 X136.634 Y59.660 E193.15327
G1 X93.845 Y16.871 E196.13479
G1 X93.299 Y16.871 E196.16170
G1 X136.634 Y60.206 E199.18127
G1 X136.634 Y60.752 E199.20817
G1 X92.753 Y16.871 E202.26578
G1 X92.207 Y16.871 E202.29268
G1 X136.634 Y61.298 E205.38834
G1 X136.634 Y61.844 E205.41524
G1 X91.661 Y16.871 E208.54894
G1 X91.115 Y16.871 E208.57584
G1 X136.634 Y62.390 E211.74758
G1 X136.634 Y62.936 E211.77448
G1 X90.569 Y16.871 E214.98427
G1 X90.023 Y16.871 E215.01117
G1 X136.634 Y63.482 E218.25900
G1 X136.634 Y64.028 E218.28590
G1 X89.477 Y16.871 E221.57177
G1 X88.931 Y16.871 E221.59867
G1 X136.634 Y64.574 E224.92258
G1 X136.634 Y65.120 E224.94948
G1 X88.385 Y16.871 E228.31144
G1 X87.839 Y16.871 E228.33834
G1 X136.634 Y65.666 E231.73834
G1 X136.634 Y66.212 E231.76524
G1 X87.293 Y16.871 E235.20329
G1 X86.747 Y16.871 E235.23019
G1 X136.634 Y66.758 E238.70627
G1 X136.634 Y67.304 E238.73317
G1 X86.201 Y16.871 E242.24730
G1 X85.655 Y16.871 E242.27420
G1 X136.634 Y67.850 E245.82637
G1 X136.634 Y68.396 E245.85327
G1 X85.109 Y16.871 E249.44349
G1 X84.563 Y16.871 E249.47039
G1 X136.634 Y68.942 E253.09864
G1 X136.634 Y69.488 E253.12554
G1 X84.017 Y16.871 E256.79184
G1 X83.471 Y16.871 E256.81874
G1 X136.634 Y70.034 E260.52309
G1 X136.634 Y70.580 E260.54999
G1 X82.925 Y16.871 E264.29237
G1 X82.379 Y16.871 E264.31927
G1 X136.634 Y71.126 E268.09970
G1 X136.634 Y71.672 E268.12660
G1 X81.833 Y16.871 E271.94507
G1 X81.287 Y16.871 E271.97197
G1 X136.634 Y72.218 E275.82849
G1 X136.634 Y72.764 E275.85539
G1 X80.741 Y16.871 E279.74995
G1 X80.195 Y16.871 E279.77685
G1 X136.634 Y73.310 E283.70945
G1 X136.634 Y73.856 E283.73635
G1 X79.649 Y16.871 E287.70699
G1 X79.104 Y16.871 E287.73389
G1 X136.634 Y74.401 E291.74257
G1 X136.634 Y74.947 E291.76947
G1 X78.558 Y16.871 E295.81620
G1 X78.012 Y16.871 E295.84310
G1 X136.634 Y75.493 E299.92787
G1 X136.634 Y76.039 E299.95477
G1 X77.466 Y16.871 E304.07759
G1 X76.920 Y16.871 E304.10449
G1 X136.634 Y76.585 E308.26535
G1 X136.634 Y77.131 E308.29225
G1 X76.374 Y16.871 E312.49115
G1 X75.828 Y16.871 E312.51805
G1 X136.634 Y77.677 E316.75499
G1 X136.634 Y78.223 E316.78189
G1 X75.282 Y16.871 E321.05687
G1 X74.736 Y16.871 E321.08377
G1 X136.634 Y78.769 E325.39680
G1 X136.634 Y79.315 E325.42370
G1 X74.190 Y16.871 E329.77477
G1 X73.644 Y16.871 E329.80167
G1 X136.634 Y79.861 E334.19079
G1 X136.634 Y80.407 E334.21769
G1 X73.098 Y16.871 E338.64484
G1 X72.552 Y16.871 E338.67175
G1 X136.634 Y80.953 E343.13694
G1 X136.634 Y81.499 E343.16384
G1 X72.006 Y16.871 E347.66709
G1 X71.460 Y16.871 E347.69399
G1 X136.634 Y82.045 E352.23527
G1 X136.634 Y82.591 E352.26217
G1 X70.914 Y16.871 E356.84150
G1 X70.368 Y16.871 E356.86840
G1 X136.634 Y83.137 E361.48577
G1 X136.634 Y83.683 E361.51267
G1 X69.822 Y16.871 E366.16809
G1 X69.276 Y16.871 E366.19499
G1 X136.634 Y84.229 E370.88844
G1 X136.128 Y84.269 E370.91345
G1 X68.730 Y16.871 E375.60968
G1 X68.184 Y16.871 E375.63658
G1 X135.582 Y84.269 E380.33281
G1 X135.036 Y84.269 E380.35971
G1 X67.638 Y16.871 E385.05595
G1 X67.092 Y16.871 E385.08285
G1 X134.490 Y84.269 E389.77908
G1 X133.944 Y84.269 E389.80598
G1 X66.586 Y16.911 E394.49943
G1 X66.586 Y17.457 E394.52633
G1 X133.398 Y84.269 E399.18173
G1 X132.852 Y84.269 E399.20863
G1 X66.586 Y18.003 E403.82599
G1 X66.586 Y18.549 E403.85289
G1 X132.306 Y84.269 E408.43221
G1 X131.760 Y84.269 E408.45911
G1 X66.586 Y19.095 E413.00038
G1 X66.586 Y19.641 E413.02728
G1 X131.214 Y84.269 E417.53051
G1 X130.668 Y84.269 E417.55741
G1 X66.586 Y20.187 E422.02260
G1 X66.586 Y20.733 E422.04950
G1 X130.122 Y84.269 E426.47664
G1 X129.576 Y84.269 E426.50355
G1 X66.586 Y21.279 E430.89265
G1 X66.586 Y21.825 E430.91955
G1 X129.030 Y84.269 E435.27061
G1 X128.484 Y84.269 E435.29751
G1 X66.586 Y22.371 E439.61052
G1 X66.586 Y22.917 E439.63743
G1 X127.938 Y84.269 E443.91240
G1 X127.392 Y84.269 E443.93930
G1 X66.586 Y23.463 E448.17623
G1 X66.586 Y24.009 E448.20313
G1 X126.846 Y84.269 E452.40202
G1 X126.300 Y84.269 E452.42892
G1 X66.586 Y24.555 E456.58976
G1 X66.586 Y25.101 E456.61666
G1 X125.754 Y84.269 E460.73947
G1 X125.208 Y84.269 E460.76637
G1 X66.586 Y25.647 E464.85113
G1 X66.586 Y26.193 E464.87803
G1 X124.662 Y84.269 E468.92474
G1 X124.116 Y84.269 E468.95165
G1 X66.586 Y26.739 E472.96032
G1 X66.586 Y27.285 E472.98722
G1 X123.570 Y84.269 E476.95785
G1 X123.024 Y84.269 E476.98475
G1 X66.586 Y27.831 E480.91734
G1 X66.586 Y28.377 E480.94424
G1 X122.478 Y84.269 E484.83879
G1 X121.932 Y84.269 E484.86569
G1 X66.586 Y28.923 E488.72219
G1 X66.586 Y29.469 E488.74909
G1 X121.386 Y84.269 E492.56755
G1 X120.841 Y84.269 E492.59445
G1 X66.586 Y30.014 E496.37487
G1 X66.586 Y30.560 E496.40177
G1 X120.295 Y84.269 E500.14414
G1 X119.749 Y84.269 E500.17104
G1 X66.586 Y31.106 E503.87537
G1 X66.586 Y31.652 E503.90227
G1 X119.203 Y84.269 E507.56856
G1 X118.657 Y84.269 E507.59546
G1 X66.586 Y32.198 E511.22371
G1 X66.586 Y32.744 E511.25061
G1 X118.111 Y84.269 E514.84081
G1 X117.565 Y84.269 E514.86771
G1 X66.586 Y33.290 E518.41987
G1 X66.586 Y33.836 E518.44677
G1 X117.019 Y84.269 E521.96089
G1 X116.473 Y84.269 E521.98779
G1 X66.586 Y34.382 E525.46386
G1 X66.586 Y34.928 E525.49076
G1 X115.927 Y84.269 E528.92879
G1 X115.381 Y84.269 E528.95569
G1 X66.586 Y35.474 E532.35568
G1 X66.586 Y36.020 E532.38258
G1 X114.835 Y84.269 E535.74453
G1 X114.289 Y84.269 E535.77143
G1 X66.586 Y36.566 E539.09533
G1 X66.586 Y37.112 E539.12223
G1 X113.743 Y84.269 E542.40809
G1 X113.197 Y84.269 E542.43499
G1 X66.586 Y37.658 E545.68281
G1 X66.586 Y38.204 E545.70971
G1 X112.651 Y84.269 E548.91948
G1 X112.105 Y84.269 E548.94638
G1 X66.586 Y38.750 E552.11812
G1 X66.586 Y39.296 E552.14502
G1 X111.559 Y84.269 E555.27870
G1 X111.013 Y84.269 E555.30560
G1 X66.586 Y39.842 E558.40125
G1 X66.586 Y40.388 E558.42815
G1 X110.467 Y84.269 E561.48575
G1 X109.921 Y84.269 E561.51265
G1 X66.586 Y40.934 E564.53221
G1 X66.586 Y41.480 E564.55911
G1 X109.375 Y84.269 E567.54063
G1 X108.829 Y84.269 E567.56753
G1 X66.586 Y42.026 E570.51101
G1 X66.586 Y42.572 E570.53791
G1 X108.283 Y84.269 E573.44334
G1 X107.737 Y84.269 E573.47024
G1 X66.586 Y43.118 E576.33763
G1 X66.586 Y43.664 E576.36453
G1 X107.191 Y84.269 E579.19387
G1 X106.645 Y84.269 E579.22077
G1 X66.586 Y44.210 E582.01208
G1 X66.586 Y44.756 E582.03898
G1 X106.099 Y84.269 E584.79224
G1 X105.553 Y84.269 E584.81914
G1 X66.586 Y45.302 E587.53436
G1 X66.586 Y45.848 E587.56126
G1 X105.007 Y84.269 E590.23843
G1 X104.461 Y84.269 E590.26533
G1 X66.586 Y46.394 E592.90446
G1 X66.586 Y46.939 E592.93136
G1 X103.916 Y84.269 E595.53245
G1 X103.370 Y84.269 E595.55935
G1 X66.586 Y47.485 E598.12240
G1 X66.586 Y48.031 E598.14930
G1 X102.824 Y84.269 E600.67430
G1 X102.278 Y84.269 E600.70120
G1 X66.586 Y48.577 E603.18816
G1 X66.586 Y49.123 E603.21506
G1 X101.732 Y84.269 E605.66398
G1 X101.186 Y84.269 E605.69088
G1 X66.586 Y49.669 E608.10175
G1 X66.586 Y50.215 E608.12866
G1 X100.640 Y84.269 E610.50149
G1 X100.094 Y84.269 E610.52839
G1 X66.586 Y50.761 E612.86318
G1 X66.586 Y51.307 E612.89008
G1 X99.548 Y84.269 E615.18682
G1 X99.002 Y84.269 E615.21372
G1 X66.586 Y51.853 E617.47243
G1 X66.586 Y52.399 E617.49933
G1 X98.456 Y84.269 E619.71999
G1 X97.910 Y84.269 E619.74689
G1 X66.586 Y52.945 E621.92950
G1 X66.586 Y53.491 E621.95641
G1 X97.364 Y84.269 E624.10098
G1 X96.818 Y84.269 E624.12788
G1 X66.586 Y54.037 E626.23441
G1 X66.586 Y54.583 E626.26131
G1 X96.272 Y84.269 E628.32980
G1 X95.726 Y84.269 E628.35670
G1 X66.586 Y55.129 E630.38715
G1 X66.586 Y55.675 E630.41405
G1 X95.180 Y84.269 E632.40645
G1 X94.634 Y84.269 E632.43335
G1 X66.586 Y56.221 E634.38771
G1 X66.586 Y56.767 E634.41461
G1 X94.088 Y84.269 E636.33093
G1 X93.542 Y84.269 E636.35783
G1 X66.586 Y57.313 E638.23611
G1 X66.586 Y57.859 E638.26301
G1 X92.996 Y84.269 E640.10324
G1 X92.450 Y84.269 E640.13014
G1 X66.586 Y58.405 E641.93233
G1 X66.586 Y58.951 E641.95923
G1 X91.904 Y84.269 E643.72337
G1 X91.358 Y84.269 E643.75028
