; generated by Slic3r 1.2.9 on 2019-11-08 at 23:47:53

; external perimeters extrusion width = 0.40mm
; perimeters extrusion width = 0.62mm
; infill extrusion width = 0.33mm
; solid infill extrusion width = 0.62mm
; top infill extrusion width = 0.20mm
; support material extrusion width = 0.40mm

M106 S256; Turn on fan to 100% power
M104 S140; turn on extruder temperature at S value
M140 S60; turn on bed temperature at S value
G28; home all axes
M84; disable motors
G1 Z15 F15000; have Z move to 20mm at 15000 mm/min
M190 S55; turn on bed temperature at S value and wait
M140 S55; turn on bed temperature at S value (printing temperature)
M109 S200; turn on extruder temperature at S value and wait (printing temperature)
M104 S200; turn on extruder temperature at S value
G1 Z0 F12000; move Z back to home
G21 ; set units to millimeters
G90 ; use absolute coordinates
M82 ; use absolute distances for extrusion
G92 E0
M106 S255
;Layer change
G1 E-6.00000 F1800.00000
G92 E0
G1 Z0.300 F9000.000
G1 X62.702 Y14.704 F9000.000
G1 E6.00000 F1800.00000
G1 X62.812 Y14.246 E6.02317 F600.000
G1 X62.928 Y13.890 E6.04160
G1 X63.108 Y13.455 E6.06477
G1 X63.278 Y13.122 E6.08319
G1 X63.524 Y12.720 E6.10636
G1 X63.744 Y12.417 E6.12479
G1 X64.050 Y12.059 E6.14797
G1 X64.314 Y11.795 E6.16635
G1 X64.672 Y11.489 E6.18953
G1 X64.975 Y11.269 E6.20798
G1 X65.377 Y11.023 E6.23115
G1 X65.710 Y10.853 E6.24953
G1 X66.145 Y10.673 E6.27271
G1 X66.501 Y10.557 E6.29113
G1 X66.959 Y10.447 E6.31431
G1 X67.329 Y10.389 E6.33275
G1 X67.798 Y10.352 E6.35592
G1 X145.022 Y10.352 E10.15649
G1 X145.491 Y10.389 E10.17967 F600.000
G1 X145.861 Y10.447 E10.19810
G1 X146.319 Y10.557 E10.22127
G1 X146.675 Y10.673 E10.23969
G1 X147.110 Y10.853 E10.26287
G1 X147.443 Y11.023 E10.28127
G1 X147.845 Y11.269 E10.30444
G1 X148.148 Y11.489 E10.32290
G1 X148.506 Y11.795 E10.34607
G1 X148.770 Y12.059 E10.36446
G1 X149.076 Y12.417 E10.38765
G1 X149.296 Y12.720 E10.40605
G1 X149.542 Y13.121 E10.42922
G1 X149.712 Y13.455 E10.44764
G1 X149.892 Y13.890 E10.47081
G1 X150.008 Y14.246 E10.48924
G1 X150.118 Y14.704 E10.51245
G1 X150.176 Y15.074 E10.53084
G1 X150.221 Y15.730 E10.56322
G1 X150.213 Y90.117 E14.22418
G1 X150.176 Y90.586 E14.24735
G1 X150.118 Y90.956 E14.26578
G1 X150.008 Y91.414 E14.28895
G1 X149.892 Y91.770 E14.30738
G1 X149.712 Y92.205 E14.33055
G1 X149.542 Y92.539 E14.34897
G1 X149.296 Y92.940 E14.37217
G1 X149.076 Y93.243 E14.39055
G1 X148.770 Y93.601 E14.41372
G1 X148.506 Y93.865 E14.43214
G1 X148.148 Y94.171 E14.45530
G1 X147.845 Y94.391 E14.47371
G1 X147.443 Y94.637 E14.49691
G1 X147.110 Y94.807 E14.51533
G1 X146.675 Y94.987 E14.53851
G1 X146.319 Y95.103 E14.55692
G1 X145.861 Y95.213 E14.58009
G1 X145.492 Y95.271 E14.59851
G1 X145.022 Y95.308 E14.62168
G1 X67.985 Y95.316 E18.41307
G1 X67.328 Y95.271 E18.44546
G1 X66.959 Y95.213 E18.46385
G1 X66.501 Y95.103 E18.48705
G1 X66.145 Y94.987 E18.50547
G1 X65.710 Y94.807 E18.52864
G1 X65.377 Y94.637 E18.54706
G1 X64.975 Y94.391 E18.57023
G1 X64.673 Y94.171 E18.58864
G1 X64.314 Y93.865 E18.61182
G1 X64.050 Y93.601 E18.63024
G1 X63.744 Y93.242 E18.65343
G1 X63.524 Y92.940 E18.67184
G1 X63.278 Y92.538 E18.69500
G1 X63.108 Y92.205 E18.71343
G1 X62.928 Y91.770 E18.73660
G1 X62.812 Y91.414 E18.75502
G1 X62.702 Y90.956 E18.77819
G1 X62.644 Y90.586 E18.79661
G1 X62.599 Y89.930 E18.82899
G1 X62.599 Y15.730 E22.48075
G1 X62.644 Y15.073 E22.51314
G1 X62.693 Y14.763 E22.52860
G1 E16.52860 F1800.00000
G92 E0
G1 X144.178 Y87.908 F9000.000
G1 E6.00000 F1800.00000
G1 X144.502 Y87.830 E6.01642 F600.000
G1 X144.827 Y87.805 E6.03244 F600.000
G1 X145.167 Y87.830 E6.04922
G1 X145.492 Y87.908 E6.06566
G1 X145.800 Y88.036 E6.08207
G1 X146.084 Y88.210 E6.09849
G1 X146.338 Y88.427 E6.11491
G1 X146.555 Y88.681 E6.13134
G1 X146.732 Y88.972 E6.14812
G1 X146.857 Y89.273 E6.16415
G1 X146.935 Y89.597 E6.18057
G1 X146.961 Y89.930 E6.19698
G1 X146.935 Y90.263 E6.21340
G1 X146.857 Y90.587 E6.22982
G1 X146.729 Y90.895 E6.24623
G1 X146.555 Y91.179 E6.26265
G1 X146.338 Y91.433 E6.27906
G1 X146.084 Y91.650 E6.29548
G1 X145.800 Y91.824 E6.31190
G1 X145.492 Y91.952 E6.32831
G1 X145.168 Y92.030 E6.34473
G1 X144.835 Y92.056 E6.36114
G1 X144.502 Y92.030 E6.37756
G1 X144.178 Y91.952 E6.39397
G1 X143.877 Y91.827 E6.41000
G1 X143.586 Y91.650 E6.42678
G1 X143.332 Y91.433 E6.44322
G1 X143.115 Y91.179 E6.45964
G1 X142.941 Y90.895 E6.47605
G1 X142.813 Y90.587 E6.49247
G1 X142.735 Y90.263 E6.50888
G1 X142.709 Y89.930 E6.52530
G1 X142.735 Y89.597 E6.54172
G1 X142.813 Y89.273 E6.55813
G1 X142.941 Y88.965 E6.57455
G1 X143.162 Y88.605 E6.59533
G1 X143.510 Y88.605 E6.61247
G1 X143.510 Y88.257 E6.62962
G1 X143.870 Y88.036 E6.65040
G1 X144.123 Y87.931 E6.66386
G1 X144.256 Y87.584 F9000.000
G1 E0.66386 F1800.00000
G92 E0
G1 X144.835 Y17.856 F9000.000
G1 E6.00000 F1800.00000
G1 X144.502 Y17.830 E6.01642 F600.000
G1 X144.178 Y17.752 E6.03283
G1 X143.870 Y17.624 E6.04925
G1 X143.510 Y17.403 E6.07003
G1 X143.510 Y17.055 E6.08717
G1 X143.162 Y17.055 E6.10432
G1 X142.941 Y16.695 E6.12510
G1 X142.813 Y16.387 E6.14151
G1 X142.735 Y16.063 E6.15793
G1 X142.709 Y15.730 E6.17435
G1 X142.735 Y15.397 E6.19076
G1 X142.813 Y15.073 E6.20718
G1 X142.941 Y14.765 E6.22359
G1 X143.115 Y14.481 E6.24001
G1 X143.332 Y14.227 E6.25643
G1 X143.586 Y14.010 E6.27284
G1 X143.870 Y13.836 E6.28926
G1 X144.178 Y13.708 E6.30568
G1 X144.502 Y13.630 E6.32209
G1 X144.827 Y13.605 E6.33812 F600.000
G1 X145.167 Y13.630 E6.35490
G1 X145.492 Y13.708 E6.37133
G1 X145.800 Y13.836 E6.38775
G1 X146.084 Y14.010 E6.40417
G1 X146.338 Y14.227 E6.42058
G1 X146.555 Y14.481 E6.43702
G1 X146.732 Y14.772 E6.45380
G1 X146.857 Y15.073 E6.46983
G1 X146.935 Y15.397 E6.48624
G1 X146.961 Y15.730 E6.50266
G1 X146.935 Y16.063 E6.51907
G1 X146.857 Y16.387 E6.53549
G1 X146.729 Y16.695 E6.55191
G1 X146.555 Y16.979 E6.56832
G1 X146.338 Y17.233 E6.58474
G1 X146.084 Y17.450 E6.60115
G1 X145.800 Y17.624 E6.61757
G1 X145.492 Y17.752 E6.63399
G1 X145.168 Y17.830 E6.65040
G1 X144.895 Y17.851 E6.66387
G1 X144.661 Y18.140 F9000.000
G1 E0.66387 F1800.00000
G92 E0
G1 X136.652 Y40.763 F9000.000
G1 E6.00000 F1800.00000
G1 X136.652 Y49.297 E6.42005 F600.000
G1 X89.618 Y49.297 E8.73488
G1 X89.618 Y40.763 E9.15493
G1 X136.592 Y40.763 E11.46680
G1 X136.267 Y41.148 F9000.000
G1 X136.267 Y48.912 E11.84889 F600.000
G1 X90.003 Y48.912 E14.12576
G1 X90.003 Y41.148 E14.50786
G1 X136.207 Y41.148 E16.78178
G1 X135.881 Y41.534 F9000.000
G1 X135.881 Y48.526 E17.12591 F600.000
G1 X90.389 Y48.526 E19.36483
G1 X90.389 Y41.534 E19.70896
G1 X135.821 Y41.534 E21.94493
G1 X135.496 Y41.919 F9000.000
G1 X135.496 Y48.141 E22.25110 F600.000
G1 X90.774 Y48.141 E24.45206
G1 X90.774 Y41.919 E24.75824
G1 X135.436 Y41.919 E26.95625
G1 X135.110 Y42.305 F9000.000
G1 X135.110 Y47.755 E27.22447 F600.000
G1 X91.160 Y47.755 E29.38747
G1 X91.160 Y42.305 E29.65570
G1 X135.050 Y42.305 E31.81575
G1 X135.510 Y42.305 F9000.000
G1 X141.968 Y47.272 F9000.000
G1 X143.468 Y47.272 E31.88957 F600.000
G1 X143.468 Y55.738 E32.30618
G1 X141.968 Y55.738 E32.38000
G1 X141.968 Y87.063 E33.92166
G1 X110.643 Y87.063 E35.46332
G1 X110.643 Y88.563 E35.53715
G1 X102.177 Y88.563 E35.95375
G1 X102.177 Y87.063 E36.02758
G1 X70.852 Y87.063 E37.56924
G1 X70.852 Y58.388 E38.98048
G1 X69.352 Y58.388 E39.05430
G1 X69.352 Y49.922 E39.47091
G1 X70.852 Y49.922 E39.54473
G1 X70.852 Y18.597 E41.08640
G1 X102.177 Y18.597 E42.62806
G1 X102.177 Y17.097 E42.70188
G1 X110.643 Y17.097 E43.11849
G1 X110.643 Y18.597 E43.19231
G1 X141.968 Y18.597 E44.73397
G1 X141.968 Y47.212 E46.14226
G1 X142.353 Y46.887 F9000.000
G1 X143.853 Y46.887 E46.21608 F600.000
G1 X143.853 Y56.123 E46.67065
G1 X142.353 Y56.123 E46.74447
G1 X142.353 Y87.448 E48.28613
G1 X111.028 Y87.448 E49.82780
G1 X111.028 Y88.948 E49.90162
G1 X101.792 Y88.948 E50.35618
G1 X101.792 Y87.448 E50.43001
G1 X70.467 Y87.448 E51.97167
G1 X70.467 Y58.773 E53.38291
G1 X68.967 Y58.773 E53.45673
G1 X68.967 Y49.537 E53.91130
G1 X70.467 Y49.537 E53.98512
G1 X70.467 Y18.212 E55.52678
G1 X101.792 Y18.212 E57.06844
G1 X101.792 Y16.712 E57.14227
G1 X111.028 Y16.712 E57.59683
G1 X111.028 Y18.212 E57.67065
G1 X142.353 Y18.212 E59.21232
G1 X142.353 Y46.827 E60.62060
G1 X142.739 Y46.501 F9000.000
G1 X144.239 Y46.501 E60.69443 F600.000
G1 X144.239 Y56.509 E61.18695
G1 X142.739 Y56.509 E61.26077
G1 X142.739 Y87.834 E62.80243
G1 X111.414 Y87.834 E64.34410
G1 X111.414 Y89.334 E64.41792
G1 X101.406 Y89.334 E64.91044
G1 X101.406 Y87.834 E64.98426
G1 X70.081 Y87.834 E66.52592
G1 X70.081 Y59.159 E67.93717
G1 X68.581 Y59.159 E68.01099
G1 X68.581 Y49.151 E68.50351
G1 X70.081 Y49.151 E68.57733
G1 X70.081 Y17.826 E70.11899
G1 X101.406 Y17.826 E71.66066
G1 X101.406 Y16.326 E71.73448
G1 X111.414 Y16.326 E72.22700
G1 X111.414 Y17.826 E72.30082
G1 X142.739 Y17.826 E73.84248
G1 X142.739 Y46.441 E75.25077
G1 X143.124 Y46.116 F9000.000
G1 X144.624 Y46.116 E75.32460 F600.000
G1 X144.624 Y56.894 E75.85507
G1 X143.124 Y56.894 E75.92890
G1 X143.124 Y88.219 E77.47056
G1 X111.799 Y88.219 E79.01222
G1 X111.799 Y89.719 E79.08604
G1 X101.021 Y89.719 E79.61652
G1 X101.021 Y88.219 E79.69034
G1 X69.696 Y88.219 E81.23201
G1 X69.696 Y59.544 E82.64325
G1 X68.196 Y59.544 E82.71707
G1 X68.196 Y48.766 E83.24755
G1 X69.696 Y48.766 E83.32137
G1 X69.696 Y17.441 E84.86303
G1 X101.021 Y17.441 E86.40469
G1 X101.021 Y15.941 E86.47852
G1 X111.799 Y15.941 E87.00899
G1 X111.799 Y17.441 E87.08282
G1 X143.124 Y17.441 E88.62448
G1 X143.124 Y46.056 E90.03277
G1 E84.03277 F1800.00000
G92 E0
G1 X70.007 Y16.387 F9000.000
G1 E6.00000 F1800.00000
G1 X69.879 Y16.695 E6.01642 F600.000
G1 X69.658 Y17.055 E6.03720
G1 X69.310 Y17.055 E6.05434
G1 X69.310 Y17.403 E6.07149
G1 X68.950 Y17.624 E6.09227
G1 X68.642 Y17.752 E6.10868
G1 X68.318 Y17.830 E6.12510
G1 X67.985 Y17.856 E6.14152
G1 X67.652 Y17.830 E6.15793
G1 X67.328 Y17.752 E6.17435
G1 X67.020 Y17.624 E6.19076
G1 X66.736 Y17.450 E6.20718
G1 X66.482 Y17.233 E6.22360
G1 X66.265 Y16.979 E6.24003
G1 X66.088 Y16.688 E6.25681
G1 X65.963 Y16.387 E6.27284
G1 X65.885 Y16.063 E6.28926
G1 X65.859 Y15.730 E6.30567
G1 X65.885 Y15.397 E6.32209
G1 X65.963 Y15.073 E6.33850
G1 X66.091 Y14.765 E6.35492
G1 X66.265 Y14.481 E6.37134
G1 X66.482 Y14.227 E6.38775
G1 X66.736 Y14.010 E6.40417
G1 X67.020 Y13.836 E6.42058
G1 X67.328 Y13.708 E6.43700
G1 X67.652 Y13.630 E6.45342
G1 X67.977 Y13.605 E6.46945 F600.000
G1 X68.317 Y13.630 E6.48622
G1 X68.642 Y13.708 E6.50266
G1 X68.950 Y13.836 E6.51908
G1 X69.234 Y14.010 E6.53550
G1 X69.488 Y14.227 E6.55191
G1 X69.705 Y14.481 E6.56833
G1 X69.879 Y14.765 E6.58476
G1 X70.008 Y15.081 E6.60154
G1 X70.085 Y15.397 E6.61757
G1 X70.111 Y15.730 E6.63399
G1 X70.085 Y16.063 E6.65040
G1 X70.021 Y16.328 E6.66386
G1 X70.223 Y16.641 F9000.000
G1 E0.66386 F1800.00000
G92 E0
G1 X67.977 Y87.805 F9000.000
G1 E6.00000 F1800.00000
G1 X68.317 Y87.830 E6.01678 F600.000
G1 X68.642 Y87.908 E6.03322
G1 X68.950 Y88.036 E6.04963
G1 X69.310 Y88.257 E6.07041
G1 X69.310 Y88.605 E6.08756
G1 X69.658 Y88.605 E6.10470
G1 X69.879 Y88.965 E6.12550
G1 X70.008 Y89.281 E6.14228
G1 X70.085 Y89.597 E6.15831
G1 X70.111 Y89.930 E6.17473
G1 X70.084 Y90.263 E6.19116
G1 X70.004 Y90.594 E6.20794
G1 X69.879 Y90.895 E6.22397
G1 X69.705 Y91.179 E6.24039
G1 X69.488 Y91.433 E6.25680
G1 X69.234 Y91.650 E6.27322
G1 X68.950 Y91.824 E6.28963
G1 X68.642 Y91.952 E6.30605
G1 X68.318 Y92.030 E6.32247
G1 X67.985 Y92.056 E6.33888
G1 X67.652 Y92.030 E6.35530
G1 X67.328 Y91.952 E6.37172
G1 X67.027 Y91.827 E6.38774
G1 X66.736 Y91.650 E6.40452
G1 X66.482 Y91.433 E6.42096
G1 X66.265 Y91.179 E6.43738
G1 X66.091 Y90.895 E6.45379
G1 X65.963 Y90.587 E6.47021
G1 X65.885 Y90.263 E6.48662
G1 X65.859 Y89.930 E6.50304
G1 X65.886 Y89.597 E6.51948
G1 X65.966 Y89.266 E6.53626
G1 X66.091 Y88.965 E6.55228
G1 X66.265 Y88.681 E6.56870
G1 X66.482 Y88.427 E6.58512
G1 X66.736 Y88.210 E6.60153
G1 X67.020 Y88.036 E6.61795
G1 X67.328 Y87.908 E6.63437
G1 X67.652 Y87.830 E6.65078
G1 X67.917 Y87.810 E6.66386 F600.000
G1 X68.155 Y87.514 F9000.000
G1 X69.310 Y87.485 F9000.000
G1 X69.310 Y59.930 E8.01999 F600.000
G1 X67.810 Y59.930 E8.09381
G1 X67.810 Y48.380 E8.66225
G1 X69.310 Y48.380 E8.73607
G1 X69.310 Y18.175 E10.22263
G1 X68.842 Y18.369 E10.24755
G1 X68.419 Y18.470 E10.26897
G1 X67.985 Y18.504 E10.29039
G1 X67.551 Y18.470 E10.31182
G1 X67.128 Y18.369 E10.33324
G1 X66.726 Y18.202 E10.35467
G1 X66.354 Y17.974 E10.37610
G1 X66.023 Y17.692 E10.39752
G1 X65.741 Y17.361 E10.41894
G1 X65.513 Y16.990 E10.44037
G1 X65.346 Y16.587 E10.46180
G1 X65.245 Y16.164 E10.48322
G1 X65.211 Y15.730 E10.50465
G1 X65.244 Y15.307 E10.52551
G1 X65.347 Y14.872 E10.54751
G1 X65.513 Y14.470 E10.56892
G1 X65.741 Y14.099 E10.59034
G1 X66.023 Y13.768 E10.61177
G1 X66.354 Y13.485 E10.63319
G1 X66.725 Y13.258 E10.65462
G1 X67.128 Y13.091 E10.67604
G1 X67.551 Y12.990 E10.69747
G1 X67.985 Y12.956 E10.71889
G1 X68.419 Y12.990 E10.74032
G1 X68.842 Y13.091 E10.76174
G1 X69.245 Y13.258 E10.78317
G1 X69.616 Y13.485 E10.80459
G1 X69.947 Y13.768 E10.82602
G1 X70.229 Y14.099 E10.84744
G1 X70.457 Y14.470 E10.86887
G1 X70.624 Y14.873 E10.89029
G1 X70.725 Y15.296 E10.91172
G1 X70.759 Y15.730 E10.93315
G1 X70.725 Y16.164 E10.95457
G1 X70.624 Y16.587 E10.97599
G1 X70.430 Y17.055 E11.00091
G1 X100.635 Y17.055 E12.48746
G1 X100.635 Y15.555 E12.56128
G1 X112.185 Y15.555 E13.12972
G1 X112.185 Y17.055 E13.20354
G1 X142.390 Y17.055 E14.69009
G1 X142.196 Y16.587 E14.71501
G1 X142.095 Y16.164 E14.73643
G1 X142.061 Y15.730 E14.75786
G1 X142.095 Y15.296 E14.77929
G1 X142.196 Y14.873 E14.80071
G1 X142.363 Y14.470 E14.82214
G1 X142.591 Y14.099 E14.84356
G1 X142.873 Y13.768 E14.86499
G1 X143.204 Y13.485 E14.88641
G1 X143.575 Y13.258 E14.90784
G1 X143.978 Y13.091 E14.92927
G1 X144.401 Y12.990 E14.95067
G1 X144.846 Y12.957 E14.97266
G1 X145.269 Y12.990 E14.99353
G1 X145.692 Y13.091 E15.01495
G1 X146.095 Y13.258 E15.03638
G1 X146.466 Y13.485 E15.05781
G1 X146.797 Y13.768 E15.07923
G1 X147.079 Y14.099 E15.10066
G1 X147.307 Y14.470 E15.12208
G1 X147.474 Y14.873 E15.14351
G1 X147.575 Y15.296 E15.16493
G1 X147.609 Y15.730 E15.18636
G1 X147.575 Y16.164 E15.20778
G1 X147.474 Y16.587 E15.22921
G1 X147.307 Y16.990 E15.25064
G1 X147.079 Y17.361 E15.27206
G1 X146.797 Y17.692 E15.29349
G1 X146.466 Y17.974 E15.31489
G1 X146.084 Y18.206 E15.33689
G1 X145.692 Y18.369 E15.35776
G1 X145.269 Y18.470 E15.37918
G1 X144.835 Y18.504 E15.40061
G1 X144.401 Y18.470 E15.42203
G1 X143.978 Y18.369 E15.44345
G1 X143.510 Y18.175 E15.46837
G1 X143.510 Y45.730 E16.82451
G1 X145.010 Y45.730 E16.89833
G1 X145.010 Y57.280 E17.46676
G1 X143.510 Y57.280 E17.54059
G1 X143.510 Y87.485 E19.02714
G1 X143.978 Y87.291 E19.05205
G1 X144.401 Y87.190 E19.07348
G1 X144.835 Y87.156 E19.09490
G1 X145.269 Y87.190 E19.11633
G1 X145.692 Y87.291 E19.13775
G1 X146.095 Y87.458 E19.15918
G1 X146.466 Y87.686 E19.18060
G1 X146.797 Y87.968 E19.20203
G1 X147.079 Y88.299 E19.22345
G1 X147.307 Y88.671 E19.24488
G1 X147.474 Y89.073 E19.26630
G1 X147.573 Y89.485 E19.28717
G1 X147.609 Y89.930 E19.30917
G1 X147.575 Y90.364 E19.33057
G1 X147.474 Y90.787 E19.35200
G1 X147.307 Y91.189 E19.37342
G1 X147.079 Y91.561 E19.39485
G1 X146.797 Y91.892 E19.41627
G1 X146.466 Y92.174 E19.43770
G1 X146.095 Y92.402 E19.45912
G1 X145.692 Y92.569 E19.48055
G1 X145.269 Y92.670 E19.50197
G1 X144.835 Y92.704 E19.52340
G1 X144.401 Y92.670 E19.54482
G1 X143.978 Y92.569 E19.56625
G1 X143.575 Y92.402 E19.58768
G1 X143.204 Y92.174 E19.60910
G1 X142.873 Y91.892 E19.63052
G1 X142.591 Y91.561 E19.65195
G1 X142.363 Y91.189 E19.67338
G1 X142.196 Y90.787 E19.69480
G1 X142.095 Y90.364 E19.71623
G1 X142.061 Y89.930 E19.73765
G1 X142.095 Y89.496 E19.75908
G1 X142.196 Y89.073 E19.78050
G1 X142.390 Y88.605 E19.80542
G1 X112.185 Y88.605 E21.29197
G1 X112.185 Y90.105 E21.36580
G1 X100.635 Y90.105 E21.93423
G1 X100.635 Y88.605 E22.00805
G1 X70.430 Y88.605 E23.49461
G1 X70.624 Y89.073 E23.51952
G1 X70.725 Y89.496 E23.54095
G1 X70.759 Y89.930 E23.56237
G1 X70.725 Y90.364 E23.58380
G1 X70.624 Y90.787 E23.60522
G1 X70.457 Y91.190 E23.62665
G1 X70.229 Y91.561 E23.64807
G1 X69.947 Y91.892 E23.66950
G1 X69.616 Y92.174 E23.69092
