; generated by Slic3r 1.2.9 on 2019-11-14 at 23:12:17

; external perimeters extrusion width = 0.40mm
; perimeters extrusion width = 0.62mm
; infill extrusion width = 0.33mm
; solid infill extrusion width = 0.62mm
; top infill extrusion width = 0.20mm
; support material extrusion width = 0.40mm

M106 S256; Turn on fan to 100% power
M104 S140; turn on extruder temperature at S value
M140 S60; turn on bed temperature at S value
G28; home all axes
M84; disable motors
G1 Z15 F15000; have Z move to 20mm at 15000 mm/min
M190 S55; turn on bed temperature at S value and wait
M140 S55; turn on bed temperature at S value (printing temperature)
M109 S200; turn on extruder temperature at S value and wait (printing temperature)
M104 S200; turn on extruder temperature at S value
G1 Z0 F12000; move Z back to home
G21 ; set units to millimeters
G90 ; use absolute coordinates
M82 ; use absolute distances for extrusion
G92 E0
M106 S255
;Layer change
G1 E-6.00000 F1800.00000
G92 E0
G1 Z0.300 F9000.000
G1 X18.879 Y29.719 F9000.000
G1 E6.00000 F1800.00000
G1 X19.482 Y29.435 E6.03280 F600.000
G1 X20.503 Y29.118 E6.08543
G1 X21.034 Y29.018 E6.11201
G1 X22.105 Y28.945 E6.16486
G1 X98.931 Y28.940 E9.94584
G1 X187.839 Y30.565 E14.32217 F600.000
G1 X188.451 Y30.609 E14.35240
G1 X188.821 Y30.667 E14.37084
G1 X189.279 Y30.777 E14.39400
G1 X189.635 Y30.893 E14.41241
G1 X190.070 Y31.073 E14.43560
G1 X190.403 Y31.243 E14.45400
G1 X190.805 Y31.489 E14.47717
G1 X191.108 Y31.709 E14.49564
G1 X191.466 Y32.015 E14.51880
G1 X191.730 Y32.279 E14.53719
G1 X192.036 Y32.637 E14.56036
G1 X192.256 Y32.940 E14.57878
G1 X192.503 Y33.342 E14.60201
G1 X192.672 Y33.675 E14.62037
G1 X192.852 Y34.110 E14.64354
G1 X192.968 Y34.466 E14.66198
G1 X193.078 Y34.924 E14.68515
G1 X193.136 Y35.294 E14.70358
G1 X193.181 Y35.950 E14.73595
G1 X193.181 Y110.150 E18.38771
G1 X193.136 Y110.808 E18.42014
G1 X193.078 Y111.176 E18.43852
G1 X192.968 Y111.635 E18.46173
G1 X192.852 Y111.990 E18.48012
G1 X192.671 Y112.426 E18.50336
G1 X192.502 Y112.759 E18.52171
G1 X192.256 Y113.160 E18.54487
G1 X192.036 Y113.463 E18.56329
G1 X191.730 Y113.821 E18.58648
G1 X191.466 Y114.085 E18.60487
G1 X191.108 Y114.391 E18.62804
G1 X190.805 Y114.611 E18.64644
G1 X190.403 Y114.857 E18.66965
G1 X190.070 Y115.027 E18.68807
G1 X189.635 Y115.207 E18.71124
G1 X189.279 Y115.323 E18.72966
G1 X188.821 Y115.433 E18.75282
G1 X188.452 Y115.491 E18.77125
G1 X187.838 Y115.535 E18.80152
G1 X98.523 Y117.143 E23.19790
G1 X21.698 Y117.148 E26.97882
G1 X21.373 Y117.126 E26.99487
G1 X20.566 Y117.015 E27.03496
G1 X20.161 Y116.923 E27.05540
G1 X19.418 Y116.684 E27.09381
G1 X19.042 Y116.527 E27.11385
G1 X18.359 Y116.169 E27.15181
G1 X18.015 Y115.950 E27.17187
G1 X17.391 Y115.473 E27.21051
G1 X17.085 Y115.193 E27.23094
G1 X16.526 Y114.586 E27.27154
G1 X16.237 Y114.199 E27.29531
G1 X15.767 Y113.416 E27.34027
G1 X15.547 Y112.936 E27.36627
G1 X15.204 Y111.898 E27.42005
G1 X15.084 Y111.199 E27.45498
G1 X15.050 Y109.497 E27.53875
G1 X15.023 Y35.538 E31.17865
G1 X15.276 Y34.468 E31.23275
G1 X16.770 Y31.488 E31.39678
G1 X17.593 Y30.563 E31.45774
G1 X18.829 Y29.752 E31.53048
G1 E25.53048 F1800.00000
G92 E0
G1 X185.773 Y109.493 F9000.000
G1 E6.00000 F1800.00000
G1 X185.901 Y109.185 E6.01642 F600.000
G1 X186.122 Y108.825 E6.03719
G1 X186.470 Y108.825 E6.05434
G1 X186.470 Y108.477 E6.07149
G1 X186.830 Y108.256 E6.09226
G1 X187.138 Y108.128 E6.10868
G1 X187.463 Y108.050 E6.12510
G1 X187.787 Y108.025 E6.14113 F600.000
G1 X188.127 Y108.050 E6.15790
G1 X188.452 Y108.128 E6.17434
G1 X188.760 Y108.256 E6.19076
G1 X189.038 Y108.426 E6.20679
G1 X189.298 Y108.647 E6.22357
G1 X189.515 Y108.901 E6.24000
G1 X189.689 Y109.185 E6.25644
G1 X189.819 Y109.501 E6.27322
G1 X189.895 Y109.817 E6.28925
G1 X189.921 Y110.150 E6.30566
G1 X189.894 Y110.483 E6.32210
G1 X189.814 Y110.814 E6.33888
G1 X189.689 Y111.115 E6.35491
G1 X189.515 Y111.399 E6.37132
G1 X189.298 Y111.653 E6.38774
G1 X189.044 Y111.870 E6.40415
G1 X188.760 Y112.044 E6.42057
G1 X188.452 Y112.172 E6.43699
G1 X188.135 Y112.248 E6.45302
G1 X187.795 Y112.276 E6.46979
G1 X187.463 Y112.250 E6.48623
G1 X187.138 Y112.172 E6.50264
G1 X186.837 Y112.047 E6.51868
G1 X186.546 Y111.870 E6.53545
G1 X186.292 Y111.653 E6.55189
G1 X186.075 Y111.399 E6.56831
G1 X185.901 Y111.115 E6.58472
G1 X185.773 Y110.807 E6.60114
G1 X185.695 Y110.483 E6.61756
G1 X185.669 Y110.150 E6.63397
G1 X185.695 Y109.817 E6.65039
G1 X185.759 Y109.551 E6.66385
G1 X185.557 Y109.239 F9000.000
G1 X179.612 Y69.517 F9000.000
G1 X132.578 Y69.517 E8.97868 F600.000
G1 X132.578 Y60.983 E9.39873
G1 X179.612 Y60.983 E11.71356
G1 X179.612 Y69.457 E12.13065
G1 X179.227 Y69.132 F9000.000
G1 X132.963 Y69.132 E14.40753 F600.000
G1 X132.963 Y61.368 E14.78962
G1 X179.227 Y61.368 E17.06649
G1 X179.227 Y69.072 E17.44563
G1 X178.841 Y68.746 F9000.000
G1 X133.349 Y68.746 E19.68454 F600.000
G1 X133.349 Y61.754 E20.02868
G1 X178.841 Y61.754 E22.26760
G1 X178.841 Y68.686 E22.60878
G1 X178.456 Y68.361 F9000.000
G1 X133.734 Y68.361 E24.80974 F600.000
G1 X133.734 Y62.139 E25.11592
G1 X178.456 Y62.139 E27.31688
G1 X178.456 Y68.301 E27.62010
G1 X178.070 Y67.975 F9000.000
G1 X134.120 Y67.975 E29.78311 F600.000
G1 X134.120 Y62.525 E30.05133
G1 X178.070 Y62.525 E32.21433
G1 X178.070 Y67.915 E32.47960
G1 X178.070 Y68.375 F9000.000
G1 X184.928 Y38.817 F9000.000
G1 X184.928 Y107.283 E35.84911 F600.000
G1 X113.812 Y107.283 E39.34904
G1 X113.812 Y38.817 E42.71856
G1 X184.868 Y38.817 E46.21554
G1 X185.313 Y38.432 F9000.000
G1 X185.313 Y107.668 E49.62300 F600.000
G1 X113.427 Y107.668 E53.16089
G1 X113.427 Y38.432 E56.56836
G1 X185.253 Y38.432 E60.10330
G1 X185.699 Y38.046 F9000.000
G1 X185.699 Y108.054 E63.54872 F600.000
G1 X113.041 Y108.054 E67.12457
G1 X113.041 Y38.046 E70.56999
G1 X185.639 Y38.046 E74.14289
G1 X186.084 Y37.661 F9000.000
G1 X186.084 Y108.439 E77.62627 F600.000
G1 X112.656 Y108.439 E81.24007
G1 X112.656 Y37.661 E84.72345
G1 X186.024 Y37.661 E88.33430
G1 X186.470 Y37.623 F9000.000
G1 X186.470 Y37.275 E88.35145 F600.000
G1 X186.122 Y37.275 E88.36859
G1 X185.901 Y36.915 E88.38939
G1 X185.771 Y36.599 E88.40617
G1 X185.695 Y36.282 E88.42220
G1 X185.669 Y35.950 E88.43861
G1 X185.696 Y35.617 E88.45505
G1 X185.776 Y35.286 E88.47183
G1 X185.901 Y34.985 E88.48786
G1 X186.075 Y34.701 E88.50427
G1 X186.292 Y34.447 E88.52069
G1 X186.546 Y34.230 E88.53710
G1 X186.830 Y34.056 E88.55352
G1 X187.138 Y33.928 E88.56994
G1 X187.463 Y33.850 E88.58636
G1 X187.787 Y33.825 E88.60238 F600.000
G1 X188.127 Y33.850 E88.61916
G1 X188.452 Y33.928 E88.63560
G1 X188.760 Y34.056 E88.65202
G1 X189.044 Y34.230 E88.66843
G1 X189.298 Y34.447 E88.68485
G1 X189.515 Y34.701 E88.70126
G1 X189.689 Y34.985 E88.71770
G1 X189.819 Y35.301 E88.73448
G1 X189.895 Y35.617 E88.75051
G1 X189.921 Y35.950 E88.76692
G1 X189.895 Y36.283 E88.78334
G1 X189.817 Y36.607 E88.79975
G1 X189.689 Y36.915 E88.81617
G1 X189.515 Y37.199 E88.83259
G1 X189.298 Y37.453 E88.84900
G1 X189.044 Y37.670 E88.86542
G1 X188.760 Y37.844 E88.88183
G1 X188.452 Y37.972 E88.89825
G1 X188.128 Y38.050 E88.91467
G1 X187.795 Y38.076 E88.93108
G1 X187.463 Y38.050 E88.94750
G1 X187.138 Y37.972 E88.96391
G1 X186.830 Y37.844 E88.98033
G1 X186.521 Y37.655 E88.99816
G1 X186.127 Y37.560 F9000.000
G1 E82.99816 F1800.00000
G92 E0
G1 X113.071 Y35.950 F9000.000
G1 E6.00000 F1800.00000
G1 X113.045 Y36.283 E6.01642 F600.000
G1 X112.967 Y36.607 E6.03283
G1 X112.839 Y36.915 E6.04925
G1 X112.618 Y37.275 E6.07003
G1 X112.270 Y37.275 E6.08717
G1 X112.270 Y37.623 E6.10432
G1 X111.910 Y37.844 E6.12510
G1 X111.602 Y37.972 E6.14151
G1 X111.278 Y38.050 E6.15793
G1 X110.945 Y38.076 E6.17435
G1 X110.612 Y38.050 E6.19076
G1 X110.288 Y37.972 E6.20718
G1 X109.980 Y37.844 E6.22359
G1 X109.696 Y37.670 E6.24001
G1 X109.442 Y37.453 E6.25643
G1 X109.225 Y37.199 E6.27286
G1 X109.048 Y36.908 E6.28964
G1 X108.923 Y36.607 E6.30567
G1 X108.845 Y36.283 E6.32209
G1 X108.819 Y35.950 E6.33850
G1 X108.845 Y35.617 E6.35492
G1 X108.923 Y35.293 E6.37133
G1 X109.051 Y34.985 E6.38775
G1 X109.225 Y34.701 E6.40417
G1 X109.442 Y34.447 E6.42058
G1 X109.696 Y34.230 E6.43700
G1 X109.980 Y34.056 E6.45342
G1 X110.288 Y33.928 E6.46983
G1 X110.612 Y33.850 E6.48625
G1 X110.937 Y33.825 E6.50228 F600.000
G1 X111.277 Y33.850 E6.51905
G1 X111.602 Y33.928 E6.53549
G1 X111.910 Y34.056 E6.55191
G1 X112.194 Y34.230 E6.56833
G1 X112.448 Y34.447 E6.58474
G1 X112.665 Y34.701 E6.60118
G1 X112.842 Y34.992 E6.61796
G1 X112.967 Y35.293 E6.63399
G1 X113.045 Y35.617 E6.65040
G1 X113.066 Y35.890 E6.66386
G1 X113.355 Y36.124 F9000.000
G1 E0.66386 F1800.00000
G92 E0
G1 X110.937 Y108.025 F9000.000
G1 E6.00000 F1800.00000
G1 X111.277 Y108.050 E6.01678 F600.000
G1 X111.602 Y108.128 E6.03322
G1 X111.910 Y108.256 E6.04963
G1 X112.270 Y108.477 E6.07041
G1 X112.270 Y108.825 E6.08756
G1 X112.618 Y108.825 E6.10470
G1 X112.839 Y109.185 E6.12548
G1 X112.967 Y109.493 E6.14190
G1 X113.045 Y109.817 E6.15831
G1 X113.071 Y110.150 E6.17473
G1 X113.045 Y110.483 E6.19115
G1 X112.967 Y110.807 E6.20756
G1 X112.839 Y111.115 E6.22398
G1 X112.665 Y111.399 E6.24039
G1 X112.448 Y111.653 E6.25681
G1 X112.194 Y111.870 E6.27323
G1 X111.910 Y112.044 E6.28964
G1 X111.602 Y112.172 E6.30606
G1 X111.278 Y112.250 E6.32248
G1 X110.945 Y112.276 E6.33889
G1 X110.612 Y112.250 E6.35531
G1 X110.288 Y112.172 E6.37172
G1 X109.980 Y112.044 E6.38814
G1 X109.702 Y111.874 E6.40417
G1 X109.442 Y111.653 E6.42097
G1 X109.221 Y111.393 E6.43777
G1 X109.051 Y111.115 E6.45380
G1 X108.923 Y110.807 E6.47021
G1 X108.845 Y110.483 E6.48663
G1 X108.819 Y110.150 E6.50305
G1 X108.845 Y109.817 E6.51946
G1 X108.923 Y109.493 E6.53588
G1 X109.051 Y109.185 E6.55229
G1 X109.225 Y108.901 E6.56871
G1 X109.442 Y108.647 E6.58513
G1 X109.696 Y108.430 E6.60154
G1 X109.980 Y108.256 E6.61796
G1 X110.288 Y108.128 E6.63437
G1 X110.612 Y108.050 E6.65079
G1 X110.877 Y108.030 E6.66387 F600.000
G1 X111.115 Y107.734 F9000.000
G1 X112.270 Y107.705 F9000.000
G1 X112.270 Y38.395 E10.07499 F600.000
G1 X111.802 Y38.589 E10.09991
G1 X111.379 Y38.690 E10.12133
G1 X110.945 Y38.724 E10.14276
G1 X110.511 Y38.690 E10.16418
G1 X110.088 Y38.589 E10.18561
G1 X109.686 Y38.422 E10.20703
G1 X109.314 Y38.194 E10.22846
G1 X108.983 Y37.912 E10.24989
G1 X108.701 Y37.581 E10.27131
G1 X108.473 Y37.210 E10.29273
G1 X108.306 Y36.807 E10.31416
G1 X108.205 Y36.384 E10.33558
G1 X108.171 Y35.950 E10.35701
G1 X108.205 Y35.516 E10.37844
G1 X108.306 Y35.093 E10.39986
G1 X108.473 Y34.690 E10.42129
G1 X108.695 Y34.329 E10.44215
G1 X108.984 Y33.988 E10.46415
G1 X109.314 Y33.705 E10.48556
G1 X109.685 Y33.478 E10.50698
G1 X110.088 Y33.311 E10.52841
G1 X110.511 Y33.210 E10.54983
G1 X110.945 Y33.176 E10.57126
G1 X111.379 Y33.210 E10.59268
G1 X111.802 Y33.311 E10.61411
G1 X112.205 Y33.478 E10.63553
G1 X112.576 Y33.705 E10.65696
G1 X112.907 Y33.988 E10.67838
G1 X113.189 Y34.319 E10.69981
G1 X113.417 Y34.690 E10.72123
G1 X113.584 Y35.093 E10.74266
G1 X113.685 Y35.516 E10.76408
G1 X113.719 Y35.950 E10.78551
G1 X113.685 Y36.384 E10.80693
G1 X113.584 Y36.807 E10.82836
G1 X113.390 Y37.275 E10.85327
G1 X185.350 Y37.275 E14.39481
G1 X185.156 Y36.807 E14.41974
G1 X185.055 Y36.384 E14.44116
G1 X185.021 Y35.950 E14.46258
G1 X185.055 Y35.516 E14.48401
G1 X185.156 Y35.093 E14.50543
G1 X185.323 Y34.690 E14.52686
G1 X185.551 Y34.319 E14.54829
G1 X185.833 Y33.988 E14.56971
G1 X186.164 Y33.705 E14.59113
G1 X186.535 Y33.478 E14.61256
G1 X186.938 Y33.311 E14.63399
G1 X187.361 Y33.210 E14.65539
G1 X187.806 Y33.177 E14.67739
G1 X188.229 Y33.210 E14.69825
G1 X188.652 Y33.311 E14.71968
G1 X189.055 Y33.478 E14.74111
G1 X189.426 Y33.705 E14.76253
G1 X189.757 Y33.988 E14.78395
G1 X190.039 Y34.319 E14.80538
G1 X190.267 Y34.690 E14.82680
G1 X190.434 Y35.093 E14.84823
G1 X190.535 Y35.516 E14.86966
G1 X190.569 Y35.950 E14.89108
G1 X190.535 Y36.384 E14.91251
G1 X190.434 Y36.807 E14.93393
G1 X190.267 Y37.210 E14.95536
G1 X190.039 Y37.581 E14.97679
G1 X189.757 Y37.912 E14.99821
G1 X189.426 Y38.194 E15.01963
G1 X189.055 Y38.422 E15.04106
G1 X188.652 Y38.589 E15.06249
G1 X188.229 Y38.690 E15.08391
G1 X187.795 Y38.724 E15.10533
G1 X187.361 Y38.690 E15.12676
G1 X186.938 Y38.589 E15.14818
G1 X186.470 Y38.395 E15.17310
G1 X186.470 Y107.705 E18.58422
G1 X186.938 Y107.511 E18.60914
G1 X187.361 Y107.410 E18.63056
G1 X187.795 Y107.376 E18.65198
G1 X188.229 Y107.410 E18.67341
G1 X188.652 Y107.511 E18.69483
G1 X189.055 Y107.678 E18.71626
G1 X189.426 Y107.906 E18.73769
G1 X189.757 Y108.188 E18.75911
G1 X190.039 Y108.519 E18.78053
G1 X190.267 Y108.891 E18.80196
G1 X190.434 Y109.293 E18.82339
G1 X190.535 Y109.716 E18.84481
G1 X190.569 Y110.150 E18.86624
G1 X190.536 Y110.573 E18.88710
G1 X190.433 Y111.008 E18.90910
G1 X190.267 Y111.409 E18.93051
G1 X190.039 Y111.781 E18.95193
G1 X189.757 Y112.112 E18.97336
G1 X189.426 Y112.394 E18.99478
G1 X189.055 Y112.622 E19.01620
G1 X188.652 Y112.789 E19.03763
G1 X188.229 Y112.890 E19.05906
G1 X187.795 Y112.924 E19.08048
G1 X187.361 Y112.890 E19.10191
G1 X186.938 Y112.789 E19.12333
G1 X186.535 Y112.622 E19.14476
G1 X186.164 Y112.394 E19.16618
G1 X185.833 Y112.112 E19.18761
G1 X185.551 Y111.781 E19.20903
G1 X185.323 Y111.409 E19.23046
G1 X185.156 Y111.007 E19.25188
G1 X185.055 Y110.584 E19.27331
G1 X185.021 Y110.150 E19.29473
G1 X185.055 Y109.716 E19.31616
G1 X185.156 Y109.293 E19.33758
G1 X185.350 Y108.825 E19.36250
G1 X113.390 Y108.825 E22.90405
G1 X113.584 Y109.293 E22.92896
G1 X113.685 Y109.716 E22.95039
G1 X113.719 Y110.150 E22.97181
G1 X113.685 Y110.584 E22.99324
G1 X113.584 Y111.007 E23.01466
G1 X113.417 Y111.410 E23.03609
G1 X113.189 Y111.781 E23.05751
G1 X112.907 Y112.112 E23.07894
G1 X112.576 Y112.394 E23.10036
G1 X112.205 Y112.622 E23.12179
G1 X111.802 Y112.789 E23.14321
G1 X111.379 Y112.890 E23.16462
G1 X110.934 Y112.923 E23.18661
G1 X110.511 Y112.890 E23.20748
G1 X110.088 Y112.789 E23.22891
G1 X109.685 Y112.622 E23.25033
G1 X109.314 Y112.394 E23.27176
G1 X108.983 Y112.112 E23.29318
G1 X108.701 Y111.781 E23.31461
G1 X108.473 Y111.410 E23.33603
G1 X108.306 Y111.007 E23.35746
G1 X108.205 Y110.584 E23.37888
G1 X108.172 Y110.161 E23.39975
G1 X108.205 Y109.716 E23.42175
G1 X108.306 Y109.293 E23.44315
G1 X108.473 Y108.890 E23.46458
G1 X108.701 Y108.519 E23.48600
G1 X108.983 Y108.188 E23.50743
G1 X109.314 Y107.906 E23.52885
G1 X109.685 Y107.678 E23.55028
G1 X110.088 Y107.511 E23.57170
G1 X110.511 Y107.410 E23.59313
G1 X110.945 Y107.376 E23.61455
G1 X111.379 Y107.410 E23.63598
G1 X111.802 Y107.511 E23.65740
G1 X112.215 Y107.682 E23.67936
G1 X112.667 Y107.757 F9000.000
G1 X112.463 Y108.174 F9000.000
G1 X112.066 Y107.972 E23.70126 F600.000
G1 X111.702 Y107.820 E23.72068
G1 X111.328 Y107.730 E23.73960
G1 X110.927 Y107.701 E23.75942
G1 X110.562 Y107.730 E23.77743
G1 X110.198 Y107.818 E23.79585
G1 X109.842 Y107.963 E23.81476
G1 X109.505 Y108.168 E23.83418
G1 X109.206 Y108.425 E23.85360
G1 X108.958 Y108.719 E23.87251
G1 X108.762 Y109.038 E23.89093
G1 X108.619 Y109.383 E23.90934
G1 X108.526 Y109.766 E23.92871
G1 X108.496 Y110.160 E23.94818
G1 X108.528 Y110.543 E23.96709
G1 X108.615 Y110.907 E23.98551
G1 X108.758 Y111.253 E24.00392
G1 X108.963 Y111.590 E24.02334
G1 X109.213 Y111.882 E24.04226
G1 X109.505 Y112.132 E24.06118
G1 X109.842 Y112.337 E24.08059
G1 X110.198 Y112.482 E24.09951
G1 X110.562 Y112.570 E24.11792
G1 X110.934 Y112.599 E24.13632
G1 X111.329 Y112.569 E24.15581
G1 X111.712 Y112.476 E24.17518
G1 X112.057 Y112.333 E24.19359
G1 X112.376 Y112.137 E24.21200
G1 X112.670 Y111.889 E24.23092
G1 X112.927 Y111.590 E24.25034
G1 X113.132 Y111.253 E24.26976
G1 X113.277 Y110.897 E24.28867
G1 X113.365 Y110.533 E24.30709
G1 X113.394 Y110.160 E24.32550
G1 X113.365 Y109.767 E24.34492
G1 X113.275 Y109.393 E24.36384
G1 X113.123 Y109.029 E24.38327
G1 X112.921 Y108.632 E24.40516
G1 X114.096 Y106.250 F9000.000
G1 X114.845 Y106.999 E24.45732 F600.000
G1 X115.391 Y106.999 E24.48418
G1 X114.096 Y105.704 E24.57433
G1 X114.096 Y105.158 E24.60120
G1 X115.937 Y106.999 E24.72934
G1 X116.482 Y106.999 E24.75620
G1 X114.096 Y104.613 E24.92234
G1 X114.096 Y104.067 E24.94920
G1 X117.028 Y106.999 E25.15333
G1 X117.573 Y106.999 E25.18019
