; generated by Slic3r 1.2.9 on 2017-04-23 at 12:08:58

; external perimeters extrusion width = 0.40mm
; perimeters extrusion width = 0.56mm
; infill extrusion width = 0.38mm
; solid infill extrusion width = 0.56mm
; top infill extrusion width = 0.22mm

M106 S256; Turn on fan to 100% power
M104 S140; turn on extruder temperature at S value
M140 S60; turn on bed temperature at S value
G28; home all axes
M84; disable motors
G1 Z15 F15000; have Z move to 20mm at 15000 mm/min
M190 S55; turn on bed temperature at S value and wait
M140 S55; turn on bed temperature at S value (printing temperature)
M109 S200; turn on extruder temperature at S value and wait (printing temperature)
M104 S200; turn on extruder temperature at S value
G1 Z0 F12000; move Z back to home
G21 ; set units to millimeters
G90 ; use absolute coordinates
M82 ; use absolute distances for extrusion
G92 E0
M106 S255
;Layer change
G1 E-6.00000 F1800.00000
G92 E0
G1 Z0.300 F9000.000
G1 X81.077 Y81.415 F9000.000
G1 E6.00000 F1800.00000
G1 X81.993 Y80.556 E6.06110 F600.000
G1 X82.223 Y80.365 E6.07565
G1 X83.239 Y79.627 E6.13677
G1 X83.492 Y79.466 E6.15133
G1 X84.593 Y78.861 E6.21244
G1 X84.864 Y78.734 E6.22701
G1 X86.032 Y78.271 E6.28811
G1 X86.316 Y78.179 E6.30265
G1 X87.533 Y77.866 E6.36378
G1 X87.832 Y77.810 E6.37857
G1 X89.073 Y77.653 E6.43945
G1 X89.372 Y77.634 E6.45403
G1 X90.628 Y77.634 E6.51513
G1 X90.926 Y77.653 E6.52968
G1 X92.173 Y77.810 E6.59080 F600.000
G1 X92.471 Y77.867 E6.60556
G1 X93.683 Y78.179 E6.66647
G1 X93.968 Y78.271 E6.68102
G1 X95.136 Y78.734 E6.74214
G1 X95.411 Y78.863 E6.75692
G1 X96.508 Y79.466 E6.81781
G1 X96.760 Y79.627 E6.83239
G1 X97.776 Y80.365 E6.89348
G1 X98.007 Y80.556 E6.90806
G1 X98.923 Y81.415 E6.96916
G1 X99.128 Y81.634 E6.98373
G1 X99.926 Y82.598 E7.04461
G1 X100.104 Y82.844 E7.05940
G1 X100.777 Y83.904 E7.12050
G1 X100.922 Y84.167 E7.13508
G1 X101.456 Y85.303 E7.19617
G1 X101.567 Y85.582 E7.21075
G1 X101.955 Y86.776 E7.27184
G1 X102.029 Y87.066 E7.28642
G1 X102.265 Y88.300 E7.34752
G1 X102.302 Y88.597 E7.36209
G1 X102.381 Y89.850 E7.42319
G1 X102.381 Y90.150 E7.43776
G1 X102.302 Y91.399 E7.49867
G1 X102.265 Y91.700 E7.51343
G1 X102.029 Y92.934 E7.57453
G1 X101.955 Y93.224 E7.58911
G1 X101.567 Y94.418 E7.65020
G1 X101.456 Y94.697 E7.66477
G1 X100.924 Y95.829 E7.72566
G1 X100.777 Y96.096 E7.74045
G1 X100.104 Y97.156 E7.80155
G1 X99.928 Y97.399 E7.81612
G1 X99.128 Y98.366 E7.87722
G1 X98.923 Y98.585 E7.89179
G1 X98.007 Y99.444 E7.95289
G1 X97.776 Y99.635 E7.96746
G1 X96.761 Y100.373 E8.02856
G1 X96.508 Y100.534 E8.04313
G1 X95.407 Y101.139 E8.10423
G1 X95.136 Y101.266 E8.11881
G1 X93.968 Y101.729 E8.17990
G1 X93.683 Y101.821 E8.19448
G1 X92.467 Y102.134 E8.25557
G1 X92.174 Y102.190 E8.27010
G1 X90.927 Y102.347 E8.33125
G1 X90.628 Y102.366 E8.34582
G1 X89.372 Y102.366 E8.40692
G1 X89.073 Y102.347 E8.42149
G1 X87.827 Y102.190 E8.48259
G1 X87.533 Y102.134 E8.49716
G1 X86.317 Y101.821 E8.55826
G1 X86.032 Y101.729 E8.57284
G1 X84.864 Y101.266 E8.63393
G1 X84.593 Y101.139 E8.64851
G1 X83.492 Y100.534 E8.70960
G1 X83.236 Y100.371 E8.72437
G1 X82.224 Y99.635 E8.78528
G1 X81.993 Y99.445 E8.79983
G1 X81.077 Y98.585 E8.86095
G1 X80.872 Y98.366 E8.87552
G1 X80.074 Y97.402 E8.93641
G1 X79.896 Y97.156 E8.95119
G1 X79.223 Y96.096 E9.01229
G1 X79.078 Y95.833 E9.02687
G1 X78.544 Y94.697 E9.08797
G1 X78.433 Y94.418 E9.10254
G1 X78.045 Y93.224 E9.16364
G1 X77.971 Y92.934 E9.17821
G1 X77.735 Y91.700 E9.23931
G1 X77.698 Y91.403 E9.25388
G1 X77.619 Y90.150 E9.31498
G1 X77.619 Y89.850 E9.32955
G1 X77.698 Y88.597 E9.39065
G1 X77.735 Y88.300 E9.40522
G1 X77.971 Y87.065 E9.46635
G1 X78.045 Y86.776 E9.48090
G1 X78.432 Y85.586 E9.54178
G1 X78.544 Y85.303 E9.55657
G1 X79.078 Y84.167 E9.61767
G1 X79.223 Y83.904 E9.63224
G1 X79.896 Y82.843 E9.69336
G1 X80.072 Y82.601 E9.70791
G1 X80.872 Y81.634 E9.76901
G1 X81.036 Y81.459 E9.78066
G1 E3.78066 F1800.00000
G92 E0
G1 X91.649 Y91.548 F9000.000
G1 E6.00000 F1800.00000
G1 X91.442 Y91.743 E6.01382 F600.000
G1 X91.212 Y91.910 E6.02764
G1 X90.963 Y92.047 E6.04146
G1 X90.699 Y92.151 E6.05527
G1 X90.424 Y92.222 E6.06909
G1 X90.142 Y92.257 E6.08291
G1 X89.858 Y92.257 E6.09673
G1 X89.576 Y92.222 E6.11055
G1 X89.301 Y92.151 E6.12437
G1 X89.037 Y92.047 E6.13819
G1 X88.764 Y91.897 E6.15334
G1 X88.555 Y91.740 E6.16607
G1 X88.351 Y91.548 E6.17966
G1 X88.170 Y91.329 E6.19347
G1 X88.018 Y91.090 E6.20729
G1 X87.897 Y90.833 E6.22111
G1 X87.809 Y90.561 E6.23499
G1 X87.755 Y90.275 E6.24914
G1 X87.738 Y90.000 E6.26257
G1 X87.756 Y89.717 E6.27639
G1 X87.809 Y89.437 E6.29021
G1 X87.897 Y89.166 E6.30408
G1 X88.022 Y88.903 E6.31824
G1 X88.170 Y88.671 E6.33166
G1 X88.351 Y88.452 E6.34548
G1 X88.558 Y88.257 E6.35930
G1 X88.788 Y88.090 E6.37312
G1 X89.037 Y87.953 E6.38694
G1 X89.301 Y87.849 E6.40075
G1 X89.576 Y87.778 E6.41457
G1 X89.858 Y87.743 E6.42839
G1 X90.142 Y87.743 E6.44221 F600.000
G1 X90.424 Y87.778 E6.45603
G1 X90.699 Y87.849 E6.46985
G1 X90.963 Y87.953 E6.48367
G1 X91.212 Y88.090 E6.49749
G1 X91.442 Y88.257 E6.51131
G1 X91.649 Y88.452 E6.52513
G1 X91.830 Y88.671 E6.53894
G1 X91.982 Y88.910 E6.55276
G1 X92.103 Y89.167 E6.56658
G1 X92.191 Y89.437 E6.58040
G1 X92.244 Y89.717 E6.59422
G1 X92.262 Y90.000 E6.60804
G1 X92.244 Y90.283 E6.62186
G1 X92.191 Y90.563 E6.63568
G1 X92.103 Y90.833 E6.64950
G1 X91.982 Y91.091 E6.66337
G1 X91.825 Y91.336 E6.67753
G1 X91.687 Y91.502 E6.68803
G1 X91.367 Y91.284 F9000.000
G1 X91.195 Y91.445 E6.69949 F600.000
G1 X91.005 Y91.583 E6.71095
G1 X90.799 Y91.697 E6.72241
G1 X90.580 Y91.784 E6.73386
G1 X90.351 Y91.842 E6.74532
G1 X90.118 Y91.872 E6.75678
G1 X89.882 Y91.872 E6.76824
G1 X89.649 Y91.842 E6.77970
G1 X89.420 Y91.784 E6.79116
G1 X89.201 Y91.697 E6.80261
G1 X88.974 Y91.572 E6.81526
G1 X88.633 Y91.284 E6.83697
G1 X88.483 Y91.102 E6.84842
G1 X88.357 Y90.903 E6.85988
G1 X88.256 Y90.690 E6.87134
G1 X88.183 Y90.466 E6.88282
G1 X88.139 Y90.228 E6.89461
G1 X88.125 Y90.000 E6.90571
G1 X88.139 Y89.765 E6.91717
G1 X88.183 Y89.534 E6.92863
G1 X88.256 Y89.309 E6.94011
G1 X88.360 Y89.090 E6.95190
G1 X88.483 Y88.898 E6.96300
G1 X88.633 Y88.716 E6.97446
G1 X88.805 Y88.555 E6.98592
G1 X88.995 Y88.417 E6.99738
G1 X89.201 Y88.303 E7.00883
G1 X89.420 Y88.216 E7.02029
G1 X89.649 Y88.158 E7.03175
G1 X89.882 Y88.128 E7.04321
G1 X90.118 Y88.128 E7.05467 F600.000
G1 X90.351 Y88.158 E7.06613
G1 X90.580 Y88.216 E7.07759
G1 X90.799 Y88.303 E7.08904
G1 X91.005 Y88.417 E7.10050
G1 X91.195 Y88.555 E7.11196
G1 X91.367 Y88.716 E7.12342
G1 X91.517 Y88.898 E7.13488
G1 X91.643 Y89.097 E7.14633
G1 X91.744 Y89.310 E7.15779
G1 X91.817 Y89.534 E7.16925
G1 X91.861 Y89.765 E7.18071
G1 X91.875 Y90.000 E7.19217
G1 X91.861 Y90.235 E7.20363
G1 X91.817 Y90.466 E7.21508
G1 X91.744 Y90.690 E7.22654
G1 X91.643 Y90.904 E7.23802
G1 X91.405 Y91.238 E7.25796
G1 X91.435 Y91.509 F9000.000
G1 X96.500 Y96.750 F9000.000
G1 X95.984 Y97.234 E7.29237 F600.000
G1 X95.030 Y97.927 E7.34973
G1 X93.997 Y98.495 E7.40709
G1 X92.901 Y98.929 E7.46444
G1 X91.759 Y99.222 E7.52180
G1 X90.589 Y99.370 E7.57916
G1 X89.411 Y99.370 E7.63652
G1 X88.241 Y99.222 E7.69388
G1 X87.099 Y98.929 E7.75124
G1 X86.003 Y98.495 E7.80859
G1 X84.970 Y97.927 E7.86595
G1 X84.016 Y97.234 E7.92331
G1 X83.156 Y96.427 E7.98067
G1 X82.408 Y95.521 E8.03782
G1 X81.773 Y94.523 E8.09539
G1 X81.271 Y93.456 E8.15274
G1 X80.907 Y92.335 E8.21010
G1 X80.686 Y91.177 E8.26746
G1 X80.612 Y90.000 E8.32482
G1 X80.686 Y88.823 E8.38218
G1 X80.907 Y87.665 E8.43953
G1 X81.271 Y86.544 E8.49689
G1 X81.773 Y85.477 E8.55425
G1 X82.405 Y84.482 E8.61161
G1 X83.156 Y83.573 E8.66897
G1 X84.016 Y82.766 E8.72633
G1 X84.970 Y82.073 E8.78369
G1 X86.003 Y81.505 E8.84104
G1 X87.099 Y81.071 E8.89840
G1 X88.241 Y80.778 E8.95576
G1 X89.410 Y80.630 E9.01311
G1 X90.594 Y80.631 E9.07068
G1 X91.759 Y80.778 E9.12783 F600.000
G1 X92.901 Y81.071 E9.18519
G1 X93.997 Y81.505 E9.24255
G1 X95.030 Y82.073 E9.29991
G1 X95.984 Y82.766 E9.35727
G1 X96.844 Y83.573 E9.41463
G1 X97.592 Y84.478 E9.47178
G1 X98.227 Y85.477 E9.52935
G1 X98.729 Y86.544 E9.58670
G1 X99.093 Y87.665 E9.64406
G1 X99.314 Y88.823 E9.70142
G1 X99.388 Y90.000 E9.75877
G1 X99.314 Y91.172 E9.81593
G1 X99.093 Y92.335 E9.87350
G1 X98.729 Y93.456 E9.93085
G1 X98.227 Y94.523 E9.98821
G1 X97.595 Y95.518 E10.04556
G1 X96.844 Y96.427 E10.10292
G1 X96.544 Y96.708 E10.12295
G1 X96.764 Y97.031 F9000.000
G1 X96.231 Y97.531 E10.15854 F600.000
G1 X95.237 Y98.253 E10.21826
G1 X94.162 Y98.844 E10.27798
G1 X93.021 Y99.296 E10.33770
G1 X91.832 Y99.601 E10.39742
G1 X90.614 Y99.755 E10.45714
G1 X89.386 Y99.755 E10.51686
G1 X88.168 Y99.601 E10.57658
G1 X86.979 Y99.296 E10.63630
G1 X85.838 Y98.844 E10.69601
G1 X84.763 Y98.253 E10.75573
G1 X83.769 Y97.531 E10.81545
G1 X82.875 Y96.691 E10.87517
G1 X82.095 Y95.749 E10.93468
G1 X81.434 Y94.709 E10.99461
G1 X80.912 Y93.598 E11.05433
G1 X80.533 Y92.431 E11.11405
G1 X80.303 Y91.225 E11.17377
G1 X80.225 Y90.000 E11.23348
G1 X80.303 Y88.775 E11.29320
G1 X80.533 Y87.569 E11.35292
G1 X80.912 Y86.402 E11.41264
G1 X81.434 Y85.291 E11.47236
G1 X82.092 Y84.255 E11.53208
G1 X82.875 Y83.309 E11.59180
G1 X83.769 Y82.469 E11.65152
G1 X84.763 Y81.747 E11.71124
G1 X85.838 Y81.156 E11.77096
G1 X86.979 Y80.704 E11.83067
G1 X88.168 Y80.399 E11.89039
G1 X89.386 Y80.245 E11.95011
G1 X90.618 Y80.245 E12.01004
G1 X91.832 Y80.399 E12.06955 F600.000
G1 X93.021 Y80.704 E12.12927
G1 X94.162 Y81.156 E12.18899
G1 X95.237 Y81.747 E12.24871
G1 X96.231 Y82.469 E12.30842
G1 X97.125 Y83.309 E12.36814
G1 X97.905 Y84.251 E12.42765
G1 X98.566 Y85.291 E12.48758
G1 X99.088 Y86.402 E12.54730
G1 X99.467 Y87.569 E12.60702
G1 X99.697 Y88.775 E12.66674
G1 X99.775 Y90.000 E12.72646
G1 X99.698 Y91.221 E12.78596
G1 X99.467 Y92.431 E12.84590
G1 X99.088 Y93.598 E12.90561
G1 X98.566 Y94.709 E12.96533
G1 X97.908 Y95.745 E13.02505
G1 X97.125 Y96.691 E13.08477
G1 X96.808 Y96.990 E13.10598
G1 X96.381 Y96.915 F9000.000
G1 X97.894 Y94.575 F9000.000
G1 X92.406 Y89.087 E13.48906 F600.000
G1 X92.537 Y89.771 E13.52345
G1 X97.680 Y94.914 E13.88239
G1 X97.465 Y95.252 E13.90217
G1 X92.515 Y90.302 E14.24764
G1 X92.407 Y90.747 E14.27024
G1 X97.228 Y95.569 E14.60677
G1 X96.978 Y95.871 E14.62617
G1 X92.243 Y91.137 E14.95661
G1 X92.032 Y91.478 E14.97644
G1 X96.721 Y96.167 E15.30371
G1 X96.444 Y96.444 E15.32302
G1 X91.774 Y91.774 E15.64897
G1 X91.476 Y92.029 E15.66834
G1 X96.166 Y96.720 E15.99575
G1 X95.881 Y96.988 E16.01506
G1 X91.136 Y92.242 E16.34629
G1 X90.750 Y92.410 E16.36703
G1 X95.567 Y97.226 E16.70321
G1 X95.246 Y97.459 E16.72276
G1 X90.301 Y92.514 E17.06794
G1 X89.775 Y92.541 E17.09393
G1 X94.926 Y97.692 E17.45344
G1 X94.570 Y97.889 E17.47352
G1 X89.093 Y92.413 E17.85578
G1 X87.594 Y90.913 F9000.000
G1 X82.106 Y85.425 E18.23886 F600.000
G1 X82.320 Y85.086 E18.25865
G1 X87.463 Y90.229 E18.61758
G1 X87.485 Y89.698 E18.64383
G1 X82.535 Y84.748 E18.98930
G1 X82.772 Y84.431 E19.00881
G1 X87.593 Y89.253 E19.34534
G1 X87.757 Y88.864 E19.36619
G1 X83.022 Y84.129 E19.69668
G1 X83.279 Y83.833 E19.71604
G1 X87.968 Y88.522 E20.04331
G1 X88.226 Y88.226 E20.06266
G1 X83.556 Y83.556 E20.38861
G1 X83.834 Y83.280 E20.40792
G1 X88.524 Y87.971 E20.73533
G1 X88.864 Y87.758 E20.75513
G1 X84.119 Y83.012 E21.08636
G1 X84.433 Y82.774 E21.10584
G1 X89.250 Y87.590 E21.44202
G1 X89.699 Y87.486 E21.46479
G1 X84.754 Y82.541 E21.80997
G1 X85.074 Y82.308 E21.82951
G1 X90.225 Y87.459 E22.18903
G1 X90.907 Y87.587 E22.22326
G1 X85.430 Y82.111 E22.60552
G1 X85.787 Y81.914 E22.62563
G1 X98.088 Y94.215 E23.48419
G1 X98.265 Y93.839 E23.50471
G1 X86.151 Y81.726 E24.35020
G1 X86.548 Y81.569 E24.37124
G1 X98.442 Y93.463 E25.20142
G1 X98.584 Y93.052 E25.22289
G1 X86.944 Y81.412 E26.03534
G1 X87.364 Y81.278 E26.05707
G1 X98.720 Y92.634 E26.84971
G1 X98.843 Y92.204 E26.87178
G1 X87.804 Y81.165 E27.64230
G1 X88.246 Y81.054 E27.66480
G1 X98.932 Y91.740 E28.41064
G1 X99.020 Y91.275 E28.43399
G1 X88.737 Y80.992 E29.15172
G1 X89.228 Y80.930 E29.17615
G1 X99.061 Y90.762 E29.86244
G1 X99.094 Y90.242 E29.88818
G1 X89.766 Y80.914 E30.53922
G1 X90.319 Y80.915 E30.56654
G1 X99.078 Y89.673 E31.17785
G1 X99.041 Y89.083 E31.20705
G1 X90.928 Y80.970 E31.77328
G1 X91.561 Y81.050 E31.80478
G1 X98.931 Y88.420 E32.31916
G1 X98.781 Y87.716 E32.35469
G1 X92.298 Y81.233 E32.80718
G1 X93.119 Y81.501 E32.84984
G1 X98.514 Y86.896 E33.22640
G1 X98.060 Y85.889 F9000.000
G1 X94.129 Y81.958 E33.50075 F600.000
G1 X96.030 Y83.306 F9000.000
G1 X96.794 Y84.070 E33.55409 F600.000
G1 X94.213 Y98.086 F9000.000
G1 X81.912 Y85.785 E34.41265 F600.000
G1 X81.735 Y86.161 E34.43317
G1 X93.849 Y98.274 E35.27866
G1 X93.452 Y98.431 E35.29970
G1 X81.558 Y86.537 E36.12988
G1 X81.416 Y86.948 E36.15134
G1 X93.056 Y98.588 E36.96379
G1 X92.636 Y98.722 E36.98553
G1 X81.280 Y87.366 E37.77816
G1 X81.157 Y87.795 E37.80023
G1 X92.196 Y98.835 E38.57076
G1 X91.754 Y98.946 E38.59326
G1 X81.068 Y88.260 E39.33911
G1 X80.979 Y88.725 E39.36245
G1 X91.263 Y99.008 E40.08021
G1 X90.772 Y99.070 E40.10465
G1 X80.939 Y89.238 E40.79094
G1 X80.906 Y89.758 E40.81667
G1 X90.234 Y99.086 E41.46773
G1 X89.681 Y99.086 E41.49503
G1 X80.922 Y90.327 E42.10637
G1 X80.959 Y90.917 E42.13557
G1 X89.072 Y99.030 E42.70180
G1 X88.438 Y98.950 E42.73330
G1 X81.069 Y91.580 E43.24768
G1 X81.219 Y92.284 E43.28321
G1 X87.702 Y98.767 E43.73569
G1 X86.881 Y98.498 E43.77836
G1 X81.486 Y93.104 E44.15491
G1 X81.940 Y94.111 F9000.000
G1 X85.871 Y98.042 E44.42926 F600.000
G1 X83.969 Y96.694 F9000.000
G1 X83.206 Y95.930 E44.48255 F600.000
M104 S185 ; set temperature
M140 S55 ; wait for bed temperature to be reached
;Layer change
G1 E38.48255 F1800.00000
G92 E0
G1 Z0.550 F9000.000
G1 X91.641 Y91.575 F9000.000
G1 E6.00000 F1800.00000
G1 X91.451 Y91.753 E6.01377 F900.000
G1 X91.219 Y91.921 E6.02888
G1 X90.969 Y92.059 E6.04398
G1 X90.703 Y92.164 E6.05908
G1 X90.426 Y92.235 E6.07419
G1 X90.124 Y92.274 E6.09028
G1 X89.616 Y92.243 E6.11717
G1 X89.300 Y92.166 E6.13439
G1 X89.031 Y92.059 E6.14967
G1 X88.781 Y91.921 E6.16477
G1 X88.549 Y91.753 E6.17988
G1 X88.341 Y91.558 E6.19498
G1 X88.159 Y91.338 E6.21008
G1 X88.006 Y91.096 E6.22519
G1 X87.884 Y90.838 E6.24029
G1 X87.796 Y90.566 E6.25539
G1 X87.742 Y90.285 E6.27050
G1 X87.724 Y90.000 E6.28560
G1 X87.742 Y89.715 E6.30070
G1 X87.796 Y89.434 E6.31581
G1 X87.884 Y89.162 E6.33091
G1 X88.007 Y88.901 E6.34619
G1 X88.185 Y88.627 E6.36342
G1 X88.534 Y88.258 E6.39030
G1 X88.781 Y88.079 E6.40640
G1 X89.047 Y87.932 E6.42249
G1 X89.531 Y87.773 E6.44938
G1 X89.872 Y87.726 E6.46759 F900.000
G1 X90.384 Y87.757 E6.49466
G1 X90.700 Y87.834 E6.51188
G1 X90.969 Y87.941 E6.52716
G1 X91.219 Y88.079 E6.54227
G1 X91.451 Y88.247 E6.55737
G1 X91.659 Y88.442 E6.57247
G1 X91.841 Y88.662 E6.58758
G1 X91.994 Y88.904 E6.60268
G1 X92.116 Y89.162 E6.61778
G1 X92.205 Y89.437 E6.63306
G1 X92.263 Y89.758 E6.65029
G1 X92.261 Y90.267 E6.67718
G1 X92.204 Y90.566 E6.69327
G1 X92.115 Y90.841 E6.70855
G1 X91.973 Y91.134 E6.72578
G1 X91.682 Y91.532 E6.75181
G1 X91.350 Y91.266 F9000.000
G1 X91.179 Y91.426 E6.76033 F900.000
G1 X90.991 Y91.562 E6.76879
G1 X90.788 Y91.674 E6.77725
G1 X90.572 Y91.760 E6.78571
G1 X90.347 Y91.818 E6.79418
G1 X90.110 Y91.847 E6.80286
G1 X89.680 Y91.822 E6.81854
G1 X89.429 Y91.760 E6.82795
G1 X89.212 Y91.674 E6.83645
G1 X89.009 Y91.562 E6.84492
G1 X88.821 Y91.426 E6.85338
G1 X88.651 Y91.267 E6.86184
G1 X88.503 Y91.088 E6.87030
G1 X88.378 Y90.891 E6.87876
G1 X88.280 Y90.681 E6.88722
G1 X88.208 Y90.460 E6.89569
G1 X88.164 Y90.232 E6.90415
G1 X88.150 Y90.000 E6.91261
G1 X88.164 Y89.768 E6.92107
G1 X88.208 Y89.540 E6.92953
G1 X88.280 Y89.319 E6.93799
G1 X88.379 Y89.108 E6.94650
G1 X88.520 Y88.891 E6.95591
G1 X88.816 Y88.578 E6.97159
G1 X89.009 Y88.438 E6.98027
G1 X89.217 Y88.323 E6.98895
G1 X89.627 Y88.188 E7.00464
G1 X89.889 Y88.152 E7.01427 F900.000
G1 X90.320 Y88.178 E7.03000
G1 X90.571 Y88.240 E7.03941
G1 X90.788 Y88.326 E7.04791
G1 X90.991 Y88.438 E7.05637
G1 X91.179 Y88.574 E7.06483
G1 X91.349 Y88.733 E7.07329
G1 X91.497 Y88.912 E7.08175
G1 X91.622 Y89.109 E7.09022
G1 X91.720 Y89.319 E7.09868
G1 X91.793 Y89.541 E7.10718
G1 X91.838 Y89.795 E7.11659
G1 X91.837 Y90.226 E7.13228
