; generated by Slic3r 1.2.9 on 2017-04-21 at 13:25:14

; external perimeters extrusion width = 0.40mm
; perimeters extrusion width = 0.56mm
; infill extrusion width = 0.38mm
; solid infill extrusion width = 0.56mm
; top infill extrusion width = 0.22mm

M106 S256; Turn on fan to 100% power
M104 S140; turn on extruder temperature at S value
M140 S60; turn on bed temperature at S value
G28; home all axes
M84; disable motors
G1 Z15 F15000; have Z move to 20mm at 15000 mm/min
M190 S55; turn on bed temperature at S value and wait
M140 S55; turn on bed temperature at S value (printing temperature)
M109 S200; turn on extruder temperature at S value and wait (printing temperature)
M104 S200; turn on extruder temperature at S value
G1 Z0 F12000; move Z back to home
G21 ; set units to millimeters
G90 ; use absolute coordinates
M82 ; use absolute distances for extrusion
G92 E0
M106 S255
;Layer change
G1 E-6.00000 F1800.00000
G92 E0
G1 Z0.300 F9000.000
G1 X34.784 Y14.314 F9000.000
G1 E6.00000 F1800.00000
G1 X34.911 Y14.043 E6.01458 F600.000
G1 X35.516 Y12.942 E6.07567
G1 X35.677 Y12.689 E6.09025
G1 X36.415 Y11.673 E6.15135
G1 X36.606 Y11.443 E6.16591
G1 X37.465 Y10.527 E6.22701
G1 X37.684 Y10.322 E6.24159
G1 X38.651 Y9.522 E6.30268
G1 X38.894 Y9.346 E6.31726
G1 X39.954 Y8.673 E6.37837
G1 X40.217 Y8.528 E6.39294
G1 X41.353 Y7.994 E6.45404
G1 X41.632 Y7.883 E6.46861
G1 X42.826 Y7.495 E6.52970
G1 X43.116 Y7.421 E6.54428
G1 X44.350 Y7.185 E6.60538
G1 X44.647 Y7.148 E6.61995
G1 X46.050 Y7.064 E6.68833
G1 X130.200 Y7.069 E10.78231
G1 X131.453 Y7.148 E10.84340 F600.000
G1 X131.750 Y7.185 E10.85798
G1 X132.984 Y7.421 E10.91907
G1 X133.274 Y7.495 E10.93365
G1 X134.468 Y7.883 E10.99475
G1 X134.747 Y7.994 E11.00932
G1 X135.883 Y8.528 E11.07042
G1 X136.146 Y8.673 E11.08499
G1 X137.206 Y9.346 E11.14609
G1 X137.449 Y9.522 E11.16066
G1 X138.416 Y10.322 E11.22176
G1 X138.634 Y10.527 E11.23633
G1 X139.494 Y11.443 E11.29743
G1 X139.685 Y11.674 E11.31201
G1 X140.423 Y12.689 E11.37310
G1 X140.584 Y12.942 E11.38768
G1 X141.189 Y14.043 E11.44878
G1 X141.316 Y14.314 E11.46335
G1 X141.779 Y15.482 E11.52445
G1 X141.871 Y15.767 E11.53902
G1 X142.184 Y16.983 E11.60012
G1 X142.240 Y17.277 E11.61469
G1 X142.397 Y18.523 E11.67579
G1 X142.416 Y18.822 E11.69037
G1 X142.416 Y64.078 E13.89211
G1 X142.373 Y64.564 E13.91583
G1 X142.240 Y65.623 E13.96777
G1 X142.184 Y65.917 E13.98234
G1 X141.871 Y67.133 E14.04344
G1 X141.779 Y67.418 E14.05802
G1 X141.316 Y68.586 E14.11911
G1 X141.189 Y68.857 E14.13368
G1 X140.584 Y69.958 E14.19478
G1 X140.423 Y70.211 E14.20936
G1 X139.685 Y71.227 E14.27046
G1 X139.494 Y71.457 E14.28503
G1 X138.635 Y72.373 E14.34612
G1 X138.416 Y72.578 E14.36070
G1 X137.449 Y73.378 E14.42180
G1 X137.206 Y73.554 E14.43637
G1 X136.146 Y74.227 E14.49747
G1 X135.883 Y74.372 E14.51205
G1 X134.747 Y74.906 E14.57315
G1 X134.468 Y75.017 E14.58772
G1 X133.274 Y75.405 E14.64882
G1 X132.984 Y75.479 E14.66339
G1 X131.750 Y75.714 E14.72449
G1 X131.453 Y75.752 E14.73906
G1 X130.050 Y75.836 E14.80744
G1 X46.050 Y75.836 E18.89413
G1 X44.647 Y75.752 E18.96252
G1 X44.350 Y75.714 E18.97709
G1 X43.116 Y75.479 E19.03818
G1 X42.826 Y75.405 E19.05276
G1 X41.632 Y75.017 E19.11386
G1 X41.353 Y74.906 E19.12843
G1 X40.217 Y74.372 E19.18953
G1 X39.954 Y74.227 E19.20410
G1 X38.894 Y73.554 E19.26520
G1 X38.651 Y73.378 E19.27978
G1 X37.684 Y72.578 E19.34088
G1 X37.465 Y72.373 E19.35545
G1 X36.606 Y71.457 E19.41655
G1 X36.415 Y71.227 E19.43111
G1 X35.677 Y70.211 E19.49221
G1 X35.516 Y69.958 E19.50679
G1 X34.911 Y68.857 E19.56789
G1 X34.784 Y68.586 E19.58246
G1 X34.321 Y67.418 E19.64356
G1 X34.229 Y67.133 E19.65814
G1 X33.916 Y65.917 E19.71923
G1 X33.860 Y65.623 E19.73380
G1 X33.703 Y64.377 E19.79490
G1 X33.684 Y64.078 E19.80948
G1 X33.684 Y18.822 E22.01122
G1 X33.706 Y18.500 E22.02694
G1 X33.860 Y17.277 E22.08689
G1 X33.916 Y16.983 E22.10146
G1 X34.229 Y15.767 E22.16256
G1 X34.321 Y15.482 E22.17714
G1 X34.762 Y14.370 E22.23531
G1 E16.23531 F1800.00000
G92 E0
G1 X67.352 Y61.057 F9000.000
G1 E6.00000 F1800.00000
G1 X67.650 Y61.114 E6.01473 F600.000
G1 X67.938 Y61.208 E6.02947
G1 X68.212 Y61.336 E6.04421
G1 X68.468 Y61.499 E6.05895
G1 X68.701 Y61.692 E6.07368
G1 X68.908 Y61.913 E6.08841
G1 X69.086 Y62.158 E6.10315
G1 X69.232 Y62.423 E6.11789
G1 X69.344 Y62.705 E6.13262
G1 X69.419 Y62.998 E6.14736
G1 X69.457 Y63.299 E6.16210
G1 X69.457 Y63.601 E6.17682
G1 X69.419 Y63.902 E6.19156
G1 X69.344 Y64.195 E6.20629
G1 X69.232 Y64.477 E6.22103
G1 X69.086 Y64.742 E6.23577
G1 X68.908 Y64.988 E6.25056
G1 X68.695 Y65.213 E6.26562
G1 X68.468 Y65.401 E6.27997
G1 X68.212 Y65.564 E6.29471
G1 X67.938 Y65.692 E6.30945
G1 X67.650 Y65.786 E6.32418
G1 X67.352 Y65.843 E6.33892
G1 X67.050 Y65.862 E6.35365
G1 X66.748 Y65.843 E6.36838
G1 X66.450 Y65.786 E6.38312
G1 X66.162 Y65.692 E6.39785
G1 X65.888 Y65.564 E6.41259
G1 X65.632 Y65.401 E6.42733
G1 X65.399 Y65.208 E6.44206
G1 X65.192 Y64.987 E6.45679
G1 X65.014 Y64.742 E6.47153
G1 X64.868 Y64.477 E6.48627
G1 X64.756 Y64.195 E6.50101
G1 X64.681 Y63.902 E6.51574
G1 X64.643 Y63.601 E6.53048
G1 X64.643 Y63.299 E6.54521
G1 X64.681 Y62.998 E6.55994
G1 X64.756 Y62.705 E6.57468
G1 X64.868 Y62.423 E6.58941
G1 X65.014 Y62.158 E6.60415
G1 X65.192 Y61.912 E6.61895
G1 X65.405 Y61.687 E6.63400
G1 X65.632 Y61.499 E6.64835
G1 X65.888 Y61.336 E6.66309
G1 X66.162 Y61.208 E6.67783
G1 X66.451 Y61.114 E6.69262
G1 X66.756 Y61.057 E6.70768
G1 X67.050 Y61.038 E6.72203 F600.000
G1 X67.292 Y61.053 E6.73384
G1 X67.304 Y61.441 F9000.000
G1 X67.554 Y61.488 E6.74622 F600.000
G1 X67.796 Y61.567 E6.75859
G1 X68.026 Y61.675 E6.77097
G1 X68.241 Y61.811 E6.78335
G1 X68.437 Y61.974 E6.79572
G1 X68.611 Y62.159 E6.80809
G1 X68.760 Y62.365 E6.82047
G1 X68.883 Y62.588 E6.83284
G1 X68.976 Y62.824 E6.84522
G1 X69.040 Y63.070 E6.85759
G1 X69.071 Y63.323 E6.86997
G1 X69.071 Y63.577 E6.88234
G1 X69.040 Y63.830 E6.89472
G1 X68.976 Y64.076 E6.90709
G1 X68.883 Y64.312 E6.91946
G1 X68.760 Y64.535 E6.93184
G1 X68.610 Y64.741 E6.94424
G1 X68.431 Y64.931 E6.95694
G1 X68.241 Y65.089 E6.96896
G1 X68.026 Y65.225 E6.98134
G1 X67.796 Y65.333 E6.99371
G1 X67.554 Y65.412 E7.00609
G1 X67.304 Y65.459 E7.01846
G1 X67.050 Y65.475 E7.03084
G1 X66.796 Y65.459 E7.04321
G1 X66.546 Y65.412 E7.05558
G1 X66.304 Y65.333 E7.06796
G1 X66.074 Y65.225 E7.08034
G1 X65.859 Y65.089 E7.09271
G1 X65.663 Y64.926 E7.10509
G1 X65.489 Y64.741 E7.11746
G1 X65.340 Y64.535 E7.12983
G1 X65.217 Y64.312 E7.14221
G1 X65.124 Y64.076 E7.15459
G1 X65.060 Y63.830 E7.16696
G1 X65.029 Y63.577 E7.17933
G1 X65.029 Y63.323 E7.19171
G1 X65.060 Y63.070 E7.20408
G1 X65.124 Y62.824 E7.21645
G1 X65.217 Y62.588 E7.22883
G1 X65.340 Y62.365 E7.24121
G1 X65.490 Y62.159 E7.25360
G1 X65.669 Y61.969 E7.26630
G1 X65.859 Y61.811 E7.27833
G1 X66.074 Y61.675 E7.29070
G1 X66.304 Y61.567 E7.30308
G1 X66.547 Y61.488 E7.31548
G1 X66.803 Y61.440 E7.32818
G1 X67.050 Y61.425 E7.34020 F600.000
G1 X67.244 Y61.437 E7.34965
G1 X67.462 Y61.241 F9000.000
G1 X68.654 Y54.220 F9000.000
G1 X69.386 Y54.357 E7.38589 F600.000
G1 X70.506 Y54.721 E7.44319
G1 X71.573 Y55.223 E7.50055
G1 X72.568 Y55.855 E7.55791
G1 X73.477 Y56.606 E7.61527
G1 X74.284 Y57.466 E7.67263
G1 X74.977 Y58.420 E7.72998
G1 X75.545 Y59.453 E7.78734
G1 X75.979 Y60.549 E7.84470
G1 X76.272 Y61.691 E7.90206
G1 X76.420 Y62.861 E7.95942
G1 X76.420 Y64.039 E8.01678
G1 X76.272 Y65.209 E8.07413
G1 X75.979 Y66.350 E8.13144
G1 X75.527 Y67.479 E8.19062
G1 X74.977 Y68.480 E8.24620
G1 X74.284 Y69.434 E8.30355
G1 X73.477 Y70.294 E8.36091
G1 X72.568 Y71.045 E8.41827
G1 X71.573 Y71.677 E8.47563
G1 X70.506 Y72.179 E8.53299
G1 X69.385 Y72.543 E8.59035
G1 X68.227 Y72.764 E8.64771
G1 X67.050 Y72.838 E8.70506
G1 X65.873 Y72.764 E8.76242
G1 X64.715 Y72.543 E8.81978
G1 X63.594 Y72.179 E8.87714
G1 X62.527 Y71.677 E8.93450
G1 X61.532 Y71.045 E8.99186
G1 X60.623 Y70.294 E9.04921
G1 X59.816 Y69.434 E9.10657
G1 X59.123 Y68.480 E9.16393
G1 X58.555 Y67.447 E9.22129
G1 X58.121 Y66.351 E9.27865
G1 X57.828 Y65.209 E9.33601
G1 X57.680 Y64.039 E9.39337
G1 X57.680 Y62.861 E9.45072
G1 X57.828 Y61.691 E9.50808
G1 X58.121 Y60.549 E9.56544
G1 X58.555 Y59.453 E9.62280
G1 X59.123 Y58.420 E9.68016
G1 X59.816 Y57.466 E9.73752
G1 X60.623 Y56.606 E9.79488
G1 X61.532 Y55.855 E9.85223
G1 X62.527 Y55.223 E9.90959
G1 X63.594 Y54.721 E9.96695
G1 X64.715 Y54.357 E10.02431
G1 X65.873 Y54.136 E10.08167
G1 X67.050 Y54.062 E10.13903
G1 X68.190 Y54.134 E10.19460
G1 X68.595 Y54.209 E10.21463 F600.000
G1 X68.725 Y53.841 F9000.000
G1 X69.481 Y53.983 E10.25208 F600.000
G1 X70.648 Y54.362 E10.31178
G1 X71.759 Y54.884 E10.37149
G1 X72.795 Y55.542 E10.43122
G1 X73.741 Y56.325 E10.49094
G1 X74.581 Y57.220 E10.55065
G1 X75.303 Y58.213 E10.61037
G1 X75.894 Y59.288 E10.67009
G1 X76.346 Y60.429 E10.72981
G1 X76.651 Y61.618 E10.78953
G1 X76.805 Y62.836 E10.84925
G1 X76.805 Y64.064 E10.90897
G1 X76.651 Y65.282 E10.96869
G1 X76.346 Y66.470 E11.02839
G1 X75.876 Y67.644 E11.08993
G1 X75.303 Y68.687 E11.14783
G1 X74.581 Y69.680 E11.20755
G1 X73.741 Y70.575 E11.26727
G1 X72.795 Y71.358 E11.32699
G1 X71.759 Y72.016 E11.38671
G1 X70.648 Y72.538 E11.44643
G1 X69.481 Y72.917 E11.50615
G1 X68.275 Y73.147 E11.56587
G1 X67.050 Y73.225 E11.62558
G1 X65.825 Y73.147 E11.68530
G1 X64.619 Y72.917 E11.74502
G1 X63.452 Y72.538 E11.80474
G1 X62.341 Y72.016 E11.86446
G1 X61.305 Y71.358 E11.92418
G1 X60.359 Y70.575 E11.98390
G1 X59.519 Y69.680 E12.04362
G1 X58.797 Y68.687 E12.10334
G1 X58.206 Y67.612 E12.16306
G1 X57.754 Y66.471 E12.22277
G1 X57.449 Y65.282 E12.28250
G1 X57.295 Y64.064 E12.34221
G1 X57.295 Y62.836 E12.40193
G1 X57.449 Y61.618 E12.46165
G1 X57.754 Y60.429 E12.52137
G1 X58.206 Y59.288 E12.58109
G1 X58.797 Y58.213 E12.64081
G1 X59.519 Y57.220 E12.70053
G1 X60.359 Y56.325 E12.76025
G1 X61.305 Y55.542 E12.81997
G1 X62.341 Y54.884 E12.87969
G1 X63.452 Y54.362 E12.93941
G1 X64.619 Y53.983 E12.99912
G1 X65.825 Y53.753 E13.05885
G1 X67.050 Y53.675 E13.11856
G1 X68.238 Y53.750 E13.17647
G1 X68.666 Y53.830 E13.19764 F600.000
G1 X68.858 Y54.218 F9000.000
G1 X71.161 Y55.390 F9000.000
G1 X75.092 Y59.321 E13.47199 F600.000
G1 X75.549 Y60.331 F9000.000
G1 X70.154 Y54.936 E13.84855 F600.000
G1 X69.334 Y54.670 E13.89107
G1 X75.817 Y61.152 E14.34357
G1 X76.000 Y61.889 E14.38100
G1 X68.633 Y54.522 E14.89517
G1 X67.967 Y54.409 E14.92850
G1 X76.080 Y62.522 E15.49472
G1 X76.136 Y63.131 E15.52492
G1 X67.377 Y54.372 E16.13627
G1 X66.808 Y54.356 E16.16436
G1 X76.136 Y63.684 E16.81541
G1 X76.120 Y64.222 E16.84196
G1 X66.288 Y54.389 E17.52825
G1 X65.775 Y54.430 E17.55364
G1 X76.058 Y64.713 E18.27140
G1 X75.996 Y65.204 E18.29583
G1 X65.310 Y54.518 E19.04169
G1 X64.845 Y54.607 E19.06504
G1 X75.885 Y65.646 E19.83556
G1 X75.772 Y66.087 E19.85799
G1 X64.416 Y54.730 E20.65063
G1 X63.998 Y54.866 E20.67230
G1 X75.638 Y66.505 E21.48471
G1 X75.480 Y66.900 E21.50571
G1 X63.587 Y55.008 E22.33577
G1 X63.211 Y55.185 E22.35629
G1 X75.321 Y67.296 E23.20156
G1 X75.136 Y67.663 E23.22189
G1 X62.835 Y55.362 E24.08046
G1 X62.475 Y55.556 E24.10062
G1 X67.746 Y60.826 E24.46849
G1 X67.120 Y60.754 E24.49954
G1 X62.136 Y55.770 E24.84741
G1 X61.798 Y55.985 E24.86720
G1 X66.620 Y60.807 E25.20377
G1 X66.184 Y60.924 E25.22605
G1 X61.481 Y56.222 E25.55429
G1 X61.178 Y56.472 E25.57369
G1 X65.800 Y61.094 E25.89628
G1 X65.465 Y61.312 E25.91601
G1 X60.883 Y56.729 E26.23587
G1 X60.606 Y57.006 E26.25517
G1 X65.171 Y61.571 E26.57378
G1 X64.914 Y61.867 E26.59313
G1 X60.330 Y57.284 E26.91306
G1 X60.062 Y57.569 E26.93238
G1 X64.698 Y62.204 E27.25590
G1 X64.525 Y62.584 E27.27652
G1 X59.824 Y57.883 E27.60465
G1 X59.591 Y58.204 E27.62420
G1 X64.402 Y63.015 E27.96003
G1 X64.359 Y63.525 E27.98530
G1 X59.358 Y58.524 E28.33437
G1 X59.161 Y58.880 E28.35445
G1 X64.427 Y64.146 E28.72203
G1 X64.888 Y65.161 F9000.000
G1 X58.964 Y59.237 E29.13548 F600.000
G1 X58.775 Y59.601 E29.15574
G1 X70.889 Y71.715 E30.00123
G1 X71.265 Y71.538 E30.02175
G1 X65.357 Y65.629 E30.43415
G1 X66.354 Y66.074 F9000.000
G1 X71.625 Y71.344 E30.80203 F600.000
G1 X71.964 Y71.130 E30.82181
G1 X66.979 Y66.146 E31.16968
G1 X67.480 Y66.093 E31.19453
G1 X72.302 Y70.915 E31.53108
G1 X72.619 Y70.678 E31.55059
G1 X67.916 Y65.976 E31.87883
G1 X68.300 Y65.806 E31.89953
G1 X72.922 Y70.428 E32.22213
G1 X73.217 Y70.171 E32.24148
G1 X68.635 Y65.588 E32.56133
G1 X68.929 Y65.329 E32.58068
G1 X73.494 Y69.894 E32.89928
G1 X73.770 Y69.616 E32.91859
G1 X69.186 Y65.033 E33.23852
G1 X69.402 Y64.696 E33.25828
G1 X74.038 Y69.331 E33.58180
G1 X74.276 Y69.017 E33.60129
G1 X69.575 Y64.316 E33.92942
G1 X69.698 Y63.885 E33.95152
G1 X74.509 Y68.696 E34.28735
G1 X74.742 Y68.376 E34.30690
G1 X69.741 Y63.375 E34.65597
G1 X69.673 Y62.754 E34.68680
G1 X74.939 Y68.020 E35.05439
G1 X70.513 Y71.892 F9000.000
G1 X58.619 Y59.998 E35.88457 F600.000
G1 X58.462 Y60.394 E35.90561
G1 X70.102 Y72.034 E36.71807
G1 X69.684 Y72.170 E36.73974
G1 X58.328 Y60.814 E37.53237
G1 X58.215 Y61.254 E37.55481
G1 X69.255 Y72.293 E38.32533
G1 X68.790 Y72.382 E38.34868
G1 X58.104 Y61.696 E39.09453
G1 X58.042 Y62.187 E39.11897
G1 X68.325 Y72.470 E39.83673
G1 X67.812 Y72.511 E39.86212
G1 X57.980 Y62.678 E40.54841
G1 X57.964 Y63.216 E40.57495
G1 X67.292 Y72.544 E41.22601
G1 X66.723 Y72.528 E41.25409
G1 X57.964 Y63.769 E41.86544
G1 X58.020 Y64.378 E41.89564
G1 X66.133 Y72.491 E42.46186
G1 X65.470 Y72.381 E42.49502
G1 X58.100 Y65.012 E43.00940
G1 X58.283 Y65.748 E43.04683
G1 X64.766 Y72.230 E43.49932
G1 X63.946 Y71.964 E43.54184
G1 X58.551 Y66.569 E43.91839
G1 X59.008 Y67.579 F9000.000
G1 X62.939 Y71.510 E44.19274 F600.000
G1 X61.120 Y70.244 F9000.000
G1 X60.357 Y69.482 E44.24596 F600.000
G1 E38.24596 F1800.00000
G92 E0
G1 X72.980 Y56.656 F9000.000
G1 E6.00000 F1800.00000
G1 X73.743 Y57.419 E6.05327 F600.000
G1 E0.05327 F1800.00000
G92 E0
G1 X85.868 Y62.423 F9000.000
G1 E6.00000 F1800.00000
G1 X86.014 Y62.158 E6.01474 F600.000
G1 X86.192 Y61.913 E6.02948
G1 X86.399 Y61.692 E6.04421
G1 X86.632 Y61.499 E6.05894
G1 X86.888 Y61.336 E6.07368
G1 X87.162 Y61.208 E6.08842
G1 X87.452 Y61.113 E6.10324
G1 X87.761 Y61.056 E6.11852
G1 X88.050 Y61.038 E6.13262 F600.000
G1 X88.352 Y61.057 E6.14735
G1 X88.650 Y61.114 E6.16208
G1 X88.938 Y61.208 E6.17682
G1 X89.212 Y61.336 E6.19156
G1 X89.468 Y61.499 E6.20630
G1 X89.701 Y61.692 E6.22103
G1 X89.908 Y61.913 E6.23576
G1 X90.086 Y62.158 E6.25050
G1 X90.232 Y62.423 E6.26524
G1 X90.344 Y62.705 E6.27997
G1 X90.416 Y62.985 E6.29407
G1 X90.457 Y63.297 E6.30935
G1 X90.457 Y63.601 E6.32417
G1 X90.419 Y63.902 E6.33891
G1 X90.344 Y64.195 E6.35364
G1 X90.232 Y64.477 E6.36838
G1 X90.086 Y64.742 E6.38311
G1 X89.908 Y64.987 E6.39785
G1 X89.701 Y65.208 E6.41259
G1 X89.468 Y65.401 E6.42731
G1 X89.212 Y65.564 E6.44205
G1 X88.938 Y65.692 E6.45679
G1 X88.650 Y65.786 E6.47153
G1 X88.350 Y65.843 E6.48635
G1 X88.037 Y65.861 E6.50163
G1 X87.748 Y65.843 E6.51573
G1 X87.450 Y65.786 E6.53046
G1 X87.162 Y65.692 E6.54520
G1 X86.888 Y65.564 E6.55994
G1 X86.632 Y65.401 E6.57468
G1 X86.399 Y65.208 E6.58941
G1 X86.192 Y64.987 E6.60414
G1 X86.014 Y64.742 E6.61888
G1 X85.868 Y64.477 E6.63361
G1 X85.756 Y64.195 E6.64835
G1 X85.684 Y63.915 E6.66245
G1 X85.643 Y63.603 E6.67773
G1 X85.643 Y63.299 E6.69255
G1 X85.681 Y62.998 E6.70728
G1 X85.756 Y62.705 E6.72202
G1 X85.846 Y62.479 E6.73383
G1 X86.217 Y62.588 F9000.000
G1 X86.340 Y62.365 E6.74621 F600.000
G1 X86.489 Y62.159 E6.75859
G1 X86.663 Y61.974 E6.77096
G1 X86.859 Y61.811 E6.78333
G1 X87.074 Y61.675 E6.79571
G1 X87.304 Y61.567 E6.80809
G1 X87.547 Y61.488 E6.82049
G1 X87.808 Y61.440 E6.83341
G1 X88.050 Y61.425 E6.84520 F600.000
G1 X88.304 Y61.441 E6.85758
G1 X88.554 Y61.488 E6.86995
G1 X88.796 Y61.567 E6.88233
G1 X89.026 Y61.675 E6.89471
G1 X89.241 Y61.811 E6.90708
G1 X89.437 Y61.974 E6.91945
G1 X89.611 Y62.159 E6.93182
G1 X89.760 Y62.365 E6.94420
G1 X89.883 Y62.588 E6.95658
G1 X89.976 Y62.824 E6.96895
G1 X90.037 Y63.059 E6.98074
G1 X90.071 Y63.322 E6.99367
G1 X90.071 Y63.577 E7.00607
G1 X90.040 Y63.830 E7.01845
G1 X89.976 Y64.076 E7.03082
G1 X89.883 Y64.312 E7.04320
G1 X89.760 Y64.535 E7.05557
G1 X89.611 Y64.741 E7.06795
G1 X89.437 Y64.926 E7.08032
G1 X89.241 Y65.089 E7.09269
