; generated by Slic3r 1.2.9 on 2017-05-01 at 12:37:37

; external perimeters extrusion width = 0.40mm
; perimeters extrusion width = 0.56mm
; infill extrusion width = 0.38mm
; solid infill extrusion width = 0.56mm
; top infill extrusion width = 0.22mm

M106 S256; Turn on fan to 100% power
M104 S140; turn on extruder temperature at S value
M140 S60; turn on bed temperature at S value
G28; home all axes
M84; disable motors
G1 Z15 F15000; have Z move to 20mm at 15000 mm/min
M190 S55; turn on bed temperature at S value and wait
M140 S55; turn on bed temperature at S value (printing temperature)
M109 S200; turn on extruder temperature at S value and wait (printing temperature)
M104 S200; turn on extruder temperature at S value
G1 Z0 F12000; move Z back to home
G21 ; set units to millimeters
G90 ; use absolute coordinates
M82 ; use absolute distances for extrusion
G92 E0
M106 S255
;Layer change
G1 E-6.00000 F1800.00000
G92 E0
G1 Z0.300 F9000.000
G1 X22.692 Y26.220 F9000.000
G1 E6.00000 F1800.00000
G1 X23.126 Y25.882 E6.02805 F600.000
G1 X23.379 Y25.721 E6.04334
G1 X23.871 Y25.472 E6.07144
G1 X24.105 Y25.380 E6.08424
G1 X24.631 Y25.225 E6.11223
G1 X24.926 Y25.169 E6.12752
G1 X25.600 Y25.114 E6.16198
G1 X154.549 Y25.119 E12.73419
G1 X154.801 Y25.135 E12.74703 F600.000
G1 X155.344 Y25.219 E12.77504
G1 X155.873 Y25.372 E12.80313
G1 X156.380 Y25.589 E12.83121
G1 X156.854 Y25.868 E12.85924
G1 X157.096 Y26.044 E12.87452
G1 X157.508 Y26.409 E12.90259
G1 X157.681 Y26.593 E12.91544
G1 X158.018 Y27.025 E12.94337
G1 X158.179 Y27.279 E12.95870
G1 X158.428 Y27.771 E12.98679
G1 X158.520 Y28.005 E12.99960
G1 X158.675 Y28.531 E13.02758
G1 X168.317 Y88.998 E16.14834
G1 X168.381 Y89.850 E16.19190
G1 X168.381 Y90.150 E16.20716
G1 X168.317 Y91.002 E16.25072
G1 X158.681 Y151.444 E19.37019
G1 X158.528 Y151.974 E19.39830
G1 X158.418 Y152.252 E19.41356
G1 X158.167 Y152.742 E19.44161
G1 X158.032 Y152.954 E19.45441
G1 X157.696 Y153.390 E19.48248
G1 X157.491 Y153.608 E19.49771
G1 X157.079 Y153.970 E19.52568
G1 X156.621 Y154.279 E19.55384
G1 X156.130 Y154.528 E19.58189
G1 X155.895 Y154.620 E19.59474
G1 X155.369 Y154.775 E19.62273
G1 X155.074 Y154.831 E19.63802
G1 X154.400 Y154.886 E19.67248
G1 X25.600 Y154.886 E26.23708
G1 X25.199 Y154.865 E26.25753
G1 X24.656 Y154.781 E26.28555
G1 X24.365 Y154.706 E26.30084
G1 X23.848 Y154.518 E26.32892
G1 X23.620 Y154.411 E26.34172
G1 X23.146 Y154.132 E26.36975
G1 X22.710 Y153.796 E26.39782
G1 X22.492 Y153.591 E26.41310
G1 X22.130 Y153.178 E26.44108
G1 X21.821 Y152.721 E26.46920
G1 X21.572 Y152.229 E26.49729
G1 X21.425 Y151.844 E26.51830
G1 X11.885 Y121.969 E28.11669
G1 X11.696 Y121.074 E28.16333
G1 X11.658 Y120.776 E28.17861
G1 X11.614 Y120.000 E28.21824
G1 X11.614 Y60.000 E31.27629
G1 X11.658 Y59.223 E31.31594
G1 X11.696 Y58.926 E31.33120
G1 X11.885 Y58.030 E31.37785
G1 X21.472 Y28.026 E32.98326
G1 X21.689 Y27.520 E33.01132
G1 X21.968 Y27.046 E33.03935
G1 X22.304 Y26.610 E33.06743
G1 X22.648 Y26.261 E33.09239
G1 E27.09239 F1800.00000
G92 E0
G1 X55.193 Y108.516 F9000.000
G1 E6.00000 F1800.00000
G1 X55.520 Y108.432 E6.01720 F600.000
G1 X55.971 Y108.389 E6.04031
G1 X104.019 Y108.389 E8.48919 F600.000
G1 X104.327 Y108.409 E8.50493
G1 X104.649 Y108.470 E8.52164
G1 X104.961 Y108.572 E8.53836
G1 X105.258 Y108.711 E8.55508
G1 X105.535 Y108.887 E8.57180
G1 X105.788 Y109.096 E8.58852
G1 X106.012 Y109.335 E8.60522
G1 X106.205 Y109.600 E8.62194
G1 X106.363 Y109.888 E8.63867
G1 X106.484 Y110.193 E8.65538
G1 X106.568 Y110.520 E8.67258
G1 X106.611 Y110.971 E8.69569
G1 X106.611 Y139.019 E10.12523
G1 X106.591 Y139.327 E10.14096
G1 X106.530 Y139.650 E10.15768
G1 X106.428 Y139.961 E10.17440
G1 X106.289 Y140.258 E10.19112
G1 X106.113 Y140.535 E10.20783
G1 X105.904 Y140.788 E10.22455
G1 X105.665 Y141.012 E10.24126
G1 X105.400 Y141.205 E10.25797
G1 X105.112 Y141.363 E10.27470
G1 X104.807 Y141.484 E10.29142
G1 X104.480 Y141.568 E10.30862
G1 X104.029 Y141.611 E10.33173
G1 X55.981 Y141.611 E12.78061
G1 X55.673 Y141.591 E12.79635
G1 X55.350 Y141.530 E12.81306
G1 X55.039 Y141.428 E12.82978
G1 X54.742 Y141.289 E12.84650
G1 X54.465 Y141.113 E12.86322
G1 X54.212 Y140.904 E12.87994
G1 X53.988 Y140.665 E12.89664
G1 X53.795 Y140.400 E12.91336
G1 X53.637 Y140.112 E12.93009
G1 X53.516 Y139.807 E12.94680
G1 X53.434 Y139.490 E12.96351
G1 X53.393 Y139.164 E12.98023
G1 X53.389 Y110.981 E14.41666
G1 X53.410 Y110.658 E14.43312
G1 X53.544 Y110.097 E14.46253
G1 X53.711 Y109.742 E14.48256
G1 X53.887 Y109.465 E14.49928
G1 X54.096 Y109.212 E14.51599
G1 X54.335 Y108.988 E14.53270
G1 X54.600 Y108.795 E14.54942
G1 X54.888 Y108.637 E14.56615
G1 X55.137 Y108.538 E14.57980
G1 X55.312 Y108.883 F9000.000
G1 X55.586 Y108.813 E14.59422 F600.000
G1 X55.989 Y108.775 E14.61486
G1 X104.007 Y108.775 E17.06219 F600.000
G1 X104.279 Y108.792 E17.07608
G1 X104.553 Y108.844 E17.09032
G1 X104.819 Y108.931 E17.10456
G1 X105.072 Y109.050 E17.11881
G1 X105.308 Y109.200 E17.13305
G1 X105.523 Y109.378 E17.14730
G1 X105.715 Y109.581 E17.16154
G1 X105.879 Y109.807 E17.17578
G1 X106.014 Y110.052 E17.19003
G1 X106.117 Y110.312 E17.20427
G1 X106.187 Y110.586 E17.21870
G1 X106.225 Y110.989 E17.23933
G1 X106.225 Y139.007 E18.66732
G1 X106.208 Y139.279 E18.68120
G1 X106.156 Y139.553 E18.69544
G1 X106.069 Y139.819 E18.70968
G1 X105.950 Y140.072 E18.72393
G1 X105.800 Y140.308 E18.73818
G1 X105.622 Y140.523 E18.75242
G1 X105.419 Y140.715 E18.76666
G1 X105.193 Y140.879 E18.78090
G1 X104.948 Y141.014 E18.79515
G1 X104.688 Y141.117 E18.80940
G1 X104.414 Y141.187 E18.82382
G1 X104.011 Y141.225 E18.84445
G1 X55.993 Y141.225 E21.29179
G1 X55.721 Y141.208 E21.30567
G1 X55.447 Y141.156 E21.31991
G1 X55.181 Y141.069 E21.33415
G1 X54.928 Y140.950 E21.34840
G1 X54.692 Y140.800 E21.36265
G1 X54.477 Y140.622 E21.37689
G1 X54.285 Y140.419 E21.39113
G1 X54.121 Y140.193 E21.40537
G1 X53.986 Y139.948 E21.41962
G1 X53.883 Y139.688 E21.43387
G1 X53.814 Y139.417 E21.44811
G1 X53.779 Y139.140 E21.46235
G1 X53.775 Y110.993 E22.89692
G1 X53.792 Y110.716 E22.91108
G1 X53.910 Y110.226 E22.93676
G1 X54.050 Y109.928 E22.95354
G1 X54.200 Y109.692 E22.96778
G1 X54.378 Y109.477 E22.98203
G1 X54.581 Y109.285 E22.99627
G1 X54.807 Y109.121 E23.01051
G1 X55.052 Y108.986 E23.02476
G1 X55.257 Y108.906 E23.03594
G1 X55.377 Y108.608 F9000.000
G1 X21.191 Y119.438 F9000.000
G1 X21.244 Y119.722 E23.05065 F600.000
G1 X21.262 Y120.000 E23.06486
G1 X21.244 Y120.283 E23.07933
G1 X21.191 Y120.563 E23.09381
G1 X21.103 Y120.833 E23.10829
G1 X20.982 Y121.090 E23.12276
G1 X20.830 Y121.329 E23.13724
G1 X20.649 Y121.548 E23.15172
G1 X20.442 Y121.743 E23.16619
G1 X20.212 Y121.910 E23.18067
G1 X19.963 Y122.047 E23.19515
G1 X19.699 Y122.151 E23.20962
G1 X19.424 Y122.222 E23.22410
G1 X19.142 Y122.257 E23.23858
G1 X18.858 Y122.257 E23.25305
G1 X18.576 Y122.222 E23.26753
G1 X18.301 Y122.151 E23.28201
G1 X18.037 Y122.047 E23.29648
G1 X17.788 Y121.910 E23.31096
G1 X17.558 Y121.743 E23.32544
G1 X17.351 Y121.548 E23.33992
G1 X17.170 Y121.329 E23.35440
G1 X17.018 Y121.090 E23.36887
G1 X16.897 Y120.833 E23.38334
G1 X16.809 Y120.563 E23.39782
G1 X16.756 Y120.283 E23.41230
G1 X16.738 Y120.000 E23.42678
G1 X16.756 Y119.717 E23.44125
G1 X16.809 Y119.437 E23.45573
G1 X16.897 Y119.167 E23.47021
G1 X17.018 Y118.910 E23.48468
G1 X17.170 Y118.671 E23.49916
G1 X17.351 Y118.452 E23.51364
G1 X17.558 Y118.257 E23.52812
G1 X17.788 Y118.090 E23.54259
G1 X18.037 Y117.953 E23.55707
G1 X18.301 Y117.849 E23.57154
G1 X18.576 Y117.778 E23.58602
G1 X18.858 Y117.743 E23.60051
G1 X19.142 Y117.743 E23.61497 F600.000
G1 X19.424 Y117.778 E23.62945
G1 X19.699 Y117.849 E23.64393
G1 X19.963 Y117.953 E23.65841
G1 X20.212 Y118.090 E23.67289
G1 X20.442 Y118.257 E23.68736
G1 X20.649 Y118.452 E23.70184
G1 X20.830 Y118.671 E23.71632
G1 X20.982 Y118.910 E23.73079
G1 X21.103 Y119.167 E23.74527
G1 X21.172 Y119.381 E23.75673
G1 X20.817 Y119.534 F9000.000
G1 X20.861 Y119.770 E23.76896 F600.000
G1 X20.875 Y120.000 E23.78072
G1 X20.861 Y120.235 E23.79272
G1 X20.817 Y120.466 E23.80472
G1 X20.744 Y120.690 E23.81673
G1 X20.643 Y120.903 E23.82873
G1 X20.517 Y121.102 E23.84073
G1 X20.367 Y121.284 E23.85274
G1 X20.195 Y121.445 E23.86474
G1 X20.005 Y121.583 E23.87675
G1 X19.798 Y121.697 E23.88875
G1 X19.580 Y121.784 E23.90075
G1 X19.351 Y121.842 E23.91276
G1 X19.118 Y121.872 E23.92477
G1 X18.882 Y121.872 E23.93676
G1 X18.649 Y121.842 E23.94877
G1 X18.420 Y121.784 E23.96078
G1 X18.202 Y121.697 E23.97278
G1 X17.995 Y121.583 E23.98478
G1 X17.805 Y121.445 E23.99679
G1 X17.633 Y121.284 E24.00879
G1 X17.483 Y121.102 E24.02080
G1 X17.357 Y120.903 E24.03280
G1 X17.256 Y120.690 E24.04480
G1 X17.183 Y120.466 E24.05681
G1 X17.139 Y120.235 E24.06881
G1 X17.125 Y120.000 E24.08081
G1 X17.139 Y119.765 E24.09282
G1 X17.183 Y119.534 E24.10482
G1 X17.256 Y119.310 E24.11683
G1 X17.357 Y119.097 E24.12883
G1 X17.483 Y118.898 E24.14083
G1 X17.633 Y118.716 E24.15284
G1 X17.805 Y118.555 E24.16484
G1 X17.995 Y118.417 E24.17684
G1 X18.202 Y118.303 E24.18885
G1 X18.420 Y118.216 E24.20085
G1 X18.649 Y118.158 E24.21285
G1 X18.882 Y118.128 E24.22486
G1 X19.118 Y118.128 E24.23686 F600.000
G1 X19.351 Y118.158 E24.24887
G1 X19.580 Y118.216 E24.26087
G1 X19.798 Y118.303 E24.27287
G1 X20.005 Y118.417 E24.28488
G1 X20.195 Y118.555 E24.29688
G1 X20.367 Y118.716 E24.30889
G1 X20.517 Y118.898 E24.32089
G1 X20.643 Y119.097 E24.33289
G1 X20.744 Y119.310 E24.34490
G1 X20.798 Y119.477 E24.35386
G1 X21.046 Y119.604 F9000.000
G1 E18.35386 F1800.00000
G92 E0
G1 X19.142 Y62.257 F9000.000
G1 E6.00000 F1800.00000
G1 X18.858 Y62.257 E6.01447 F600.000
G1 X18.576 Y62.222 E6.02895
G1 X18.301 Y62.151 E6.04343
G1 X18.037 Y62.047 E6.05790
G1 X17.788 Y61.910 E6.07238
G1 X17.558 Y61.743 E6.08686
G1 X17.351 Y61.548 E6.10133
G1 X17.170 Y61.329 E6.11581
G1 X17.018 Y61.090 E6.13029
G1 X16.897 Y60.833 E6.14476
G1 X16.809 Y60.563 E6.15924
G1 X16.756 Y60.283 E6.17372
G1 X16.738 Y60.000 E6.18819
G1 X16.756 Y59.717 E6.20267
G1 X16.809 Y59.437 E6.21715
G1 X16.897 Y59.167 E6.23163
G1 X17.018 Y58.910 E6.24610
G1 X17.170 Y58.671 E6.26057
G1 X17.351 Y58.452 E6.27505
G1 X17.558 Y58.257 E6.28953
G1 X17.788 Y58.090 E6.30401
G1 X18.037 Y57.953 E6.31849
G1 X18.301 Y57.849 E6.33296
G1 X18.576 Y57.778 E6.34744
G1 X18.858 Y57.743 E6.36192
G1 X19.142 Y57.743 E6.37639 F600.000
G1 X19.424 Y57.778 E6.39087
G1 X19.699 Y57.849 E6.40535
G1 X19.963 Y57.953 E6.41982
G1 X20.212 Y58.090 E6.43430
G1 X20.442 Y58.257 E6.44878
G1 X20.649 Y58.452 E6.46325
G1 X20.830 Y58.671 E6.47773
G1 X20.982 Y58.910 E6.49221
G1 X21.103 Y59.167 E6.50668
G1 X21.191 Y59.437 E6.52116
G1 X21.244 Y59.717 E6.53564
G1 X21.262 Y60.000 E6.55012
G1 X21.244 Y60.283 E6.56459
G1 X21.191 Y60.563 E6.57907
G1 X21.103 Y60.833 E6.59355
G1 X20.982 Y61.090 E6.60802
G1 X20.830 Y61.329 E6.62250
G1 X20.649 Y61.548 E6.63698
G1 X20.442 Y61.743 E6.65145
G1 X20.212 Y61.910 E6.66593
G1 X19.963 Y62.047 E6.68041
G1 X19.699 Y62.151 E6.69488
G1 X19.424 Y62.222 E6.70936
G1 X19.201 Y62.250 E6.72079
G1 X19.118 Y61.872 F9000.000
G1 X18.882 Y61.872 E6.73278 F600.000
G1 X18.649 Y61.842 E6.74479
G1 X18.420 Y61.784 E6.75680
G1 X18.202 Y61.697 E6.76880
G1 X17.995 Y61.583 E6.78080
G1 X17.805 Y61.445 E6.79281
G1 X17.633 Y61.284 E6.80481
G1 X17.483 Y61.102 E6.81682
G1 X17.357 Y60.903 E6.82882
G1 X17.256 Y60.690 E6.84082
G1 X17.183 Y60.466 E6.85283
G1 X17.139 Y60.235 E6.86483
G1 X17.125 Y60.000 E6.87683
G1 X17.139 Y59.765 E6.88884
G1 X17.183 Y59.534 E6.90084
G1 X17.256 Y59.310 E6.91285
G1 X17.357 Y59.097 E6.92485
G1 X17.483 Y58.898 E6.93685
G1 X17.633 Y58.716 E6.94886
G1 X17.805 Y58.555 E6.96086
G1 X17.995 Y58.417 E6.97286
G1 X18.202 Y58.303 E6.98487
G1 X18.420 Y58.216 E6.99687
G1 X18.649 Y58.158 E7.00887
G1 X18.882 Y58.128 E7.02088
G1 X19.118 Y58.128 E7.03288 F600.000
G1 X19.351 Y58.158 E7.04489
G1 X19.580 Y58.216 E7.05689
G1 X19.798 Y58.303 E7.06889
G1 X20.005 Y58.417 E7.08090
G1 X20.195 Y58.555 E7.09290
G1 X20.367 Y58.716 E7.10491
G1 X20.517 Y58.898 E7.11691
G1 X20.643 Y59.097 E7.12891
G1 X20.744 Y59.310 E7.14092
G1 X20.817 Y59.534 E7.15292
G1 X20.861 Y59.765 E7.16493
G1 X20.875 Y60.000 E7.17693
G1 X20.861 Y60.235 E7.18893
G1 X20.817 Y60.466 E7.20093
G1 X20.744 Y60.690 E7.21294
G1 X20.643 Y60.903 E7.22494
G1 X20.517 Y61.102 E7.23694
G1 X20.367 Y61.284 E7.24895
G1 X20.195 Y61.445 E7.26095
G1 X20.005 Y61.583 E7.27296
G1 X19.798 Y61.697 E7.28496
G1 X19.580 Y61.784 E7.29696
G1 X19.351 Y61.842 E7.30897
G1 X19.177 Y61.864 E7.31792
G1 X19.009 Y62.080 F9000.000
G1 X73.392 Y61.864 F9000.000
G1 X73.389 Y40.981 E8.38229 F600.000
G1 X73.409 Y40.673 E8.39803
G1 X73.470 Y40.350 E8.41474
G1 X73.572 Y40.039 E8.43146
G1 X73.711 Y39.742 E8.44818
G1 X73.887 Y39.465 E8.46490
G1 X74.096 Y39.212 E8.48162
G1 X74.335 Y38.988 E8.49832
G1 X74.600 Y38.795 E8.51504
G1 X74.888 Y38.637 E8.53177
G1 X75.193 Y38.516 E8.54848
G1 X75.520 Y38.432 E8.56569
G1 X75.971 Y38.389 E8.58879
G1 X124.019 Y38.389 E11.03767 F600.000
G1 X124.327 Y38.409 E11.05341
G1 X124.650 Y38.470 E11.07013
G1 X124.961 Y38.572 E11.08684
G1 X125.258 Y38.711 E11.10356
G1 X125.535 Y38.887 E11.12028
G1 X125.788 Y39.096 E11.13700
G1 X126.012 Y39.335 E11.15371
G1 X126.205 Y39.600 E11.17042
G1 X126.363 Y39.888 E11.18715
G1 X126.484 Y40.193 E11.20387
G1 X126.568 Y40.520 E11.22107
G1 X126.611 Y40.971 E11.24418
G1 X126.611 Y69.019 E12.67371
G1 X126.591 Y69.327 E12.68945
G1 X126.530 Y69.649 E12.70616
G1 X126.428 Y69.961 E12.72288
G1 X126.289 Y70.258 E12.73960
G1 X126.113 Y70.535 E12.75632
G1 X125.904 Y70.788 E12.77304
G1 X125.665 Y71.012 E12.78974
G1 X125.400 Y71.205 E12.80646
G1 X125.112 Y71.363 E12.82319
G1 X124.807 Y71.484 E12.83990
G1 X124.480 Y71.568 E12.85710
G1 X124.029 Y71.611 E12.88021
G1 X75.981 Y71.611 E15.32909
G1 X75.673 Y71.591 E15.34483
G1 X75.350 Y71.530 E15.36154
G1 X75.039 Y71.428 E15.37826
G1 X74.742 Y71.289 E15.39498
G1 X74.465 Y71.113 E15.41170
G1 X74.212 Y70.904 E15.42842
G1 X73.988 Y70.665 E15.44513
G1 X73.795 Y70.400 E15.46184
G1 X73.637 Y70.112 E15.47857
G1 X73.516 Y69.807 E15.49529
G1 X73.434 Y69.490 E15.51199
G1 X73.393 Y69.164 E15.52871
G1 X73.392 Y61.924 E15.89771
G1 X73.778 Y61.864 F9000.000
G1 X73.775 Y40.993 E16.96146 F600.000
G1 X73.792 Y40.721 E16.97535
G1 X73.844 Y40.447 E16.98959
G1 X73.931 Y40.181 E17.00383
G1 X74.050 Y39.928 E17.01808
G1 X74.200 Y39.692 E17.03233
G1 X74.378 Y39.477 E17.04657
G1 X74.581 Y39.285 E17.06081
G1 X74.807 Y39.121 E17.07505
G1 X75.052 Y38.986 E17.08930
G1 X75.312 Y38.883 E17.10355
G1 X75.586 Y38.813 E17.11797
G1 X75.989 Y38.775 E17.13860
G1 X124.007 Y38.775 E19.58593 F600.000
G1 X124.279 Y38.792 E19.59982
G1 X124.553 Y38.844 E19.61406
G1 X124.819 Y38.931 E19.62830
G1 X125.072 Y39.050 E19.64255
G1 X125.308 Y39.200 E19.65680
G1 X125.523 Y39.378 E19.67104
G1 X125.715 Y39.581 E19.68528
G1 X125.879 Y39.807 E19.69952
G1 X126.014 Y40.052 E19.71377
G1 X126.117 Y40.312 E19.72802
G1 X126.187 Y40.586 E19.74244
G1 X126.225 Y40.989 E19.76307
G1 X126.225 Y69.007 E21.19106
G1 X126.208 Y69.279 E21.20494
G1 X126.156 Y69.553 E21.21918
G1 X126.069 Y69.819 E21.23343
G1 X125.950 Y70.072 E21.24767
G1 X125.800 Y70.308 E21.26192
G1 X125.622 Y70.523 E21.27616
G1 X125.419 Y70.715 E21.29040
G1 X125.193 Y70.879 E21.30464
G1 X124.948 Y71.014 E21.31889
G1 X124.688 Y71.117 E21.33314
G1 X124.414 Y71.187 E21.34756
G1 X124.011 Y71.225 E21.36819
G1 X75.993 Y71.225 E23.81553
G1 X75.721 Y71.208 E23.82941
G1 X75.447 Y71.156 E23.84365
G1 X75.181 Y71.069 E23.85790
G1 X74.928 Y70.950 E23.87214
G1 X74.692 Y70.800 E23.88639
G1 X74.477 Y70.622 E23.90063
G1 X74.285 Y70.419 E23.91487
G1 X74.121 Y70.193 E23.92911
G1 X73.986 Y69.948 E23.94336
G1 X73.883 Y69.688 E23.95761
G1 X73.814 Y69.417 E23.97185
G1 X73.779 Y69.140 E23.98609
G1 X73.778 Y61.924 E24.35386
G1 X73.431 Y61.664 F9000.000
G1 E18.35386 F1800.00000
G92 E0
G1 X158.809 Y89.437 F9000.000
G1 E6.00000 F1800.00000
G1 X158.897 Y89.167 E6.01448 F600.000
G1 X159.018 Y88.910 E6.02895
G1 X159.170 Y88.671 E6.04343
G1 X159.351 Y88.452 E6.05790
G1 X159.558 Y88.257 E6.07238
G1 X159.788 Y88.090 E6.08687
G1 X160.037 Y87.953 E6.10134
G1 X160.301 Y87.849 E6.11581
G1 X160.576 Y87.778 E6.13029
G1 X160.858 Y87.743 E6.14477
