; generated by Slic3r 1.2.9 on 2017-04-21 at 14:56:28

; external perimeters extrusion width = 0.40mm
; perimeters extrusion width = 0.56mm
; infill extrusion width = 0.38mm
; solid infill extrusion width = 0.56mm
; top infill extrusion width = 0.22mm

M106 S256; Turn on fan to 100% power
M104 S140; turn on extruder temperature at S value
M140 S60; turn on bed temperature at S value
G28; home all axes
M84; disable motors
G1 Z15 F15000; have Z move to 20mm at 15000 mm/min
M190 S55; turn on bed temperature at S value and wait
M140 S55; turn on bed temperature at S value (printing temperature)
M109 S200; turn on extruder temperature at S value and wait (printing temperature)
M104 S200; turn on extruder temperature at S value
G1 Z0 F12000; move Z back to home
G21 ; set units to millimeters
G90 ; use absolute coordinates
M82 ; use absolute distances for extrusion
G92 E0
M106 S255
;Layer change
G1 E-6.00000 F1800.00000
G92 E0
G1 Z0.300 F9000.000
G1 X49.506 Y35.940 F9000.000
G1 E6.00000 F1800.00000
G1 X50.552 Y35.061 E6.06650 F600.000
G1 X51.500 Y34.864 E6.11359
G1 X128.500 Y34.864 E9.85972
G1 X129.810 Y35.256 E9.92622
G1 X130.689 Y36.302 E9.99272 F600.000
G1 X130.886 Y37.250 E10.03981
G1 X130.886 Y142.750 E15.17249
G1 X130.494 Y144.060 E15.23899
G1 X129.448 Y144.939 E15.30549
G1 X128.500 Y145.136 E15.35258
G1 X51.500 Y145.136 E19.09871
G1 X50.190 Y144.744 E19.16521
G1 X49.311 Y143.698 E19.23171
G1 X49.114 Y142.750 E19.27880
G1 X49.114 Y37.250 E24.41148
G1 X49.489 Y35.998 E24.47507
G1 E18.47507 F1800.00000
G92 E0
G1 X91.281 Y104.036 F9000.000
G1 E6.00000 F1800.00000
G1 X91.667 Y104.238 E6.02119 F600.000
G1 X91.979 Y104.490 E6.04070
G1 X92.237 Y104.796 E6.06021
G1 X92.449 Y105.181 E6.08155
G1 X92.576 Y105.601 E6.10289
G1 X92.614 Y106.003 E6.12256
G1 X92.568 Y106.436 E6.14375
G1 X92.448 Y106.820 E6.16331
G1 X92.252 Y107.182 E6.18332
G1 X91.980 Y107.508 E6.20400
G1 X91.667 Y107.762 E6.22362
G1 X91.281 Y107.964 E6.24481
G1 X90.896 Y108.076 E6.26431
G1 X90.497 Y108.114 E6.28382
G1 X90.064 Y108.068 E6.30501
G1 X89.681 Y107.948 E6.32451
G1 X89.328 Y107.759 E6.34402
G1 X88.992 Y107.481 E6.36521
G1 X88.740 Y107.170 E6.38472
G1 X88.550 Y106.816 E6.40423
G1 X88.424 Y106.399 E6.42542
G1 X88.387 Y106.000 E6.44493
G1 X88.424 Y105.603 E6.46433
G1 X88.540 Y105.208 E6.48434
G1 X88.738 Y104.832 E6.50502
G1 X88.992 Y104.519 E6.52464
G1 X89.328 Y104.241 E6.54582
G1 X89.681 Y104.052 E6.56534
G1 X90.063 Y103.932 E6.58480
G1 X90.485 Y103.886 E6.60548 F600.000
G1 X90.895 Y103.924 E6.62549
G1 X91.223 Y104.019 E6.64212
G1 X91.137 Y104.395 F9000.000
G1 X91.454 Y104.562 E6.65957 F600.000
G1 X91.708 Y104.767 E6.67543
G1 X91.918 Y105.016 E6.69129
G1 X92.091 Y105.331 E6.70879
G1 X92.195 Y105.675 E6.72629
G1 X92.226 Y106.001 E6.74221
G1 X92.189 Y106.358 E6.75965
G1 X92.091 Y106.669 E6.77554
G1 X91.931 Y106.965 E6.79187
G1 X91.708 Y107.233 E6.80884
G1 X91.454 Y107.438 E6.82474
G1 X91.137 Y107.605 E6.84218
G1 X90.823 Y107.695 E6.85805
G1 X90.499 Y107.726 E6.87391
G1 X90.142 Y107.689 E6.89135
G1 X89.831 Y107.591 E6.90721
G1 X89.544 Y107.437 E6.92307
G1 X89.268 Y107.209 E6.94052
G1 X89.062 Y106.955 E6.95638
G1 X88.908 Y106.668 E6.97224
G1 X88.805 Y106.325 E6.98968
G1 X88.774 Y106.000 E7.00555
G1 X88.805 Y105.676 E7.02137
G1 X88.899 Y105.354 E7.03770
G1 X89.062 Y105.045 E7.05467
G1 X89.268 Y104.791 E7.07058
G1 X89.544 Y104.563 E7.08802
G1 X89.831 Y104.409 E7.10388
G1 X90.142 Y104.311 E7.11973
G1 X90.489 Y104.274 E7.13669 F600.000
G1 X90.823 Y104.304 E7.15303
G1 X91.079 Y104.379 E7.16599
G1 X91.426 Y104.184 F9000.000
G1 X105.139 Y95.311 F9000.000
G1 X105.139 Y84.689 E7.68272 F600.000
G1 X112.861 Y84.689 E8.05837
G1 X112.861 Y95.311 E8.57510
G1 X105.199 Y95.311 E8.94783
G1 X105.525 Y94.925 F9000.000
G1 X105.525 Y85.075 E9.42704 F600.000
G1 X112.475 Y85.075 E9.76517
G1 X112.475 Y94.925 E10.24438
G1 X105.585 Y94.925 E10.57958
G1 X105.125 Y94.925 F9000.000
G1 X91.672 Y73.759 F9000.000
G1 X91.319 Y73.948 E10.59909 F600.000
G1 X90.936 Y74.068 E10.61860
G1 X90.500 Y74.114 E10.63994
G1 X90.064 Y74.068 E10.66129
G1 X89.681 Y73.948 E10.68079
G1 X89.328 Y73.759 E10.70030
G1 X88.992 Y73.481 E10.72149
G1 X88.740 Y73.170 E10.74100
G1 X88.550 Y72.816 E10.76051
G1 X88.424 Y72.399 E10.78169
G1 X88.387 Y72.000 E10.80120
G1 X88.424 Y71.601 E10.82071
G1 X88.550 Y71.184 E10.84190
G1 X88.740 Y70.830 E10.86141
G1 X88.992 Y70.519 E10.88092
G1 X89.328 Y70.241 E10.90210
G1 X89.681 Y70.052 E10.92162
G1 X90.063 Y69.932 E10.94108
G1 X90.485 Y69.886 E10.96176 F600.000
G1 X90.895 Y69.924 E10.98176
G1 X91.281 Y70.036 E11.00132
G1 X91.667 Y70.238 E11.02251
G1 X91.979 Y70.490 E11.04202
G1 X92.237 Y70.796 E11.06153
G1 X92.449 Y71.181 E11.08287
G1 X92.576 Y71.601 E11.10422
G1 X92.613 Y72.000 E11.12373
G1 X92.576 Y72.399 E11.14324
G1 X92.450 Y72.816 E11.16442
G1 X92.260 Y73.170 E11.18393
G1 X92.008 Y73.481 E11.20344
G1 X91.719 Y73.720 E11.22171
G1 X91.456 Y73.437 F9000.000
G1 X91.169 Y73.591 E11.23757 F600.000
G1 X90.858 Y73.689 E11.25343
G1 X90.500 Y73.726 E11.27093
G1 X90.142 Y73.689 E11.28843
G1 X89.831 Y73.591 E11.30429
G1 X89.544 Y73.437 E11.32016
G1 X89.268 Y73.209 E11.33760
G1 X89.062 Y72.955 E11.35346
G1 X88.908 Y72.668 E11.36932
G1 X88.805 Y72.325 E11.38676
G1 X88.774 Y72.000 E11.40263
G1 X88.805 Y71.675 E11.41849
G1 X88.908 Y71.332 E11.43593
G1 X89.062 Y71.045 E11.45180
G1 X89.268 Y70.791 E11.46766
G1 X89.544 Y70.563 E11.48510
G1 X89.831 Y70.409 E11.50096
G1 X90.142 Y70.311 E11.51681
G1 X90.489 Y70.274 E11.53377 F600.000
G1 X90.823 Y70.304 E11.55011
G1 X91.137 Y70.395 E11.56599
G1 X91.454 Y70.562 E11.58343
G1 X91.708 Y70.767 E11.59930
G1 X91.918 Y71.016 E11.61516
G1 X92.091 Y71.331 E11.63266
G1 X92.195 Y71.675 E11.65016
G1 X92.226 Y72.000 E11.66602
G1 X92.195 Y72.325 E11.68188
G1 X92.092 Y72.668 E11.69933
G1 X91.938 Y72.955 E11.71519
G1 X91.732 Y73.209 E11.73105
G1 X91.502 Y73.399 E11.74557
G1 X91.468 Y73.763 F9000.000
G1 X75.861 Y84.689 F9000.000
G1 X75.861 Y95.311 E12.26231 F600.000
G1 X68.139 Y95.311 E12.63795
G1 X68.139 Y84.689 E13.15469
G1 X75.801 Y84.689 E13.52741
G1 X75.475 Y85.075 F9000.000
G1 X75.475 Y94.925 E14.00662 F600.000
G1 X68.525 Y94.925 E14.34475
G1 X68.525 Y85.075 E14.82396
G1 X75.415 Y85.075 E15.15917
G1 X75.875 Y85.075 F9000.000
G1 E9.15917 F1800.00000
G92 E0
G1 X52.111 Y37.861 F9000.000
G1 E6.00000 F1800.00000
G1 X127.889 Y37.861 E9.68671 F600.000
G1 X127.889 Y142.139 E14.75998
G1 X52.111 Y142.139 E18.44669
G1 X52.111 Y37.921 E23.51704
G1 X51.725 Y37.475 F9000.000
G1 X128.275 Y37.475 E27.24127 F600.000
G1 X128.275 Y142.525 E32.35206
G1 X51.725 Y142.525 E36.07630
G1 X51.725 Y37.535 E41.18417
G1 X52.071 Y37.675 F9000.000
G1 E35.18417 F1800.00000
G92 E0
G1 X52.394 Y43.387 F9000.000
G1 E6.00000 F1800.00000
G1 X127.606 Y118.598 E11.18016 F600.000
G1 X127.606 Y119.144 E11.20675
G1 X52.394 Y43.933 E16.38690
G1 X52.394 Y44.479 E16.41349
G1 X127.606 Y119.690 E21.59365
G1 X127.606 Y120.236 E21.62024
G1 X52.394 Y45.025 E26.80039
G1 X52.394 Y45.571 E26.82698
G1 X127.606 Y120.782 E32.00714
G1 X127.606 Y121.328 E32.03373
G1 X52.394 Y46.116 E37.21389
G1 X52.394 Y46.662 E37.24047
G1 X127.606 Y121.874 E42.42063
G1 X127.606 Y122.419 E42.44722
G1 X52.394 Y47.208 E47.62738
G1 X52.394 Y47.754 E47.65396
G1 X127.606 Y122.965 E52.83412
G1 X127.606 Y123.511 E52.86071
G1 X52.394 Y48.300 E58.04087
G1 X52.394 Y48.846 E58.06745
G1 X127.606 Y124.057 E63.24761
G1 X127.606 Y124.603 E63.27420
G1 X52.394 Y49.392 E68.45436
G1 X52.394 Y49.938 E68.48095
G1 X127.606 Y125.149 E73.66110
G1 X127.606 Y125.695 E73.68769
G1 X52.394 Y50.484 E78.86785
G1 X52.394 Y51.030 E78.89444
G1 X127.606 Y126.241 E84.07459
G1 X127.606 Y126.787 E84.10118
G1 X52.394 Y51.576 E89.28134
G1 X52.394 Y52.122 E89.30793
G1 X127.606 Y127.333 E94.48809
G1 X127.606 Y127.879 E94.51467
G1 X52.394 Y52.667 E99.69483
G1 X52.394 Y53.213 E99.72142
G1 X127.606 Y128.425 E104.90158
G1 X127.606 Y128.970 E104.92816
G1 X52.394 Y53.759 E110.10832
G1 X52.394 Y54.305 E110.13491
G1 X127.606 Y129.516 E115.31507
G1 X127.606 Y130.062 E115.34165
G1 X52.394 Y54.851 E120.52181
G1 X52.394 Y55.397 E120.54840
G1 X127.606 Y130.608 E125.72856
G1 X127.606 Y131.154 E125.75515
G1 X52.394 Y55.943 E130.93530
G1 X52.394 Y56.489 E130.96189
G1 X127.606 Y131.700 E136.14205
G1 X127.606 Y132.246 E136.16864
G1 X52.394 Y57.035 E141.34879
G1 X52.394 Y57.581 E141.37538
G1 X127.606 Y132.792 E146.55554
G1 X127.606 Y133.338 E146.58213
G1 X52.394 Y58.127 E151.76229
G1 X52.394 Y58.673 E151.78887
G1 X127.606 Y133.884 E156.96903
G1 X127.606 Y134.430 E156.99562
G1 X52.394 Y59.219 E162.17578
G1 X52.394 Y59.764 E162.20236
G1 X127.606 Y134.976 E167.38252
G1 X127.606 Y135.522 E167.40911
G1 X52.394 Y60.310 E172.58927
G1 X52.394 Y60.856 E172.61585
G1 X75.944 Y84.406 E174.23781
G1 X76.144 Y84.606 F9000.000
G1 X127.606 Y136.067 E177.78219 F600.000
G1 X127.606 Y136.613 E177.80878
G1 X76.144 Y85.152 E181.35316
G1 X76.144 Y85.698 E181.37975
G1 X127.606 Y137.159 E184.92413
G1 X127.606 Y137.705 E184.95071
G1 X76.144 Y86.244 E188.49509
G1 X76.144 Y86.790 E188.52168
G1 X127.606 Y138.251 E192.06606
G1 X127.606 Y138.797 E192.09265
G1 X76.144 Y87.336 E195.63703
G1 X76.144 Y87.882 E195.66362
G1 X127.606 Y139.343 E199.20800
G1 X127.606 Y139.889 E199.23459
G1 X92.720 Y105.003 E201.63732
G1 X92.879 Y105.708 E201.67251
G1 X127.606 Y140.435 E204.06431
G1 X127.606 Y140.981 E204.09090
G1 X92.866 Y106.241 E206.48359
G1 X92.765 Y106.686 E206.50583
G1 X127.606 Y141.527 E208.90544
G1 X127.389 Y141.856 E208.92463
G1 X92.603 Y107.070 E211.32052
G1 X92.392 Y107.405 E211.33980
G1 X126.843 Y141.856 E213.71258
G1 X126.297 Y141.856 E213.73916
G1 X92.142 Y107.700 E216.09160
G1 X91.840 Y107.945 E216.11050
G1 X125.751 Y141.856 E218.44611
G1 X125.205 Y141.856 E218.47270
G1 X91.491 Y108.142 E220.79472
G1 X91.096 Y108.293 E220.81531
G1 X124.659 Y141.856 E223.12694
G1 X124.113 Y141.856 E223.15353
G1 X90.636 Y108.378 E225.45928
G1 X90.075 Y108.364 E225.48658
G1 X123.567 Y141.856 E227.79332
G1 X123.021 Y141.856 E227.81991
G1 X89.271 Y108.105 E230.14446
G1 X88.395 Y107.229 F9000.000
G1 X76.144 Y94.979 E230.98821 F600.000
G1 X76.144 Y95.525 E231.01479
G1 X122.475 Y141.856 E234.20583
G1 X121.929 Y141.856 E234.23242
G1 X75.668 Y95.594 E237.41865
G1 X75.122 Y95.594 E237.44524
G1 X121.384 Y141.856 E240.63147
G1 X120.838 Y141.856 E240.65806
G1 X74.576 Y95.594 E243.84429
G1 X74.031 Y95.594 E243.87088
G1 X120.292 Y141.856 E247.05711
G1 X119.746 Y141.856 E247.08369
G1 X73.485 Y95.594 E250.26993
G1 X72.939 Y95.594 E250.29651
G1 X119.200 Y141.856 E253.48274
G1 X118.654 Y141.856 E253.50933
G1 X72.393 Y95.594 E256.69556
G1 X71.847 Y95.594 E256.72215
G1 X118.108 Y141.856 E259.90838
G1 X117.562 Y141.856 E259.93497
G1 X71.301 Y95.594 E263.12120
G1 X70.755 Y95.594 E263.14779
G1 X117.016 Y141.856 E266.33402
G1 X116.470 Y141.856 E266.36061
G1 X70.209 Y95.594 E269.54684
G1 X69.663 Y95.594 E269.57342
G1 X115.924 Y141.856 E272.75966
G1 X115.378 Y141.856 E272.78624
G1 X69.117 Y95.594 E275.97248
G1 X68.571 Y95.594 E275.99906
G1 X114.833 Y141.856 E279.18529
G1 X114.287 Y141.856 E279.21188
G1 X52.394 Y79.963 E283.47470
G1 X52.394 Y80.509 E283.50128
G1 X113.741 Y141.856 E287.72650
G1 X113.195 Y141.856 E287.75309
G1 X52.394 Y81.055 E291.94070
G1 X52.394 Y81.601 E291.96729
G1 X112.649 Y141.856 E296.11730
G1 X112.103 Y141.856 E296.14389
G1 X52.394 Y82.147 E300.25630
G1 X52.394 Y82.693 E300.28289
G1 X111.557 Y141.856 E304.35771
G1 X111.011 Y141.856 E304.38429
G1 X52.394 Y83.239 E308.42151
G1 X52.394 Y83.785 E308.44809
G1 X110.465 Y141.856 E312.44771
G1 X109.919 Y141.856 E312.47430
G1 X52.394 Y84.331 E316.43631
G1 X52.394 Y84.877 E316.46290
G1 X109.373 Y141.856 E320.38731
G1 X108.827 Y141.856 E320.41390
G1 X52.394 Y85.423 E324.30071
G1 X52.394 Y85.969 E324.32730
G1 X108.281 Y141.856 E328.17651
G1 X107.736 Y141.856 E328.20310
G1 X52.394 Y86.514 E332.01472
G1 X52.394 Y87.060 E332.04130
G1 X107.190 Y141.856 E335.81532
G1 X106.644 Y141.856 E335.84190
G1 X52.394 Y87.606 E339.57832
G1 X52.394 Y88.152 E339.60491
G1 X106.098 Y141.856 E343.30372
G1 X105.552 Y141.856 E343.33031
G1 X52.394 Y88.698 E346.99152
G1 X52.394 Y89.244 E347.01811
G1 X105.006 Y141.856 E350.64172
G1 X104.460 Y141.856 E350.66831
G1 X52.394 Y89.790 E354.25432
G1 X52.394 Y90.336 E354.28091
G1 X103.914 Y141.856 E357.82932
G1 X103.368 Y141.856 E357.85591
G1 X52.394 Y90.882 E361.36672
G1 X52.394 Y91.428 E361.39331
G1 X102.822 Y141.856 E364.86653
G1 X102.276 Y141.856 E364.89311
G1 X52.394 Y91.974 E368.32873
G1 X52.394 Y92.520 E368.35531
G1 X101.730 Y141.856 E371.75333
G1 X101.185 Y141.856 E371.77991
G1 X52.394 Y93.065 E375.14033
G1 X52.394 Y93.611 E375.16692
G1 X100.639 Y141.856 E378.48973
G1 X100.093 Y141.856 E378.51632
G1 X52.394 Y94.157 E381.80153
G1 X52.394 Y94.703 E381.82812
G1 X99.547 Y141.856 E385.07573
G1 X99.001 Y141.856 E385.10232
G1 X52.394 Y95.249 E388.31233
G1 X52.394 Y95.795 E388.33892
G1 X98.455 Y141.856 E391.51133
G1 X97.909 Y141.856 E391.53792
G1 X52.394 Y96.341 E394.67273
G1 X52.394 Y96.887 E394.69932
G1 X97.363 Y141.856 E397.79653
G1 X96.817 Y141.856 E397.82312
G1 X52.394 Y97.433 E400.88273
G1 X52.394 Y97.979 E400.90932
G1 X96.271 Y141.856 E403.93133
G1 X95.725 Y141.856 E403.95792
G1 X52.394 Y98.525 E406.94233
G1 X52.394 Y99.071 E406.96892
G1 X95.179 Y141.856 E409.91573
G1 X94.634 Y141.856 E409.94232
G1 X52.394 Y99.616 E412.85153
G1 X52.394 Y100.162 E412.87812
G1 X94.088 Y141.856 E415.74973
G1 X93.542 Y141.856 E415.77632
G1 X52.394 Y100.708 E418.61033
G1 X52.394 Y101.254 E418.63692
G1 X92.996 Y141.856 E421.43333
G1 X92.450 Y141.856 E421.45992
G1 X52.394 Y101.800 E424.21873
G1 X52.394 Y102.346 E424.24532
G1 X91.904 Y141.856 E426.96653
G1 X91.358 Y141.856 E426.99312
G1 X52.394 Y102.892 E429.67673
G1 X52.394 Y103.438 E429.70332
G1 X90.812 Y141.856 E432.34933
G1 X90.266 Y141.856 E432.37592
G1 X52.394 Y103.984 E434.98433
G1 X52.394 Y104.530 E435.01092
G1 X89.720 Y141.856 E437.58173
G1 X89.174 Y141.856 E437.60832
G1 X52.394 Y105.076 E440.14153
G1 X52.394 Y105.622 E440.16812
G1 X88.628 Y141.856 E442.66373
G1 X88.083 Y141.856 E442.69032
G1 X52.394 Y106.167 E445.14833
G1 X52.394 Y106.713 E445.17492
G1 X87.537 Y141.856 E447.59533
G1 X86.991 Y141.856 E447.62192
G1 X52.394 Y107.259 E450.00473
G1 X52.394 Y107.805 E450.03131
G1 X86.445 Y141.856 E452.37653
G1 X85.899 Y141.856 E452.40311
G1 X52.394 Y108.351 E454.71073
G1 X52.394 Y108.897 E454.73731
G1 X85.353 Y141.856 E457.00732
G1 X84.807 Y141.856 E457.03391
G1 X52.394 Y109.443 E459.26632
G1 X52.394 Y109.989 E459.29291
G1 X84.261 Y141.856 E461.48772
G1 X83.715 Y141.856 E461.51431
G1 X52.394 Y110.535 E463.67152
G1 X52.394 Y111.081 E463.69811
G1 X83.169 Y141.856 E465.81772
G1 X82.623 Y141.856 E465.84431
G1 X52.394 Y111.627 E467.92632
G1 X52.394 Y112.173 E467.95291
G1 X82.077 Y141.856 E469.99732
G1 X81.531 Y141.856 E470.02391
G1 X52.394 Y112.719 E472.03072
G1 X52.394 Y113.264 E472.05730
G1 X80.986 Y141.856 E474.02652
G1 X80.440 Y141.856 E474.05310
G1 X52.394 Y113.810 E475.98471
G1 X52.394 Y114.356 E476.01130
G1 X79.894 Y141.856 E477.90531
G1 X79.348 Y141.856 E477.93190
G1 X52.394 Y114.902 E479.78831
G1 X52.394 Y115.448 E479.81490
G1 X78.802 Y141.856 E481.63371
G1 X78.256 Y141.856 E481.66030
G1 X52.394 Y115.994 E483.44151
G1 X52.394 Y116.540 E483.46810
G1 X77.710 Y141.856 E485.21171
G1 X77.164 Y141.856 E485.23829
G1 X52.394 Y117.086 E486.94430
G1 X52.394 Y117.632 E486.97089
G1 X76.618 Y141.856 E488.63930
G1 X76.072 Y141.856 E488.66589
G1 X52.394 Y118.178 E490.29670
G1 X52.394 Y118.724 E490.32329
G1 X75.526 Y141.856 E491.91650
G1 X74.980 Y141.856 E491.94309
G1 X52.394 Y119.270 E493.49870
G1 X52.394 Y119.815 E493.52528
G1 X74.435 Y141.856 E495.04330
G1 X73.889 Y141.856 E495.06988
G1 X52.394 Y120.361 E496.55029
G1 X52.394 Y120.907 E496.57688
G1 X73.343 Y141.856 E498.01969
G1 X72.797 Y141.856 E498.04628
G1 X52.394 Y121.453 E499.45149
G1 X52.394 Y121.999 E499.47808
G1 X72.251 Y141.856 E500.84569
G1 X71.705 Y141.856 E500.87227
G1 X52.394 Y122.545 E502.20228
G1 X52.394 Y123.091 E502.22887
G1 X71.159 Y141.856 E503.52128
G1 X70.613 Y141.856 E503.54787
G1 X52.394 Y123.637 E504.80268
G1 X52.394 Y124.183 E504.82927
