; generated by Slic3r 1.2.9 on 2017-04-12 at 21:55:51

; external perimeters extrusion width = 0.40mm
; perimeters extrusion width = 0.56mm
; infill extrusion width = 0.38mm
; solid infill extrusion width = 0.56mm
; top infill extrusion width = 0.22mm

M106 S256; Turn on fan to 100% power
M104 S140; turn on extruder temperature at S value
M140 S60; turn on bed temperature at S value
G28; home all axes
M84; disable motors
G1 Z15 F15000; have Z move to 20mm at 15000 mm/min
M190 S55; turn on bed temperature at S value and wait
M140 S55; turn on bed temperature at S value (printing temperature)
M109 S200; turn on extruder temperature at S value and wait (printing temperature)
M104 S200; turn on extruder temperature at S value
G1 Z0 F12000; move Z back to home
G21 ; set units to millimeters
G90 ; use absolute coordinates
M82 ; use absolute distances for extrusion
G92 E0
M106 S255
;Layer change
G1 E-6.00000 F1800.00000
G92 E0
G1 Z0.300 F9000.000
G1 X67.725 Y61.992 F9000.000
G1 E6.00000 F1800.00000
G1 X70.000 Y61.229 E6.11675 F600.000
G1 X110.000 Y61.229 E8.06279
G1 X111.680 Y61.623 E8.14673
G1 X113.008 Y62.725 E8.23068 F600.000
G1 X113.771 Y65.000 E8.34743
G1 X113.771 Y115.000 E10.77998
G1 X113.377 Y116.680 E10.86392
G1 X112.275 Y118.008 E10.94786
G1 X110.000 Y118.771 E11.06461
G1 X70.000 Y118.771 E13.01065
G1 X68.320 Y118.377 E13.09460
G1 X66.992 Y117.275 E13.17854
G1 X66.229 Y115.000 E13.29529
G1 X66.229 Y65.000 E15.72784
G1 X66.623 Y63.320 E15.81178
G1 X67.687 Y62.038 E15.89281
G1 X68.035 Y62.270 F9000.000
G1 X68.099 Y62.198 E15.89749 F600.000
G1 X70.000 Y61.614 E15.99424
G1 X110.000 Y61.614 E17.94028
G1 X111.585 Y62.008 E18.01975
G1 X112.802 Y63.099 E18.09923 F600.000
G1 X113.386 Y65.000 E18.19598
G1 X113.386 Y115.000 E20.62853
G1 X112.992 Y116.585 E20.70800
G1 X111.901 Y117.802 E20.78748
G1 X110.000 Y118.386 E20.88423
G1 X70.000 Y118.386 E22.83027
G1 X68.415 Y117.992 E22.90975
G1 X67.198 Y116.901 E22.98922
G1 X66.614 Y115.000 E23.08597
G1 X66.614 Y65.000 E25.51852
G1 X67.008 Y63.415 E25.59800
G1 X67.995 Y62.315 E25.66987
G1 E19.66987 F1800.00000
G92 E0
G1 X94.361 Y95.311 F9000.000
G1 E6.00000 F1800.00000
G1 X86.639 Y95.311 E6.37565 F600.000
G1 X86.639 Y84.689 E6.89238
G1 X94.361 Y84.689 E7.26803
G1 X94.361 Y95.251 E7.78184
G1 X93.975 Y94.925 F9000.000
G1 X87.025 Y94.925 E8.11996 F600.000
G1 X87.025 Y85.075 E8.59918
G1 X93.975 Y85.075 E8.93730
G1 X93.975 Y94.865 E9.41359
G1 X93.975 Y95.325 F9000.000
G1 X109.389 Y114.389 F9000.000
G1 X70.611 Y114.389 E11.30022 F600.000
G1 X70.611 Y65.611 E13.67336
G1 X109.389 Y65.611 E15.55998
G1 X109.389 Y114.329 E17.93020
G1 X109.775 Y114.775 F9000.000
G1 X70.225 Y114.775 E19.85435 F600.000
G1 X70.225 Y65.225 E22.26500
G1 X109.775 Y65.225 E24.18915
G1 X109.775 Y114.715 E26.59689
G1 X109.429 Y114.575 F9000.000
G1 X104.518 Y114.106 F9000.000
G1 X70.894 Y80.482 E28.92097 F600.000
G1 X70.894 Y81.030 E28.94774
G1 X103.970 Y114.106 E31.23395
G1 X103.422 Y114.106 E31.26073
G1 X70.894 Y81.578 E33.50907
G1 X70.894 Y82.126 E33.53585
G1 X102.874 Y114.106 E35.74632
G1 X102.326 Y114.106 E35.77309
G1 X70.894 Y82.674 E37.94570
G1 X70.894 Y83.221 E37.97247
G1 X101.779 Y114.106 E40.10721
G1 X101.231 Y114.106 E40.13398
G1 X70.894 Y83.769 E42.23085
G1 X70.894 Y84.317 E42.25762
G1 X100.683 Y114.106 E44.31662
G1 X100.135 Y114.106 E44.34340
G1 X70.894 Y84.865 E46.36452
G1 X70.894 Y85.413 E46.39130
G1 X99.587 Y114.106 E48.37455
G1 X99.039 Y114.106 E48.40133
G1 X70.894 Y85.961 E50.34672
G1 X70.894 Y86.509 E50.37350
G1 X98.491 Y114.106 E52.28102
G1 X97.943 Y114.106 E52.30779
G1 X70.894 Y87.057 E54.17744
G1 X70.894 Y87.604 E54.20422
G1 X97.396 Y114.106 E56.03600
G1 X96.848 Y114.106 E56.06278
G1 X70.894 Y88.152 E57.85669
G1 X70.894 Y88.700 E57.88347
G1 X96.300 Y114.106 E59.63951
G1 X95.752 Y114.106 E59.66628
G1 X70.894 Y89.248 E61.38446
G1 X70.894 Y89.796 E61.41124
G1 X95.204 Y114.106 E63.09154
G1 X94.656 Y114.106 E63.11832
G1 X70.894 Y90.344 E64.76075
G1 X70.894 Y90.892 E64.78753
G1 X94.108 Y114.106 E66.39210
G1 X93.560 Y114.106 E66.41887
G1 X70.894 Y91.440 E67.98557
G1 X70.894 Y91.987 E68.01235
G1 X93.013 Y114.106 E69.54117
G1 X92.465 Y114.106 E69.56795
G1 X70.894 Y92.535 E71.05891
G1 X70.894 Y93.083 E71.08569
G1 X91.917 Y114.106 E72.53878
G1 X91.369 Y114.106 E72.56556
G1 X70.894 Y93.631 E73.98078
G1 X70.894 Y94.179 E74.00755
G1 X90.821 Y114.106 E75.38491
G1 X90.273 Y114.106 E75.41168
G1 X70.894 Y94.727 E76.75117
G1 X70.894 Y95.275 E76.77794
G1 X89.725 Y114.106 E78.07956
G1 X89.178 Y114.106 E78.10633
G1 X70.894 Y95.822 E79.37008
G1 X70.894 Y96.370 E79.39686
G1 X88.630 Y114.106 E80.62273
G1 X88.082 Y114.106 E80.64951
G1 X70.894 Y96.918 E81.83752
G1 X70.894 Y97.466 E81.86429
G1 X87.534 Y114.106 E83.01443
G1 X86.986 Y114.106 E83.04121
G1 X70.894 Y98.014 E84.15348
G1 X70.894 Y98.562 E84.18025
G1 X86.438 Y114.106 E85.25465
G1 X85.890 Y114.106 E85.28143
G1 X70.894 Y99.110 E86.31796
G1 X70.894 Y99.658 E86.34474
G1 X85.342 Y114.106 E87.34340
G1 X84.795 Y114.106 E87.37018
G1 X70.894 Y100.205 E88.33097
G1 X70.894 Y100.753 E88.35775
G1 X84.247 Y114.106 E89.28067
G1 X83.699 Y114.106 E89.30745
G1 X70.894 Y101.301 E90.19250
G1 X70.894 Y101.849 E90.21928
G1 X83.151 Y114.106 E91.06646
G1 X82.603 Y114.106 E91.09324
G1 X70.894 Y102.397 E91.90256
G1 X70.894 Y102.945 E91.92933
G1 X82.055 Y114.106 E92.70078
G1 X81.507 Y114.106 E92.72756
G1 X70.894 Y103.493 E93.46114
G1 X70.894 Y104.040 E93.48791
G1 X80.960 Y114.106 E94.18362
G1 X80.412 Y114.106 E94.21040
G1 X70.894 Y104.588 E94.86824
G1 X70.894 Y105.136 E94.89502
G1 X79.864 Y114.106 E95.51499
G1 X79.316 Y114.106 E95.54177
G1 X70.894 Y105.684 E96.12387
G1 X70.894 Y106.232 E96.15064
G1 X78.768 Y114.106 E96.69488
G1 X78.220 Y114.106 E96.72166
G1 X70.894 Y106.780 E97.22802
G1 X70.894 Y107.328 E97.25480
G1 X77.672 Y114.106 E97.72329
G1 X77.124 Y114.106 E97.75007
G1 X70.894 Y107.876 E98.18069
G1 X70.894 Y108.423 E98.20747
G1 X76.577 Y114.106 E98.60023
G1 X76.029 Y114.106 E98.62701
G1 X70.894 Y108.971 E98.98189
G1 X70.894 Y109.519 E99.00867
G1 X75.481 Y114.106 E99.32569
G1 X74.933 Y114.106 E99.35247
G1 X70.894 Y110.067 E99.63162
G1 X70.894 Y110.615 E99.65839
G1 X74.385 Y114.106 E99.89967
G1 X73.837 Y114.106 E99.92645
G1 X70.894 Y111.163 E100.12986
G1 X70.894 Y111.711 E100.15664
G1 X73.289 Y114.106 E100.32218
G1 X72.742 Y114.106 E100.34896
G1 X70.894 Y112.258 E100.47663
G1 X70.894 Y112.806 E100.50341
G1 X72.194 Y114.106 E100.59321
G1 X71.646 Y114.106 E100.61999
G1 X70.894 Y113.354 E100.67193
G1 X70.894 Y113.902 E100.69870
G1 X71.098 Y114.106 E100.71277
G1 X86.555 Y95.594 F9000.000
G1 X105.066 Y114.106 E101.99228 F600.000
G1 X105.614 Y114.106 E102.01905
G1 X87.102 Y95.594 E103.29856
G1 X87.650 Y95.594 E103.32534
G1 X106.161 Y114.106 E104.60485
G1 X106.709 Y114.106 E104.63162
G1 X88.198 Y95.594 E105.91113
G1 X88.746 Y95.594 E105.93791
G1 X107.257 Y114.106 E107.21741
G1 X107.805 Y114.106 E107.24419
G1 X89.294 Y95.594 E108.52370
G1 X89.842 Y95.594 E108.55047
G1 X108.353 Y114.106 E109.82998
G1 X108.901 Y114.106 E109.85676
G1 X90.390 Y95.594 E111.13627
G1 X90.937 Y95.594 E111.16304
G1 X109.106 Y113.763 E112.41884
G1 X109.106 Y113.215 E112.44561
G1 X91.485 Y95.594 E113.66354
G1 X92.033 Y95.594 E113.69031
G1 X109.106 Y112.667 E114.87037
G1 X109.106 Y112.119 E114.89715
G1 X92.581 Y95.594 E116.03933
G1 X93.129 Y95.594 E116.06611
G1 X109.106 Y111.571 E117.17043
G1 X109.106 Y111.023 E117.19720
G1 X93.677 Y95.594 E118.26365
G1 X94.225 Y95.594 E118.29043
G1 X109.106 Y110.475 E119.31901
G1 X109.106 Y109.927 E119.34579
G1 X94.644 Y95.466 E120.34535
G1 X94.644 Y94.918 E120.37213
G1 X109.106 Y109.380 E121.37170
G1 X109.106 Y108.832 E121.39847
G1 X94.644 Y94.371 E122.39804
G1 X94.644 Y93.823 E122.42482
G1 X109.106 Y108.284 E123.42439
G1 X109.106 Y107.736 E123.45116
G1 X94.644 Y93.275 E124.45073
G1 X94.644 Y92.727 E124.47751
G1 X109.106 Y107.188 E125.47708
G1 X109.106 Y106.640 E125.50385
G1 X94.644 Y92.179 E126.50342
G1 X94.644 Y91.631 E126.53020
G1 X109.106 Y106.092 E127.52976
G1 X109.106 Y105.544 E127.55654
G1 X94.644 Y91.083 E128.55611
G1 X94.644 Y90.535 E128.58289
G1 X109.106 Y104.997 E129.58245
G1 X109.106 Y104.449 E129.60923
G1 X94.644 Y89.988 E130.60880
G1 X94.644 Y89.440 E130.63558
G1 X109.106 Y103.901 E131.63514
G1 X109.106 Y103.353 E131.66192
G1 X94.644 Y88.892 E132.66149
G1 X94.644 Y88.344 E132.68826
G1 X109.106 Y102.805 E133.68783
G1 X109.106 Y102.257 E133.71461
G1 X94.644 Y87.796 E134.71418
G1 X94.644 Y87.248 E134.74095
G1 X109.106 Y101.709 E135.74052
G1 X109.106 Y101.162 E135.76730
G1 X94.644 Y86.700 E136.76686
G1 X94.644 Y86.153 E136.79364
G1 X109.106 Y100.614 E137.79321
G1 X109.106 Y100.066 E137.81999
G1 X94.644 Y85.605 E138.81955
G1 X94.644 Y85.057 E138.84633
G1 X109.106 Y99.518 E139.84590
G1 X86.356 Y95.395 F9000.000
G1 X70.894 Y79.934 E140.91459 F600.000
G1 X70.894 Y79.386 E140.94136
G1 X86.356 Y94.848 E142.01005
G1 X86.356 Y94.300 E142.03683
G1 X70.894 Y78.839 E143.10552
G1 X70.894 Y78.291 E143.13229
G1 X86.356 Y93.752 E144.20098
G1 X86.356 Y93.204 E144.22776
G1 X70.894 Y77.743 E145.29645
G1 X70.894 Y77.195 E145.32322
G1 X86.356 Y92.656 E146.39191
G1 X86.356 Y92.108 E146.41869
G1 X70.894 Y76.647 E147.48738
G1 X70.894 Y76.099 E147.51416
G1 X86.356 Y91.560 E148.58284
G1 X86.356 Y91.013 E148.60962
G1 X70.894 Y75.551 E149.67831
G1 X70.894 Y75.003 E149.70509
G1 X86.356 Y90.465 E150.77377
G1 X86.356 Y89.917 E150.80055
G1 X70.894 Y74.456 E151.86924
G1 X70.894 Y73.908 E151.89602
G1 X86.356 Y89.369 E152.96470
G1 X86.356 Y88.821 E152.99148
G1 X70.894 Y73.360 E154.06017
G1 X70.894 Y72.812 E154.08695
G1 X86.356 Y88.273 E155.15564
G1 X86.356 Y87.725 E155.18241
G1 X70.894 Y72.264 E156.25110
G1 X70.894 Y71.716 E156.27788
G1 X86.356 Y87.177 E157.34657
G1 X86.356 Y86.630 E157.37334
G1 X70.894 Y71.168 E158.44203
G1 X70.894 Y70.621 E158.46881
G1 X86.356 Y86.082 E159.53750
G1 X86.356 Y85.534 E159.56427
G1 X70.894 Y70.073 E160.63296
G1 X70.894 Y69.525 E160.65974
G1 X86.356 Y84.986 E161.72843
G1 X86.356 Y84.438 E161.75520
G1 X70.894 Y68.977 E162.82389
G1 X70.894 Y68.429 E162.85067
G1 X86.871 Y84.406 E163.95498
G1 X87.419 Y84.406 E163.98176
G1 X70.894 Y67.881 E165.12394
G1 X70.894 Y67.333 E165.15071
G1 X87.967 Y84.406 E166.33076
G1 X88.515 Y84.406 E166.35754
G1 X70.894 Y66.785 E167.57546
G1 X70.894 Y66.238 E167.60223
G1 X89.062 Y84.406 E168.85802
G1 X89.610 Y84.406 E168.88480
G1 X71.099 Y65.894 E170.16430
G1 X71.647 Y65.894 E170.19108
G1 X90.158 Y84.406 E171.47059
G1 X90.706 Y84.406 E171.49736
G1 X72.195 Y65.894 E172.77687
G1 X72.743 Y65.894 E172.80365
G1 X91.254 Y84.406 E174.08315
G1 X91.802 Y84.406 E174.10993
G1 X73.291 Y65.894 E175.38944
G1 X73.838 Y65.894 E175.41622
G1 X92.350 Y84.406 E176.69572
G1 X92.897 Y84.406 E176.72250
G1 X74.386 Y65.894 E178.00201
G1 X74.934 Y65.894 E178.02878
G1 X93.445 Y84.406 E179.30829
G1 X93.993 Y84.406 E179.33507
G1 X75.482 Y65.894 E180.61457
G1 X76.030 Y65.894 E180.64135
G1 X109.106 Y98.970 E182.92757
G1 X109.106 Y98.422 E182.95434
G1 X76.578 Y65.894 E185.20269
G1 X77.126 Y65.894 E185.22947
G1 X109.106 Y97.874 E187.43995
G1 X109.106 Y97.326 E187.46672
G1 X77.674 Y65.894 E189.63933
G1 X78.221 Y65.894 E189.66611
G1 X109.106 Y96.779 E191.80085
G1 X109.106 Y96.231 E191.82763
G1 X78.769 Y65.894 E193.92450
G1 X79.317 Y65.894 E193.95127
G1 X109.106 Y95.683 E196.01028
G1 X109.106 Y95.135 E196.03705
G1 X79.865 Y65.894 E198.05819
G1 X80.413 Y65.894 E198.08496
G1 X109.106 Y94.587 E200.06823
G1 X109.106 Y94.039 E200.09500
G1 X80.961 Y65.894 E202.04040
G1 X81.509 Y65.894 E202.06718
G1 X109.106 Y93.491 E203.97470
G1 X109.106 Y92.944 E204.00148
G1 X82.056 Y65.894 E205.87114
G1 X82.604 Y65.894 E205.89791
G1 X109.106 Y92.396 E207.72970
G1 X109.106 Y91.848 E207.75648
G1 X83.152 Y65.894 E209.55040
G1 X83.700 Y65.894 E209.57717
G1 X109.106 Y91.300 E211.33322
G1 X109.106 Y90.752 E211.36000
G1 X84.248 Y65.894 E213.07818
G1 X84.796 Y65.894 E213.10496
G1 X109.106 Y90.204 E214.78527
G1 X109.106 Y89.656 E214.81205
G1 X85.344 Y65.894 E216.45449
G1 X85.892 Y65.894 E216.48127
G1 X109.106 Y89.108 E218.08584
G1 X109.106 Y88.561 E218.11262
G1 X86.439 Y65.894 E219.67932
G1 X86.987 Y65.894 E219.70610
G1 X109.106 Y88.013 E221.23493
G1 X109.106 Y87.465 E221.26171
G1 X87.535 Y65.894 E222.75268
G1 X88.083 Y65.894 E222.77945
G1 X109.106 Y86.917 E224.23255
G1 X109.106 Y86.369 E224.25933
G1 X88.631 Y65.894 E225.67455
G1 X89.179 Y65.894 E225.70133
G1 X109.106 Y85.821 E227.07869
G1 X109.106 Y85.273 E227.10547
G1 X89.727 Y65.894 E228.44496
G1 X90.274 Y65.894 E228.47174
G1 X109.106 Y84.726 E229.77336
G1 X109.106 Y84.178 E229.80013
G1 X90.822 Y65.894 E231.06389
G1 X91.370 Y65.894 E231.09066
G1 X109.106 Y83.630 E232.31655
G1 X109.106 Y83.082 E232.34332
G1 X91.918 Y65.894 E233.53134
G1 X92.466 Y65.894 E233.55811
G1 X109.106 Y82.534 E234.70826
G1 X109.106 Y81.986 E234.73504
G1 X93.014 Y65.894 E235.84731
G1 X93.562 Y65.894 E235.87409
G1 X109.106 Y81.438 E236.94850
G1 X109.106 Y80.890 E236.97527
G1 X94.110 Y65.894 E238.01181
G1 X94.657 Y65.894 E238.03859
G1 X109.106 Y80.343 E239.03726
G1 X109.106 Y79.795 E239.06403
G1 X95.205 Y65.894 E240.02483
G1 X95.753 Y65.894 E240.05161
G1 X109.106 Y79.247 E240.97454
G1 X109.106 Y78.699 E241.00132
G1 X96.301 Y65.894 E241.88638
G1 X96.849 Y65.894 E241.91316
G1 X109.106 Y78.151 E242.76035
G1 X109.106 Y77.603 E242.78713
G1 X97.397 Y65.894 E243.59645
G1 X97.945 Y65.894 E243.62323
G1 X109.106 Y77.055 E244.39468
G1 X109.106 Y76.508 E244.42146
G1 X98.492 Y65.894 E245.15504
G1 X99.040 Y65.894 E245.18182
G1 X109.106 Y75.960 E245.87754
G1 X109.106 Y75.412 E245.90432
G1 X99.588 Y65.894 E246.56216
G1 X100.136 Y65.894 E246.58894
G1 X109.106 Y74.864 E247.20892
G1 X109.106 Y74.316 E247.23570
G1 X100.684 Y65.894 E247.81780
G1 X101.232 Y65.894 E247.84458
G1 X109.106 Y73.768 E248.38882
G1 X109.106 Y73.220 E248.41560
G1 X101.780 Y65.894 E248.92197
G1 X102.328 Y65.894 E248.94875
G1 X109.106 Y72.672 E249.41725
G1 X109.106 Y72.125 E249.44403
G1 X102.875 Y65.894 E249.87466
G1 X103.423 Y65.894 E249.90144
G1 X109.106 Y71.577 E250.29420
G1 X109.106 Y71.029 E250.32098
G1 X103.971 Y65.894 E250.67587
G1 X104.519 Y65.894 E250.70265
G1 X109.106 Y70.481 E251.01968
G1 X109.106 Y69.933 E251.04645
G1 X105.067 Y65.894 E251.32561
G1 X105.615 Y65.894 E251.35239
G1 X109.106 Y69.385 E251.59367
G1 X109.106 Y68.837 E251.62045
G1 X106.163 Y65.894 E251.82387
G1 X106.711 Y65.894 E251.85065
G1 X109.106 Y68.289 E252.01620
G1 X109.106 Y67.742 E252.04298
G1 X107.258 Y65.894 E252.17066
G1 X107.806 Y65.894 E252.19743
G1 X109.106 Y67.194 E252.28724
G1 X109.106 Y66.646 E252.31402
G1 X108.354 Y65.894 E252.36596
G1 X108.902 Y65.894 E252.39274
G1 X109.106 Y66.098 E252.40682
M104 S200 ; set temperature
M140 S55 ; wait for bed temperature to be reached
;Layer change
G1 E246.40682 F1800.00000
G92 E0
G1 Z0.550 F9000.000
G1 X94.375 Y95.324 F9000.000
G1 E6.00000 F1800.00000
G1 X86.625 Y95.324 E6.40951 F900.000
G1 X86.625 Y84.676 E6.97228
G1 X94.375 Y84.676 E7.38179
G1 X94.375 Y95.264 E7.94139
G1 X93.950 Y94.900 F9000.000
G1 X87.050 Y94.900 E8.19265 F900.000
G1 X87.050 Y85.100 E8.54950
G1 X93.950 Y85.100 E8.80076
G1 X93.950 Y94.840 E9.15543
G1 X93.950 Y95.300 F9000.000
G1 X109.375 Y114.375 F9000.000
G1 X70.625 Y114.375 E11.20331 F3000.000
G1 X70.625 Y65.625 E13.77966
G1 X109.375 Y65.625 E15.82754
G1 X109.375 Y114.315 E18.40072
G1 X109.800 Y114.800 F9000.000
G1 X70.200 Y114.800 E19.84271 F1800.000
G1 X70.200 Y65.200 E21.64883
G1 X109.800 Y65.200 E23.09082
G1 X109.800 Y114.740 E24.89476
G1 X109.454 Y114.600 F9000.000
G1 X108.746 Y113.999 F9000.000
G1 X108.999 Y113.746 E24.91373 F1800.000
G1 X108.999 Y113.034 E24.95146
G1 X108.034 Y113.999 E25.02379
G1 X107.321 Y113.999 E25.06153
G1 X108.999 Y112.321 E25.18722
G1 X108.999 Y111.609 E25.22496
G1 X106.609 Y113.999 E25.40401
G1 X105.897 Y113.999 E25.44175
G1 X108.999 Y110.897 E25.67417
G1 X108.999 Y110.184 E25.71190
G1 X105.184 Y113.999 E25.99768
G1 X104.472 Y113.999 E26.03541
G1 X108.999 Y109.472 E26.37456
G1 X108.999 Y108.759 E26.41229
G1 X103.759 Y113.999 E26.80480
G1 X103.047 Y113.999 E26.84253
G1 X108.999 Y108.047 E27.28840
G1 X108.999 Y107.334 E27.32613
