; generated by Slic3r 1.2.9 on 2018-02-21 at 22:23:06

; external perimeters extrusion width = 0.40mm
; perimeters extrusion width = 0.62mm
; infill extrusion width = 0.33mm
; solid infill extrusion width = 0.62mm
; top infill extrusion width = 0.20mm

M106 S256; Turn on fan to 100% power
M104 S140; turn on extruder temperature at S value
M140 S60; turn on bed temperature at S value
G28; home all axes
M84; disable motors
G1 Z15 F15000; have Z move to 20mm at 15000 mm/min
M190 S55; turn on bed temperature at S value and wait
M140 S55; turn on bed temperature at S value (printing temperature)
M109 S200; turn on extruder temperature at S value and wait (printing temperature)
M104 S200; turn on extruder temperature at S value
G1 Z0 F12000; move Z back to home
G21 ; set units to millimeters
G90 ; use absolute coordinates
M82 ; use absolute distances for extrusion
G92 E0
M106 S255
;Layer change
G1 E-6.00000 F1800.00000
G92 E0
G1 Z0.300 F9000.000
G1 X55.827 Y3.399 F9000.000
G1 E6.00000 F1800.00000
G1 X56.218 Y2.089 E6.06727 F600.000
G1 X57.265 Y1.210 E6.13455
G1 X58.212 Y1.013 E6.18218
G1 X154.728 Y1.013 E10.93217
G1 X156.037 Y1.405 E10.99945
G1 X156.917 Y2.451 E11.06672 F600.000
G1 X157.113 Y3.399 E11.11435
G1 X157.113 Y66.681 E14.22878
G1 X156.722 Y67.991 E14.29605
G1 X155.675 Y68.870 E14.36333
G1 X154.728 Y69.067 E14.41096
G1 X58.212 Y69.067 E19.16095
G1 X56.903 Y68.675 E19.22823
G1 X56.023 Y67.629 E19.29550
G1 X55.827 Y66.681 E19.34313
G1 X55.827 Y3.459 E22.45461
G1 E16.45461 F1800.00000
G92 E0
G1 X104.139 Y14.045 F9000.000
G1 E6.00000 F1800.00000
G1 X135.358 Y14.045 E7.53642 F600.000
G1 X136.403 Y14.114 E7.58799
G1 X137.463 Y14.324 E7.64118
G1 X138.486 Y14.672 E7.69436
G1 X139.456 Y15.150 E7.74754
G1 X140.354 Y15.750 E7.80072
G1 X141.166 Y16.463 E7.85390
G1 X141.879 Y17.275 E7.90708
G1 X142.479 Y18.173 E7.96027
G1 X142.957 Y19.143 E8.01345
G1 X143.305 Y20.166 E8.06663
G1 X143.515 Y21.226 E8.11981
G1 X143.584 Y22.271 E8.17139
G1 X143.584 Y48.207 E9.44779
G1 X143.515 Y49.252 E9.49937
G1 X143.305 Y50.312 E9.55255
G1 X142.957 Y51.335 E9.60573
G1 X142.479 Y52.305 E9.65891
G1 X141.879 Y53.203 E9.71210
G1 X141.166 Y54.015 E9.76528
G1 X140.354 Y54.728 E9.81846
G1 X139.456 Y55.328 E9.87164
G1 X138.486 Y55.806 E9.92482
G1 X137.463 Y56.154 E9.97801
G1 X136.403 Y56.364 E10.03119
G1 X135.358 Y56.433 E10.08276
G1 X77.582 Y56.433 E12.92617
G1 X76.537 Y56.364 E12.97775
G1 X75.477 Y56.154 E13.03093
G1 X74.454 Y55.806 E13.08411
G1 X73.484 Y55.328 E13.13729
G1 X72.586 Y54.728 E13.19048
G1 X71.774 Y54.015 E13.24366
G1 X71.061 Y53.203 E13.29684
G1 X70.461 Y52.305 E13.35002
G1 X69.983 Y51.335 E13.40321
G1 X69.635 Y50.312 E13.45639
G1 X69.425 Y49.252 E13.50957
G1 X69.356 Y48.207 E13.56114
G1 X69.356 Y22.271 E14.83755
G1 X69.425 Y21.226 E14.88912
G1 X69.635 Y20.166 E14.94230
G1 X69.983 Y19.143 E14.99548
G1 X70.461 Y18.173 E15.04867
G1 X71.061 Y17.275 E15.10185
G1 X71.774 Y16.463 E15.15503
G1 X72.586 Y15.750 E15.20821
G1 X73.484 Y15.150 E15.26140
G1 X74.454 Y14.672 E15.31458
G1 X75.477 Y14.324 E15.36776
G1 X76.512 Y14.118 E15.41972
G1 X77.581 Y14.045 E15.47243
G1 X104.079 Y14.045 E16.77654 F600.000
G1 X104.139 Y14.431 F9000.000
G1 X135.345 Y14.431 E18.31234 F600.000
G1 X136.353 Y14.497 E18.36205
G1 X137.363 Y14.698 E18.41275
G1 X138.339 Y15.029 E18.46344
G1 X139.262 Y15.484 E18.51413
G1 X140.119 Y16.057 E18.56483
G1 X140.893 Y16.736 E18.61552
G1 X141.572 Y17.510 E18.66622
G1 X142.145 Y18.367 E18.71691
G1 X142.600 Y19.290 E18.76761
G1 X142.931 Y20.266 E18.81830
G1 X143.132 Y21.276 E18.86900
G1 X143.198 Y22.284 E18.91870
G1 X143.198 Y48.194 E20.19387
G1 X143.132 Y49.202 E20.24357
G1 X142.931 Y50.212 E20.29427
G1 X142.600 Y51.188 E20.34496
G1 X142.145 Y52.111 E20.39566
G1 X141.572 Y52.968 E20.44635
G1 X140.893 Y53.742 E20.49705
G1 X140.119 Y54.421 E20.54774
G1 X139.262 Y54.994 E20.59844
G1 X138.339 Y55.449 E20.64913
G1 X137.363 Y55.780 E20.69982
G1 X136.353 Y55.981 E20.75052
G1 X135.345 Y56.047 E20.80023
G1 X77.595 Y56.047 E23.64240
G1 X76.587 Y55.981 E23.69210
G1 X75.577 Y55.780 E23.74280
G1 X74.601 Y55.449 E23.79349
G1 X73.678 Y54.994 E23.84419
G1 X72.821 Y54.421 E23.89488
G1 X72.047 Y53.742 E23.94558
G1 X71.368 Y52.968 E23.99627
G1 X70.795 Y52.111 E24.04697
G1 X70.340 Y51.188 E24.09766
G1 X70.009 Y50.212 E24.14835
G1 X69.808 Y49.202 E24.19905
G1 X69.742 Y48.194 E24.24876
G1 X69.742 Y22.284 E25.52392
G1 X69.808 Y21.276 E25.57363
G1 X70.009 Y20.266 E25.62432
G1 X70.340 Y19.290 E25.67501
G1 X70.795 Y18.367 E25.72571
G1 X71.368 Y17.510 E25.77641
G1 X72.047 Y16.736 E25.82710
G1 X72.821 Y16.057 E25.87779
G1 X73.678 Y15.484 E25.92849
G1 X74.602 Y15.029 E25.97918
G1 X75.577 Y14.698 E26.02987
G1 X76.563 Y14.501 E26.07937
G1 X77.594 Y14.431 E26.13022
G1 X104.079 Y14.431 E27.43369 F600.000
G1 X104.139 Y14.816 F9000.000
G1 X135.332 Y14.816 E28.96886 F600.000
G1 X136.302 Y14.880 E29.01671
G1 X137.263 Y15.071 E29.06491
G1 X138.191 Y15.386 E29.11312
G1 X139.069 Y15.819 E29.16133
G1 X139.884 Y16.363 E29.20953
G1 X140.620 Y17.009 E29.25774
G1 X141.266 Y17.745 E29.30595
G1 X141.810 Y18.560 E29.35415
G1 X142.243 Y19.438 E29.40236
G1 X142.558 Y20.366 E29.45057
G1 X142.749 Y21.327 E29.49877
G1 X142.813 Y22.297 E29.54662
G1 X142.813 Y48.181 E30.82053
G1 X142.749 Y49.151 E30.86838
G1 X142.558 Y50.112 E30.91659
G1 X142.243 Y51.040 E30.96479
G1 X141.810 Y51.918 E31.01300
G1 X141.266 Y52.733 E31.06121
G1 X140.620 Y53.469 E31.10941
G1 X139.884 Y54.115 E31.15762
G1 X139.069 Y54.659 E31.20582
G1 X138.191 Y55.092 E31.25403
G1 X137.263 Y55.407 E31.30224
G1 X136.302 Y55.598 E31.35044
G1 X135.332 Y55.662 E31.39829
G1 X77.608 Y55.662 E34.23921
G1 X76.638 Y55.598 E34.28706
G1 X75.677 Y55.407 E34.33526
G1 X74.749 Y55.092 E34.38347
G1 X73.871 Y54.659 E34.43168
G1 X73.056 Y54.115 E34.47988
G1 X72.320 Y53.469 E34.52809
G1 X71.674 Y52.733 E34.57629
G1 X71.130 Y51.918 E34.62450
G1 X70.697 Y51.040 E34.67271
G1 X70.382 Y50.112 E34.72092
G1 X70.191 Y49.151 E34.76912
G1 X70.127 Y48.181 E34.81697
G1 X70.127 Y22.297 E36.09088
G1 X70.191 Y21.327 E36.13873
G1 X70.382 Y20.366 E36.18694
G1 X70.697 Y19.438 E36.23514
G1 X71.130 Y18.560 E36.28335
G1 X71.674 Y17.745 E36.33156
G1 X72.320 Y17.009 E36.37976
G1 X73.056 Y16.363 E36.42797
G1 X73.871 Y15.819 E36.47617
G1 X74.749 Y15.386 E36.52438
G1 X75.677 Y15.071 E36.57259
G1 X76.614 Y14.884 E36.61963
G1 X77.607 Y14.816 E36.66861
G1 X104.079 Y14.816 E37.97142 F600.000
G1 X104.339 Y14.470 F9000.000
G1 X110.656 Y13.350 F9000.000
G1 X110.656 Y11.835 E38.04597 F600.000
G1 X111.063 Y11.114 E38.08676
G1 X110.457 Y11.057 E38.11671
G1 X110.758 Y9.669 E38.18661
G1 X110.938 Y9.277 E38.20785
G1 X111.320 Y8.843 E38.23628
G1 X111.844 Y8.545 E38.26593
G1 X112.413 Y8.431 E38.29451
G1 X112.795 Y8.433 E38.31329
G1 X113.251 Y8.505 E38.33604
G1 X113.593 Y8.655 E38.35443
G1 X113.741 Y8.756 E38.36322
G1 X113.828 Y8.683 E38.36884
G1 X114.309 Y8.488 E38.39436
G1 X114.660 Y8.434 E38.41187
G1 X115.112 Y8.437 E38.43410
G1 X115.582 Y8.556 E38.45794
G1 X115.894 Y8.716 E38.47519
G1 X116.114 Y8.905 E38.48950
G1 X116.688 Y8.492 E38.52433
G1 X118.341 Y8.492 E38.60567
G1 X118.341 Y8.667 E38.61428
G1 X118.703 Y8.503 E38.63382
G1 X119.164 Y8.432 E38.65682
G1 X119.525 Y8.433 E38.67455
G1 X119.931 Y8.496 E38.69481
G1 X120.440 Y8.712 E38.72201
G1 X120.788 Y9.000 E38.74422
G1 X121.059 Y9.376 E38.76704
G1 X121.278 Y9.034 E38.78699
G1 X121.697 Y8.683 E38.81390
G1 X122.177 Y8.488 E38.83943
G1 X122.529 Y8.434 E38.85694
G1 X122.981 Y8.437 E38.87916
G1 X123.489 Y8.566 E38.90499
G1 X123.818 Y8.768 E38.92396
G1 X124.209 Y8.545 E38.94613
G1 X124.778 Y8.431 E38.97470
G1 X125.160 Y8.433 E38.99349
G1 X125.617 Y8.505 E39.01624
G1 X125.959 Y8.655 E39.03463
G1 X126.291 Y8.882 E39.05444
G1 X126.652 Y9.303 E39.08174
G1 X127.057 Y8.843 E39.11191
G1 X127.581 Y8.545 E39.14156
G1 X128.150 Y8.431 E39.17014
G1 X128.532 Y8.433 E39.18892
G1 X128.989 Y8.505 E39.21167
G1 X129.331 Y8.655 E39.23006
G1 X129.649 Y8.873 E39.24902
G1 X130.177 Y8.492 E39.28108
G1 X133.911 Y8.492 E39.46484
G1 X134.172 Y9.170 E39.50056
G1 X134.432 Y8.492 E39.53627
G1 X137.535 Y8.481 E39.68901
G1 X139.921 Y8.507 E39.80642
G1 X140.320 Y8.583 E39.82639
G1 X140.698 Y8.729 E39.84635
G1 X141.058 Y8.979 E39.86789
G1 X141.431 Y9.445 E39.89731
G1 X141.508 Y9.277 E39.90644
G1 X141.890 Y8.843 E39.93487
G1 X142.414 Y8.545 E39.96453
G1 X142.983 Y8.431 E39.99310
G1 X143.365 Y8.433 E40.01189
G1 X143.821 Y8.505 E40.03463
G1 X144.163 Y8.655 E40.05302
G1 X144.496 Y8.882 E40.07284
G1 X144.782 Y9.217 E40.09451
G1 X144.967 Y9.609 E40.11584
G1 X145.051 Y10.031 E40.13704
G1 X145.032 Y10.551 E40.16261
G1 X144.854 Y11.048 E40.18862
G1 X145.097 Y11.048 E40.20055
G1 X145.097 Y13.350 E40.31384
G1 X141.226 Y13.350 E40.50435
G1 X141.226 Y12.777 E40.53258
G1 X141.034 Y12.947 E40.54518
G1 X140.665 Y13.168 E40.56635
G1 X140.109 Y13.324 E40.59477
G1 X139.711 Y13.350 E40.61441
G1 X133.298 Y13.350 E40.93002
G1 X132.710 Y11.886 E41.00768
G1 X132.523 Y11.922 E41.01708
G1 X132.523 Y13.350 E41.08735
G1 X123.242 Y13.350 E41.54408
G1 X122.735 Y13.417 E41.56928
G1 X122.413 Y13.399 E41.58514
G1 X121.931 Y13.273 E41.60967
G1 X121.503 Y13.007 E41.63446
G1 X121.286 Y12.788 E41.64965
G1 X121.060 Y12.483 E41.66833
G1 X120.912 Y12.751 E41.68338
G1 X120.551 Y13.077 E41.70735
G1 X120.136 Y13.292 E41.73030
G1 X119.569 Y13.409 E41.75883
G1 X119.133 Y13.409 E41.78027
G1 X118.761 Y13.350 E41.79879
G1 X115.374 Y13.350 E41.96552
G1 X114.866 Y13.417 E41.99073
G1 X114.544 Y13.399 E42.00658
G1 X114.358 Y13.350 E42.01608
G1 X110.716 Y13.350 E42.19531
G1 X111.041 Y12.965 F9000.000
G1 X111.041 Y11.937 E42.24589 F600.000
G1 X111.363 Y11.368 E42.27807
G1 X111.877 Y10.803 E42.31567
G1 X110.926 Y10.714 E42.36270
G1 X111.126 Y9.792 E42.40912
G1 X111.265 Y9.489 E42.42551
G1 X111.567 Y9.147 E42.44798
G1 X111.980 Y8.911 E42.47140
G1 X112.450 Y8.817 E42.49499
G1 X112.764 Y8.819 E42.51041
G1 X113.142 Y8.878 E42.52925
G1 X113.405 Y8.994 E42.54341
G1 X113.666 Y9.172 E42.55896
G1 X113.741 Y9.259 E42.56463
G1 X114.029 Y9.017 E42.58317
G1 X114.412 Y8.863 E42.60347
G1 X114.689 Y8.820 E42.61726
G1 X115.063 Y8.822 E42.63567
G1 X115.445 Y8.919 E42.65507
G1 X115.677 Y9.038 E42.66790
G1 X115.964 Y9.286 E42.68658
G1 X116.061 Y9.418 E42.69466
G1 X116.813 Y8.878 E42.74022
G1 X117.955 Y8.878 E42.79646
G1 X117.955 Y9.447 E42.82449
G1 X118.421 Y9.054 E42.85448
G1 X118.814 Y8.876 E42.87570
G1 X119.193 Y8.817 E42.89460
G1 X119.494 Y8.818 E42.90940
G1 X119.825 Y8.870 E42.92588
G1 X120.238 Y9.045 E42.94796
G1 X120.504 Y9.265 E42.96496
G1 X120.710 Y9.550 E42.98225
G1 X120.841 Y9.992 E43.00494
G1 X120.830 Y10.420 E43.02602
G1 X120.692 Y10.797 E43.04576
G1 X120.771 Y10.909 E43.05251
G1 X120.869 Y11.172 E43.06631
G1 X120.912 Y11.431 E43.07925
G1 X120.909 Y11.735 E43.09421
G1 X120.838 Y12.087 E43.11185
G1 X120.606 Y12.508 E43.13553
G1 X120.329 Y12.758 E43.15386
G1 X120.006 Y12.925 E43.17175
G1 X119.529 Y13.024 E43.19573
G1 X119.164 Y13.024 E43.21372
G1 X118.812 Y12.968 E43.23127
G1 X118.648 Y12.896 E43.24005
G1 X118.648 Y12.965 E43.24340
G1 X115.643 Y12.965 E43.39130
G1 X115.643 Y12.817 E43.39859
G1 X115.254 Y12.982 E43.41939
G1 X114.854 Y13.030 E43.43922
G1 X114.604 Y13.016 E43.45151
G1 X114.141 Y12.896 E43.47507
G1 X114.141 Y12.965 E43.47847
G1 X111.101 Y12.965 E43.62808
G1 X111.427 Y12.579 F9000.000
G1 X111.427 Y12.038 E43.65469 F600.000
G1 X111.677 Y11.595 E43.67973
G1 X112.054 Y11.181 E43.70730
G1 X112.697 Y10.618 E43.74934
G1 X112.792 Y10.501 E43.75678
G1 X112.865 Y10.355 E43.76480
G1 X112.882 Y10.173 E43.77381
G1 X112.870 Y10.109 E43.77700
G1 X112.817 Y10.019 E43.78215
G1 X112.688 Y9.960 E43.78914
G1 X112.513 Y9.960 E43.79774
G1 X112.377 Y10.013 E43.80491
G1 X112.315 Y10.080 E43.80944
G1 X112.202 Y10.446 E43.82827
G1 X111.395 Y10.370 E43.86817
G1 X111.494 Y9.915 E43.89112
G1 X111.592 Y9.702 E43.90266
G1 X111.813 Y9.450 E43.91916
G1 X112.117 Y9.277 E43.93634
G1 X112.488 Y9.203 E43.95496
G1 X112.733 Y9.204 E43.96702
G1 X113.032 Y9.251 E43.98195
G1 X113.217 Y9.332 E43.99187
G1 X113.406 Y9.462 E44.00316
G1 X113.559 Y9.639 E44.01467
G1 X113.719 Y9.980 E44.03322
G1 X113.995 Y9.549 E44.05842
G1 X114.231 Y9.352 E44.07354
G1 X114.515 Y9.237 E44.08862
G1 X114.717 Y9.206 E44.09870
G1 X115.013 Y9.208 E44.11328
G1 X115.308 Y9.282 E44.12824
G1 X115.460 Y9.360 E44.13665
G1 X115.679 Y9.549 E44.15088
G1 X115.780 Y9.687 E44.15929
G1 X115.931 Y10.003 E44.17652
G1 X116.111 Y9.962 E44.18562
G1 X116.111 Y9.858 E44.19075
G1 X116.937 Y9.263 E44.24083
G1 X117.570 Y9.263 E44.27198
G1 X117.570 Y11.820 E44.39778
G1 X118.146 Y11.820 E44.42612
G1 X118.158 Y11.373 E44.44809
G1 X118.210 Y11.184 E44.45777
G1 X118.296 Y11.016 E44.46705
G1 X118.463 Y10.810 E44.48008
G1 X118.297 Y10.584 E44.49387
G1 X118.213 Y10.261 E44.51029
G1 X118.216 Y10.045 E44.52091
G1 X118.270 Y9.817 E44.53243
G1 X118.442 Y9.542 E44.54840
G1 X118.629 Y9.383 E44.56048
G1 X118.925 Y9.249 E44.57648
G1 X119.222 Y9.203 E44.59127
G1 X119.464 Y9.204 E44.60315
G1 X119.718 Y9.244 E44.61584
G1 X120.036 Y9.378 E44.63280
G1 X120.220 Y9.531 E44.64459
G1 X120.359 Y9.723 E44.65623
G1 X120.454 Y10.043 E44.67270
G1 X120.446 Y10.347 E44.68765
G1 X120.334 Y10.654 E44.70373
G1 X120.225 Y10.803 E44.71283
G1 X120.427 Y11.090 E44.73013
G1 X120.494 Y11.271 E44.73964
G1 X120.526 Y11.461 E44.74911
G1 X120.523 Y11.695 E44.76061
G1 X120.472 Y11.952 E44.77354
G1 X120.299 Y12.265 E44.79111
G1 X120.107 Y12.438 E44.80382
G1 X119.876 Y12.558 E44.81664
G1 X119.490 Y12.638 E44.83607
G1 X119.194 Y12.638 E44.85062
G1 X118.921 Y12.595 E44.86424
G1 X118.582 Y12.447 E44.88241
G1 X118.262 Y12.170 E44.90325
G1 X118.262 Y12.579 E44.92340
G1 X116.028 Y12.579 E45.03335
G1 X116.028 Y12.026 E45.06057
G1 X115.850 Y11.984 E45.06960
G1 X115.763 Y12.159 E45.07922
G1 X115.565 Y12.388 E45.09411
G1 X115.428 Y12.489 E45.10250
G1 X115.153 Y12.606 E45.11718
G1 X114.842 Y12.643 E45.13262
G1 X114.665 Y12.633 E45.14135
G1 X114.370 Y12.557 E45.15633
G1 X114.119 Y12.400 E45.17092
G1 X113.914 Y12.164 E45.18628
G1 X113.756 Y12.216 E45.19451
G1 X113.756 Y12.579 E45.21237
G1 X111.487 Y12.579 E45.32401
G1 X111.027 Y12.579 F9000.000
G1 X126.507 Y12.965 F9000.000
G1 X123.407 Y12.965 E45.47657 F600.000
G1 X123.407 Y12.861 E45.48167
G1 X123.122 Y12.982 E45.49688
G1 X122.723 Y13.030 E45.51671
G1 X122.473 Y13.016 E45.52900
G1 X122.085 Y12.915 E45.54876
G1 X121.745 Y12.703 E45.56845
G1 X121.579 Y12.536 E45.58006
G1 X121.444 Y12.353 E45.59124
G1 X121.273 Y12.002 E45.61048
G1 X121.166 Y11.596 E45.63111
G1 X121.118 Y11.157 E45.65286
G1 X121.117 Y10.683 E45.67621
G1 X121.163 Y10.252 E45.69750
G1 X121.212 Y10.022 E45.70909
G1 X121.346 Y9.643 E45.72888
G1 X121.571 Y9.292 E45.74940
G1 X121.898 Y9.017 E45.77042
G1 X122.280 Y8.863 E45.79072
G1 X122.557 Y8.820 E45.80452
G1 X122.931 Y8.822 E45.82292
G1 X123.337 Y8.925 E45.84353
G1 X123.680 Y9.136 E45.86332
G1 X123.818 Y9.276 E45.87301
G1 X123.932 Y9.147 E45.88150
G1 X124.346 Y8.911 E45.90492
G1 X124.816 Y8.817 E45.92851
G1 X125.129 Y8.819 E45.94393
G1 X125.507 Y8.878 E45.96277
G1 X125.771 Y8.994 E45.97693
G1 X126.032 Y9.172 E45.99248
G1 X126.251 Y9.428 E46.00907
G1 X126.393 Y9.730 E46.02552
G1 X126.459 Y10.062 E46.04218
G1 X126.444 Y10.477 E46.06260
G1 X126.302 Y10.877 E46.08348
G1 X126.067 Y11.223 E46.10408
G1 X125.862 Y11.434 E46.11856
G1 X126.507 Y11.434 E46.15031
G1 X126.507 Y12.905 E46.22269
G1 X126.121 Y12.579 F9000.000
G1 X123.793 Y12.579 E46.33729 F600.000
G1 X123.793 Y11.973 E46.36711
G1 X123.434 Y12.388 E46.39411
G1 X123.296 Y12.489 E46.40250
G1 X123.022 Y12.606 E46.41718
G1 X122.710 Y12.643 E46.43262
G1 X122.533 Y12.633 E46.44135
G1 X122.239 Y12.557 E46.45633
G1 X121.987 Y12.400 E46.47092
G1 X121.775 Y12.153 E46.48695
G1 X121.636 Y11.867 E46.50257
G1 X121.546 Y11.526 E46.51995
G1 X121.503 Y11.136 E46.53926
G1 X121.503 Y10.703 E46.56056
G1 X121.545 Y10.313 E46.57987
G1 X121.584 Y10.127 E46.58923
G1 X121.695 Y9.814 E46.60558
G1 X121.864 Y9.549 E46.62102
G1 X122.099 Y9.352 E46.63614
G1 X122.383 Y9.237 E46.65122
G1 X122.586 Y9.206 E46.66130
G1 X122.882 Y9.208 E46.67588
G1 X123.185 Y9.285 E46.69129
G1 X123.438 Y9.440 E46.70590
G1 X123.649 Y9.687 E46.72186
G1 X123.809 Y10.024 E46.74024
