; generated by Slic3r 1.2.9 on 2018-02-19 at 12:07:17

; external perimeters extrusion width = 0.40mm
; perimeters extrusion width = 0.62mm
; infill extrusion width = 0.33mm
; solid infill extrusion width = 0.62mm
; top infill extrusion width = 0.20mm

M106 S256; Turn on fan to 100% power
M104 S140; turn on extruder temperature at S value
M140 S60; turn on bed temperature at S value
G28; home all axes
M84; disable motors
G1 Z15 F15000; have Z move to 20mm at 15000 mm/min
M190 S55; turn on bed temperature at S value and wait
M140 S55; turn on bed temperature at S value (printing temperature)
M109 S200; turn on extruder temperature at S value and wait (printing temperature)
M104 S200; turn on extruder temperature at S value
G1 Z0 F12000; move Z back to home
G21 ; set units to millimeters
G90 ; use absolute coordinates
M82 ; use absolute distances for extrusion
G92 E0
M106 S255
;Layer change
G1 E-6.00000 F1800.00000
G92 E0
G1 Z0.300 F9000.000
G1 X64.074 Y2.260 F9000.000
G1 E6.00000 F1800.00000
G1 X64.466 Y0.950 E6.06727 F600.000
G1 X65.512 Y0.071 E6.13455
G1 X66.460 Y-0.126 E6.18218
G1 X163.460 Y-0.126 E10.95604
G1 X164.770 Y0.266 E11.02332
G1 X165.649 Y1.312 E11.09059 F600.000
G1 X165.846 Y2.260 E11.13822
G1 X165.846 Y65.860 E14.26830
G1 X165.454 Y67.170 E14.33557
G1 X164.408 Y68.049 E14.40285
G1 X163.460 Y68.246 E14.45048
G1 X66.460 Y68.246 E19.22434
G1 X65.150 Y67.854 E19.29162
G1 X64.271 Y66.808 E19.35889
G1 X64.074 Y65.860 E19.40652
G1 X64.074 Y2.320 E22.53365
G1 E16.53365 F1800.00000
G92 E0
G1 X120.584 Y13.878 F9000.000
G1 E6.00000 F1800.00000
G1 X147.025 Y13.878 E7.30128 F600.000
G1 X147.760 Y13.948 E7.33763
G1 X148.315 Y14.090 E7.36581
G1 X148.827 Y14.293 E7.39290
G1 X149.309 Y14.558 E7.42001
G1 X149.755 Y14.882 E7.44711
G1 X150.156 Y15.258 E7.47420
G1 X150.507 Y15.683 E7.50130
G1 X150.802 Y16.148 E7.52840
G1 X151.037 Y16.646 E7.55549
G1 X151.207 Y17.170 E7.58260
G1 X151.310 Y17.711 E7.60970
G1 X151.342 Y18.216 E7.63465
G1 X151.342 Y50.325 E9.21488
G1 X151.272 Y51.060 E9.25122
G1 X151.130 Y51.615 E9.27941
G1 X150.927 Y52.127 E9.30650
G1 X150.662 Y52.609 E9.33360
G1 X150.338 Y53.055 E9.36071
G1 X149.962 Y53.456 E9.38779
G1 X149.537 Y53.807 E9.41489
G1 X149.072 Y54.102 E9.44200
G1 X148.574 Y54.337 E9.46909
G1 X148.050 Y54.507 E9.49620
G1 X147.509 Y54.610 E9.52330
G1 X147.004 Y54.642 E9.54825
G1 X82.895 Y54.642 E12.70336
G1 X82.160 Y54.572 E12.73970
G1 X81.605 Y54.430 E12.76788
G1 X81.093 Y54.227 E12.79498
G1 X80.611 Y53.962 E12.82208
G1 X80.165 Y53.638 E12.84919
G1 X79.764 Y53.261 E12.87627
G1 X79.413 Y52.837 E12.90337
G1 X79.118 Y52.372 E12.93048
G1 X78.883 Y51.874 E12.95757
G1 X78.713 Y51.350 E12.98467
G1 X78.610 Y50.809 E13.01178
G1 X78.578 Y50.303 E13.03673
G1 X78.584 Y17.985 E14.62730
G1 X78.653 Y17.438 E14.65439
G1 X78.790 Y16.905 E14.68150
G1 X78.993 Y16.393 E14.70859
G1 X79.258 Y15.911 E14.73569
G1 X79.582 Y15.465 E14.76280
G1 X79.958 Y15.064 E14.78988
G1 X80.383 Y14.713 E14.81699
G1 X80.848 Y14.418 E14.84409
G1 X81.351 Y14.181 E14.87149
G1 X81.903 Y14.007 E14.89997
G1 X82.410 Y13.910 E14.92537
G1 X82.916 Y13.878 E14.95033
G1 X120.524 Y13.878 E16.80120 F600.000
G1 X120.584 Y14.264 F9000.000
G1 X147.007 Y14.264 E18.10159 F600.000
G1 X147.694 Y14.329 E18.13555
G1 X148.196 Y14.457 E18.16104
G1 X148.662 Y14.642 E18.18575
G1 X149.102 Y14.884 E18.21046
G1 X149.509 Y15.179 E18.23518
G1 X149.874 Y15.523 E18.25988
G1 X150.195 Y15.910 E18.28459
G1 X150.464 Y16.334 E18.30931
G1 X150.677 Y16.788 E18.33401
G1 X150.833 Y17.266 E18.35873
G1 X150.927 Y17.759 E18.38344
G1 X150.956 Y18.229 E18.40660
G1 X150.956 Y50.307 E19.98534
G1 X150.891 Y50.994 E20.01929
G1 X150.763 Y51.496 E20.04479
G1 X150.578 Y51.962 E20.06949
G1 X150.336 Y52.402 E20.09421
G1 X150.041 Y52.809 E20.11892
G1 X149.697 Y53.174 E20.14362
G1 X149.310 Y53.495 E20.16834
G1 X148.886 Y53.764 E20.19305
G1 X148.432 Y53.977 E20.21775
G1 X147.954 Y54.133 E20.24247
G1 X147.461 Y54.227 E20.26719
G1 X146.991 Y54.256 E20.29035
G1 X82.913 Y54.256 E23.44396
G1 X82.226 Y54.191 E23.47792
G1 X81.724 Y54.063 E23.50342
G1 X81.258 Y53.878 E23.52812
G1 X80.818 Y53.636 E23.55284
G1 X80.411 Y53.341 E23.57755
G1 X80.046 Y52.997 E23.60225
G1 X79.725 Y52.610 E23.62696
G1 X79.456 Y52.186 E23.65168
G1 X79.243 Y51.732 E23.67638
G1 X79.087 Y51.254 E23.70110
G1 X78.993 Y50.761 E23.72581
G1 X78.964 Y50.291 E23.74898
G1 X78.970 Y18.009 E25.33776
G1 X79.033 Y17.511 E25.36246
G1 X79.157 Y17.024 E25.38718
G1 X79.342 Y16.558 E25.41189
G1 X79.584 Y16.118 E25.43660
G1 X79.879 Y15.711 E25.46132
G1 X80.223 Y15.346 E25.48602
G1 X80.610 Y15.025 E25.51073
G1 X81.034 Y14.756 E25.53545
G1 X81.492 Y14.541 E25.56037
G1 X81.998 Y14.381 E25.58646
G1 X82.459 Y14.293 E25.60956
G1 X82.929 Y14.264 E25.63273
G1 X120.524 Y14.264 E27.48301 F600.000
G1 X120.584 Y14.649 F9000.000
G1 X146.989 Y14.649 E28.78250 F600.000
G1 X147.627 Y14.710 E28.81407
G1 X148.076 Y14.825 E28.83687
G1 X148.498 Y14.992 E28.85919
G1 X148.895 Y15.210 E28.88152
G1 X149.262 Y15.477 E28.90384
G1 X149.593 Y15.788 E28.92616
G1 X149.882 Y16.137 E28.94848
G1 X150.125 Y16.520 E28.97081
G1 X150.318 Y16.930 E28.99313
G1 X150.458 Y17.362 E29.01545
G1 X150.543 Y17.807 E29.03778
G1 X150.571 Y18.241 E29.05915
G1 X150.571 Y50.289 E30.63640
G1 X150.510 Y50.927 E30.66796
G1 X150.395 Y51.376 E30.69077
G1 X150.228 Y51.798 E30.71309
G1 X150.010 Y52.195 E30.73541
G1 X149.743 Y52.562 E30.75774
G1 X149.432 Y52.893 E30.78006
G1 X149.083 Y53.182 E30.80238
G1 X148.700 Y53.425 E30.82470
G1 X148.290 Y53.618 E30.84702
G1 X147.858 Y53.758 E30.86935
G1 X147.413 Y53.843 E30.89167
G1 X146.979 Y53.871 E30.91305
G1 X82.931 Y53.871 E34.06517
G1 X82.293 Y53.810 E34.09674
G1 X81.844 Y53.695 E34.11955
G1 X81.422 Y53.528 E34.14187
G1 X81.025 Y53.310 E34.16419
G1 X80.658 Y53.043 E34.18652
G1 X80.327 Y52.732 E34.20883
G1 X80.038 Y52.383 E34.23116
G1 X79.795 Y52.000 E34.25348
G1 X79.602 Y51.590 E34.27580
G1 X79.462 Y51.158 E34.29813
G1 X79.377 Y50.713 E34.32045
G1 X79.349 Y50.279 E34.34183
G1 X79.355 Y18.033 E35.92882
G1 X79.412 Y17.583 E35.95113
G1 X79.525 Y17.144 E35.97346
G1 X79.692 Y16.722 E35.99578
G1 X79.910 Y16.325 E36.01811
G1 X80.177 Y15.958 E36.04043
G1 X80.488 Y15.627 E36.06275
G1 X80.837 Y15.338 E36.08507
G1 X81.220 Y15.095 E36.10740
G1 X81.633 Y14.901 E36.12985
G1 X82.092 Y14.756 E36.15355
G1 X82.507 Y14.677 E36.17435
G1 X82.941 Y14.649 E36.19573
G1 X120.524 Y14.649 E38.04541 F600.000
G1 X120.584 Y15.035 F9000.000
G1 X146.971 Y15.035 E39.34401 F600.000
G1 X147.561 Y15.091 E39.37319
G1 X147.957 Y15.192 E39.39330
G1 X148.333 Y15.342 E39.41324
G1 X148.688 Y15.537 E39.43317
G1 X149.016 Y15.775 E39.45311
G1 X149.311 Y16.052 E39.47304
G1 X149.569 Y16.364 E39.49298
G1 X149.786 Y16.706 E39.51291
G1 X149.959 Y17.073 E39.53284
G1 X150.084 Y17.458 E39.55278
G1 X150.160 Y17.856 E39.57272
G1 X150.185 Y18.253 E39.59230
G1 X150.185 Y50.271 E41.16805
G1 X150.129 Y50.861 E41.19724
G1 X150.028 Y51.257 E41.21735
G1 X149.878 Y51.633 E41.23728
G1 X149.683 Y51.988 E41.25722
G1 X149.445 Y52.316 E41.27716
G1 X149.168 Y52.611 E41.29709
G1 X148.856 Y52.869 E41.31702
G1 X148.514 Y53.086 E41.33696
G1 X148.147 Y53.259 E41.35689
G1 X147.762 Y53.384 E41.37683
G1 X147.364 Y53.460 E41.39676
G1 X146.967 Y53.485 E41.41635
G1 X82.949 Y53.485 E44.56698
G1 X82.359 Y53.429 E44.59616
G1 X81.963 Y53.328 E44.61628
G1 X81.587 Y53.178 E44.63621
G1 X81.232 Y52.983 E44.65615
G1 X80.904 Y52.745 E44.67608
G1 X80.609 Y52.468 E44.69601
G1 X80.351 Y52.156 E44.71595
G1 X80.134 Y51.814 E44.73588
G1 X79.961 Y51.447 E44.75582
G1 X79.836 Y51.062 E44.77575
G1 X79.760 Y50.664 E44.79569
G1 X79.735 Y50.267 E44.81527
G1 X79.741 Y18.057 E46.40047
G1 X79.792 Y17.656 E46.42040
G1 X79.892 Y17.263 E46.44034
G1 X80.042 Y16.887 E46.46028
G1 X80.237 Y16.532 E46.48021
G1 X80.475 Y16.204 E46.50015
G1 X80.752 Y15.909 E46.52008
G1 X81.064 Y15.651 E46.54002
G1 X81.406 Y15.434 E46.55995
G1 X81.774 Y15.261 E46.57993
G1 X82.187 Y15.130 E46.60125
G1 X82.556 Y15.060 E46.61974
G1 X82.953 Y15.035 E46.63933
G1 X120.524 Y15.035 E48.48841 F600.000
G1 X120.784 Y14.689 F9000.000
G1 X162.078 Y3.642 F9000.000
G1 X162.078 Y64.478 E51.48248 F600.000
G1 X67.842 Y64.478 E56.12032
G1 X67.842 Y3.642 E59.11438
G1 X162.018 Y3.642 E63.74928
G1 X162.464 Y3.256 F9000.000
G1 X162.464 Y64.864 E66.78129 F600.000
G1 X67.456 Y64.864 E71.45710
G1 X67.456 Y3.256 E74.48912
G1 X162.404 Y3.256 E79.16196
G1 X162.849 Y2.871 F9000.000
G1 X162.849 Y65.249 E82.23194 F600.000
G1 X67.071 Y65.249 E86.94570
G1 X67.071 Y2.871 E90.01567
G1 X162.789 Y2.871 E94.72648
G1 X163.235 Y2.485 F9000.000
G1 X163.235 Y65.635 E97.83441 F600.000
G1 X66.685 Y65.635 E102.58613
G1 X66.685 Y2.485 E105.69406
G1 X163.175 Y2.485 E110.44282
G1 X163.035 Y2.831 F9000.000
G1 X161.794 Y4.129 F9000.000
G1 X161.591 Y3.926 E110.45702 F600.000
G1 X161.044 Y3.926 E110.48396
G1 X161.794 Y4.676 E110.53625
G1 X161.794 Y5.222 E110.56319
G1 X160.498 Y3.926 E110.65359
G1 X159.952 Y3.926 E110.68053
G1 X161.794 Y5.768 E110.80903
G1 X161.794 Y6.315 E110.83597
G1 X159.405 Y3.926 E111.00256
G1 X158.859 Y3.926 E111.02950
G1 X161.794 Y6.861 E111.23419
G1 X161.794 Y7.407 E111.26113
G1 X158.313 Y3.926 E111.50393
G1 X157.766 Y3.926 E111.53087
G1 X161.794 Y7.954 E111.81176
G1 X161.794 Y8.500 E111.83870
G1 X157.220 Y3.926 E112.15769
G1 X156.673 Y3.926 E112.18463
G1 X161.794 Y9.047 E112.54172
G1 X161.794 Y9.593 E112.56866
G1 X156.127 Y3.926 E112.96385
G1 X155.581 Y3.926 E112.99079
G1 X161.794 Y10.139 E113.42408
G1 X161.794 Y10.686 E113.45102
G1 X155.034 Y3.926 E113.92240
G1 X154.488 Y3.926 E113.94934
G1 X161.794 Y11.232 E114.45883
G1 X161.794 Y11.778 E114.48577
G1 X153.942 Y3.926 E115.03335
G1 X153.395 Y3.926 E115.06030
G1 X161.794 Y12.325 E115.64598
G1 X161.794 Y12.871 E115.67292
G1 X152.849 Y3.926 E116.29670
G1 X152.302 Y3.926 E116.32364
G1 X161.794 Y13.418 E116.98553
G1 X161.794 Y13.964 E117.01247
G1 X151.756 Y3.926 E117.71245
G1 X151.210 Y3.926 E117.73939
G1 X161.794 Y14.510 E118.47747
G1 X161.794 Y15.057 E118.50441
G1 X150.663 Y3.926 E119.28059
G1 X150.117 Y3.926 E119.30753
G1 X161.794 Y15.603 E120.12181
G1 X161.794 Y16.149 E120.14875
G1 X149.571 Y3.926 E121.00113
G1 X149.024 Y3.926 E121.02807
G1 X161.794 Y16.696 E121.91855
G1 X161.794 Y17.242 E121.94549
G1 X148.478 Y3.926 E122.87406
G1 X147.931 Y3.926 E122.90100
G1 X161.794 Y17.789 E123.86768
G1 X161.794 Y18.335 E123.89462
G1 X147.385 Y3.926 E124.89939
G1 X146.839 Y3.926 E124.92633
G1 X161.794 Y18.881 E125.96921
G1 X161.794 Y19.428 E125.99615
G1 X146.292 Y3.926 E127.07712
G1 X145.746 Y3.926 E127.10406
G1 X161.794 Y19.974 E128.22314
G1 X161.794 Y20.520 E128.25008
G1 X145.200 Y3.926 E129.40725
G1 X144.653 Y3.926 E129.43419
G1 X161.794 Y21.067 E130.62946
G1 X161.794 Y21.613 E130.65640
G1 X144.107 Y3.926 E131.88977
G1 X143.560 Y3.926 E131.91671
G1 X161.794 Y22.160 E133.18818
G1 X161.794 Y22.706 E133.21512
G1 X143.014 Y3.926 E134.52469
G1 X142.468 Y3.926 E134.55163
G1 X161.794 Y23.252 E135.89929
G1 X161.794 Y23.799 E135.92623
G1 X141.921 Y3.926 E137.31200
G1 X141.375 Y3.926 E137.33894
G1 X161.794 Y24.345 E138.76280
G1 X161.794 Y24.891 E138.78975
G1 X140.829 Y3.926 E140.25171
G1 X140.282 Y3.926 E140.27865
G1 X161.794 Y25.438 E141.77871
G1 X161.794 Y25.984 E141.80565
G1 X139.736 Y3.926 E143.34382
G1 X139.190 Y3.926 E143.37076
G1 X149.612 Y14.349 E144.09756
G1 X148.561 Y13.844 F9000.000
G1 X138.643 Y3.926 E144.78915 F600.000
G1 X138.097 Y3.926 E144.81609
G1 X147.832 Y13.661 E145.49497
G1 X147.229 Y13.604 E145.52485
G1 X137.550 Y3.926 E146.19975
G1 X137.004 Y3.926 E146.22669
G1 X146.673 Y13.594 E146.90090
G1 X146.126 Y13.594 E146.92784
G1 X136.458 Y3.926 E147.60205
G1 X135.911 Y3.926 E147.62899
G1 X145.580 Y13.594 E148.30320
G1 X145.034 Y13.594 E148.33014
G1 X135.365 Y3.926 E149.00435
G1 X134.819 Y3.926 E149.03129
G1 X144.487 Y13.594 E149.70550
G1 X143.941 Y13.594 E149.73244
G1 X134.272 Y3.926 E150.40665
G1 X133.726 Y3.926 E150.43359
G1 X143.394 Y13.594 E151.10780
G1 X142.848 Y13.594 E151.13474
G1 X133.179 Y3.926 E151.80895
G1 X132.633 Y3.926 E151.83589
G1 X142.302 Y13.594 E152.51010
G1 X141.755 Y13.594 E152.53704
G1 X132.087 Y3.926 E153.21125
G1 X131.540 Y3.926 E153.23819
G1 X141.209 Y13.594 E153.91240
G1 X140.663 Y13.594 E153.93934
G1 X130.994 Y3.926 E154.61355
G1 X130.448 Y3.926 E154.64049
G1 X140.116 Y13.594 E155.31470
G1 X139.570 Y13.594 E155.34164
G1 X129.901 Y3.926 E156.01585
G1 X129.355 Y3.926 E156.04279
G1 X139.024 Y13.594 E156.71699
G1 X138.477 Y13.594 E156.74394
G1 X128.808 Y3.926 E157.41814
G1 X128.262 Y3.926 E157.44508
G1 X137.931 Y13.594 E158.11929
G1 X137.384 Y13.594 E158.14623
G1 X127.716 Y3.926 E158.82044
G1 X127.169 Y3.926 E158.84738
G1 X136.838 Y13.594 E159.52159
G1 X136.292 Y13.594 E159.54853
G1 X126.623 Y3.926 E160.22274
G1 X126.077 Y3.926 E160.24968
G1 X135.745 Y13.594 E160.92389
G1 X135.199 Y13.594 E160.95083
G1 X125.530 Y3.926 E161.62504
G1 X124.984 Y3.926 E161.65198
G1 X134.653 Y13.594 E162.32619
G1 X134.106 Y13.594 E162.35313
G1 X124.437 Y3.926 E163.02734
G1 X123.891 Y3.926 E163.05428
G1 X133.560 Y13.594 E163.72849
G1 X133.013 Y13.594 E163.75543
G1 X123.345 Y3.926 E164.42964
G1 X122.798 Y3.926 E164.45658
G1 X132.467 Y13.594 E165.13079
G1 X131.921 Y13.594 E165.15773
G1 X122.252 Y3.926 E165.83194
G1 X121.706 Y3.926 E165.85888
G1 X131.374 Y13.594 E166.53309
G1 X130.828 Y13.594 E166.56003
G1 X121.159 Y3.926 E167.23424
G1 X120.613 Y3.926 E167.26118
G1 X130.282 Y13.594 E167.93539
G1 X129.735 Y13.594 E167.96233
G1 X120.067 Y3.926 E168.63654
G1 X119.520 Y3.926 E168.66348
G1 X129.189 Y13.594 E169.33769
G1 X128.642 Y13.594 E169.36463
G1 X118.974 Y3.926 E170.03884
G1 X118.427 Y3.926 E170.06578
G1 X128.096 Y13.594 E170.73999
G1 X127.550 Y13.594 E170.76693
G1 X117.881 Y3.926 E171.44114
G1 X117.335 Y3.926 E171.46808
G1 X127.003 Y13.594 E172.14229
G1 X126.457 Y13.594 E172.16923
G1 X116.788 Y3.926 E172.84344
G1 X116.242 Y3.926 E172.87038
G1 X125.911 Y13.594 E173.54459
G1 X125.364 Y13.594 E173.57153
G1 X115.696 Y3.926 E174.24574
G1 X115.149 Y3.926 E174.27268
G1 X124.818 Y13.594 E174.94688
G1 X124.271 Y13.594 E174.97382
G1 X114.603 Y3.926 E175.64803
G1 X114.056 Y3.926 E175.67497
G1 X123.725 Y13.594 E176.34918
G1 X123.179 Y13.594 E176.37612
G1 X113.510 Y3.926 E177.05033
G1 X112.964 Y3.926 E177.07727
G1 X122.632 Y13.594 E177.75148
G1 X122.086 Y13.594 E177.77842
G1 X112.417 Y3.926 E178.45263
G1 X111.871 Y3.926 E178.47957
G1 X121.540 Y13.594 E179.15378
G1 X120.993 Y13.594 E179.18072
G1 X111.325 Y3.926 E179.85493
G1 X110.778 Y3.926 E179.88187
G1 X120.447 Y13.594 E180.55608
G1 X119.901 Y13.594 E180.58302
G1 X110.232 Y3.926 E181.25723
G1 X109.685 Y3.926 E181.28417
G1 X119.354 Y13.594 E181.95838
G1 X118.808 Y13.594 E181.98532
G1 X109.139 Y3.926 E182.65953
G1 X108.593 Y3.926 E182.68647
G1 X118.261 Y13.594 E183.36068
G1 X117.715 Y13.594 E183.38762
G1 X108.046 Y3.926 E184.06183
G1 X107.500 Y3.926 E184.08877
G1 X117.169 Y13.594 E184.76298
G1 X116.622 Y13.594 E184.78992
G1 X106.954 Y3.926 E185.46413
G1 X106.407 Y3.926 E185.49107
G1 X116.076 Y13.594 E186.16528
G1 X115.530 Y13.594 E186.19222
G1 X105.861 Y3.926 E186.86643
G1 X105.314 Y3.926 E186.89337
G1 X114.983 Y13.594 E187.56758
G1 X114.437 Y13.594 E187.59452
G1 X104.768 Y3.926 E188.26873
G1 X104.222 Y3.926 E188.29567
G1 X113.890 Y13.594 E188.96988
G1 X113.344 Y13.594 E188.99682
G1 X103.675 Y3.926 E189.67103
G1 X103.129 Y3.926 E189.69797
G1 X112.798 Y13.594 E190.37218
G1 X112.251 Y13.594 E190.39912
G1 X102.583 Y3.926 E191.07333
G1 X102.036 Y3.926 E191.10027
G1 X111.705 Y13.594 E191.77448
G1 X111.159 Y13.594 E191.80142
G1 X101.490 Y3.926 E192.47563
G1 X100.944 Y3.926 E192.50257
G1 X110.612 Y13.594 E193.17678
G1 X110.066 Y13.594 E193.20372
G1 X100.397 Y3.926 E193.87792
G1 X99.851 Y3.926 E193.90486
G1 X109.519 Y13.594 E194.57907
G1 X108.973 Y13.594 E194.60601
G1 X99.304 Y3.926 E195.28022
G1 X98.758 Y3.926 E195.30716
G1 X108.427 Y13.594 E195.98137
G1 X107.880 Y13.594 E196.00831
G1 X98.212 Y3.926 E196.68252
G1 X97.665 Y3.926 E196.70946
G1 X107.334 Y13.594 E197.38367
G1 X106.788 Y13.594 E197.41061
G1 X97.119 Y3.926 E198.08482
G1 X96.573 Y3.926 E198.11176
G1 X106.241 Y13.594 E198.78597
G1 X105.695 Y13.594 E198.81291
