; generated by Slic3r 1.2.9 on 2018-02-11 at 20:16:34

; external perimeters extrusion width = 0.40mm
; perimeters extrusion width = 0.62mm
; infill extrusion width = 0.33mm
; solid infill extrusion width = 0.62mm
; top infill extrusion width = 0.20mm

M106 S256; Turn on fan to 100% power
M104 S140; turn on extruder temperature at S value
M140 S60; turn on bed temperature at S value
G28; home all axes
M84; disable motors
G1 Z15 F15000; have Z move to 20mm at 15000 mm/min
M190 S55; turn on bed temperature at S value and wait
M140 S55; turn on bed temperature at S value (printing temperature)
M109 S200; turn on extruder temperature at S value and wait (printing temperature)
M104 S200; turn on extruder temperature at S value
G1 Z0 F12000; move Z back to home
G21 ; set units to millimeters
G90 ; use absolute coordinates
M82 ; use absolute distances for extrusion
G92 E0
M106 S255
;Layer change
G1 E-6.00000 F1800.00000
G92 E0
G1 Z0.300 F9000.000
G1 X72.149 Y16.376 F9000.000
G1 E6.00000 F1800.00000
G1 X72.224 Y16.086 E6.01477 F600.000
G1 X72.412 Y15.568 E6.04186
G1 X72.519 Y15.340 E6.05424
G1 X72.798 Y14.866 E6.08132
G1 X72.977 Y14.620 E6.09632
G1 X73.339 Y14.212 E6.12317
G1 X73.752 Y13.850 E6.15019
G1 X74.074 Y13.621 E6.16961
G1 X90.893 Y2.874 E7.15192
G1 X91.155 Y2.730 E7.16666
G1 X91.724 Y2.463 E7.19756
G1 X92.002 Y2.352 E7.21231
G1 X92.599 Y2.158 E7.24322
G1 X92.889 Y2.084 E7.25795
G1 X93.506 Y1.966 E7.28885
G1 X93.804 Y1.928 E7.30361
G1 X94.580 Y1.884 E7.34188
G1 X155.730 Y1.889 E10.35137
G1 X156.356 Y1.928 E10.38227 F600.000
G1 X156.654 Y1.966 E10.39703
G1 X157.271 Y2.084 E10.42793
G1 X157.561 Y2.158 E10.44267
G1 X158.158 Y2.352 E10.47357
G1 X158.436 Y2.463 E10.48832
G1 X159.005 Y2.730 E10.51922
G1 X159.267 Y2.874 E10.53396
G1 X176.191 Y13.692 E11.52248
G1 X176.621 Y14.025 E11.54922
G1 X176.838 Y14.229 E11.56393
G1 X177.200 Y14.641 E11.59090
G1 X177.348 Y14.845 E11.60332
G1 X177.509 Y15.099 E11.61811
G1 X177.757 Y15.589 E11.64515
G1 X177.943 Y16.108 E11.67228
G1 X178.061 Y16.646 E11.69938
G1 X178.116 Y17.320 E11.73266
G1 X178.116 Y81.220 E14.87750
G1 X178.095 Y81.621 E14.89725
G1 X178.058 Y81.917 E14.91195
G1 X177.936 Y82.455 E14.93908
G1 X177.748 Y82.972 E14.96617
G1 X177.497 Y83.462 E14.99325
G1 X177.186 Y83.916 E15.02035
G1 X176.821 Y84.328 E15.04745
G1 X176.408 Y84.690 E15.07448
G1 X175.951 Y84.999 E15.10162
G1 X175.459 Y85.248 E15.12875
G1 X174.942 Y85.433 E15.15578
G1 X126.837 Y96.043 E17.58017
G1 X126.154 Y96.174 E17.61442
G1 X125.856 Y96.212 E17.62916
G1 X125.230 Y96.251 E17.66006
G1 X124.930 Y96.251 E17.67479
G1 X124.303 Y96.211 E17.70573
G1 X124.006 Y96.174 E17.72045
G1 X123.323 Y96.043 E17.75468
G1 X75.419 Y85.487 E20.16884
G1 X74.956 Y85.348 E20.19263
G1 X74.678 Y85.238 E20.20736
G1 X74.449 Y85.130 E20.21981
G1 X73.975 Y84.852 E20.24687
G1 X73.544 Y84.519 E20.27364
G1 X73.322 Y84.311 E20.28861
G1 X73.150 Y84.128 E20.30102
G1 X72.812 Y83.695 E20.32804
G1 X72.530 Y83.221 E20.35519
G1 X72.402 Y82.949 E20.36997
G1 X72.217 Y82.432 E20.39698
G1 X72.099 Y81.894 E20.42410
G1 X72.044 Y81.220 E20.45738
G1 X72.044 Y17.320 E23.60222
G1 X72.065 Y16.919 E23.62197
G1 X72.138 Y16.435 E23.64607
G1 E17.64607 F1800.00000
G92 E0
G1 X125.801 Y86.063 F9000.000
G1 E6.00000 F1800.00000
G1 X126.147 Y86.175 E6.01791 F600.000
G1 X126.476 Y86.330 E6.03583
G1 X126.784 Y86.525 E6.05375
G1 X127.064 Y86.757 E6.07165
G1 X127.313 Y87.023 E6.08956
G1 X127.523 Y87.312 E6.10716
G1 X127.702 Y87.635 E6.12533
G1 X127.836 Y87.974 E6.14330
G1 X127.927 Y88.327 E6.16121
G1 X127.972 Y88.688 E6.17913
G1 X127.972 Y89.052 E6.19704
G1 X127.927 Y89.413 E6.21495
G1 X127.836 Y89.766 E6.23286
G1 X127.702 Y90.104 E6.25077
G1 X127.527 Y90.423 E6.26869
G1 X127.313 Y90.717 E6.28660
G1 X127.064 Y90.983 E6.30451
G1 X126.784 Y91.215 E6.32242
G1 X126.476 Y91.410 E6.34033
G1 X126.147 Y91.565 E6.35825
G1 X125.801 Y91.677 E6.37617
G1 X125.442 Y91.746 E6.39414
G1 X125.074 Y91.768 E6.41230
G1 X124.717 Y91.745 E6.42990
G1 X124.359 Y91.677 E6.44780
G1 X124.013 Y91.565 E6.46572
G1 X123.682 Y91.409 E6.48370
G1 X123.371 Y91.211 E6.50187
G1 X123.096 Y90.983 E6.51946
G1 X122.847 Y90.717 E6.53736
G1 X122.633 Y90.423 E6.55528
G1 X122.458 Y90.104 E6.57319
G1 X122.324 Y89.766 E6.59111
G1 X122.233 Y89.413 E6.60902
G1 X122.188 Y89.052 E6.62693
G1 X122.188 Y88.688 E6.64484
G1 X122.233 Y88.327 E6.66275
G1 X122.324 Y87.974 E6.68066
G1 X122.458 Y87.636 E6.69858
G1 X122.633 Y87.317 E6.71649
G1 X122.847 Y87.023 E6.73441
G1 X123.096 Y86.757 E6.75232
G1 X123.376 Y86.525 E6.77022
G1 X123.684 Y86.330 E6.78814
G1 X124.013 Y86.175 E6.80606
G1 X124.361 Y86.062 E6.82403
G1 X124.723 Y85.994 E6.84219
G1 X125.080 Y85.972 E6.85979 F600.000
G1 X125.443 Y85.995 E6.87770
G1 X125.742 Y86.052 E6.89265
G1 X125.705 Y86.437 F9000.000
G1 X126.005 Y86.535 E6.90818 F600.000
G1 X126.290 Y86.669 E6.92371
G1 X126.556 Y86.838 E6.93923
G1 X126.799 Y87.039 E6.95476
G1 X127.015 Y87.269 E6.97028
G1 X127.197 Y87.519 E6.98551
G1 X127.352 Y87.800 E7.00129
G1 X127.469 Y88.094 E7.01685
G1 X127.547 Y88.399 E7.03237
G1 X127.587 Y88.712 E7.04790
G1 X127.587 Y89.028 E7.06342
G1 X127.547 Y89.341 E7.07895
G1 X127.469 Y89.646 E7.09447
G1 X127.353 Y89.939 E7.10999
G1 X127.201 Y90.216 E7.12552
G1 X127.015 Y90.471 E7.14105
G1 X126.799 Y90.701 E7.15657
G1 X126.556 Y90.902 E7.17209
G1 X126.290 Y91.071 E7.18761
G1 X126.005 Y91.205 E7.20314
G1 X125.705 Y91.303 E7.21867
G1 X125.394 Y91.362 E7.23423
G1 X125.074 Y91.381 E7.25000
G1 X124.765 Y91.362 E7.26524
G1 X124.455 Y91.303 E7.28076
G1 X124.155 Y91.205 E7.29628
G1 X123.869 Y91.071 E7.31185
G1 X123.599 Y90.898 E7.32763
G1 X123.361 Y90.701 E7.34286
G1 X123.145 Y90.471 E7.35838
G1 X122.959 Y90.216 E7.37390
G1 X122.807 Y89.939 E7.38943
G1 X122.691 Y89.646 E7.40496
G1 X122.613 Y89.341 E7.42048
G1 X122.573 Y89.028 E7.43600
G1 X122.573 Y88.712 E7.45153
G1 X122.613 Y88.399 E7.46705
G1 X122.691 Y88.094 E7.48257
G1 X122.807 Y87.801 E7.49810
G1 X122.959 Y87.524 E7.51363
G1 X123.145 Y87.269 E7.52915
G1 X123.361 Y87.039 E7.54467
G1 X123.604 Y86.838 E7.56019
G1 X123.870 Y86.669 E7.57572
G1 X124.155 Y86.535 E7.59125
G1 X124.456 Y86.437 E7.60681
G1 X124.771 Y86.378 E7.62258
G1 X125.080 Y86.358 E7.63781 F600.000
G1 X125.395 Y86.378 E7.65334
G1 X125.646 Y86.426 E7.66591
G1 X125.609 Y86.811 F9000.000
G1 X125.862 Y86.894 E7.67904 F600.000
G1 X126.104 Y87.007 E7.69218
G1 X126.329 Y87.151 E7.70532
G1 X126.535 Y87.321 E7.71845
G1 X126.718 Y87.515 E7.73159
G1 X126.871 Y87.727 E7.74446
G1 X127.003 Y87.965 E7.75785
G1 X127.101 Y88.213 E7.77100
G1 X127.168 Y88.472 E7.78413
G1 X127.201 Y88.737 E7.79727
G1 X127.201 Y89.003 E7.81041
G1 X127.168 Y89.268 E7.82354
G1 X127.101 Y89.527 E7.83668
G1 X127.003 Y89.775 E7.84981
G1 X126.875 Y90.009 E7.86295
G1 X126.718 Y90.225 E7.87609
G1 X126.535 Y90.419 E7.88922
G1 X126.329 Y90.589 E7.90236
G1 X126.104 Y90.733 E7.91549
G1 X125.862 Y90.846 E7.92863
G1 X125.609 Y90.929 E7.94177
G1 X125.346 Y90.979 E7.95492
G1 X125.075 Y90.995 E7.96830
G1 X124.814 Y90.979 E7.98118
G1 X124.551 Y90.929 E7.99431
G1 X124.298 Y90.846 E8.00745
G1 X124.056 Y90.732 E8.02060
G1 X123.827 Y90.586 E8.03399
G1 X123.625 Y90.419 E8.04686
G1 X123.442 Y90.225 E8.05999
G1 X123.285 Y90.009 E8.07312
G1 X123.157 Y89.775 E8.08626
G1 X123.059 Y89.527 E8.09940
G1 X122.992 Y89.268 E8.11254
G1 X122.959 Y89.003 E8.12567
G1 X122.959 Y88.737 E8.13881
G1 X122.992 Y88.472 E8.15194
G1 X123.059 Y88.213 E8.16508
G1 X123.157 Y87.965 E8.17822
G1 X123.285 Y87.731 E8.19135
G1 X123.442 Y87.515 E8.20449
G1 X123.625 Y87.321 E8.21762
G1 X123.831 Y87.151 E8.23076
G1 X124.056 Y87.007 E8.24390
G1 X124.298 Y86.894 E8.25704
G1 X124.552 Y86.811 E8.27019
G1 X124.819 Y86.761 E8.28357
G1 X125.080 Y86.745 E8.29644 F600.000
G1 X125.346 Y86.761 E8.30958
G1 X125.550 Y86.800 E8.31976
G1 X125.799 Y86.625 F9000.000
G1 X125.609 Y76.266 F9000.000
G1 X93.549 Y76.266 E9.89759 F600.000
G1 X93.204 Y76.245 E9.91457
G1 X92.834 Y76.174 E9.93310
G1 X92.476 Y76.058 E9.95164
G1 X92.136 Y75.897 E9.97017
G1 X91.818 Y75.696 E9.98870
G1 X91.527 Y75.455 E10.00723
G1 X91.270 Y75.181 E10.02575
G1 X91.049 Y74.877 E10.04427
G1 X90.867 Y74.546 E10.06282
G1 X90.729 Y74.196 E10.08135
G1 X90.631 Y73.817 E10.10065
G1 X90.584 Y73.317 E10.12535
G1 X90.584 Y35.239 E11.99938
G1 X90.605 Y34.894 E12.01636
G1 X90.677 Y34.520 E12.03509
G1 X90.793 Y34.166 E12.05347
G1 X90.953 Y33.826 E12.07196
G1 X91.154 Y33.508 E12.09049
G1 X91.395 Y33.218 E12.10902
G1 X91.669 Y32.960 E12.12754
G1 X91.973 Y32.739 E12.14606
G1 X92.304 Y32.557 E12.16461
G1 X92.654 Y32.419 E12.18314
G1 X93.033 Y32.321 E12.20244
G1 X93.533 Y32.274 E12.22714
G1 X156.611 Y32.274 E15.33154 F600.000
G1 X156.964 Y32.296 E15.34893
G1 X157.370 Y32.380 E15.36932
G1 X157.684 Y32.482 E15.38558
G1 X158.024 Y32.643 E15.40411
G1 X158.342 Y32.844 E15.42264
G1 X158.632 Y33.084 E15.44117
G1 X158.890 Y33.359 E15.45969
G1 X159.111 Y33.663 E15.47821
G1 X159.293 Y33.994 E15.49677
G1 X159.431 Y34.344 E15.51529
G1 X159.529 Y34.723 E15.53459
G1 X159.576 Y35.223 E15.55929
G1 X159.576 Y73.301 E17.43332
G1 X159.555 Y73.646 E17.45030
G1 X159.484 Y74.016 E17.46883
G1 X159.368 Y74.374 E17.48736
G1 X159.207 Y74.714 E17.50590
G1 X159.006 Y75.032 E17.52443
G1 X158.765 Y75.322 E17.54296
G1 X158.491 Y75.580 E17.56148
G1 X158.187 Y75.801 E17.58000
G1 X157.856 Y75.983 E17.59855
G1 X157.506 Y76.121 E17.61708
G1 X157.127 Y76.219 E17.63638
G1 X156.627 Y76.266 E17.66108
G1 X125.669 Y76.266 E19.18470
G1 X125.609 Y75.881 F9000.000
G1 X93.561 Y75.881 E20.76193 F600.000
G1 X93.253 Y75.861 E20.77713
G1 X92.930 Y75.800 E20.79327
G1 X92.619 Y75.698 E20.80941
G1 X92.322 Y75.559 E20.82556
G1 X92.045 Y75.383 E20.84170
G1 X91.792 Y75.174 E20.85784
G1 X91.568 Y74.935 E20.87398
G1 X91.375 Y74.670 E20.89012
G1 X91.217 Y74.382 E20.90627
G1 X91.096 Y74.077 E20.92241
G1 X91.012 Y73.750 E20.93902
G1 X90.969 Y73.299 E20.96134
G1 X90.969 Y35.251 E22.83387
G1 X90.989 Y34.943 E22.84906
G1 X91.051 Y34.617 E22.86539
G1 X91.152 Y34.308 E22.88137
G1 X91.291 Y34.012 E22.89749
G1 X91.467 Y33.735 E22.91364
G1 X91.676 Y33.482 E22.92978
G1 X91.915 Y33.258 E22.94592
G1 X92.180 Y33.065 E22.96205
G1 X92.468 Y32.907 E22.97821
G1 X92.773 Y32.786 E22.99435
G1 X93.100 Y32.702 E23.01096
G1 X93.551 Y32.659 E23.03327
G1 X156.599 Y32.659 E26.13618 F600.000
G1 X156.912 Y32.679 E26.15163
G1 X157.271 Y32.753 E26.16963
G1 X157.541 Y32.842 E26.18365
G1 X157.838 Y32.981 E26.19980
G1 X158.115 Y33.157 E26.21594
G1 X158.368 Y33.366 E26.23208
G1 X158.592 Y33.605 E26.24822
G1 X158.785 Y33.870 E26.26436
G1 X158.943 Y34.158 E26.28051
G1 X159.064 Y34.463 E26.29665
G1 X159.148 Y34.790 E26.31326
G1 X159.191 Y35.241 E26.33558
G1 X159.191 Y73.289 E28.20811
G1 X159.171 Y73.597 E28.22330
G1 X159.110 Y73.919 E28.23944
G1 X159.008 Y74.231 E28.25559
G1 X158.869 Y74.528 E28.27173
G1 X158.693 Y74.805 E28.28788
G1 X158.484 Y75.058 E28.30402
G1 X158.245 Y75.282 E28.32015
G1 X157.980 Y75.475 E28.33629
G1 X157.692 Y75.633 E28.35245
G1 X157.387 Y75.754 E28.36859
G1 X157.060 Y75.838 E28.38520
G1 X156.609 Y75.881 E28.40751
G1 X125.669 Y75.881 E29.93024
G1 X125.609 Y75.495 F9000.000
G1 X93.573 Y75.495 E31.50687 F600.000
G1 X93.301 Y75.478 E31.52028
G1 X93.027 Y75.426 E31.53403
G1 X92.761 Y75.339 E31.54779
G1 X92.508 Y75.220 E31.56154
G1 X92.272 Y75.070 E31.57530
G1 X92.057 Y74.892 E31.58905
G1 X91.865 Y74.689 E31.60280
G1 X91.701 Y74.463 E31.61656
G1 X91.566 Y74.218 E31.63031
G1 X91.463 Y73.958 E31.64407
G1 X91.393 Y73.684 E31.65799
G1 X91.355 Y73.281 E31.67792
G1 X91.355 Y35.263 E33.54896
G1 X91.372 Y34.991 E33.56237
G1 X91.425 Y34.713 E33.57629
G1 X91.511 Y34.451 E33.58988
G1 X91.630 Y34.198 E33.60363
G1 X91.780 Y33.962 E33.61739
G1 X91.958 Y33.747 E33.63114
G1 X92.161 Y33.555 E33.64489
G1 X92.387 Y33.391 E33.65864
G1 X92.632 Y33.256 E33.67240
G1 X92.892 Y33.153 E33.68616
G1 X93.166 Y33.083 E33.70008
G1 X93.569 Y33.045 E33.72001
G1 X156.587 Y33.045 E36.82142 F600.000
G1 X156.861 Y33.062 E36.83492
G1 X157.171 Y33.127 E36.85054
G1 X157.399 Y33.201 E36.86232
G1 X157.652 Y33.320 E36.87608
G1 X157.888 Y33.470 E36.88984
G1 X158.103 Y33.648 E36.90359
G1 X158.295 Y33.851 E36.91734
G1 X158.459 Y34.077 E36.93109
G1 X158.594 Y34.322 E36.94485
G1 X158.697 Y34.582 E36.95861
G1 X158.767 Y34.856 E36.97253
G1 X158.805 Y35.259 E36.99246
G1 X158.805 Y73.277 E38.86350
G1 X158.788 Y73.549 E38.87691
G1 X158.736 Y73.823 E38.89066
G1 X158.649 Y74.089 E38.90441
G1 X158.530 Y74.342 E38.91817
G1 X158.380 Y74.578 E38.93192
G1 X158.202 Y74.793 E38.94568
G1 X157.999 Y74.985 E38.95943
G1 X157.773 Y75.149 E38.97318
G1 X157.528 Y75.284 E38.98694
G1 X157.268 Y75.387 E39.00070
G1 X156.994 Y75.457 E39.01462
G1 X156.591 Y75.495 E39.03454
G1 X125.669 Y75.495 E40.55637
G1 X125.409 Y75.841 F9000.000
G1 E34.55637 F1800.00000
G92 E0
G1 X95.867 Y11.861 F9000.000
G1 E6.00000 F1800.00000
G1 X95.641 Y11.967 E6.01232 F600.000
G1 X95.301 Y12.077 E6.02991
G1 X94.942 Y12.146 E6.04789
G1 X94.574 Y12.168 E6.06605
G1 X94.217 Y12.145 E6.08364
G1 X93.859 Y12.077 E6.10155
G1 X93.513 Y11.965 E6.11946
G1 X93.184 Y11.810 E6.13738
G1 X92.876 Y11.615 E6.15530
G1 X92.596 Y11.383 E6.17320
G1 X92.347 Y11.117 E6.19111
G1 X92.133 Y10.823 E6.20903
G1 X91.958 Y10.504 E6.22694
G1 X91.824 Y10.165 E6.24487
G1 X91.733 Y9.813 E6.26276
G1 X91.687 Y9.452 E6.28067
G1 X91.687 Y9.088 E6.29860
G1 X91.733 Y8.727 E6.31651
G1 X91.824 Y8.375 E6.33441
G1 X91.958 Y8.036 E6.35233
G1 X92.133 Y7.717 E6.37024
G1 X92.347 Y7.423 E6.38816
G1 X92.596 Y7.157 E6.40607
G1 X92.876 Y6.925 E6.42397
G1 X93.184 Y6.730 E6.44189
G1 X93.513 Y6.575 E6.45981
G1 X93.861 Y6.462 E6.47778
G1 X94.223 Y6.394 E6.49594
G1 X94.580 Y6.372 E6.51354 F600.000
G1 X94.943 Y6.395 E6.53145
G1 X95.301 Y6.463 E6.54936
G1 X95.648 Y6.576 E6.56733
G1 X95.982 Y6.734 E6.58550
G1 X96.284 Y6.925 E6.60310
G1 X96.564 Y7.157 E6.62101
G1 X96.813 Y7.423 E6.63892
G1 X97.027 Y7.717 E6.65683
G1 X97.202 Y8.036 E6.67475
G1 X97.336 Y8.375 E6.69267
G1 X97.427 Y8.727 E6.71056
G1 X97.473 Y9.088 E6.72847
G1 X97.473 Y9.452 E6.74640
G1 X97.427 Y9.813 E6.76431
G1 X97.336 Y10.165 E6.78221
G1 X97.202 Y10.504 E6.80013
G1 X97.027 Y10.823 E6.81805
G1 X96.813 Y11.117 E6.83596
G1 X96.564 Y11.383 E6.85387
G1 X96.284 Y11.615 E6.87177
G1 X95.922 Y11.835 E6.89263
G1 X95.704 Y11.511 F9000.000
G1 X95.499 Y11.607 E6.90378 F600.000
G1 X95.205 Y11.703 E6.91901
G1 X94.894 Y11.762 E6.93458
G1 X94.574 Y11.781 E6.95035
G1 X94.265 Y11.762 E6.96558
G1 X93.955 Y11.703 E6.98110
G1 X93.655 Y11.605 E6.99663
G1 X93.370 Y11.471 E7.01215
G1 X93.104 Y11.302 E7.02768
G1 X92.861 Y11.101 E7.04320
G1 X92.645 Y10.871 E7.05872
G1 X92.459 Y10.616 E7.07425
G1 X92.307 Y10.340 E7.08977
G1 X92.191 Y10.046 E7.10531
G1 X92.113 Y9.741 E7.12082
G1 X92.073 Y9.428 E7.13634
G1 X92.073 Y9.112 E7.15188
G1 X92.113 Y8.799 E7.16740
G1 X92.191 Y8.494 E7.18291
G1 X92.307 Y8.200 E7.19844
G1 X92.459 Y7.924 E7.21397
G1 X92.645 Y7.669 E7.22950
G1 X92.861 Y7.439 E7.24502
G1 X93.104 Y7.238 E7.26054
G1 X93.370 Y7.069 E7.27607
G1 X93.655 Y6.935 E7.29159
G1 X93.956 Y6.837 E7.30716
G1 X94.271 Y6.778 E7.32293
G1 X94.580 Y6.758 E7.33816 F600.000
G1 X94.895 Y6.778 E7.35368
G1 X95.205 Y6.837 E7.36921
G1 X95.505 Y6.935 E7.38477
G1 X95.795 Y7.072 E7.40055
G1 X96.056 Y7.238 E7.41579
G1 X96.299 Y7.439 E7.43130
G1 X96.515 Y7.669 E7.44683
G1 X96.701 Y7.924 E7.46235
G1 X96.853 Y8.200 E7.47788
G1 X96.969 Y8.494 E7.49341
G1 X97.047 Y8.799 E7.50892
G1 X97.087 Y9.112 E7.52444
G1 X97.087 Y9.428 E7.53998
G1 X97.047 Y9.741 E7.55550
G1 X96.969 Y10.046 E7.57102
G1 X96.853 Y10.339 E7.58655
G1 X96.701 Y10.616 E7.60208
G1 X96.515 Y10.871 E7.61760
G1 X96.299 Y11.101 E7.63312
G1 X96.056 Y11.302 E7.64864
G1 X95.759 Y11.486 E7.66587
G1 X95.541 Y11.162 F9000.000
G1 X95.357 Y11.248 E7.67585 F600.000
G1 X95.109 Y11.329 E7.68872
G1 X94.846 Y11.379 E7.70187
G1 X94.575 Y11.395 E7.71525
G1 X94.314 Y11.379 E7.72812
G1 X94.051 Y11.329 E7.74126
G1 X93.798 Y11.246 E7.75439
G1 X93.556 Y11.133 E7.76753
G1 X93.331 Y10.989 E7.78067
G1 X93.125 Y10.819 E7.79380
G1 X92.942 Y10.625 E7.80694
G1 X92.785 Y10.409 E7.82008
G1 X92.657 Y10.175 E7.83321
G1 X92.559 Y9.927 E7.84635
G1 X92.492 Y9.668 E7.85949
G1 X92.459 Y9.404 E7.87262
G1 X92.459 Y9.136 E7.88576
