; generated by Slic3r 1.2.9 on 2017-04-27 at 11:31:29

; external perimeters extrusion width = 0.40mm
; perimeters extrusion width = 0.56mm
; infill extrusion width = 0.38mm
; solid infill extrusion width = 0.56mm
; top infill extrusion width = 0.22mm

M106 S256; Turn on fan to 100% power
M104 S140; turn on extruder temperature at S value
M140 S60; turn on bed temperature at S value
G28; home all axes
M84; disable motors
G1 Z15 F15000; have Z move to 20mm at 15000 mm/min
M190 S55; turn on bed temperature at S value and wait
M140 S55; turn on bed temperature at S value (printing temperature)
M109 S200; turn on extruder temperature at S value and wait (printing temperature)
M104 S200; turn on extruder temperature at S value
G1 Z0 F12000; move Z back to home
G21 ; set units to millimeters
G90 ; use absolute coordinates
M82 ; use absolute distances for extrusion
G92 E0
M106 S255
;Layer change
G1 E-6.00000 F1800.00000
G92 E0
G1 Z0.300 F9000.000
G1 X21.727 Y50.908 F9000.000
G1 E6.00000 F1800.00000
G1 X35.432 Y45.058 E6.71671 F600.000
G1 X36.369 Y44.867 E6.76268
G1 X174.969 Y44.867 E13.42887
G1 X176.278 Y45.258 E13.49462
G1 X177.158 Y46.305 E13.56036 F600.000
G1 X177.352 Y47.346 E13.61131
G1 X177.089 Y54.054 E13.93419
G1 X176.285 Y60.907 E14.26606
G1 X176.236 Y61.184 E14.27958
G1 X173.104 Y74.229 E14.92482
G1 X173.022 Y74.498 E14.93833
G1 X170.699 Y80.796 E15.26121
G1 X167.817 Y87.065 E15.59308
G1 X167.684 Y87.313 E15.60659
G1 X160.675 Y98.752 E16.25184
G1 X160.514 Y98.982 E16.26535
G1 X156.358 Y104.254 E16.58823
G1 X151.680 Y109.326 E16.92011
G1 X151.477 Y109.521 E16.93361
G1 X141.276 Y118.233 E17.57886
G1 X141.052 Y118.403 E17.59237
G1 X135.310 Y122.230 E17.92425
G1 X129.453 Y125.511 E18.24713
G1 X129.201 Y125.633 E18.26064
G1 X116.806 Y130.767 E18.90589
G1 X116.541 Y130.859 E18.91940
G1 X110.080 Y132.681 E19.24227
G1 X103.313 Y134.035 E19.57415
G1 X103.035 Y134.073 E19.58765
G1 X89.661 Y135.126 E20.23291
G1 X89.380 Y135.131 E20.24642
G1 X82.672 Y134.868 E20.56929
G1 X75.819 Y134.064 E20.90117
G1 X75.542 Y134.015 E20.91468
G1 X62.497 Y130.883 E21.55993
G1 X62.229 Y130.801 E21.57344
G1 X55.930 Y128.478 E21.89631
G1 X49.661 Y125.596 E22.22819
G1 X49.413 Y125.463 E22.24170
G1 X37.975 Y118.453 E22.88695
G1 X37.744 Y118.293 E22.90046
G1 X32.472 Y114.137 E23.22333
G1 X27.400 Y109.458 E23.55521
G1 X27.206 Y109.256 E23.56872
G1 X18.493 Y99.055 E24.21397
G1 X18.323 Y98.831 E24.22748
G1 X14.594 Y93.249 E24.55035
G1 X11.216 Y87.232 E24.88223
G1 X11.093 Y86.979 E24.89574
G1 X5.959 Y74.585 E25.54099
G1 X5.867 Y74.319 E25.55450
G1 X4.045 Y67.858 E25.87737
G1 X2.692 Y61.092 E26.20925
G1 X2.820 Y59.731 E26.27499
G1 X4.095 Y58.433 E26.36252
G1 X21.672 Y50.931 E27.28167
G1 E21.28167 F1800.00000
G92 E0
G1 X46.706 Y77.093 F9000.000
G1 E6.00000 F1800.00000
G1 X20.559 Y96.090 E7.55445 F600.000
G1 X17.427 Y91.403 E7.82561
G1 X14.673 Y86.484 E8.09676
G1 X43.520 Y71.785 E9.65396
G1 X42.325 Y69.439 E9.78059
G1 X41.025 Y66.435 E9.93804
G1 X39.578 Y62.417 E10.14343
G1 X8.841 Y72.404 E11.69787
G1 X7.310 Y66.978 E11.96903
G1 X6.211 Y61.449 E12.24018
G1 X38.188 Y56.384 E13.79737
G1 X37.776 Y53.783 E13.92401
G1 X37.632 Y52.256 E13.99779
G1 X37.369 Y52.256 E14.01043
G1 X37.366 Y48.249 E14.20318
G1 X50.408 Y48.249 E14.83048
G1 X50.454 Y49.700 E14.90033
G1 X50.685 Y52.153 E15.01880
G1 X51.070 Y54.579 E15.13693
G1 X51.605 Y56.975 E15.25506
G1 X52.290 Y59.334 E15.37319
G1 X53.122 Y61.645 E15.49132
G1 X54.098 Y63.899 E15.60946
G1 X55.213 Y66.087 E15.72758
G1 X56.463 Y68.202 E15.84572
G1 X57.844 Y70.233 E15.96385
G1 X59.349 Y72.174 E16.08198
G1 X60.973 Y74.016 E16.20011
G1 X62.710 Y75.753 E16.31824
G1 X64.558 Y77.381 E16.43671
G1 X66.493 Y78.882 E16.55450
G1 X68.525 Y80.263 E16.67263
G1 X70.639 Y81.513 E16.79076
G1 X72.827 Y82.628 E16.90889
G1 X75.081 Y83.604 E17.02703
G1 X77.392 Y84.436 E17.14516
G1 X79.751 Y85.121 E17.26329
G1 X82.148 Y85.657 E17.38141
G1 X84.574 Y86.041 E17.49955
G1 X87.019 Y86.272 E17.61768
G1 X89.474 Y86.349 E17.73581
G1 X91.929 Y86.272 E17.85394
G1 X94.336 Y86.045 E17.97023
G1 X96.799 Y85.657 E18.09017
G1 X99.197 Y85.121 E18.20833
G1 X101.540 Y84.440 E18.32569
G1 X103.866 Y83.604 E18.44458
G1 X106.120 Y82.628 E18.56272
G1 X108.309 Y81.513 E18.68085
G1 X110.423 Y80.263 E18.79898
G1 X112.454 Y78.882 E18.91711
G1 X114.395 Y77.377 E19.03524
G1 X116.237 Y75.753 E19.15337
G1 X117.974 Y74.016 E19.27150
G1 X119.594 Y72.179 E19.38929
G1 X121.104 Y70.233 E19.50776
G1 X122.484 Y68.202 E19.62589
G1 X123.734 Y66.087 E19.74403
G1 X124.849 Y63.899 E19.86216
G1 X125.825 Y61.645 E19.98029
G1 X126.655 Y59.341 E20.09808
G1 X127.342 Y56.976 E20.21654
G1 X127.878 Y54.579 E20.33468
G1 X128.262 Y52.153 E20.45281
G1 X128.493 Y49.707 E20.57094
G1 X128.539 Y48.249 E20.64113
G1 X173.933 Y48.249 E22.82440
G1 X173.711 Y53.882 E23.09556
G1 X173.049 Y59.481 E23.36671
G1 X141.071 Y54.416 E24.92391
G1 X140.659 Y57.017 E25.05055
G1 X139.945 Y60.211 E25.20799
G1 X138.754 Y64.312 E25.41337
G1 X169.491 Y74.299 E26.96782
G1 X167.540 Y79.588 E27.23897
G1 X165.179 Y84.708 E27.51013
G1 X136.332 Y70.010 E29.06732
G1 X135.137 Y72.356 E29.19395
G1 X133.470 Y75.174 E29.35140
G1 X131.070 Y78.705 E29.55678
G1 X157.217 Y97.702 E31.11124
G1 X153.726 Y102.130 E31.38239
G1 X149.900 Y106.269 E31.65355
G1 X127.006 Y83.376 E33.21074
G1 X125.144 Y85.238 E33.33737
G1 X122.689 Y87.403 E33.49482
G1 X119.315 Y90.020 E33.70020
G1 X138.311 Y116.167 E35.25465
G1 X133.624 Y119.299 E35.52581
G1 X128.705 Y122.054 E35.79697
G1 X114.006 Y93.206 E37.35416
G1 X111.660 Y94.401 E37.48080
G1 X108.656 Y95.702 E37.63824
G1 X104.638 Y97.148 E37.84363
G1 X114.625 Y127.886 E39.39808
G1 X109.199 Y129.416 E39.66923
G1 X103.670 Y130.516 E39.94039
G1 X98.605 Y98.538 E41.49757
G1 X96.005 Y98.950 E41.62421
G1 X92.746 Y99.258 E41.78166
G1 X88.477 Y99.392 E41.98704
G1 X88.477 Y131.711 E43.54149
G1 X82.844 Y131.490 E43.81264
G1 X77.245 Y130.827 E44.08380
G1 X82.310 Y98.850 E45.64099
G1 X79.710 Y98.438 E45.76763
G1 X76.515 Y97.724 E45.92508
G1 X72.414 Y96.532 E46.13046
G1 X62.427 Y127.270 E47.68490
G1 X57.138 Y125.318 E47.95606
G1 X52.018 Y122.958 E48.22722
G1 X66.716 Y94.111 E49.78440
G1 X64.370 Y92.915 E49.91104
G1 X61.553 Y91.249 E50.06849
G1 X58.021 Y88.849 E50.27387
G1 X39.024 Y114.996 E51.82832
G1 X34.597 Y111.505 E52.09948
G1 X30.457 Y107.678 E52.37063
G1 X53.350 Y84.785 E53.92782
G1 X51.488 Y82.923 E54.05446
G1 X49.324 Y80.468 E54.21190
G1 X46.743 Y77.141 E54.41440
G1 X46.631 Y77.625 F9000.000
G1 X20.462 Y96.638 E55.97017 F600.000
G1 X17.098 Y91.604 E56.26135
G1 X14.140 Y86.322 E56.55252
G1 X43.001 Y71.617 E58.11045
G1 X41.976 Y69.603 E58.21913
G1 X40.666 Y66.577 E58.37774
G1 X39.342 Y62.899 E58.56574
G1 X8.578 Y72.895 E60.12150
G1 X6.935 Y67.068 E60.41268
G1 X5.754 Y61.131 E60.70385
G1 X37.747 Y56.063 E62.26178
G1 X37.394 Y53.832 E62.37045
G1 X37.281 Y52.642 E62.42794
G1 X36.984 Y52.642 E62.44224
G1 X36.980 Y47.863 E62.67208
G1 X50.782 Y47.863 E63.33591
G1 X50.839 Y49.676 E63.42315
G1 X51.068 Y52.104 E63.54046
G1 X51.448 Y54.506 E63.65743
G1 X51.979 Y56.880 E63.77439
G1 X52.657 Y59.215 E63.89135
G1 X53.481 Y61.503 E64.00832
G1 X54.447 Y63.735 E64.12529
G1 X55.551 Y65.902 E64.24225
G1 X56.789 Y67.995 E64.35922
G1 X58.156 Y70.006 E64.47618
G1 X59.646 Y71.928 E64.59315
G1 X61.255 Y73.752 E64.71011
G1 X62.974 Y75.472 E64.82708
G1 X64.804 Y77.084 E64.94438
G1 X66.720 Y78.570 E65.06101
G1 X68.731 Y79.937 E65.17797
G1 X70.825 Y81.175 E65.29494
G1 X72.991 Y82.279 E65.41190
G1 X75.223 Y83.245 E65.52887
G1 X77.511 Y84.069 E65.64583
G1 X79.847 Y84.747 E65.76280
G1 X82.220 Y85.278 E65.87976
G1 X84.622 Y85.658 E65.99673
G1 X87.043 Y85.887 E66.11369
G1 X89.474 Y85.963 E66.23066
G1 X91.904 Y85.887 E66.34762
G1 X94.288 Y85.662 E66.46276
G1 X96.727 Y85.278 E66.58153
G1 X99.101 Y84.747 E66.69851
G1 X101.421 Y84.073 E66.81471
G1 X103.724 Y83.245 E66.93243
G1 X105.956 Y82.279 E67.04941
G1 X108.123 Y81.175 E67.16637
G1 X110.216 Y79.937 E67.28334
G1 X112.227 Y78.570 E67.40030
G1 X114.149 Y77.080 E67.51727
G1 X115.973 Y75.472 E67.63423
G1 X117.693 Y73.752 E67.75120
G1 X119.296 Y71.933 E67.86782
G1 X120.791 Y70.006 E67.98512
G1 X122.158 Y67.995 E68.10209
G1 X123.396 Y65.902 E68.21906
G1 X124.500 Y63.735 E68.33602
G1 X125.466 Y61.503 E68.45299
G1 X126.288 Y59.221 E68.56961
G1 X126.968 Y56.880 E68.68691
G1 X127.499 Y54.506 E68.80388
G1 X127.879 Y52.104 E68.92085
G1 X128.108 Y49.683 E69.03781
G1 X128.165 Y47.863 E69.12539
G1 X174.334 Y47.863 E71.34593
G1 X174.096 Y53.912 E71.63710
G1 X173.384 Y59.924 E71.92828
G1 X141.391 Y54.857 E73.48621
G1 X141.038 Y57.089 E73.59489
G1 X140.319 Y60.307 E73.75350
G1 X139.228 Y64.061 E73.94149
G1 X169.992 Y74.056 E75.49725
G1 X167.896 Y79.736 E75.78843
G1 X165.362 Y85.234 E76.07960
G1 X136.500 Y70.529 E77.63753
G1 X135.475 Y72.542 E77.74620
G1 X133.796 Y75.380 E77.90482
G1 X131.599 Y78.613 E78.09281
G1 X157.768 Y97.626 E79.64858
G1 X154.020 Y102.380 E79.93975
G1 X149.910 Y106.826 E80.23093
G1 X127.006 Y83.921 E81.78886
G1 X125.408 Y85.519 E81.89753
G1 X122.935 Y87.700 E82.05614
G1 X119.846 Y90.095 E82.24414
G1 X138.859 Y116.265 E83.79990
G1 X133.825 Y119.628 E84.09108
G1 X128.543 Y122.586 E84.38225
G1 X113.838 Y93.725 E85.94019
G1 X111.825 Y94.751 E86.04886
G1 X108.798 Y96.060 E86.20747
G1 X105.120 Y97.384 E86.39547
G1 X115.116 Y128.148 E87.95123
G1 X109.289 Y129.791 E88.24241
G1 X103.352 Y130.972 E88.53358
G1 X98.285 Y98.979 E90.09151
G1 X96.053 Y99.333 E90.20019
G1 X92.770 Y99.643 E90.35880
G1 X88.863 Y99.766 E90.54679
G1 X88.863 Y132.112 E92.10255
G1 X82.814 Y131.875 E92.39373
G1 X76.802 Y131.163 E92.68490
G1 X81.869 Y99.170 E94.24284
G1 X79.637 Y98.817 E94.35151
G1 X76.419 Y98.097 E94.51012
G1 X72.666 Y97.007 E94.69812
G1 X62.670 Y127.770 E96.25388
G1 X56.990 Y125.675 E96.54505
G1 X51.492 Y123.140 E96.83623
G1 X66.198 Y94.279 E98.39416
G1 X64.185 Y93.253 E98.50283
G1 X61.346 Y91.575 E98.66144
G1 X58.113 Y89.378 E98.84944
G1 X39.100 Y115.547 E100.40520
G1 X34.346 Y111.799 E100.69638
G1 X29.900 Y107.689 E100.98755
G1 X52.805 Y84.785 E102.54548
G1 X51.207 Y83.187 E102.65416
G1 X49.026 Y80.713 E102.81277
G1 X46.667 Y77.672 E102.99788
G1 X46.555 Y78.157 F9000.000
G1 X20.364 Y97.186 E104.55496 F600.000
G1 X16.769 Y91.806 E104.86615
G1 X13.608 Y86.161 E105.17735
G1 X42.483 Y71.448 E106.73602
G1 X41.627 Y69.768 E106.82674
G1 X40.307 Y66.719 E106.98651
G1 X39.106 Y63.381 E107.15712
G1 X8.316 Y73.386 E108.71420
G1 X6.560 Y67.158 E109.02539
G1 X5.298 Y60.813 E109.33658
G1 X37.306 Y55.743 E110.89526
G1 X37.011 Y53.880 E110.98597
G1 X36.930 Y53.028 E111.02716
G1 X36.599 Y53.028 E111.04311
G1 X36.594 Y47.478 E111.31005
G1 X51.156 Y47.478 E112.01042
G1 X51.224 Y49.652 E112.11505
G1 X51.451 Y52.056 E112.23119
G1 X51.827 Y54.434 E112.34699
G1 X52.353 Y56.784 E112.46279
G1 X53.024 Y59.096 E112.57859
G1 X53.840 Y61.361 E112.69439
G1 X54.796 Y63.571 E112.81019
G1 X55.889 Y65.716 E112.92599
G1 X57.115 Y67.788 E113.04179
G1 X58.468 Y69.779 E113.15759
G1 X59.944 Y71.682 E113.27339
G1 X61.536 Y73.488 E113.38918
G1 X63.238 Y75.190 E113.50499
G1 X65.050 Y76.787 E113.62112
G1 X66.947 Y78.258 E113.73658
G1 X68.938 Y79.611 E113.85238
G1 X71.010 Y80.837 E113.96818
G1 X73.156 Y81.930 E114.08398
G1 X75.365 Y82.886 E114.19978
G1 X77.631 Y83.702 E114.31558
G1 X79.943 Y84.374 E114.43138
G1 X82.292 Y84.899 E114.54718
G1 X84.670 Y85.275 E114.66298
G1 X87.067 Y85.502 E114.77878
G1 X89.474 Y85.578 E114.89457
G1 X91.880 Y85.502 E115.01037
G1 X94.239 Y85.279 E115.12435
G1 X96.655 Y84.899 E115.24196
G1 X99.005 Y84.374 E115.35777
G1 X101.302 Y83.706 E115.47281
G1 X103.582 Y82.886 E115.58936
G1 X105.792 Y81.930 E115.70517
G1 X107.937 Y80.837 E115.82096
G1 X110.009 Y79.611 E115.93676
G1 X112.001 Y78.258 E116.05256
G1 X113.903 Y76.783 E116.16836
G1 X115.709 Y75.190 E116.28416
G1 X117.411 Y73.488 E116.39996
G1 X118.999 Y71.687 E116.51542
G1 X120.479 Y69.779 E116.63156
G1 X121.833 Y67.788 E116.74736
G1 X123.058 Y65.716 E116.86316
G1 X124.151 Y63.571 E116.97896
G1 X125.107 Y61.361 E117.09476
G1 X125.921 Y59.102 E117.21022
G1 X126.595 Y56.784 E117.32635
G1 X127.120 Y54.434 E117.44215
G1 X127.497 Y52.056 E117.55795
G1 X127.723 Y49.659 E117.67375
G1 X127.792 Y47.478 E117.77872
G1 X174.735 Y47.478 E120.03652
G1 X174.481 Y53.943 E120.34771
G1 X173.720 Y60.368 E120.65891
G1 X141.712 Y55.298 E122.21759
G1 X141.417 Y57.161 E122.30830
G1 X140.692 Y60.403 E122.46807
G1 X139.703 Y63.809 E122.63867
G1 X170.492 Y73.814 E124.19575
G1 X168.253 Y79.884 E124.50695
G1 X165.544 Y85.760 E124.81814
G1 X136.669 Y71.047 E126.37681
G1 X135.813 Y72.728 E126.46752
G1 X134.122 Y75.587 E126.62730
G1 X132.128 Y78.521 E126.79790
G1 X158.319 Y97.550 E128.35499
G1 X154.313 Y102.631 E128.66618
G1 X149.921 Y107.382 E128.97737
G1 X127.006 Y84.467 E130.53605
G1 X125.672 Y85.800 E130.62676
G1 X123.181 Y87.997 E130.78653
G1 X120.378 Y90.171 E130.95714
G1 X139.407 Y116.362 E132.51422
G1 X134.027 Y119.957 E132.82542
G1 X128.382 Y123.118 E133.13661
G1 X113.669 Y94.243 E134.69529
G1 X111.989 Y95.100 E134.78600
G1 X108.940 Y96.419 E134.94577
G1 X105.603 Y97.621 E135.11638
G1 X115.607 Y128.410 E136.67346
G1 X109.380 Y130.166 E136.98465
G1 X103.034 Y131.429 E137.29585
G1 X97.964 Y99.420 E138.85452
G1 X96.101 Y99.715 E138.94523
G1 X92.794 Y100.028 E139.10501
G1 X89.249 Y100.139 E139.27561
G1 X89.249 Y132.513 E140.83269
G1 X82.783 Y132.259 E141.14388
G1 X76.358 Y131.499 E141.45508
G1 X81.428 Y99.491 E143.01375
G1 X79.565 Y99.196 E143.10446
G1 X76.323 Y98.471 E143.26424
G1 X72.917 Y97.482 E143.43484
G1 X62.913 Y128.271 E144.99192
G1 X56.842 Y126.032 E145.30311
G1 X50.967 Y123.323 E145.61431
G1 X65.679 Y94.448 E147.17298
G1 X63.999 Y93.592 E147.26369
G1 X61.139 Y91.900 E147.42347
G1 X58.206 Y89.907 E147.59407
G1 X39.177 Y116.098 E149.15115
G1 X34.095 Y112.092 E149.46235
G1 X29.344 Y107.700 E149.77354
G1 X52.259 Y84.785 E151.33222
G1 X50.926 Y83.451 E151.42293
G1 X48.729 Y80.959 E151.58270
G1 X46.592 Y78.204 E151.75042
G1 X46.317 Y77.835 F9000.000
G1 X48.133 Y78.360 F9000.000
G1 X58.599 Y88.826 E152.46341 F600.000
G1 X57.864 Y88.637 F9000.000
G1 X50.596 Y81.369 E152.95855 F600.000
G1 X53.585 Y84.904 F9000.000
G1 X57.634 Y88.953 E153.23443 F600.000
G1 X57.404 Y89.270 E153.25326
G1 X53.312 Y85.177 E153.53209
G1 X53.038 Y85.450 E153.55069
G1 X57.174 Y89.586 E153.83247
G1 X56.945 Y89.902 E153.85130
G1 X52.765 Y85.723 E154.13602
G1 X52.492 Y85.996 E154.15463
G1 X56.715 Y90.219 E154.44230
G1 X56.485 Y90.535 E154.46113
G1 X52.219 Y86.269 E154.75175
G1 X51.946 Y86.543 E154.77035
G1 X56.255 Y90.852 E155.06391
G1 X56.025 Y91.168 E155.08275
G1 X51.673 Y86.816 E155.37926
G1 X51.400 Y87.089 E155.39786
G1 X55.795 Y91.484 E155.69731
G1 X55.566 Y91.801 E155.71615
G1 X51.127 Y87.362 E156.01855
G1 X50.854 Y87.635 E156.03716
G1 X55.336 Y92.117 E156.34250
G1 X55.106 Y92.433 E156.36134
G1 X50.580 Y87.908 E156.66964
G1 X50.307 Y88.181 E156.68824
G1 X54.876 Y92.750 E156.99948
G1 X54.646 Y93.066 E157.01832
G1 X50.034 Y88.454 E157.33251
G1 X49.761 Y88.727 E157.35111
G1 X54.416 Y93.382 E157.66825
G1 X54.186 Y93.699 E157.68709
G1 X49.488 Y89.000 E158.00717
G1 X49.215 Y89.274 E158.02577
G1 X53.957 Y94.015 E158.34880
G1 X53.727 Y94.332 E158.36764
G1 X48.942 Y89.547 E158.69361
G1 X48.669 Y89.820 E158.71222
G1 X53.497 Y94.648 E159.04114
G1 X53.267 Y94.964 E159.05998
G1 X48.396 Y90.093 E159.39185
G1 X48.123 Y90.366 E159.41045
G1 X53.037 Y95.281 E159.74527
G1 X52.807 Y95.597 E159.76411
G1 X47.849 Y90.639 E160.10187
G1 X47.576 Y90.912 E160.12047
G1 X52.577 Y95.913 E160.46118
G1 X52.348 Y96.230 E160.48002
G1 X47.303 Y91.185 E160.82368
G1 X47.030 Y91.458 E160.84228
G1 X52.118 Y96.546 E161.18889
G1 X51.888 Y96.862 E161.20772
G1 X46.757 Y91.732 E161.55727
G1 X46.484 Y92.005 E161.57588
G1 X51.658 Y97.179 E161.92838
G1 X51.428 Y97.495 E161.94721
G1 X46.211 Y92.278 E162.30266
G1 X45.938 Y92.551 E162.32126
G1 X51.198 Y97.811 E162.67965
G1 X50.969 Y98.128 E162.69849
G1 X45.665 Y92.824 E163.05983
G1 X45.391 Y93.097 E163.07843
G1 X50.739 Y98.444 E163.44272
G1 X50.509 Y98.761 E163.46156
G1 X45.118 Y93.370 E163.82879
G1 X44.845 Y93.643 E163.84739
G1 X50.279 Y99.077 E164.21757
G1 X50.049 Y99.393 E164.23641
