; generated by Slic3r 1.2.9 on 2017-05-04 at 21:40:25

; external perimeters extrusion width = 0.40mm
; perimeters extrusion width = 0.56mm
; infill extrusion width = 0.38mm
; solid infill extrusion width = 0.56mm
; top infill extrusion width = 0.22mm

M106 S256; Turn on fan to 100% power
M104 S140; turn on extruder temperature at S value
M140 S60; turn on bed temperature at S value
G28; home all axes
M84; disable motors
G1 Z15 F15000; have Z move to 20mm at 15000 mm/min
M190 S55; turn on bed temperature at S value and wait
M140 S55; turn on bed temperature at S value (printing temperature)
M109 S200; turn on extruder temperature at S value and wait (printing temperature)
M104 S200; turn on extruder temperature at S value
G1 Z0 F12000; move Z back to home
G21 ; set units to millimeters
G90 ; use absolute coordinates
M82 ; use absolute distances for extrusion
G92 E0
M106 S255
;Layer change
G1 E-6.00000 F1800.00000
G92 E0
G1 Z0.300 F9000.000
G1 X63.376 Y75.380 F9000.000
G1 E6.00000 F1800.00000
G1 X64.052 Y74.811 E6.04506 F600.000
G1 X65.000 Y74.614 E6.09438
G1 X115.000 Y74.614 E8.64275
G1 X116.310 Y75.006 E8.71242
G1 X117.189 Y76.052 E8.78209 F600.000
G1 X117.386 Y77.000 E8.83142
G1 X117.386 Y103.000 E10.15657
G1 X116.994 Y104.310 E10.22624
G1 X115.948 Y105.189 E10.29591
G1 X115.000 Y105.386 E10.34524
G1 X65.000 Y105.386 E12.89361
G1 X63.690 Y104.994 E12.96328
G1 X62.811 Y103.948 E13.03295
G1 X62.614 Y103.000 E13.08228
G1 X62.614 Y77.000 E14.40743
G1 X63.006 Y75.690 E14.47710
G1 X63.330 Y75.418 E14.49865
G1 E8.49865 F1800.00000
G92 E0
G1 X106.963 Y100.047 F9000.000
G1 E6.00000 F1800.00000
G1 X106.699 Y100.151 E6.01447 F600.000
G1 X106.424 Y100.222 E6.02895
G1 X106.142 Y100.257 E6.04343
G1 X105.858 Y100.257 E6.05791
G1 X105.587 Y100.223 E6.07180
G1 X105.303 Y100.152 E6.08677
G1 X105.037 Y100.047 E6.10133
G1 X104.788 Y99.910 E6.11581
G1 X104.558 Y99.743 E6.13029
G1 X104.351 Y99.548 E6.14477
G1 X104.170 Y99.329 E6.15924
G1 X104.018 Y99.090 E6.17372
G1 X103.897 Y98.833 E6.18819
G1 X103.809 Y98.563 E6.20267
G1 X103.756 Y98.283 E6.21715
G1 X103.738 Y98.000 E6.23163
G1 X103.756 Y97.717 E6.24610
G1 X103.809 Y97.437 E6.26058
G1 X103.897 Y97.167 E6.27506
G1 X104.019 Y96.909 E6.28962
G1 X104.177 Y96.662 E6.30459
G1 X104.351 Y96.452 E6.31848
G1 X104.558 Y96.257 E6.33296
G1 X104.788 Y96.090 E6.34744
G1 X105.037 Y95.953 E6.36192
G1 X105.301 Y95.849 E6.37639
G1 X105.576 Y95.778 E6.39087
G1 X105.858 Y95.743 E6.40535
G1 X106.142 Y95.743 E6.41982 F600.000
G1 X106.412 Y95.777 E6.43372
G1 X106.697 Y95.848 E6.44869
G1 X106.963 Y95.953 E6.46325
G1 X107.212 Y96.090 E6.47772
G1 X107.442 Y96.257 E6.49221
G1 X107.649 Y96.452 E6.50668
G1 X107.830 Y96.671 E6.52116
G1 X107.982 Y96.910 E6.53564
G1 X108.103 Y97.167 E6.55011
G1 X108.191 Y97.437 E6.56459
G1 X108.244 Y97.717 E6.57907
G1 X108.262 Y98.000 E6.59354
G1 X108.244 Y98.283 E6.60802
G1 X108.191 Y98.563 E6.62250
G1 X108.103 Y98.833 E6.63698
G1 X107.982 Y99.090 E6.65145
G1 X107.830 Y99.329 E6.66593
G1 X107.649 Y99.548 E6.68040
G1 X107.442 Y99.743 E6.69488
G1 X107.212 Y99.910 E6.70936
G1 X107.016 Y100.018 E6.72078
G1 X106.798 Y99.697 F9000.000
G1 X106.580 Y99.784 E6.73278 F600.000
G1 X106.351 Y99.842 E6.74478
G1 X106.118 Y99.872 E6.75679
G1 X105.882 Y99.872 E6.76879
G1 X105.659 Y99.844 E6.78027
G1 X105.421 Y99.784 E6.79277
G1 X105.202 Y99.697 E6.80480
G1 X104.995 Y99.584 E6.81680
G1 X104.804 Y99.445 E6.82881
G1 X104.633 Y99.284 E6.84081
G1 X104.483 Y99.102 E6.85282
G1 X104.357 Y98.903 E6.86482
G1 X104.256 Y98.690 E6.87682
G1 X104.183 Y98.466 E6.88883
G1 X104.139 Y98.235 E6.90083
G1 X104.125 Y98.000 E6.91283
G1 X104.139 Y97.765 E6.92484
G1 X104.183 Y97.534 E6.93684
G1 X104.256 Y97.310 E6.94885
G1 X104.357 Y97.096 E6.96088
G1 X104.489 Y96.890 E6.97338
G1 X104.633 Y96.716 E6.98485
G1 X104.804 Y96.555 E6.99686
G1 X104.995 Y96.416 E7.00886
G1 X105.202 Y96.303 E7.02087
G1 X105.420 Y96.216 E7.03287
G1 X105.649 Y96.158 E7.04487
G1 X105.882 Y96.128 E7.05688
G1 X106.118 Y96.128 E7.06888 F600.000
G1 X106.341 Y96.156 E7.08036
G1 X106.579 Y96.216 E7.09285
G1 X106.798 Y96.303 E7.10489
G1 X107.005 Y96.416 E7.11689
G1 X107.196 Y96.555 E7.12890
G1 X107.367 Y96.716 E7.14090
G1 X107.517 Y96.898 E7.15291
G1 X107.643 Y97.097 E7.16491
G1 X107.744 Y97.310 E7.17691
G1 X107.817 Y97.534 E7.18892
G1 X107.861 Y97.765 E7.20092
G1 X107.875 Y98.000 E7.21292
G1 X107.861 Y98.235 E7.22493
G1 X107.817 Y98.466 E7.23693
G1 X107.744 Y98.690 E7.24894
G1 X107.643 Y98.903 E7.26094
G1 X107.517 Y99.102 E7.27294
G1 X107.367 Y99.284 E7.28495
G1 X107.196 Y99.445 E7.29695
G1 X107.005 Y99.584 E7.30896
G1 X106.851 Y99.668 E7.31790
G1 X106.774 Y99.931 F9000.000
G1 E1.31790 F1800.00000
G92 E0
G1 X76.262 Y98.000 F9000.000
G1 E6.00000 F1800.00000
G1 X76.244 Y98.283 E6.01447 F600.000
G1 X76.191 Y98.563 E6.02896
G1 X76.103 Y98.833 E6.04343
G1 X75.982 Y99.090 E6.05790
G1 X75.830 Y99.329 E6.07238
G1 X75.649 Y99.548 E6.08686
G1 X75.442 Y99.743 E6.10134
G1 X75.212 Y99.910 E6.11582
G1 X74.963 Y100.047 E6.13029
G1 X74.699 Y100.151 E6.14477
G1 X74.435 Y100.219 E6.15866
G1 X74.144 Y100.257 E6.17363
G1 X73.858 Y100.257 E6.18820
G1 X73.587 Y100.223 E6.20209
G1 X73.303 Y100.152 E6.21706
G1 X73.037 Y100.047 E6.23162
G1 X72.788 Y99.910 E6.24610
G1 X72.558 Y99.743 E6.26058
G1 X72.351 Y99.548 E6.27506
G1 X72.170 Y99.329 E6.28953
G1 X72.018 Y99.090 E6.30401
G1 X71.897 Y98.833 E6.31848
G1 X71.809 Y98.561 E6.33305
G1 X71.755 Y98.272 E6.34802
G1 X71.738 Y98.000 E6.36191
G1 X71.756 Y97.717 E6.37639
G1 X71.809 Y97.437 E6.39087
G1 X71.897 Y97.167 E6.40535
G1 X72.018 Y96.910 E6.41982
G1 X72.170 Y96.671 E6.43430
G1 X72.351 Y96.452 E6.44877
G1 X72.558 Y96.257 E6.46325
G1 X72.788 Y96.090 E6.47773
G1 X73.037 Y95.953 E6.49221
G1 X73.301 Y95.849 E6.50668
G1 X73.576 Y95.778 E6.52116
G1 X73.858 Y95.743 E6.53564
G1 X74.142 Y95.743 E6.55011 F600.000
G1 X74.412 Y95.777 E6.56401
G1 X74.697 Y95.848 E6.57898
G1 X74.963 Y95.953 E6.59354
G1 X75.212 Y96.090 E6.60801
G1 X75.442 Y96.257 E6.62250
G1 X75.649 Y96.452 E6.63697
G1 X75.830 Y96.671 E6.65145
G1 X75.982 Y96.910 E6.66593
G1 X76.103 Y97.167 E6.68040
G1 X76.191 Y97.439 E6.69496
G1 X76.245 Y97.728 E6.70994
G1 X76.258 Y97.940 E6.72077
G1 X75.875 Y98.000 F9000.000
G1 X75.861 Y98.235 E6.73277 F600.000
G1 X75.817 Y98.466 E6.74478
G1 X75.744 Y98.690 E6.75678
G1 X75.643 Y98.903 E6.76878
G1 X75.517 Y99.102 E6.78079
G1 X75.367 Y99.284 E6.79279
G1 X75.196 Y99.445 E6.80480
G1 X75.005 Y99.584 E6.81680
G1 X74.798 Y99.697 E6.82881
G1 X74.580 Y99.784 E6.84081
G1 X74.361 Y99.840 E6.85228
G1 X74.118 Y99.872 E6.86478
G1 X73.882 Y99.872 E6.87682
G1 X73.659 Y99.844 E6.88829
G1 X73.421 Y99.784 E6.90079
G1 X73.202 Y99.697 E6.91282
G1 X72.995 Y99.584 E6.92483
G1 X72.804 Y99.445 E6.93683
G1 X72.633 Y99.284 E6.94884
G1 X72.483 Y99.102 E6.96084
G1 X72.357 Y98.903 E6.97285
G1 X72.256 Y98.690 E6.98485
G1 X72.183 Y98.466 E6.99688
G1 X72.139 Y98.225 E7.00938
G1 X72.125 Y98.000 E7.02086
G1 X72.139 Y97.765 E7.03286
G1 X72.183 Y97.534 E7.04486
G1 X72.256 Y97.310 E7.05687
G1 X72.357 Y97.097 E7.06887
G1 X72.483 Y96.898 E7.08087
G1 X72.633 Y96.716 E7.09288
G1 X72.804 Y96.555 E7.10488
G1 X72.995 Y96.416 E7.11689
G1 X73.202 Y96.303 E7.12889
G1 X73.420 Y96.216 E7.14089
G1 X73.649 Y96.158 E7.15290
G1 X73.882 Y96.128 E7.16490
G1 X74.118 Y96.128 E7.17691 F600.000
G1 X74.341 Y96.156 E7.18838
G1 X74.579 Y96.216 E7.20088
G1 X74.798 Y96.303 E7.21291
G1 X75.005 Y96.416 E7.22492
G1 X75.196 Y96.555 E7.23692
G1 X75.367 Y96.716 E7.24893
G1 X75.517 Y96.898 E7.26093
G1 X75.643 Y97.097 E7.27294
G1 X75.744 Y97.310 E7.28494
G1 X75.817 Y97.534 E7.29697
G1 X75.872 Y97.940 E7.31785
G1 X76.079 Y98.118 F9000.000
G1 E1.31785 F1800.00000
G92 E0
G1 X65.611 Y102.389 F9000.000
G1 E6.00000 F1800.00000
G1 X65.611 Y77.611 E7.26291 F600.000
G1 X114.389 Y77.611 E9.74904
G1 X114.389 Y102.389 E11.01194
G1 X65.671 Y102.389 E13.49501
G1 X65.225 Y102.775 F9000.000
G1 X65.225 Y77.225 E14.79723 F600.000
G1 X114.775 Y77.225 E17.32266
G1 X114.775 Y102.775 E18.62488
G1 X65.285 Y102.775 E21.14726
G1 X65.425 Y102.429 F9000.000
G1 X66.098 Y102.106 F9000.000
G1 X65.894 Y101.902 E21.16193 F600.000
G1 X65.894 Y101.356 E21.18975
G1 X66.644 Y102.106 E21.24377
G1 X67.189 Y102.106 E21.27158
G1 X65.894 Y100.811 E21.36494
G1 X65.894 Y100.265 E21.39276
G1 X67.735 Y102.106 E21.52545
G1 X68.280 Y102.106 E21.55327
G1 X65.894 Y99.720 E21.72530
G1 X65.894 Y99.174 E21.75312
G1 X68.826 Y102.106 E21.96450
G1 X69.371 Y102.106 E21.99231
G1 X65.894 Y98.629 E22.24303
G1 X65.894 Y98.083 E22.27085
G1 X69.917 Y102.106 E22.56090
G1 X70.462 Y102.106 E22.58872
G1 X65.894 Y97.538 E22.91812
G1 X65.894 Y96.992 E22.94593
G1 X71.008 Y102.106 E23.31467
G1 X71.554 Y102.106 E23.34249
G1 X65.894 Y96.446 E23.75056
G1 X65.894 Y95.901 E23.77838
G1 X72.099 Y102.106 E24.22579
G1 X72.645 Y102.106 E24.25361
G1 X65.894 Y95.355 E24.74037
G1 X65.894 Y94.810 E24.76818
G1 X73.190 Y102.106 E25.29428
G1 X73.151 Y100.429 F9000.000
G1 X74.827 Y102.106 E25.41515 F600.000
G1 X75.373 Y102.106 E25.44297
G1 X73.808 Y100.541 E25.55578
G1 X74.323 Y100.510 E25.58205
G1 X75.918 Y102.106 E25.69711
G1 X76.464 Y102.106 E25.72493
G1 X74.763 Y100.405 E25.84757
G1 X75.142 Y100.238 E25.86868
G1 X77.009 Y102.106 E26.00332
G1 X77.555 Y102.106 E26.03113
G1 X75.477 Y100.028 E26.18096
G1 X75.771 Y99.776 E26.20069
G1 X78.100 Y102.106 E26.36865
G1 X78.646 Y102.106 E26.39647
G1 X76.026 Y99.485 E26.58540
G1 X76.237 Y99.151 E26.60557
G1 X79.192 Y102.106 E26.81862
G1 X79.737 Y102.106 E26.84644
G1 X76.400 Y98.768 E27.08708
G1 X76.509 Y98.332 E27.11001
G1 X80.283 Y102.106 E27.38209
G1 X80.828 Y102.106 E27.40991
G1 X76.540 Y97.817 E27.71913
G1 X76.431 Y97.162 E27.75299
G1 X81.374 Y102.106 E28.10945
G1 X81.919 Y102.106 E28.13726
G1 X65.894 Y86.081 E29.29280
G1 X65.894 Y85.535 E29.32062
G1 X82.465 Y102.106 E30.51549
G1 X83.011 Y102.106 E30.54331
G1 X65.894 Y84.989 E31.77752
G1 X65.894 Y84.444 E31.80534
G1 X83.556 Y102.106 E33.07890
G1 X84.102 Y102.106 E33.10671
G1 X65.894 Y83.898 E34.41961
G1 X65.894 Y83.353 E34.44743
G1 X84.647 Y102.106 E35.79966
G1 X85.193 Y102.106 E35.82748
G1 X65.894 Y82.807 E37.21905
G1 X65.894 Y82.262 E37.24687
G1 X85.738 Y102.106 E38.67778
G1 X86.284 Y102.106 E38.70560
G1 X65.894 Y81.716 E40.17586
G1 X65.894 Y81.170 E40.20367
G1 X86.830 Y102.106 E41.71327
G1 X87.375 Y102.106 E41.74108
G1 X65.894 Y80.625 E43.29002
G1 X65.894 Y80.079 E43.31784
G1 X87.921 Y102.106 E44.90611
G1 X88.466 Y102.106 E44.93393
G1 X65.894 Y79.534 E46.56154
G1 X65.894 Y78.988 E46.58936
G1 X89.012 Y102.106 E48.25631
G1 X89.557 Y102.106 E48.28413
G1 X65.894 Y78.443 E49.99043
G1 X65.913 Y77.916 E50.01731
G1 X90.103 Y102.106 E51.76159
G1 X90.649 Y102.106 E51.78941
G1 X66.437 Y77.894 E53.53523
G1 X66.983 Y77.894 E53.56305
G1 X91.194 Y102.106 E55.30887
G1 X91.740 Y102.106 E55.33669
G1 X67.529 Y77.894 E57.08251
G1 X68.074 Y77.894 E57.11032
G1 X92.285 Y102.106 E58.85614
G1 X92.831 Y102.106 E58.88396
G1 X68.620 Y77.894 E60.62978
G1 X69.165 Y77.894 E60.65760
G1 X93.376 Y102.106 E62.40342
G1 X93.922 Y102.106 E62.43124
G1 X69.711 Y77.894 E64.17706
G1 X70.256 Y77.894 E64.20488
G1 X94.468 Y102.106 E65.95070
G1 X95.013 Y102.106 E65.97851
G1 X70.802 Y77.894 E67.72433
G1 X71.348 Y77.894 E67.75215
G1 X95.559 Y102.106 E69.49797
G1 X96.104 Y102.106 E69.52579
G1 X71.893 Y77.894 E71.27161
G1 X72.439 Y77.894 E71.29943
G1 X96.650 Y102.106 E73.04525
G1 X97.195 Y102.106 E73.07306
G1 X72.984 Y77.894 E74.81888
G1 X73.530 Y77.894 E74.84670
G1 X97.741 Y102.106 E76.59252
G1 X98.287 Y102.106 E76.62034
G1 X74.075 Y77.894 E78.36616
G1 X74.621 Y77.894 E78.39398
G1 X98.832 Y102.106 E80.13980
G1 X99.378 Y102.106 E80.16762
G1 X75.167 Y77.894 E81.91344
G1 X75.712 Y77.894 E81.94125
G1 X99.923 Y102.106 E83.68707
G1 X100.469 Y102.106 E83.71489
G1 X76.258 Y77.894 E85.46071
G1 X76.803 Y77.894 E85.48853
G1 X101.014 Y102.106 E87.23435
G1 X101.560 Y102.106 E87.26217
G1 X77.349 Y77.894 E89.00799
G1 X77.894 Y77.894 E89.03581
G1 X102.106 Y102.106 E90.78163
G1 X102.651 Y102.106 E90.80944
G1 X78.440 Y77.894 E92.55526
G1 X78.986 Y77.894 E92.58308
G1 X103.197 Y102.106 E94.32890
G1 X103.742 Y102.106 E94.35672
G1 X79.531 Y77.894 E96.10254
G1 X80.077 Y77.894 E96.13036
G1 X104.288 Y102.106 E97.87618
G1 X104.833 Y102.106 E97.90399
G1 X80.622 Y77.894 E99.64981
G1 X81.168 Y77.894 E99.67763
G1 X105.379 Y102.106 E101.42345
G1 X105.403 Y100.492 F9000.000
G1 X107.016 Y102.106 E101.53977 F600.000
G1 X107.561 Y102.106 E101.56759
G1 X105.997 Y100.541 E101.68040
G1 X106.483 Y100.481 E101.70535
G1 X108.107 Y102.106 E101.82247
G1 X108.652 Y102.106 E101.85029
G1 X106.898 Y100.351 E101.97679
G1 X107.264 Y100.172 E101.99757
G1 X109.198 Y102.106 E102.13703
G1 X109.744 Y102.106 E102.16485
G1 X107.586 Y99.948 E102.32040
G1 X107.864 Y99.681 E102.34007
G1 X110.289 Y102.106 E102.51492
G1 X110.835 Y102.106 E102.54274
G1 X108.102 Y99.373 E102.73980
G1 X108.297 Y99.023 E102.76025
G1 X111.380 Y102.106 E102.98255
G1 X111.926 Y102.106 E103.01037
G1 X108.446 Y98.626 E103.26127
G1 X108.531 Y98.165 E103.28517
G1 X112.471 Y102.106 E103.56931
G1 X113.017 Y102.106 E103.59713
G1 X108.527 Y97.616 E103.92087
G1 X108.321 Y96.864 E103.96062
G1 X113.563 Y102.106 E104.33858
G1 X104.480 Y100.115 F9000.000
G1 X106.470 Y102.106 E104.48210 F600.000
G1 X105.925 Y102.106 E104.50991
G1 X81.713 Y77.894 E106.25573
G1 X82.259 Y77.894 E106.28355
G1 X103.894 Y99.529 E107.84360
G1 X103.510 Y98.600 F9000.000
G1 X82.805 Y77.894 E109.33667 F600.000
G1 X83.350 Y77.894 E109.36449
G1 X103.459 Y98.003 E110.81447
G1 X103.519 Y97.518 E110.83940
G1 X83.896 Y77.894 E112.25441
G1 X84.441 Y77.894 E112.28223
G1 X103.646 Y97.099 E113.66701
G1 X103.829 Y96.737 E113.68771
G1 X84.987 Y77.894 E115.04639
G1 X85.532 Y77.894 E115.07421
G1 X104.055 Y96.417 E116.40983
G1 X104.321 Y96.137 E116.42951
G1 X86.078 Y77.894 E117.74497
G1 X86.623 Y77.894 E117.77278
G1 X104.626 Y95.897 E119.07093
G1 X104.974 Y95.699 E119.09133
G1 X87.169 Y77.894 E120.37521
G1 X87.715 Y77.894 E120.40303
G1 X105.375 Y95.555 E121.67651
G1 X105.835 Y95.469 E121.70035
G1 X88.260 Y77.894 E122.96763
G1 X88.806 Y77.894 E122.99545
G1 X106.388 Y95.477 E124.26327
G1 X107.134 Y95.678 E124.30268
G1 X89.351 Y77.894 E125.58499
G1 X89.897 Y77.894 E125.61280
G1 X114.087 Y102.084 E127.35709
G1 X114.106 Y101.558 E127.38397
G1 X90.442 Y77.894 E129.09027
G1 X90.988 Y77.894 E129.11809
G1 X114.106 Y101.012 E130.78505
G1 X114.106 Y100.466 E130.81287
G1 X91.534 Y77.894 E132.44049
G1 X92.079 Y77.894 E132.46830
G1 X114.106 Y99.921 E134.05659
G1 X114.106 Y99.375 E134.08440
G1 X92.625 Y77.894 E135.63334
G1 X93.170 Y77.894 E135.66116
G1 X114.106 Y98.830 E137.17076
G1 X114.106 Y98.284 E137.19858
G1 X93.716 Y77.894 E138.66884
G1 X94.261 Y77.894 E138.69666
G1 X114.106 Y97.739 E140.12758
G1 X114.106 Y97.193 E140.15540
G1 X94.807 Y77.894 E141.54698
G1 X95.353 Y77.894 E141.57479
G1 X114.106 Y96.647 E142.92704
G1 X114.106 Y96.102 E142.95485
G1 X95.898 Y77.894 E144.26775
G1 X96.444 Y77.894 E144.29557
G1 X114.106 Y95.556 E145.56913
G1 X114.106 Y95.011 E145.59695
G1 X96.989 Y77.894 E146.83117
G1 X97.535 Y77.894 E146.85899
G1 X114.106 Y94.465 E148.05387
G1 X114.106 Y93.920 E148.08169
G1 X98.080 Y77.894 E149.23723
G1 X98.626 Y77.894 E149.26504
G1 X114.106 Y93.374 E150.38125
G1 X114.106 Y92.828 E150.40906
G1 X99.172 Y77.894 E151.48592
G1 X99.717 Y77.894 E151.51374
G1 X114.106 Y92.283 E152.55126
G1 X114.106 Y91.737 E152.57908
G1 X100.263 Y77.894 E153.57726
G1 X100.808 Y77.894 E153.60508
G1 X114.106 Y91.192 E154.56392
G1 X114.106 Y90.646 E154.59174
G1 X101.354 Y77.894 E155.51124
G1 X101.899 Y77.894 E155.53906
G1 X114.106 Y90.101 E156.41922
G1 X114.106 Y89.555 E156.44704
G1 X102.445 Y77.894 E157.28786
G1 X102.991 Y77.894 E157.31567
G1 X114.106 Y89.009 E158.11715
G1 X114.106 Y88.464 E158.14497
G1 X103.536 Y77.894 E158.90711
G1 X104.082 Y77.894 E158.93493
G1 X114.106 Y87.918 E159.65773
G1 X114.106 Y87.373 E159.68555
G1 X104.627 Y77.894 E160.36901
G1 X105.173 Y77.894 E160.39683
G1 X114.106 Y86.827 E161.04095
G1 X114.106 Y86.282 E161.06877
G1 X105.718 Y77.894 E161.67355
G1 X106.264 Y77.894 E161.70137
G1 X114.106 Y85.736 E162.26681
G1 X114.106 Y85.190 E162.29462
