; generated by Slic3r 1.2.9 on 2017-09-05 at 22:40:49

; external perimeters extrusion width = 0.40mm
; perimeters extrusion width = 0.62mm
; infill extrusion width = 0.33mm
; solid infill extrusion width = 0.62mm
; top infill extrusion width = 0.20mm

M106 S256; Turn on fan to 100% power
M104 S140; turn on extruder temperature at S value
M140 S60; turn on bed temperature at S value
G28; home all axes
M84; disable motors
G1 Z15 F15000; have Z move to 20mm at 15000 mm/min
M190 S55; turn on bed temperature at S value and wait
M140 S55; turn on bed temperature at S value (printing temperature)
M109 S200; turn on extruder temperature at S value and wait (printing temperature)
M104 S200; turn on extruder temperature at S value
G1 Z0 F12000; move Z back to home
G21 ; set units to millimeters
G90 ; use absolute coordinates
M82 ; use absolute distances for extrusion
G92 E0
M106 S255
;Layer change
G1 E-6.00000 F1800.00000
G92 E0
G1 Z0.300 F9000.000
G1 X77.604 Y13.021 F9000.000
G1 E6.00000 F1800.00000
G1 X77.685 Y12.595 E6.02159 F474.523
G1 X77.893 Y11.893 E6.05804
G1 X78.004 Y11.614 E6.07296
G1 X78.332 Y10.960 E6.10943
G1 X78.565 Y10.594 E6.13100
G1 X79.017 Y10.018 E6.16747
G1 X79.222 Y9.799 E6.18239
G1 X79.769 Y9.312 E6.21885
G1 X80.119 Y9.057 E6.24043
G1 X80.752 Y8.688 E6.27690
G1 X81.023 Y8.560 E6.29181
G1 X81.710 Y8.308 E6.32827
G1 X82.130 Y8.200 E6.34985
G1 X82.854 Y8.090 E6.38632
G1 X83.153 Y8.071 E6.40124
G1 X83.885 Y8.090 E6.43770
G1 X84.610 Y8.200 E6.47418 F474.523
G1 X85.320 Y8.403 E6.51097
G1 X85.988 Y8.688 E6.54712
G1 X86.368 Y8.897 E6.56869
G1 X86.971 Y9.312 E6.60516
G1 X87.518 Y9.799 E6.64163
G1 X87.723 Y10.018 E6.65655
G1 X88.175 Y10.594 E6.69302
G1 X88.408 Y10.960 E6.71459
G1 X88.736 Y11.614 E6.75106
G1 X88.980 Y12.305 E6.78753
G1 X89.136 Y13.021 E6.82400
G1 X89.174 Y13.318 E6.83892
G1 X89.201 Y14.050 E6.87538
G1 X89.136 Y14.779 E6.91186
G1 X89.055 Y15.205 E6.93345
G1 X88.849 Y15.901 E6.96958
G1 X88.552 Y16.578 E7.00637
G1 X88.175 Y17.206 E7.04284
G1 X87.723 Y17.782 E7.07930
G1 X87.518 Y18.001 E7.09422
G1 X86.971 Y18.488 E7.13069
G1 X86.368 Y18.903 E7.16715
G1 X85.717 Y19.240 E7.20362
G1 X85.029 Y19.492 E7.24010
G1 X84.610 Y19.600 E7.26167
G1 X83.886 Y19.710 E7.29814
G1 X83.153 Y19.729 E7.33461
G1 X82.425 Y19.656 E7.37108
G1 X82.130 Y19.600 E7.38600
G1 X81.711 Y19.492 E7.40757
G1 X81.023 Y19.240 E7.44404
G1 X80.372 Y18.903 E7.48051
G1 X80.119 Y18.743 E7.49542
G1 X79.538 Y18.297 E7.53189
G1 X79.017 Y17.782 E7.56837
G1 X78.565 Y17.206 E7.60484
G1 X78.188 Y16.578 E7.64131
G1 X77.893 Y15.907 E7.67778
G1 X77.685 Y15.205 E7.71425
G1 X77.604 Y14.779 E7.73582
G1 X77.539 Y14.049 E7.77231
G1 X77.539 Y13.750 E7.78720
G1 X77.596 Y13.080 E7.82069
G1 E1.82069 F1800.00000
G92 E0
G1 X86.062 Y15.664 F9000.000
G1 E6.00000 F1800.00000
G1 X85.895 Y15.616 E6.00865 F474.523
G1 X85.895 Y12.184 E6.17952
G1 X86.062 Y12.136 E6.18817
G1 X86.196 Y12.347 E6.20061
G1 X86.368 Y12.713 E6.22077
G1 X86.493 Y13.098 E6.24093
G1 X86.569 Y13.496 E6.26109
G1 X86.595 Y13.900 E6.28126
G1 X86.569 Y14.304 E6.30142
G1 X86.493 Y14.702 E6.32158
G1 X86.370 Y15.081 E6.34143
G1 X86.196 Y15.454 E6.36191
G1 X86.094 Y15.614 E6.37135
G1 X85.954 Y15.528 F9000.000
G1 X86.083 Y11.895 F9000.000
G1 X85.489 Y11.338 E6.41188 F474.523
G1 X85.152 Y11.093 E6.43266
G1 X84.786 Y10.892 E6.45345
G1 X84.397 Y10.738 E6.47424
G1 X83.985 Y10.633 E6.49542
G1 X83.585 Y10.582 E6.51550
G1 X83.169 Y10.582 E6.53622
G1 X82.747 Y10.634 E6.55739
G1 X82.343 Y10.738 E6.57818
G1 X81.954 Y10.892 E6.59897
G1 X81.577 Y11.101 E6.62045
G1 X81.251 Y11.338 E6.64054
G1 X80.952 Y11.619 E6.66094
G1 X80.680 Y11.946 E6.68212
G1 X80.456 Y12.300 E6.70299
G1 X80.277 Y12.682 E6.72401
G1 X80.152 Y13.066 E6.74409
G1 X80.071 Y13.483 E6.76527
G1 X80.045 Y13.900 E6.78606
G1 X80.072 Y14.317 E6.80685
G1 X80.152 Y14.734 E6.82802
G1 X80.281 Y15.130 E6.84874
G1 X80.453 Y15.495 E6.86882
G1 X80.680 Y15.854 E6.88999
G1 X80.946 Y16.176 E6.91078
G1 X81.245 Y16.456 E6.93117
G1 X81.582 Y16.703 E6.95197
G1 X81.954 Y16.908 E6.97314
G1 X82.343 Y17.062 E6.99393
G1 X82.747 Y17.166 E7.01472
G1 X83.169 Y17.218 E7.03590
G1 X83.579 Y17.218 E7.05630
G1 X83.985 Y17.167 E7.07670
G1 X84.397 Y17.062 E7.09787
G1 X84.786 Y16.908 E7.11866
G1 X85.152 Y16.707 E7.13945
G1 X85.489 Y16.462 E7.16024
G1 X86.083 Y15.905 E7.20076
G1 X86.098 Y15.182 F9000.000
G1 X86.210 Y14.505 E7.23493 F474.523
G1 X86.210 Y14.505 F9000.000
G1 X86.244 Y13.900 E7.30026 F474.523
G1 X86.210 Y13.295 E7.36560
G1 X86.210 Y13.295 F9000.000
G1 X86.098 Y12.617 E7.39982 F474.523
M104 S199 ; set temperature
M140 S55 ; wait for bed temperature to be reached
;Layer change
G1 E1.39982 F1800.00000
G92 E0
G1 Z0.520 F9000.000
G1 X86.070 Y15.698 F9000.000
G1 E6.00000 F1800.00000
G1 X85.870 Y15.640 E6.00695 F300.000
G1 X85.870 Y12.160 E6.12322
G1 X86.070 Y12.102 E6.13017
G1 X86.218 Y12.334 E6.13938
G1 X86.391 Y12.704 E6.15301
G1 X86.518 Y13.092 E6.16665
G1 X86.594 Y13.493 E6.18028
G1 X86.620 Y13.900 E6.19391
G1 X86.594 Y14.307 E6.20754
G1 X86.518 Y14.708 E6.22117
G1 X86.391 Y15.096 E6.23480
G1 X86.218 Y15.466 E6.24843
G1 X86.102 Y15.648 E6.25564
G1 X85.941 Y15.535 F9000.000
G1 X86.078 Y11.891 F9000.000
G1 X85.489 Y11.338 E6.29932 F300.000
G1 X85.152 Y11.093 E6.32191
G1 X84.786 Y10.892 E6.34449
G1 X84.397 Y10.738 E6.36707
G1 X83.985 Y10.633 E6.39007
G1 X83.586 Y10.583 E6.41181
G1 X83.169 Y10.582 E6.43438
G1 X82.747 Y10.635 E6.45738
G1 X82.343 Y10.738 E6.47996
G1 X81.954 Y10.892 E6.50254
G1 X81.582 Y11.097 E6.52555
G1 X81.245 Y11.343 E6.54813
G1 X80.942 Y11.630 E6.57070
G1 X80.680 Y11.946 E6.59286
G1 X80.453 Y12.305 E6.61586
G1 X80.279 Y12.676 E6.63802
G1 X80.152 Y13.066 E6.66018
G1 X80.071 Y13.483 E6.68318
G1 X80.045 Y13.900 E6.70577
G1 X80.071 Y14.317 E6.72835
G1 X80.152 Y14.734 E6.75135
G1 X80.279 Y15.124 E6.77351
G1 X80.453 Y15.495 E6.79567
G1 X80.680 Y15.854 E6.81867
G1 X80.947 Y16.175 E6.84125
G1 X81.244 Y16.456 E6.86337
G1 X81.582 Y16.703 E6.88598
G1 X81.954 Y16.908 E6.90899
G1 X82.343 Y17.062 E6.93157
G1 X82.739 Y17.164 E6.95373
G1 X83.169 Y17.218 E6.97715
G1 X83.579 Y17.218 E6.99931
G1 X83.985 Y17.167 E7.02146
G1 X84.397 Y17.062 E7.04447
G1 X84.786 Y16.908 E7.06705
G1 X85.152 Y16.707 E7.08963
G1 X85.489 Y16.462 E7.11220
G1 X86.076 Y15.908 E7.15583
G1 X86.115 Y15.106 F9000.000
G1 X86.199 Y14.626 E7.18216 F300.000
G1 X86.244 Y13.900 E7.22152
G1 X86.199 Y13.174 E7.26088
G1 X86.115 Y12.694 E7.28721
;Layer change
G1 E1.28721 F1800.00000
G92 E0
G1 Z0.740 F9000.000
G1 X86.070 Y15.698 F9000.000
G1 E6.00000 F1800.00000
G1 X85.870 Y15.640 E6.00695 F300.000
G1 X85.870 Y12.160 E6.12322
G1 X86.070 Y12.102 E6.13017
G1 X86.218 Y12.334 E6.13938
G1 X86.391 Y12.704 E6.15301
G1 X86.518 Y13.092 E6.16665
G1 X86.594 Y13.493 E6.18028
G1 X86.620 Y13.900 E6.19391
G1 X86.594 Y14.307 E6.20754
G1 X86.518 Y14.708 E6.22117
G1 X86.391 Y15.096 E6.23480
G1 X86.218 Y15.466 E6.24843
G1 X86.102 Y15.648 E6.25564
G1 X85.941 Y15.535 F9000.000
G1 X86.078 Y11.891 F9000.000
G1 X85.489 Y11.338 E6.29932 F300.000
G1 X85.152 Y11.093 E6.32191
G1 X84.786 Y10.892 E6.34449
G1 X84.397 Y10.738 E6.36707
G1 X83.985 Y10.633 E6.39007
G1 X83.586 Y10.584 E6.41181
G1 X83.169 Y10.582 E6.43438
G1 X82.747 Y10.634 E6.45738
G1 X82.343 Y10.738 E6.47996
G1 X81.954 Y10.892 E6.50255
G1 X81.582 Y11.097 E6.52555
G1 X81.251 Y11.338 E6.54771
G1 X80.952 Y11.619 E6.56987
G1 X80.680 Y11.946 E6.59287
G1 X80.453 Y12.305 E6.61587
G1 X80.277 Y12.684 E6.63844
G1 X80.152 Y13.066 E6.66018
G1 X80.071 Y13.483 E6.68318
G1 X80.045 Y13.900 E6.70576
G1 X80.073 Y14.317 E6.72834
G1 X80.152 Y14.734 E6.75134
G1 X80.279 Y15.124 E6.77350
G1 X80.453 Y15.495 E6.79566
G1 X80.680 Y15.854 E6.81866
G1 X80.947 Y16.175 E6.84124
G1 X81.260 Y16.469 E6.86442
G1 X81.591 Y16.703 E6.88638
G1 X81.947 Y16.905 E6.90852
G1 X82.343 Y17.062 E6.93152
G1 X82.740 Y17.163 E6.95368
G1 X83.169 Y17.218 E6.97710
G1 X83.587 Y17.217 E6.99973
G1 X83.993 Y17.165 E7.02183
G1 X84.397 Y17.062 E7.04441
G1 X84.786 Y16.908 E7.06699
G1 X85.152 Y16.707 E7.08957
G1 X85.489 Y16.462 E7.11215
G1 X86.078 Y15.909 E7.15583
G1 X86.115 Y15.106 F9000.000
G1 X86.199 Y14.626 E7.18216 F300.000
G1 X86.244 Y13.900 E7.22152
G1 X86.199 Y13.174 E7.26088
G1 X86.115 Y12.694 E7.28721
;Layer change
G1 E1.28721 F1800.00000
G92 E0
G1 Z0.960 F9000.000
G1 X86.070 Y15.698 F9000.000
G1 E6.00000 F1800.00000
G1 X85.870 Y15.640 E6.00695 F300.000
G1 X85.870 Y12.160 E6.12322
G1 X86.070 Y12.102 E6.13017
G1 X86.218 Y12.334 E6.13938
G1 X86.391 Y12.704 E6.15301
G1 X86.518 Y13.092 E6.16665
G1 X86.594 Y13.493 E6.18028
G1 X86.620 Y13.900 E6.19391
G1 X86.594 Y14.307 E6.20754
G1 X86.518 Y14.708 E6.22117
G1 X86.402 Y15.062 E6.23361
G1 X86.217 Y15.466 E6.24846
G1 X86.102 Y15.648 E6.25563
G1 X85.941 Y15.535 F9000.000
G1 X86.078 Y11.891 F9000.000
G1 X85.489 Y11.338 E6.29931 F300.000
G1 X85.152 Y11.093 E6.32190
G1 X84.786 Y10.892 E6.34448
G1 X84.397 Y10.738 E6.36706
G1 X83.985 Y10.633 E6.39006
G1 X83.586 Y10.584 E6.41180
G1 X83.169 Y10.582 E6.43437
G1 X82.747 Y10.634 E6.45737
G1 X82.343 Y10.738 E6.47995
G1 X81.954 Y10.892 E6.50253
G1 X81.582 Y11.097 E6.52554
G1 X81.245 Y11.343 E6.54812
G1 X80.942 Y11.631 E6.57069
G1 X80.680 Y11.946 E6.59284
G1 X80.458 Y12.299 E6.61539
G1 X80.278 Y12.684 E6.63841
G1 X80.152 Y13.066 E6.66014
G1 X80.071 Y13.483 E6.68314
G1 X80.045 Y13.900 E6.70573
G1 X80.073 Y14.316 E6.72830
G1 X80.152 Y14.734 E6.75130
G1 X80.279 Y15.124 E6.77346
G1 X80.453 Y15.495 E6.79561
G1 X80.680 Y15.854 E6.81862
G1 X80.948 Y16.175 E6.84119
G1 X81.244 Y16.456 E6.86328
G1 X81.582 Y16.703 E6.88592
G1 X81.954 Y16.908 E6.90893
G1 X82.343 Y17.062 E6.93151
G1 X82.747 Y17.166 E6.95409
G1 X83.169 Y17.218 E6.97710
G1 X83.587 Y17.217 E6.99968
G1 X83.993 Y17.166 E7.02183
G1 X84.368 Y17.072 E7.04272
G1 X84.786 Y16.908 E7.06700
G1 X85.152 Y16.707 E7.08958
G1 X85.489 Y16.462 E7.11216
G1 X86.078 Y15.909 E7.15584
G1 X86.116 Y15.099 F9000.000
G1 X86.199 Y14.626 E7.18178 F300.000
G1 X86.244 Y13.900 E7.22114
G1 X86.199 Y13.174 E7.26049
G1 X86.115 Y12.694 E7.28683
;Layer change
G1 E1.28683 F1800.00000
G92 E0
G1 Z1.180 F9000.000
G1 X86.070 Y15.698 F9000.000
G1 E6.00000 F1800.00000
G1 X85.870 Y15.640 E6.00695 F300.000
G1 X85.870 Y12.160 E6.12322
G1 X86.070 Y12.102 E6.13017
G1 X86.218 Y12.334 E6.13938
G1 X86.391 Y12.704 E6.15301
G1 X86.518 Y13.092 E6.16665
G1 X86.594 Y13.493 E6.18028
G1 X86.620 Y13.900 E6.19391
G1 X86.594 Y14.307 E6.20754
G1 X86.518 Y14.708 E6.22117
G1 X86.391 Y15.096 E6.23480
G1 X86.218 Y15.466 E6.24843
G1 X86.102 Y15.648 E6.25564
G1 X85.941 Y15.535 F9000.000
G1 X86.078 Y11.891 F9000.000
G1 X85.489 Y11.338 E6.29932 F300.000
G1 X85.152 Y11.093 E6.32191
G1 X84.786 Y10.892 E6.34449
G1 X84.397 Y10.738 E6.36707
G1 X83.985 Y10.633 E6.39007
G1 X83.586 Y10.585 E6.41181
G1 X83.169 Y10.582 E6.43437
G1 X82.747 Y10.634 E6.45738
G1 X82.343 Y10.738 E6.47996
G1 X81.954 Y10.892 E6.50254
G1 X81.582 Y11.097 E6.52554
G1 X81.245 Y11.343 E6.54812
G1 X80.943 Y11.631 E6.57069
G1 X80.680 Y11.946 E6.59285
G1 X80.453 Y12.305 E6.61585
G1 X80.279 Y12.676 E6.63801
G1 X80.152 Y13.066 E6.66017
G1 X80.071 Y13.483 E6.68317
G1 X80.045 Y13.900 E6.70575
G1 X80.074 Y14.316 E6.72833
G1 X80.152 Y14.734 E6.75132
G1 X80.279 Y15.124 E6.77348
G1 X80.453 Y15.495 E6.79564
G1 X80.680 Y15.854 E6.81864
G1 X80.948 Y16.174 E6.84122
G1 X81.244 Y16.456 E6.86328
G1 X81.582 Y16.703 E6.88594
G1 X81.954 Y16.908 E6.90895
G1 X82.343 Y17.062 E6.93153
G1 X82.747 Y17.166 E6.95411
G1 X83.169 Y17.218 E6.97712
G1 X83.579 Y17.218 E6.99927
G1 X83.985 Y17.167 E7.02143
G1 X84.397 Y17.062 E7.04444
G1 X84.786 Y16.908 E7.06702
G1 X85.152 Y16.707 E7.08960
G1 X85.489 Y16.462 E7.11218
G1 X86.078 Y15.909 E7.15586
G1 X86.115 Y15.106 F9000.000
G1 X86.199 Y14.626 E7.18219 F300.000
G1 X86.244 Y13.900 E7.22155
G1 X86.199 Y13.174 E7.26091
G1 X86.115 Y12.694 E7.28724
;Layer change
G1 E1.28724 F1800.00000
G92 E0
G1 Z1.400 F9000.000
G1 X86.070 Y15.698 F9000.000
G1 E6.00000 F1800.00000
G1 X85.870 Y15.640 E6.00695 F300.000
G1 X85.870 Y12.160 E6.12322
G1 X86.070 Y12.102 E6.13017
G1 X86.218 Y12.334 E6.13938
G1 X86.391 Y12.704 E6.15301
G1 X86.518 Y13.092 E6.16665
G1 X86.594 Y13.493 E6.18028
G1 X86.620 Y13.900 E6.19391
G1 X86.594 Y14.307 E6.20754
G1 X86.518 Y14.708 E6.22117
G1 X86.391 Y15.096 E6.23480
G1 X86.218 Y15.466 E6.24843
G1 X86.102 Y15.648 E6.25564
G1 X85.941 Y15.535 F9000.000
G1 X86.078 Y11.891 F9000.000
G1 X85.489 Y11.338 E6.29932 F300.000
G1 X85.152 Y11.093 E6.32191
G1 X84.786 Y10.892 E6.34449
G1 X84.397 Y10.738 E6.36707
G1 X83.985 Y10.633 E6.39007
G1 X83.586 Y10.585 E6.41181
G1 X83.169 Y10.582 E6.43437
G1 X82.747 Y10.634 E6.45737
G1 X82.343 Y10.738 E6.47995
G1 X81.954 Y10.892 E6.50254
G1 X81.582 Y11.097 E6.52554
G1 X81.245 Y11.344 E6.54812
G1 X80.943 Y11.632 E6.57068
G1 X80.680 Y11.946 E6.59284
G1 X80.453 Y12.305 E6.61584
G1 X80.279 Y12.684 E6.63840
G1 X80.152 Y13.066 E6.66014
G1 X80.071 Y13.483 E6.68314
G1 X80.045 Y13.900 E6.70573
G1 X80.074 Y14.316 E6.72830
G1 X80.152 Y14.734 E6.75129
G1 X80.279 Y15.124 E6.77345
G1 X80.453 Y15.495 E6.79561
G1 X80.680 Y15.854 E6.81861
G1 X80.948 Y16.174 E6.84119
G1 X81.244 Y16.455 E6.86324
G1 X81.582 Y16.703 E6.88591
G1 X81.954 Y16.908 E6.90892
G1 X82.343 Y17.062 E6.93150
G1 X82.747 Y17.166 E6.95408
G1 X83.169 Y17.218 E6.97708
G1 X83.579 Y17.218 E6.99924
G1 X83.985 Y17.167 E7.02140
G1 X84.397 Y17.062 E7.04440
G1 X84.786 Y16.908 E7.06699
G1 X85.152 Y16.707 E7.08957
G1 X85.489 Y16.462 E7.11210
G1 X86.072 Y15.907 E7.15564
G1 X86.115 Y15.106 F9000.000
G1 X86.199 Y14.626 E7.18198 F300.000
G1 X86.244 Y13.900 E7.22133
G1 X86.199 Y13.174 E7.26069
G1 X86.115 Y12.694 E7.28702
;Layer change
G1 E1.28702 F1800.00000
G92 E0
G1 Z1.620 F9000.000
G1 X86.070 Y15.698 F9000.000
G1 E6.00000 F1800.00000
G1 X85.870 Y15.640 E6.00695 F300.000
G1 X85.870 Y12.160 E6.12322
G1 X86.070 Y12.102 E6.13017
G1 X86.218 Y12.334 E6.13938
G1 X86.391 Y12.704 E6.15301
G1 X86.518 Y13.092 E6.16665
G1 X86.594 Y13.493 E6.18028
G1 X86.620 Y13.900 E6.19391
G1 X86.594 Y14.307 E6.20754
G1 X86.518 Y14.708 E6.22117
G1 X86.411 Y15.036 E6.23267
G1 X86.217 Y15.467 E6.24848
G1 X86.102 Y15.648 E6.25563
G1 X85.941 Y15.535 F9000.000
G1 X86.078 Y11.891 F9000.000
G1 X85.489 Y11.338 E6.29931 F300.000
G1 X85.152 Y11.093 E6.32189
G1 X84.786 Y10.892 E6.34447
G1 X84.397 Y10.738 E6.36705
G1 X83.985 Y10.633 E6.39006
G1 X83.586 Y10.586 E6.41179
G1 X83.169 Y10.582 E6.43435
G1 X82.747 Y10.634 E6.45735
G1 X82.343 Y10.738 E6.47994
G1 X81.954 Y10.892 E6.50252
G1 X81.582 Y11.097 E6.52552
G1 X81.251 Y11.338 E6.54768
G1 X80.952 Y11.619 E6.56984
G1 X80.680 Y11.946 E6.59284
G1 X80.453 Y12.305 E6.61585
G1 X80.279 Y12.676 E6.63800
G1 X80.152 Y13.066 E6.66016
G1 X80.071 Y13.483 E6.68316
G1 X80.045 Y13.900 E6.70575
G1 X80.072 Y14.317 E6.72833
G1 X80.152 Y14.734 E6.75133
G1 X80.279 Y15.124 E6.77349
G1 X80.453 Y15.495 E6.79564
G1 X80.680 Y15.854 E6.81865
G1 X80.952 Y16.181 E6.84165
G1 X81.251 Y16.462 E6.86381
G1 X81.582 Y16.703 E6.88597
G1 X81.954 Y16.908 E6.90897
G1 X82.343 Y17.062 E6.93155
G1 X82.747 Y17.166 E6.95413
G1 X83.169 Y17.218 E6.97714
G1 X83.579 Y17.218 E6.99930
G1 X83.985 Y17.167 E7.02145
G1 X84.397 Y17.062 E7.04446
G1 X84.786 Y16.908 E7.06704
G1 X85.152 Y16.707 E7.08962
G1 X85.489 Y16.462 E7.11220
G1 X86.078 Y15.909 E7.15588
G1 X86.116 Y15.093 F9000.000
G1 X86.199 Y14.626 E7.18154 F300.000
G1 X86.244 Y13.900 E7.22090
G1 X86.199 Y13.174 E7.26025
G1 X86.115 Y12.694 E7.28659
;Layer change
G1 E1.28659 F1800.00000
G92 E0
G1 Z1.840 F9000.000
G1 X86.070 Y15.698 F9000.000
G1 E6.00000 F1800.00000
G1 X85.870 Y15.640 E6.00695 F300.000
G1 X85.870 Y12.160 E6.12322
G1 X86.070 Y12.102 E6.13017
G1 X86.218 Y12.334 E6.13938
G1 X86.391 Y12.704 E6.15301
G1 X86.518 Y13.092 E6.16665
G1 X86.594 Y13.493 E6.18028
G1 X86.620 Y13.900 E6.19391
G1 X86.594 Y14.307 E6.20754
G1 X86.518 Y14.708 E6.22117
G1 X86.391 Y15.096 E6.23480
G1 X86.218 Y15.466 E6.24843
G1 X86.102 Y15.648 E6.25564
G1 X85.941 Y15.535 F9000.000
G1 X86.078 Y11.891 F9000.000
G1 X85.489 Y11.338 E6.29932 F300.000
G1 X85.152 Y11.093 E6.32191
G1 X84.786 Y10.892 E6.34449
G1 X84.397 Y10.738 E6.36707
G1 X83.985 Y10.633 E6.39007
G1 X83.586 Y10.586 E6.41181
G1 X83.169 Y10.582 E6.43436
G1 X82.747 Y10.634 E6.45737
