; generated by Slic3r 1.2.9 on 2017-11-11 at 21:22:13

; external perimeters extrusion width = 0.40mm
; perimeters extrusion width = 0.62mm
; infill extrusion width = 0.33mm
; solid infill extrusion width = 0.62mm
; top infill extrusion width = 0.20mm
; support material extrusion width = 0.40mm

M106 S256; Turn on fan to 100% power
M104 S140; turn on extruder temperature at S value
M140 S60; turn on bed temperature at S value
G28; home all axes
M84; disable motors
G1 Z15 F15000; have Z move to 20mm at 15000 mm/min
M190 S55; turn on bed temperature at S value and wait
M140 S55; turn on bed temperature at S value (printing temperature)
M109 S200; turn on extruder temperature at S value and wait (printing temperature)
M104 S200; turn on extruder temperature at S value
G1 Z0 F12000; move Z back to home
G21 ; set units to millimeters
G90 ; use absolute coordinates
M82 ; use absolute distances for extrusion
G92 E0
M106 S255
;Layer change
G1 E-6.00000 F1800.00000
G92 E0
G1 Z0.300 F9000.000
G1 X29.211 Y10.129 F9000.000
G1 E6.00000 F1800.00000
G1 X29.920 Y8.960 E6.06806 F600.000
G1 X31.520 Y8.344 E6.15342
G1 X136.620 Y8.344 E11.38624
G1 X137.930 Y8.736 E11.45430
G1 X138.809 Y9.782 E11.52236 F600.000
G1 X139.006 Y10.730 E11.57054
G1 X139.006 Y22.730 E12.16801
G1 X138.614 Y24.040 E12.23607
G1 X137.568 Y24.919 E12.30413
G1 X136.659 Y25.115 E12.35043
G1 X37.396 Y26.727 E17.29327
G1 X30.456 Y26.728 E17.63881
G1 X29.146 Y26.336 E17.70687
G1 X28.482 Y25.681 E17.75331
G1 X27.986 Y24.950 E17.79731
G1 X27.574 Y23.611 E17.86708
G1 X27.574 Y16.726 E18.20987
G1 X27.651 Y16.125 E18.24003
G1 X29.196 Y10.187 E18.54550
G1 E12.54550 F1800.00000
G92 E0
G1 X37.131 Y16.119 F9000.000
G1 E6.00000 F1800.00000
G1 X36.131 Y16.119 E6.04979 F600.000
G1 X36.131 Y14.869 E6.11203
G1 X32.131 Y14.869 E6.31118
G1 X32.131 Y11.341 E6.48687
G1 X136.009 Y11.341 E11.65889
G1 X136.009 Y22.119 E12.19556
G1 X37.131 Y22.119 E17.11863
G1 X37.131 Y16.179 E17.41438
G1 X36.745 Y16.505 F9000.000
G1 X35.745 Y16.505 E17.46417 F600.000
G1 X35.745 Y15.255 E17.52641
G1 X31.745 Y15.255 E17.72556
G1 X31.745 Y10.955 E17.93965
G1 X136.395 Y10.955 E23.15007
G1 X136.395 Y22.505 E23.72514
G1 X36.745 Y22.505 E28.68661
G1 X36.745 Y16.565 E28.98236
G1 X36.745 Y16.105 F9000.000
G1 X37.414 Y16.718 F9000.000
G1 X42.532 Y21.836 E29.34317 F600.000
G1 X41.986 Y21.836 E29.37039
G1 X37.414 Y17.264 E29.69270
G1 X37.414 Y17.810 E29.71993
G1 X41.440 Y21.836 E30.00374
G1 X40.894 Y21.836 E30.03097
G1 X37.414 Y18.356 E30.27629
G1 X37.414 Y18.902 E30.30351
G1 X40.348 Y21.836 E30.51033
G1 X39.802 Y21.836 E30.53756
G1 X37.414 Y19.448 E30.70589
G1 X37.414 Y19.994 E30.73311
G1 X39.256 Y21.836 E30.86294
G1 X38.710 Y21.836 E30.89016
G1 X37.414 Y20.540 E30.98150
G1 X37.414 Y21.086 E31.00872
G1 X38.164 Y21.836 E31.06156
G1 X37.618 Y21.836 E31.08878
G1 X37.414 Y21.632 E31.10313
G1 X37.414 Y16.172 F9000.000
G1 X43.078 Y21.836 E31.50244 F600.000
G1 X43.624 Y21.836 E31.52966
G1 X33.413 Y11.624 E32.24956
G1 X33.959 Y11.624 E32.27678
G1 X44.170 Y21.836 E32.99668
G1 X44.716 Y21.836 E33.02390
G1 X34.505 Y11.624 E33.74380
G1 X35.051 Y11.624 E33.77102
G1 X45.262 Y21.836 E34.49092
G1 X45.808 Y21.836 E34.51814
G1 X35.597 Y11.624 E35.23804
G1 X36.143 Y11.624 E35.26526
G1 X46.354 Y21.836 E35.98516
G1 X46.901 Y21.836 E36.01238
G1 X36.689 Y11.624 E36.73228
G1 X37.235 Y11.624 E36.75950
G1 X47.447 Y21.836 E37.47940
G1 X47.993 Y21.836 E37.50662
G1 X37.781 Y11.624 E38.22652
G1 X38.327 Y11.624 E38.25374
G1 X48.539 Y21.836 E38.97364
G1 X49.085 Y21.836 E39.00086
G1 X38.873 Y11.624 E39.72076
G1 X39.420 Y11.624 E39.74798
G1 X49.631 Y21.836 E40.46788
G1 X50.177 Y21.836 E40.49510
G1 X39.966 Y11.624 E41.21500
G1 X40.512 Y11.624 E41.24222
G1 X50.723 Y21.836 E41.96212
G1 X51.269 Y21.836 E41.98934
G1 X41.058 Y11.624 E42.70924
G1 X41.604 Y11.624 E42.73646
G1 X51.815 Y21.836 E43.45636
G1 X52.361 Y21.836 E43.48358
G1 X42.150 Y11.624 E44.20348
G1 X42.696 Y11.624 E44.23070
G1 X52.907 Y21.836 E44.95060
G1 X53.453 Y21.836 E44.97782
G1 X43.242 Y11.624 E45.69772
G1 X43.788 Y11.624 E45.72494
G1 X53.999 Y21.836 E46.44484
G1 X54.545 Y21.836 E46.47206
G1 X44.334 Y11.624 E47.19196
G1 X44.880 Y11.624 E47.21918
G1 X55.091 Y21.836 E47.93908
G1 X55.637 Y21.836 E47.96630
G1 X45.426 Y11.624 E48.68620
G1 X45.972 Y11.624 E48.71342
G1 X56.183 Y21.836 E49.43332
G1 X56.729 Y21.836 E49.46054
G1 X46.518 Y11.624 E50.18044
G1 X47.064 Y11.624 E50.20766
G1 X57.275 Y21.836 E50.92756
G1 X57.821 Y21.836 E50.95478
G1 X47.610 Y11.624 E51.67468
G1 X48.156 Y11.624 E51.70190
G1 X58.367 Y21.836 E52.42180
G1 X58.913 Y21.836 E52.44902
G1 X48.702 Y11.624 E53.16892
G1 X49.248 Y11.624 E53.19614
G1 X59.459 Y21.836 E53.91604
G1 X60.005 Y21.836 E53.94326
G1 X49.794 Y11.624 E54.66316
G1 X50.340 Y11.624 E54.69038
G1 X60.551 Y21.836 E55.41028
G1 X61.097 Y21.836 E55.43750
G1 X50.886 Y11.624 E56.15740
G1 X51.432 Y11.624 E56.18462
G1 X61.644 Y21.836 E56.90452
G1 X62.190 Y21.836 E56.93174
G1 X51.978 Y11.624 E57.65164
G1 X52.524 Y11.624 E57.67886
G1 X62.736 Y21.836 E58.39876
G1 X63.282 Y21.836 E58.42598
G1 X53.070 Y11.624 E59.14588
G1 X53.616 Y11.624 E59.17310
G1 X63.828 Y21.836 E59.89300
G1 X64.374 Y21.836 E59.92022
G1 X54.163 Y11.624 E60.64012
G1 X54.709 Y11.624 E60.66734
G1 X64.920 Y21.836 E61.38724
G1 X65.466 Y21.836 E61.41446
G1 X55.255 Y11.624 E62.13436
G1 X55.801 Y11.624 E62.16158
G1 X66.012 Y21.836 E62.88148
G1 X66.558 Y21.836 E62.90870
G1 X56.347 Y11.624 E63.62860
G1 X56.893 Y11.624 E63.65582
G1 X67.104 Y21.836 E64.37572
G1 X67.650 Y21.836 E64.40294
G1 X57.439 Y11.624 E65.12284
G1 X57.985 Y11.624 E65.15006
G1 X68.196 Y21.836 E65.86996
G1 X68.742 Y21.836 E65.89718
G1 X58.531 Y11.624 E66.61708
G1 X59.077 Y11.624 E66.64430
G1 X69.288 Y21.836 E67.36420
G1 X69.834 Y21.836 E67.39142
G1 X59.623 Y11.624 E68.11132
G1 X60.169 Y11.624 E68.13854
G1 X70.380 Y21.836 E68.85844
G1 X70.926 Y21.836 E68.88566
G1 X60.715 Y11.624 E69.60556
G1 X61.261 Y11.624 E69.63278
G1 X71.472 Y21.836 E70.35268
G1 X72.018 Y21.836 E70.37990
G1 X61.807 Y11.624 E71.09980
G1 X62.353 Y11.624 E71.12702
G1 X72.564 Y21.836 E71.84692
G1 X73.110 Y21.836 E71.87414
G1 X62.899 Y11.624 E72.59404
G1 X63.445 Y11.624 E72.62126
G1 X73.656 Y21.836 E73.34116
G1 X74.202 Y21.836 E73.36838
G1 X63.991 Y11.624 E74.08828
G1 X64.537 Y11.624 E74.11550
G1 X74.748 Y21.836 E74.83540
G1 X75.294 Y21.836 E74.86262
G1 X65.083 Y11.624 E75.58252
G1 X65.629 Y11.624 E75.60974
G1 X75.840 Y21.836 E76.32964
G1 X76.386 Y21.836 E76.35686
G1 X66.175 Y11.624 E77.07676
G1 X66.721 Y11.624 E77.10398
G1 X76.933 Y21.836 E77.82388
G1 X77.479 Y21.836 E77.85110
G1 X67.267 Y11.624 E78.57100
G1 X67.813 Y11.624 E78.59822
G1 X78.025 Y21.836 E79.31812
G1 X78.571 Y21.836 E79.34534
G1 X68.359 Y11.624 E80.06524
G1 X68.906 Y11.624 E80.09246
G1 X79.117 Y21.836 E80.81236
G1 X79.663 Y21.836 E80.83958
G1 X69.452 Y11.624 E81.55948
G1 X69.998 Y11.624 E81.58670
G1 X80.209 Y21.836 E82.30660
G1 X80.755 Y21.836 E82.33382
G1 X70.544 Y11.624 E83.05372
G1 X71.090 Y11.624 E83.08094
G1 X81.301 Y21.836 E83.80084
G1 X81.847 Y21.836 E83.82806
G1 X71.636 Y11.624 E84.54796
G1 X72.182 Y11.624 E84.57518
G1 X82.393 Y21.836 E85.29508
G1 X82.939 Y21.836 E85.32230
G1 X72.728 Y11.624 E86.04220
G1 X73.274 Y11.624 E86.06942
G1 X83.485 Y21.836 E86.78932
G1 X84.031 Y21.836 E86.81654
G1 X73.820 Y11.624 E87.53644
G1 X74.366 Y11.624 E87.56366
G1 X84.577 Y21.836 E88.28356
G1 X85.123 Y21.836 E88.31078
G1 X74.912 Y11.624 E89.03068
G1 X75.458 Y11.624 E89.05790
G1 X85.669 Y21.836 E89.77780
G1 X86.215 Y21.836 E89.80502
G1 X76.004 Y11.624 E90.52492
G1 X76.550 Y11.624 E90.55214
G1 X86.761 Y21.836 E91.27204
G1 X87.307 Y21.836 E91.29926
G1 X77.096 Y11.624 E92.01916
G1 X77.642 Y11.624 E92.04638
G1 X87.853 Y21.836 E92.76628
G1 X88.399 Y21.836 E92.79350
G1 X78.188 Y11.624 E93.51340
G1 X78.734 Y11.624 E93.54062
G1 X88.945 Y21.836 E94.26052
G1 X89.491 Y21.836 E94.28774
G1 X79.280 Y11.624 E95.00764
G1 X79.826 Y11.624 E95.03486
G1 X90.037 Y21.836 E95.75476
G1 X90.583 Y21.836 E95.78198
G1 X80.372 Y11.624 E96.50188
G1 X80.918 Y11.624 E96.52910
G1 X91.129 Y21.836 E97.24900
G1 X91.676 Y21.836 E97.27622
G1 X81.464 Y11.624 E97.99612
G1 X82.010 Y11.624 E98.02334
G1 X92.222 Y21.836 E98.74324
G1 X92.768 Y21.836 E98.77046
G1 X82.556 Y11.624 E99.49036
G1 X83.102 Y11.624 E99.51758
G1 X93.314 Y21.836 E100.23748
G1 X93.860 Y21.836 E100.26470
G1 X83.648 Y11.624 E100.98460
G1 X84.195 Y11.624 E101.01182
G1 X94.406 Y21.836 E101.73172
G1 X94.952 Y21.836 E101.75894
G1 X84.741 Y11.624 E102.47884
G1 X85.287 Y11.624 E102.50606
G1 X95.498 Y21.836 E103.22596
G1 X96.044 Y21.836 E103.25318
G1 X85.833 Y11.624 E103.97308
G1 X86.379 Y11.624 E104.00030
G1 X96.590 Y21.836 E104.72020
G1 X97.136 Y21.836 E104.74742
G1 X86.925 Y11.624 E105.46732
G1 X87.471 Y11.624 E105.49454
G1 X97.682 Y21.836 E106.21444
G1 X98.228 Y21.836 E106.24166
G1 X88.017 Y11.624 E106.96156
G1 X88.563 Y11.624 E106.98878
G1 X98.774 Y21.836 E107.70868
G1 X99.320 Y21.836 E107.73590
G1 X89.109 Y11.624 E108.45580
G1 X89.655 Y11.624 E108.48302
G1 X99.866 Y21.836 E109.20292
G1 X100.412 Y21.836 E109.23014
G1 X90.201 Y11.624 E109.95004
G1 X90.747 Y11.624 E109.97726
G1 X100.958 Y21.836 E110.69716
G1 X101.504 Y21.836 E110.72438
G1 X91.293 Y11.624 E111.44428
G1 X91.839 Y11.624 E111.47150
G1 X102.050 Y21.836 E112.19140
G1 X102.596 Y21.836 E112.21862
G1 X92.385 Y11.624 E112.93852
G1 X92.931 Y11.624 E112.96574
G1 X103.142 Y21.836 E113.68564
G1 X103.688 Y21.836 E113.71286
G1 X93.477 Y11.624 E114.43276
G1 X94.023 Y11.624 E114.45998
G1 X104.234 Y21.836 E115.17988
G1 X104.780 Y21.836 E115.20710
G1 X94.569 Y11.624 E115.92700
G1 X95.115 Y11.624 E115.95422
G1 X105.326 Y21.836 E116.67412
G1 X105.872 Y21.836 E116.70134
G1 X95.661 Y11.624 E117.42124
G1 X96.207 Y11.624 E117.44846
G1 X106.419 Y21.836 E118.16836
G1 X106.965 Y21.836 E118.19558
G1 X96.753 Y11.624 E118.91548
G1 X97.299 Y11.624 E118.94270
G1 X107.511 Y21.836 E119.66260
G1 X108.057 Y21.836 E119.68982
G1 X97.845 Y11.624 E120.40972
G1 X98.391 Y11.624 E120.43694
G1 X108.603 Y21.836 E121.15684
G1 X109.149 Y21.836 E121.18406
G1 X98.938 Y11.624 E121.90396
G1 X99.484 Y11.624 E121.93118
G1 X109.695 Y21.836 E122.65108
G1 X110.241 Y21.836 E122.67830
G1 X100.030 Y11.624 E123.39820
G1 X100.576 Y11.624 E123.42542
G1 X110.787 Y21.836 E124.14531
G1 X111.333 Y21.836 E124.17254
G1 X101.122 Y11.624 E124.89243
G1 X101.668 Y11.624 E124.91966
G1 X111.879 Y21.836 E125.63955
G1 X112.425 Y21.836 E125.66678
G1 X102.214 Y11.624 E126.38667
G1 X102.760 Y11.624 E126.41390
G1 X112.971 Y21.836 E127.13379
G1 X113.517 Y21.836 E127.16102
G1 X103.306 Y11.624 E127.88091
G1 X103.852 Y11.624 E127.90814
G1 X114.063 Y21.836 E128.62803
G1 X114.609 Y21.836 E128.65526
G1 X104.398 Y11.624 E129.37515
G1 X104.944 Y11.624 E129.40238
G1 X115.155 Y21.836 E130.12227
G1 X115.701 Y21.836 E130.14950
G1 X105.490 Y11.624 E130.86939
G1 X106.036 Y11.624 E130.89662
G1 X116.247 Y21.836 E131.61651
G1 X116.793 Y21.836 E131.64373
G1 X106.582 Y11.624 E132.36363
G1 X107.128 Y11.624 E132.39085
G1 X117.339 Y21.836 E133.11075
G1 X117.885 Y21.836 E133.13797
G1 X107.674 Y11.624 E133.85787
G1 X108.220 Y11.624 E133.88509
G1 X118.431 Y21.836 E134.60499
G1 X118.977 Y21.836 E134.63221
G1 X108.766 Y11.624 E135.35211
G1 X109.312 Y11.624 E135.37933
G1 X119.523 Y21.836 E136.09923
G1 X120.069 Y21.836 E136.12645
G1 X109.858 Y11.624 E136.84635
G1 X110.404 Y11.624 E136.87357
G1 X120.615 Y21.836 E137.59347
G1 X121.161 Y21.836 E137.62069
G1 X110.950 Y11.624 E138.34059
G1 X111.496 Y11.624 E138.36781
G1 X121.708 Y21.836 E139.08771
G1 X122.254 Y21.836 E139.11493
G1 X112.042 Y11.624 E139.83483
G1 X112.588 Y11.624 E139.86205
G1 X122.800 Y21.836 E140.58195
G1 X123.346 Y21.836 E140.60917
G1 X113.134 Y11.624 E141.32907
G1 X113.681 Y11.624 E141.35629
G1 X123.892 Y21.836 E142.07619
G1 X124.438 Y21.836 E142.10341
G1 X114.227 Y11.624 E142.82331
G1 X114.773 Y11.624 E142.85053
G1 X124.984 Y21.836 E143.57043
G1 X125.530 Y21.836 E143.59765
G1 X115.319 Y11.624 E144.31755
G1 X115.865 Y11.624 E144.34477
G1 X126.076 Y21.836 E145.06467
G1 X126.622 Y21.836 E145.09189
G1 X116.411 Y11.624 E145.81179
G1 X116.957 Y11.624 E145.83901
G1 X127.168 Y21.836 E146.55891
G1 X127.714 Y21.836 E146.58613
G1 X117.503 Y11.624 E147.30603
G1 X118.049 Y11.624 E147.33325
G1 X128.260 Y21.836 E148.05315
G1 X128.806 Y21.836 E148.08037
G1 X118.595 Y11.624 E148.80027
G1 X119.141 Y11.624 E148.82749
G1 X129.352 Y21.836 E149.54739
G1 X129.898 Y21.836 E149.57461
G1 X119.687 Y11.624 E150.29451
G1 X120.233 Y11.624 E150.32173
G1 X130.444 Y21.836 E151.04163
G1 X130.990 Y21.836 E151.06885
G1 X120.779 Y11.624 E151.78875
G1 X121.325 Y11.624 E151.81597
G1 X131.536 Y21.836 E152.53587
G1 X132.082 Y21.836 E152.56309
G1 X121.871 Y11.624 E153.28299
G1 X122.417 Y11.624 E153.31021
G1 X132.628 Y21.836 E154.03011
G1 X133.174 Y21.836 E154.05733
G1 X122.963 Y11.624 E154.77723
G1 X123.509 Y11.624 E154.80445
G1 X133.720 Y21.836 E155.52435
G1 X134.266 Y21.836 E155.55157
G1 X124.055 Y11.624 E156.27147
G1 X124.601 Y11.624 E156.29869
G1 X134.812 Y21.836 E157.01859
G1 X135.358 Y21.836 E157.04581
G1 X125.147 Y11.624 E157.76571
G1 X125.693 Y11.624 E157.79293
G1 X135.726 Y21.657 E158.50022
G1 X135.726 Y21.111 E158.52744
G1 X126.239 Y11.624 E159.19623
G1 X126.785 Y11.624 E159.22345
G1 X135.726 Y20.565 E159.85375
G1 X135.726 Y20.019 E159.88097
G1 X127.331 Y11.624 E160.47276
G1 X127.877 Y11.624 E160.49999
G1 X135.726 Y19.473 E161.05329
G1 X135.726 Y18.926 E161.08051
G1 X128.424 Y11.624 E161.59531
G1 X128.970 Y11.624 E161.62253
G1 X135.726 Y18.380 E162.09884
G1 X135.726 Y17.834 E162.12606
G1 X129.516 Y11.624 E162.56388
G1 X130.062 Y11.624 E162.59110
G1 X135.726 Y17.288 E162.99041
G1 X135.726 Y16.742 E163.01764
G1 X130.608 Y11.624 E163.37846
G1 X131.154 Y11.624 E163.40568
G1 X135.726 Y16.196 E163.72800
G1 X135.726 Y15.650 E163.75522
G1 X131.700 Y11.624 E164.03905
G1 X132.246 Y11.624 E164.06627
G1 X135.726 Y15.104 E164.31160
G1 X135.726 Y14.558 E164.33882
G1 X132.792 Y11.624 E164.54566
G1 X133.338 Y11.624 E164.57288
G1 X135.726 Y14.012 E164.74122
G1 X135.726 Y13.466 E164.76844
G1 X133.884 Y11.624 E164.89828
G1 X134.430 Y11.624 E164.92550
G1 X135.726 Y12.920 E165.01685
G1 X135.726 Y12.374 E165.04407
G1 X134.976 Y11.624 E165.09692
G1 X135.522 Y11.624 E165.12414
G1 X135.726 Y11.828 E165.13850
G1 X37.078 Y15.836 F9000.000
G1 X36.414 Y15.172 E165.18530 F600.000
G1 X35.828 Y14.586 F9000.000
G1 X32.867 Y11.624 E165.39406 F600.000
G1 X32.414 Y11.718 E165.41711
G1 X35.282 Y14.586 E165.61929
G1 X34.736 Y14.586 E165.64651
G1 X32.414 Y12.264 E165.81020
G1 X32.414 Y12.810 E165.83742
G1 X34.190 Y14.586 E165.96261
G1 X33.644 Y14.586 E165.98983
G1 X32.414 Y13.356 E166.07653
G1 X32.414 Y13.902 E166.10375
G1 X33.098 Y14.586 E166.15195
;Layer change
G1 E160.15195 F1800.00000
G92 E0
G1 Z0.300 F9000.000
G1 X30.139 Y16.368 F9000.000
G1 E6.00000 F1800.00000
G1 X29.960 Y16.726 E6.01992 F600.000
G1 X29.960 Y18.447 E6.10561
G1 X31.002 Y16.368 E6.22139
G1 X31.864 Y16.368 E6.26434
G1 X29.960 Y20.168 E6.47598
G1 X30.078 Y21.653 E6.55016
G1 X32.727 Y16.368 E6.84451
G1 X33.590 Y16.368 E6.88746
G1 X30.941 Y21.653 E7.18182
G1 X31.803 Y21.653 E7.22477
G1 X34.659 Y15.957 E7.54204
G1 X34.992 Y17.013 E7.59719
G1 X32.666 Y21.653 E7.85563
G1 X33.529 Y21.653 E7.89858
G1 X35.753 Y17.215 E8.14578
G1 X35.753 Y18.936 E8.23148
G1 X34.391 Y21.653 E8.38282
G1 X35.753 Y20.657 E8.46684
G1 X35.254 Y21.653 E8.52232
G1 X35.938 Y22.010 F9000.000
G1 X34.769 Y24.342 E8.65220 F600.000
G1 X33.907 Y24.342 E8.69515
G1 X35.077 Y22.007 E8.82521
G1 X34.214 Y22.007 E8.86816
G1 X33.044 Y24.342 E8.99822
G1 X32.181 Y24.342 E9.04118
G1 X33.352 Y22.007 E9.17124
G1 X32.489 Y22.007 E9.21419
G1 X31.319 Y24.342 E9.34425
G1 X30.456 Y24.342 E9.38720
G1 X31.626 Y22.007 E9.51726
G1 X30.764 Y22.007 E9.56021
G1 X29.960 Y23.611 E9.64955
G1 X36.201 Y23.207 F9000.000
G1 X35.632 Y24.342 E9.71277 F600.000
G1 X36.495 Y24.342 E9.75573
G1 X37.064 Y23.207 E9.81896
G1 X37.692 Y23.675 E9.85795
G1 X37.357 Y24.342 E9.89512
M104 S199 ; set temperature
M140 S55 ; wait for bed temperature to be reached
;Layer change
G1 E3.89512 F1800.00000
G92 E0
G1 Z0.340 F9000.000
G1 X35.920 Y23.330 F9000.000
