; generated by Slic3r 1.2.9 on 2017-12-09 at 21:43:45

; external perimeters extrusion width = 0.40mm
; perimeters extrusion width = 0.62mm
; infill extrusion width = 0.33mm
; solid infill extrusion width = 0.62mm
; top infill extrusion width = 0.20mm

M106 S256; Turn on fan to 100% power
M104 S140; turn on extruder temperature at S value
M140 S60; turn on bed temperature at S value
G28; home all axes
M84; disable motors
G1 Z15 F15000; have Z move to 20mm at 15000 mm/min
M190 S55; turn on bed temperature at S value and wait
M140 S55; turn on bed temperature at S value (printing temperature)
M109 S200; turn on extruder temperature at S value and wait (printing temperature)
M104 S200; turn on extruder temperature at S value
G1 Z0 F12000; move Z back to home
G21 ; set units to millimeters
G90 ; use absolute coordinates
M82 ; use absolute distances for extrusion
G92 E0
M106 S255
;Layer change
G1 E-6.00000 F1800.00000
G92 E0
G1 Z0.300 F9000.000
G1 X55.882 Y12.968 F9000.000
G1 E6.00000 F1800.00000
G1 X56.112 Y12.200 E6.03989 F600.000
G1 X56.222 Y11.922 E6.05481
G1 X56.580 Y11.205 E6.09471
G1 X57.026 Y10.538 E6.13461
G1 X57.346 Y10.151 E6.15963
G1 X57.917 Y9.589 E6.19954
G1 X58.555 Y9.103 E6.23946
G1 X59.248 Y8.700 E6.27936
G1 X59.519 Y8.573 E6.29427
G1 X60.271 Y8.295 E6.33419
G1 X61.051 Y8.114 E6.37407
G1 X61.550 Y8.051 E6.39909
G1 X62.100 Y8.024 E6.42652
G1 X104.749 Y8.029 E8.54999
G1 X105.251 Y8.061 E8.57501 F600.000
G1 X106.042 Y8.192 E8.61495
G1 X106.810 Y8.422 E8.65484
G1 X107.088 Y8.532 E8.66976
G1 X107.805 Y8.890 E8.70965
G1 X108.229 Y9.160 E8.73466
G1 X108.859 Y9.656 E8.77458
G1 X109.077 Y9.861 E8.78950
G1 X109.421 Y10.227 E8.81451
G1 X109.907 Y10.865 E8.85443
G1 X110.303 Y11.544 E8.89358
G1 X110.437 Y11.829 E8.90924
G1 X110.715 Y12.581 E8.94916
G1 X110.840 Y13.067 E8.97417
G1 X110.959 Y13.860 E9.01407
G1 X110.986 Y14.410 E9.04149
G1 X110.986 Y56.910 E11.15752
G1 X110.949 Y57.561 E11.18997
G1 X110.818 Y58.352 E11.22991
G1 X110.743 Y58.643 E11.24488
G1 X110.478 Y59.397 E11.28466
G1 X110.264 Y59.852 E11.30969
G1 X109.850 Y60.539 E11.34964
G1 X109.674 Y60.782 E11.36456
G1 X109.149 Y61.387 E11.40444
G1 X108.783 Y61.731 E11.42945
G1 X108.145 Y62.218 E11.46942
G1 X107.452 Y62.620 E11.50928
G1 X107.182 Y62.747 E11.52416
G1 X106.430 Y63.025 E11.56409
G1 X105.649 Y63.206 E11.60398
G1 X105.150 Y63.269 E11.62901
G1 X104.600 Y63.296 E11.65645
G1 X61.948 Y63.291 E13.78005
G1 X61.152 Y63.221 E13.81982
G1 X60.659 Y63.127 E13.84483
G1 X59.891 Y62.898 E13.88472
G1 X59.611 Y62.787 E13.89971
G1 X58.895 Y62.430 E13.93955
G1 X58.471 Y62.161 E13.96457
G1 X57.842 Y61.665 E14.00446
G1 X57.623 Y61.460 E14.01938
G1 X57.087 Y60.861 E14.05942
G1 X56.791 Y60.454 E14.08446
G1 X56.390 Y59.763 E14.12423
G1 X56.263 Y59.491 E14.13917
G1 X56.078 Y59.024 E14.16418
G1 X55.860 Y58.254 E14.20403
G1 X55.804 Y57.959 E14.21898
G1 X55.723 Y57.236 E14.25519
G1 X55.714 Y14.410 E16.38746
G1 X55.751 Y13.759 E16.41992
G1 X55.871 Y13.027 E16.45687
G1 E10.45687 F1800.00000
G92 E0
G1 X103.404 Y52.806 F9000.000
G1 E6.00000 F1800.00000
G1 X103.875 Y53.046 E6.02633 F600.000
G1 X104.114 Y53.232 E6.04140
G1 X104.315 Y53.432 E6.05553
G1 X104.490 Y53.658 E6.06974
G1 X104.635 Y53.904 E6.08395
G1 X104.749 Y54.170 E6.09837
G1 X104.826 Y54.435 E6.11214
G1 X104.870 Y54.715 E6.12625
G1 X104.879 Y54.999 E6.14039
G1 X104.853 Y55.283 E6.15457
G1 X104.791 Y55.560 E6.16870
G1 X104.695 Y55.827 E6.18283
G1 X104.565 Y56.081 E6.19701
G1 X104.405 Y56.316 E6.21117
G1 X104.218 Y56.528 E6.22528
G1 X104.005 Y56.715 E6.23937
G1 X103.771 Y56.875 E6.25353
G1 X103.517 Y57.005 E6.26771
G1 X103.249 Y57.101 E6.28187
G1 X102.973 Y57.162 E6.29595
G1 X102.690 Y57.190 E6.31012
G1 X102.406 Y57.180 E6.32427
G1 X102.126 Y57.136 E6.33839
G1 X101.853 Y57.057 E6.35255
G1 X101.592 Y56.944 E6.36670
G1 X101.347 Y56.799 E6.38087
G1 X101.123 Y56.625 E6.39496
G1 X100.922 Y56.425 E6.40909
G1 X100.748 Y56.200 E6.42326
G1 X100.604 Y55.956 E6.43737
G1 X100.491 Y55.695 E6.45152
G1 X100.411 Y55.422 E6.46567
G1 X100.367 Y55.141 E6.47983
G1 X100.358 Y54.858 E6.49396
G1 X100.385 Y54.576 E6.50808
G1 X100.447 Y54.298 E6.52225
G1 X100.543 Y54.030 E6.53643
G1 X100.672 Y53.778 E6.55052
G1 X100.831 Y53.542 E6.56469
G1 X101.020 Y53.329 E6.57884
G1 X101.232 Y53.142 E6.59293
G1 X101.467 Y52.982 E6.60709
G1 X101.721 Y52.852 E6.62128
G1 X102.006 Y52.750 E6.63634
G1 X102.521 Y52.668 E6.66234 F600.000
G1 X102.830 Y52.677 E6.67775
G1 X103.112 Y52.721 E6.69193
G1 X103.346 Y52.789 E6.70408
G1 X103.261 Y53.166 F9000.000
G1 X103.667 Y53.373 E6.72679 F600.000
G1 X103.859 Y53.522 E6.73886
G1 X104.025 Y53.688 E6.75057
G1 X104.170 Y53.874 E6.76233
G1 X104.290 Y54.078 E6.77410
G1 X104.385 Y54.300 E6.78611
G1 X104.449 Y54.520 E6.79751
G1 X104.486 Y54.752 E6.80920
G1 X104.493 Y54.987 E6.82093
G1 X104.471 Y55.222 E6.83269
G1 X104.420 Y55.452 E6.84440
G1 X104.340 Y55.673 E6.85613
G1 X104.233 Y55.884 E6.86788
G1 X104.100 Y56.078 E6.87960
G1 X103.945 Y56.255 E6.89130
G1 X103.768 Y56.410 E6.90301
G1 X103.574 Y56.543 E6.91475
G1 X103.363 Y56.650 E6.92649
G1 X103.142 Y56.730 E6.93822
G1 X102.912 Y56.781 E6.94993
G1 X102.678 Y56.803 E6.96166
G1 X102.442 Y56.795 E6.97339
G1 X102.210 Y56.759 E6.98511
G1 X101.983 Y56.693 E6.99684
G1 X101.767 Y56.600 E7.00857
G1 X101.564 Y56.479 E7.02032
G1 X101.379 Y56.335 E7.03202
G1 X101.212 Y56.169 E7.04373
G1 X101.068 Y55.983 E7.05547
G1 X100.948 Y55.780 E7.06718
G1 X100.854 Y55.564 E7.07890
G1 X100.788 Y55.338 E7.09063
G1 X100.752 Y55.105 E7.10238
G1 X100.744 Y54.870 E7.11410
G1 X100.766 Y54.636 E7.12580
G1 X100.818 Y54.405 E7.13757
G1 X100.898 Y54.183 E7.14931
G1 X101.004 Y53.974 E7.16100
G1 X101.137 Y53.779 E7.17275
G1 X101.293 Y53.602 E7.18447
G1 X101.469 Y53.447 E7.19618
G1 X101.664 Y53.314 E7.20792
G1 X101.874 Y53.207 E7.21966
G1 X102.102 Y53.125 E7.23172
G1 X102.546 Y53.054 E7.25411 F600.000
G1 X102.795 Y53.062 E7.26650
G1 X103.028 Y53.098 E7.27824
G1 X103.203 Y53.149 E7.28735
G1 X103.582 Y52.928 F9000.000
G1 X99.180 Y37.906 F9000.000
G1 X98.892 Y37.980 E7.30212 F600.000
G1 X98.598 Y38.017 E7.31688
G1 X98.302 Y38.017 E7.33165
G1 X98.015 Y37.981 E7.34602
G1 X97.721 Y37.907 E7.36112
G1 X97.444 Y37.797 E7.37595
G1 X97.184 Y37.654 E7.39072
G1 X96.945 Y37.480 E7.40548
G1 X96.727 Y37.276 E7.42031
G1 X96.535 Y37.042 E7.43541
G1 X96.380 Y36.798 E7.44978
G1 X96.254 Y36.529 E7.46455
G1 X96.162 Y36.247 E7.47932
G1 X96.107 Y35.956 E7.49409
G1 X96.088 Y35.659 E7.50891
G1 X96.108 Y35.356 E7.52400
G1 X96.162 Y35.073 E7.53839
G1 X96.254 Y34.791 E7.55315
G1 X96.380 Y34.522 E7.56792
G1 X96.539 Y34.272 E7.58268
G1 X96.728 Y34.043 E7.59746
G1 X96.945 Y33.840 E7.61222
G1 X97.178 Y33.670 E7.62660
G1 X97.443 Y33.523 E7.64170
G1 X97.720 Y33.414 E7.65653
G1 X98.008 Y33.340 E7.67130
G1 X98.302 Y33.303 E7.68606
G1 X98.598 Y33.303 E7.70082 F600.000
G1 X98.885 Y33.339 E7.71520
G1 X99.179 Y33.413 E7.73030
G1 X99.456 Y33.523 E7.74513
G1 X99.716 Y33.666 E7.75990
G1 X99.955 Y33.840 E7.77466
G1 X100.166 Y34.038 E7.78904
G1 X100.360 Y34.271 E7.80414
G1 X100.520 Y34.522 E7.81896
G1 X100.646 Y34.791 E7.83373
G1 X100.738 Y35.073 E7.84850
G1 X100.793 Y35.364 E7.86326
G1 X100.812 Y35.660 E7.87803
G1 X100.793 Y35.956 E7.89280
G1 X100.738 Y36.247 E7.90757
G1 X100.646 Y36.529 E7.92233
G1 X100.520 Y36.798 E7.93710
G1 X100.361 Y37.048 E7.95186
G1 X100.172 Y37.277 E7.96664
G1 X99.955 Y37.480 E7.98140
G1 X99.722 Y37.650 E7.99578
G1 X99.457 Y37.797 E8.01088
G1 X99.236 Y37.884 E8.02272
G1 X99.060 Y37.539 F9000.000
G1 X98.820 Y37.600 E8.03507 F600.000
G1 X98.574 Y37.631 E8.04742
G1 X98.326 Y37.631 E8.05977
G1 X98.087 Y37.601 E8.07177
G1 X97.840 Y37.539 E8.08445
G1 X97.609 Y37.447 E8.09682
G1 X97.391 Y37.328 E8.10918
G1 X97.191 Y37.182 E8.12153
G1 X97.010 Y37.012 E8.13390
G1 X96.848 Y36.815 E8.14658
G1 X96.719 Y36.612 E8.15858
G1 X96.613 Y36.387 E8.17093
G1 X96.537 Y36.151 E8.18328
G1 X96.490 Y35.908 E8.19564
G1 X96.475 Y35.660 E8.20801
G1 X96.491 Y35.406 E8.22068
G1 X96.537 Y35.169 E8.23269
G1 X96.613 Y34.933 E8.24504
G1 X96.719 Y34.708 E8.25739
G1 X96.852 Y34.499 E8.26974
G1 X97.010 Y34.308 E8.28209
G1 X97.191 Y34.138 E8.29445
G1 X97.386 Y33.996 E8.30645
G1 X97.609 Y33.873 E8.31913
G1 X97.840 Y33.781 E8.33150
G1 X98.080 Y33.720 E8.34385
G1 X98.326 Y33.688 E8.35620
G1 X98.574 Y33.688 E8.36855 F600.000
G1 X98.813 Y33.719 E8.38055
G1 X99.060 Y33.781 E8.39323
G1 X99.291 Y33.873 E8.40560
G1 X99.509 Y33.992 E8.41796
G1 X99.709 Y34.138 E8.43031
G1 X99.885 Y34.303 E8.44231
G1 X100.048 Y34.499 E8.45499
G1 X100.181 Y34.708 E8.46736
G1 X100.287 Y34.933 E8.47971
G1 X100.363 Y35.169 E8.49206
G1 X100.410 Y35.412 E8.50442
G1 X100.425 Y35.660 E8.51677
G1 X100.410 Y35.908 E8.52912
G1 X100.363 Y36.151 E8.54147
G1 X100.287 Y36.387 E8.55382
G1 X100.181 Y36.612 E8.56617
G1 X100.048 Y36.821 E8.57852
G1 X99.890 Y37.012 E8.59088
G1 X99.709 Y37.182 E8.60323
G1 X99.514 Y37.324 E8.61523
G1 X99.291 Y37.447 E8.62791
G1 X99.116 Y37.517 E8.63729
G1 X99.004 Y37.780 F9000.000
G1 X94.126 Y37.021 F9000.000
G1 X93.871 Y38.361 E8.70521 F600.000
G1 X93.449 Y39.659 E8.77312
G1 X92.868 Y40.894 E8.84109
G1 X92.112 Y42.075 E8.91091
G1 X91.268 Y43.095 E8.97685
G1 X90.274 Y44.029 E9.04476
G1 X89.170 Y44.831 E9.11268
G1 X87.975 Y45.488 E9.18059
G1 X86.706 Y45.990 E9.24851
G1 X85.385 Y46.329 E9.31642
G1 X84.032 Y46.500 E9.38433
G1 X82.668 Y46.500 E9.45225
G1 X81.315 Y46.329 E9.52016
G1 X79.994 Y45.990 E9.58808
G1 X78.725 Y45.488 E9.65599
G1 X77.530 Y44.831 E9.72390
G1 X76.426 Y44.029 E9.79182
G1 X75.432 Y43.095 E9.85973
G1 X74.563 Y42.044 E9.92765
G1 X73.832 Y40.893 E9.99556
G1 X73.251 Y39.659 E10.06348
G1 X72.829 Y38.360 E10.13144
G1 X72.571 Y36.982 E10.20127
G1 X72.488 Y35.660 E10.26720
G1 X72.574 Y34.299 E10.33512
G1 X72.829 Y32.959 E10.40304
G1 X73.251 Y31.661 E10.47095
G1 X73.832 Y30.427 E10.53886
G1 X74.563 Y29.276 E10.60678
G1 X75.432 Y28.225 E10.67469
G1 X76.426 Y27.291 E10.74260
G1 X77.530 Y26.489 E10.81052
G1 X78.725 Y25.832 E10.87843
G1 X79.994 Y25.330 E10.94635
G1 X81.315 Y24.991 E11.01426
G1 X82.668 Y24.820 E11.08217
G1 X84.032 Y24.820 E11.15009 F600.000
G1 X85.385 Y24.991 E11.21800
G1 X86.706 Y25.330 E11.28592
G1 X87.975 Y25.832 E11.35383
G1 X89.170 Y26.489 E11.42174
G1 X90.274 Y27.291 E11.48966
G1 X91.268 Y28.225 E11.55758
G1 X92.137 Y29.276 E11.62549
G1 X92.868 Y30.427 E11.69340
G1 X93.449 Y31.661 E11.76132
G1 X93.871 Y32.959 E11.82923
G1 X94.126 Y34.299 E11.89714
G1 X94.212 Y35.660 E11.96506
G1 X94.130 Y36.961 E12.02999
G1 X93.743 Y36.973 F9000.000
G1 X93.496 Y38.265 E12.09549 F600.000
G1 X93.090 Y39.516 E12.16098
G1 X92.530 Y40.707 E12.22650
G1 X91.800 Y41.847 E12.29391
G1 X90.986 Y42.831 E12.35746
G1 X90.027 Y43.732 E12.42296
G1 X88.963 Y44.505 E12.48846
G1 X87.810 Y45.138 E12.55396
G1 X86.587 Y45.623 E12.61946
G1 X85.313 Y45.950 E12.68495
G1 X84.008 Y46.115 E12.75045
G1 X82.692 Y46.115 E12.81595
G1 X81.387 Y45.950 E12.88145
G1 X80.113 Y45.623 E12.94695
G1 X78.890 Y45.138 E13.01245
G1 X77.737 Y44.505 E13.07794
G1 X76.673 Y43.732 E13.14344
G1 X75.714 Y42.831 E13.20894
G1 X74.875 Y41.817 E13.27444
G1 X74.170 Y40.707 E13.33994
G1 X73.610 Y39.516 E13.40544
G1 X73.204 Y38.265 E13.47095
G1 X72.955 Y36.934 E13.53836
G1 X72.875 Y35.660 E13.60192
G1 X72.957 Y34.347 E13.66742
G1 X73.204 Y33.055 E13.73292
G1 X73.610 Y31.804 E13.79841
G1 X74.170 Y30.613 E13.86391
G1 X74.875 Y29.503 E13.92941
G1 X75.714 Y28.489 E13.99491
G1 X76.673 Y27.588 E14.06041
G1 X77.737 Y26.815 E14.12591
G1 X78.890 Y26.182 E14.19140
G1 X80.113 Y25.697 E14.25690
G1 X81.387 Y25.370 E14.32240
G1 X82.692 Y25.205 E14.38790
G1 X84.008 Y25.205 E14.45340 F600.000
G1 X85.313 Y25.370 E14.51889
G1 X86.587 Y25.697 E14.58439
G1 X87.810 Y26.182 E14.64989
G1 X88.963 Y26.815 E14.71539
G1 X90.027 Y27.588 E14.78089
G1 X90.986 Y28.489 E14.84639
G1 X91.825 Y29.503 E14.91188
G1 X92.530 Y30.613 E14.97738
G1 X93.090 Y31.804 E15.04288
G1 X93.496 Y33.055 E15.10838
G1 X93.743 Y34.347 E15.17388
G1 X93.825 Y35.660 E15.23938
G1 X93.747 Y36.913 E15.30189
G1 X94.056 Y37.221 F9000.000
G1 E9.30189 F1800.00000
G92 E0
G1 X77.651 Y24.050 F9000.000
G1 E6.00000 F1800.00000
G1 X77.452 Y24.270 E6.01476 F600.000
G1 X77.228 Y24.464 E6.02953
G1 X76.981 Y24.628 E6.04430
G1 X76.715 Y24.760 E6.05907
G1 X76.435 Y24.858 E6.07384
G1 X76.145 Y24.919 E6.08861
G1 X75.849 Y24.944 E6.10337
G1 X75.553 Y24.932 E6.11813
G1 X75.261 Y24.882 E6.13290
G1 X74.977 Y24.797 E6.14767
G1 X74.706 Y24.676 E6.16244
G1 X74.452 Y24.522 E6.17721
G1 X74.220 Y24.338 E6.19197
G1 X74.012 Y24.126 E6.20674
G1 X73.833 Y23.890 E6.22151
G1 X73.684 Y23.633 E6.23628
G1 X73.570 Y23.360 E6.25104
G1 X73.490 Y23.074 E6.26581
G1 X73.446 Y22.780 E6.28063
G1 X73.441 Y22.476 E6.29573
G1 X73.471 Y22.189 E6.31011
G1 X73.539 Y21.900 E6.32488
G1 X73.642 Y21.622 E6.33965
G1 X73.780 Y21.360 E6.35441
G1 X73.949 Y21.116 E6.36918
G1 X74.148 Y20.896 E6.38395
G1 X74.372 Y20.702 E6.39872
G1 X74.619 Y20.538 E6.41348
G1 X74.885 Y20.406 E6.42825
G1 X75.165 Y20.308 E6.44302
G1 X75.455 Y20.247 E6.45778
G1 X75.743 Y20.222 E6.47218 F600.000
G1 X76.112 Y20.237 E6.49059
G1 X76.611 Y20.364 E6.51621
G1 X76.894 Y20.490 E6.53164
G1 X77.148 Y20.644 E6.54640
G1 X77.380 Y20.828 E6.56117
G1 X77.588 Y21.040 E6.57594
G1 X77.767 Y21.276 E6.59071
G1 X77.916 Y21.533 E6.60547
G1 X78.030 Y21.806 E6.62024
G1 X78.110 Y22.092 E6.63501
G1 X78.154 Y22.385 E6.64978
G1 X78.160 Y22.682 E6.66454
G1 X78.129 Y22.977 E6.67931
G1 X78.061 Y23.266 E6.69408
G1 X77.958 Y23.544 E6.70884
G1 X77.820 Y23.807 E6.72362
G1 X77.685 Y24.001 E6.73540
G1 X77.348 Y23.810 F9000.000
G1 X77.182 Y23.994 E6.74775 F600.000
G1 X76.994 Y24.156 E6.76010
G1 X76.788 Y24.294 E6.77245
G1 X76.566 Y24.404 E6.78480
G1 X76.331 Y24.486 E6.79716
G1 X76.089 Y24.537 E6.80951
G1 X75.841 Y24.558 E6.82186
G1 X75.594 Y24.548 E6.83421
G1 X75.349 Y24.506 E6.84656
G1 X75.111 Y24.435 E6.85891
G1 X74.885 Y24.334 E6.87126
G1 X74.673 Y24.205 E6.88362
G1 X74.478 Y24.051 E6.89597
G1 X74.305 Y23.874 E6.90832
G1 X74.155 Y23.676 E6.92067
G1 X74.031 Y23.461 E6.93302
G1 X73.934 Y23.233 E6.94537
G1 X73.868 Y22.994 E6.95772
G1 X73.831 Y22.748 E6.97009
G1 X73.827 Y22.493 E6.98278
G1 X73.852 Y22.254 E6.99477
G1 X73.909 Y22.012 E7.00713
G1 X73.995 Y21.779 E7.01948
G1 X74.110 Y21.560 E7.03183
G1 X74.252 Y21.356 E7.04418
G1 X74.418 Y21.172 E7.05653
G1 X74.606 Y21.010 E7.06889
G1 X74.812 Y20.872 E7.08124
G1 X75.034 Y20.762 E7.09359
G1 X75.269 Y20.680 E7.10594
G1 X75.511 Y20.629 E7.11829
G1 X75.752 Y20.609 E7.13030 F600.000
G1 X76.057 Y20.620 E7.14549
G1 X76.484 Y20.730 E7.16746
G1 X76.715 Y20.832 E7.18005
G1 X76.927 Y20.961 E7.19240
G1 X77.122 Y21.115 E7.20475
G1 X77.295 Y21.292 E7.21711
G1 X77.445 Y21.490 E7.22946
G1 X77.569 Y21.705 E7.24181
G1 X77.666 Y21.933 E7.25416
G1 X77.732 Y22.172 E7.26651
G1 X77.769 Y22.418 E7.27886
G1 X77.774 Y22.666 E7.29122
G1 X77.748 Y22.913 E7.30357
G1 X77.691 Y23.154 E7.31592
G1 X77.605 Y23.386 E7.32827
G1 X77.490 Y23.606 E7.34062
G1 X77.382 Y23.761 E7.34999
G1 X77.435 Y24.043 F9000.000
G1 E1.34999 F1800.00000
G92 E0
G1 X66.028 Y17.543 F9000.000
G1 E6.00000 F1800.00000
G1 X65.869 Y17.778 E6.01414 F600.000
G1 X65.681 Y17.991 E6.02829
G1 X65.468 Y18.179 E6.04243
G1 X65.233 Y18.338 E6.05657
G1 X64.979 Y18.467 E6.07072
G1 X64.712 Y18.563 E6.08485
G1 X64.435 Y18.625 E6.09899
G1 X64.152 Y18.652 E6.11314
G1 X63.869 Y18.643 E6.12728
G1 X63.544 Y18.592 E6.14364
G1 X63.308 Y18.516 E6.15599
G1 X63.054 Y18.407 E6.16973
G1 X62.810 Y18.262 E6.18387
G1 X62.586 Y18.088 E6.19801
G1 X62.385 Y17.887 E6.21215
G1 X62.211 Y17.663 E6.22629
G1 X62.066 Y17.417 E6.24049
G1 X61.951 Y17.151 E6.25494
G1 X61.874 Y16.885 E6.26872
G1 X61.830 Y16.604 E6.28286
G1 X61.821 Y16.320 E6.29700
G1 X61.847 Y16.037 E6.31115
G1 X61.909 Y15.760 E6.32528
G1 X62.005 Y15.493 E6.33942
G1 X62.135 Y15.240 E6.35357
G1 X62.294 Y15.005 E6.36772
G1 X62.482 Y14.792 E6.38186
G1 X62.695 Y14.604 E6.39599
G1 X62.930 Y14.445 E6.41014
G1 X63.183 Y14.315 E6.42429
G1 X63.450 Y14.219 E6.43843
G1 X63.727 Y14.157 E6.45256
G1 X64.003 Y14.131 E6.46634 F600.000
G1 X64.293 Y14.139 E6.48079
G1 X64.575 Y14.184 E6.49499
G1 X64.848 Y14.263 E6.50914
G1 X65.108 Y14.376 E6.52328
G1 X65.353 Y14.521 E6.53742
G1 X65.577 Y14.695 E6.55156
