; generated by Slic3r 1.2.9 on 2020-09-30 at 23:13:33

; external perimeters extrusion width = 0.40mm
; perimeters extrusion width = 0.62mm
; infill extrusion width = 0.33mm
; solid infill extrusion width = 0.62mm
; top infill extrusion width = 0.20mm

M106 S256; Turn on fan to 100% power
M104 S140; turn on extruder temperature at S value
M140 S60; turn on bed temperature at S value
G28; home all axes
M84; disable motors
G1 Z15 F15000; have Z move to 20mm at 15000 mm/min
M190 S55; turn on bed temperature at S value and wait
M140 S55; turn on bed temperature at S value (printing temperature)
M109 S200; turn on extruder temperature at S value and wait (printing temperature)
M104 S200; turn on extruder temperature at S value
G1 Z0 F12000; move Z back to home
G21 ; set units to millimeters
G90 ; use absolute coordinates
M82 ; use absolute distances for extrusion
G92 E0
M106 S255
;Layer change
G1 E-6.00000 F1800.00000
G92 E0
G1 Z0.300 F9000.000
G1 X71.597 Y21.236 F9000.000
G1 E6.00000 F1800.00000
G1 X71.713 Y20.880 E6.01842 F600.000
G1 X71.893 Y20.445 E6.04159
G1 X72.063 Y20.112 E6.06001
G1 X72.309 Y19.710 E6.08319
G1 X72.529 Y19.407 E6.10162
G1 X72.835 Y19.049 E6.12478
G1 X73.099 Y18.785 E6.14318
G1 X73.457 Y18.479 E6.16635
G1 X73.760 Y18.259 E6.18480
G1 X74.162 Y18.013 E6.20797
G1 X74.495 Y17.843 E6.22637
G1 X74.930 Y17.663 E6.24954
G1 X75.286 Y17.547 E6.26797
G1 X75.744 Y17.437 E6.29114
G1 X76.114 Y17.379 E6.30956
G1 X76.583 Y17.342 E6.33274
G1 X137.657 Y17.342 E9.33849
G1 X138.126 Y17.379 E9.36167 F600.000
G1 X138.496 Y17.437 E9.38010
G1 X138.954 Y17.547 E9.40327
G1 X139.310 Y17.663 E9.42170
G1 X139.745 Y17.843 E9.44488
G1 X140.078 Y18.013 E9.46327
G1 X140.480 Y18.259 E9.48644
G1 X140.783 Y18.479 E9.50490
G1 X141.141 Y18.785 E9.52807
G1 X141.405 Y19.049 E9.54645
G1 X141.711 Y19.407 E9.56962
G1 X141.931 Y19.710 E9.58808
G1 X142.177 Y20.112 E9.61125
G1 X142.347 Y20.445 E9.62964
G1 X142.527 Y20.880 E9.65281
G1 X142.643 Y21.236 E9.67125
G1 X142.753 Y21.694 E9.69442
G1 X142.811 Y22.064 E9.71285
G1 X142.856 Y22.720 E9.74522
G1 X142.848 Y84.107 E12.76638
G1 X142.811 Y84.576 E12.78955
G1 X142.753 Y84.946 E12.80798
G1 X142.643 Y85.404 E12.83115
G1 X142.527 Y85.760 E12.84959
G1 X142.347 Y86.195 E12.87276
G1 X142.177 Y86.528 E12.89115
G1 X141.931 Y86.930 E12.91432
G1 X141.711 Y87.233 E12.93278
G1 X141.405 Y87.591 E12.95598
G1 X141.141 Y87.855 E12.97430
G1 X140.783 Y88.161 E12.99750
G1 X140.480 Y88.381 E13.01596
G1 X140.078 Y88.627 E13.03913
G1 X139.745 Y88.797 E13.05752
G1 X139.310 Y88.977 E13.08069
G1 X138.954 Y89.093 E13.09913
G1 X138.496 Y89.203 E13.12230
G1 X138.128 Y89.261 E13.14066
G1 X137.657 Y89.298 E13.16390
G1 X76.770 Y89.306 E16.16046
G1 X76.114 Y89.261 E16.19283
G1 X75.744 Y89.203 E16.21126
G1 X75.286 Y89.093 E16.23443
G1 X74.930 Y88.977 E16.25284
G1 X74.495 Y88.797 E16.27604
G1 X74.162 Y88.628 E16.29440
G1 X73.760 Y88.381 E16.31760
G1 X73.457 Y88.161 E16.33605
G1 X73.099 Y87.855 E16.35922
G1 X72.835 Y87.591 E16.37762
G1 X72.529 Y87.233 E16.40079
G1 X72.309 Y86.930 E16.41922
G1 X72.063 Y86.528 E16.44239
G1 X71.893 Y86.195 E16.46081
G1 X71.713 Y85.760 E16.48398
G1 X71.597 Y85.404 E16.50241
G1 X71.487 Y84.946 E16.52559
G1 X71.429 Y84.577 E16.54400
G1 X71.384 Y83.920 E16.57638
G1 X71.384 Y22.720 E19.58834
G1 X71.429 Y22.063 E19.62073
G1 X71.487 Y21.694 E19.63914
G1 X71.583 Y21.294 E19.65937
G1 E13.65937 F1800.00000
G92 E0
G1 X137.793 Y81.883 F9000.000
G1 E6.00000 F1800.00000
G1 X138.107 Y81.958 E6.01592 F600.000
G1 X138.406 Y82.082 E6.03185
G1 X138.682 Y82.251 E6.04779
G1 X138.928 Y82.462 E6.06371
G1 X139.139 Y82.708 E6.07964
G1 X139.308 Y82.984 E6.09557
G1 X139.432 Y83.283 E6.11150
G1 X139.507 Y83.597 E6.12742
G1 X139.533 Y83.920 E6.14335
G1 X139.507 Y84.243 E6.15928
G1 X139.432 Y84.557 E6.17520
G1 X139.308 Y84.856 E6.19113
G1 X139.139 Y85.132 E6.20707
G1 X138.928 Y85.378 E6.22299
G1 X138.682 Y85.589 E6.23892
G1 X138.406 Y85.758 E6.25486
G1 X138.107 Y85.882 E6.27078
G1 X137.793 Y85.957 E6.28671
G1 X137.470 Y85.983 E6.30264
G1 X137.147 Y85.957 E6.31856
G1 X136.833 Y85.882 E6.33449
G1 X136.534 Y85.758 E6.35042
G1 X136.258 Y85.589 E6.36635
G1 X136.012 Y85.378 E6.38228
G1 X135.801 Y85.132 E6.39820
G1 X135.632 Y84.856 E6.41414
G1 X135.508 Y84.557 E6.43007
G1 X135.433 Y84.243 E6.44599
G1 X135.407 Y83.920 E6.46192
G1 X135.433 Y83.597 E6.47785
G1 X135.508 Y83.283 E6.49377
G1 X135.632 Y82.984 E6.50970
G1 X135.801 Y82.708 E6.52563
G1 X136.012 Y82.462 E6.54156
G1 X136.258 Y82.251 E6.55748
G1 X136.534 Y82.082 E6.57342
G1 X136.833 Y81.958 E6.58935
G1 X137.147 Y81.883 E6.60527
G1 X137.470 Y81.857 E6.62120 F600.000
G1 X137.733 Y81.878 E6.63418
G1 X137.732 Y82.265 F9000.000
G1 X137.988 Y82.326 E6.64712 F600.000
G1 X138.231 Y82.427 E6.66006
G1 X138.455 Y82.564 E6.67300
G1 X138.655 Y82.735 E6.68594
G1 X138.826 Y82.935 E6.69888
G1 X138.963 Y83.159 E6.71182
G1 X139.064 Y83.402 E6.72476
G1 X139.125 Y83.658 E6.73770
G1 X139.146 Y83.920 E6.75064
G1 X139.125 Y84.182 E6.76359
G1 X139.064 Y84.438 E6.77652
G1 X138.963 Y84.681 E6.78946
G1 X138.826 Y84.905 E6.80241
G1 X138.655 Y85.105 E6.81535
G1 X138.455 Y85.276 E6.82829
G1 X138.231 Y85.413 E6.84123
G1 X137.988 Y85.514 E6.85417
G1 X137.732 Y85.575 E6.86711
G1 X137.470 Y85.596 E6.88005
G1 X137.208 Y85.575 E6.89299
G1 X136.952 Y85.514 E6.90593
G1 X136.709 Y85.413 E6.91887
G1 X136.485 Y85.276 E6.93182
G1 X136.285 Y85.105 E6.94476
G1 X136.114 Y84.905 E6.95770
G1 X135.977 Y84.681 E6.97064
G1 X135.876 Y84.438 E6.98358
G1 X135.815 Y84.182 E6.99652
G1 X135.794 Y83.920 E7.00946
G1 X135.815 Y83.658 E7.02240
G1 X135.876 Y83.402 E7.03534
G1 X135.977 Y83.159 E7.04828
G1 X136.114 Y82.935 E7.06123
G1 X136.285 Y82.735 E7.07417
G1 X136.485 Y82.564 E7.08711
G1 X136.709 Y82.427 E7.10005
G1 X136.952 Y82.326 E7.11299
G1 X137.208 Y82.265 E7.12593
G1 X137.470 Y82.244 E7.13887 F600.000
G1 X137.672 Y82.260 E7.14886
G1 X137.903 Y82.065 F9000.000
G1 X137.133 Y81.490 F9000.000
G1 X136.713 Y81.591 E7.17012 F600.000
G1 X136.358 Y81.738 E7.18903
G1 X136.030 Y81.938 E7.20796
G1 X135.738 Y82.188 E7.22687
G1 X135.488 Y82.480 E7.24578
G1 X135.288 Y82.808 E7.26471
G1 X135.141 Y83.163 E7.28362
G1 X135.040 Y83.583 E7.30488
G1 X134.486 Y82.935 E7.34684
G1 X133.890 Y82.425 E7.38545
G1 X133.221 Y82.016 E7.42405
G1 X132.758 Y81.824 E7.44872
G1 X81.482 Y81.824 E9.97224
G1 X81.019 Y82.016 E9.99690
G1 X80.350 Y82.425 E10.03551
G1 X79.754 Y82.935 E10.07412
G1 X79.200 Y83.583 E10.11608
G1 X79.099 Y83.163 E10.13734
G1 X78.952 Y82.808 E10.15626
G1 X78.752 Y82.480 E10.17517
G1 X78.502 Y82.188 E10.19409
G1 X78.210 Y81.938 E10.21300
G1 X77.882 Y81.738 E10.23193
G1 X77.527 Y81.591 E10.25084
G1 X77.107 Y81.490 E10.27210
G1 X77.755 Y80.936 E10.31406
G1 X78.265 Y80.340 E10.35266
G1 X78.674 Y79.671 E10.39127
G1 X78.866 Y79.208 E10.41594
G1 X78.866 Y61.932 E11.26614
G1 X78.674 Y61.469 E11.29080
G1 X78.265 Y60.800 E11.32941
G1 X77.755 Y60.204 E11.36802
G1 X77.107 Y59.650 E11.40998
G1 X77.527 Y59.549 E11.43124
G1 X77.882 Y59.402 E11.45015
G1 X78.210 Y59.202 E11.46907
G1 X78.502 Y58.952 E11.48799
G1 X78.752 Y58.660 E11.50690
G1 X78.952 Y58.332 E11.52582
G1 X79.099 Y57.977 E11.54473
G1 X79.200 Y57.557 E11.56599
G1 X79.754 Y58.205 E11.60795
G1 X80.350 Y58.715 E11.64656
G1 X81.019 Y59.124 E11.68517
G1 X81.482 Y59.316 E11.70984
G1 X132.758 Y59.316 E14.23334
G1 X133.221 Y59.124 E14.25801
G1 X133.890 Y58.715 E14.29662
G1 X134.486 Y58.205 E14.33523
G1 X135.040 Y57.557 E14.37719
G1 X135.141 Y57.977 E14.39844
G1 X135.288 Y58.332 E14.41736
G1 X135.488 Y58.660 E14.43628
G1 X135.738 Y58.952 E14.45520
G1 X136.030 Y59.202 E14.47411
G1 X136.358 Y59.402 E14.49303
G1 X136.713 Y59.549 E14.51194
G1 X137.133 Y59.650 E14.53321
G1 X136.485 Y60.204 E14.57516
G1 X135.975 Y60.800 E14.61377
G1 X135.566 Y61.469 E14.65238
G1 X135.374 Y61.932 E14.67705
G1 X135.374 Y79.208 E15.52725
G1 X135.566 Y79.671 E15.55191
G1 X135.975 Y80.340 E15.59052
G1 X136.485 Y80.936 E15.62913
G1 X137.088 Y81.451 E15.66814
G1 E9.66814 F1800.00000
G92 E0
G1 X137.470 Y59.283 F9000.000
G1 E6.00000 F1800.00000
G1 X137.147 Y59.257 E6.01593 F600.000
G1 X136.833 Y59.182 E6.03186
G1 X136.534 Y59.058 E6.04778
G1 X136.258 Y58.889 E6.06371
G1 X136.012 Y58.678 E6.07964
G1 X135.801 Y58.432 E6.09557
G1 X135.632 Y58.156 E6.11150
G1 X135.508 Y57.857 E6.12743
G1 X135.433 Y57.543 E6.14335
G1 X135.407 Y57.220 E6.15928
G1 X135.433 Y56.897 E6.17521
G1 X135.508 Y56.583 E6.19113
G1 X135.632 Y56.284 E6.20706
G1 X135.801 Y56.008 E6.22300
G1 X136.012 Y55.762 E6.23892
G1 X136.258 Y55.551 E6.25485
G1 X136.534 Y55.382 E6.27078
G1 X136.833 Y55.258 E6.28671
G1 X137.147 Y55.183 E6.30264
G1 X137.470 Y55.157 E6.31856 F600.000
G1 X137.793 Y55.183 E6.33449
G1 X138.107 Y55.258 E6.35042
G1 X138.406 Y55.382 E6.36635
G1 X138.682 Y55.551 E6.38228
G1 X138.928 Y55.762 E6.39820
G1 X139.139 Y56.008 E6.41413
G1 X139.308 Y56.284 E6.43007
G1 X139.432 Y56.583 E6.44600
G1 X139.507 Y56.897 E6.46191
G1 X139.533 Y57.220 E6.47785
G1 X139.507 Y57.543 E6.49378
G1 X139.432 Y57.857 E6.50970
G1 X139.308 Y58.156 E6.52562
G1 X139.139 Y58.432 E6.54156
G1 X138.928 Y58.678 E6.55749
G1 X138.682 Y58.889 E6.57341
G1 X138.406 Y59.058 E6.58934
G1 X138.107 Y59.182 E6.60527
G1 X137.793 Y59.257 E6.62120
G1 X137.530 Y59.278 E6.63418
G1 X137.470 Y58.896 F9000.000
G1 X137.208 Y58.875 E6.64711 F600.000
G1 X136.952 Y58.814 E6.66006
G1 X136.709 Y58.713 E6.67300
G1 X136.485 Y58.576 E6.68594
G1 X136.285 Y58.405 E6.69888
G1 X136.114 Y58.205 E6.71182
G1 X135.977 Y57.981 E6.72476
G1 X135.876 Y57.738 E6.73770
G1 X135.815 Y57.482 E6.75064
G1 X135.794 Y57.220 E6.76358
G1 X135.815 Y56.958 E6.77653
G1 X135.876 Y56.702 E6.78946
G1 X135.977 Y56.459 E6.80240
G1 X136.114 Y56.235 E6.81535
G1 X136.285 Y56.035 E6.82829
G1 X136.485 Y55.864 E6.84123
G1 X136.709 Y55.727 E6.85417
G1 X136.952 Y55.626 E6.86711
G1 X137.208 Y55.565 E6.88005
G1 X137.470 Y55.544 E6.89299 F600.000
G1 X137.732 Y55.565 E6.90593
G1 X137.988 Y55.626 E6.91888
G1 X138.231 Y55.727 E6.93182
G1 X138.455 Y55.864 E6.94476
G1 X138.655 Y56.035 E6.95770
G1 X138.826 Y56.235 E6.97064
G1 X138.963 Y56.459 E6.98358
G1 X139.064 Y56.702 E6.99652
G1 X139.125 Y56.958 E7.00946
G1 X139.146 Y57.220 E7.02240
G1 X139.125 Y57.482 E7.03535
G1 X139.064 Y57.738 E7.04828
G1 X138.963 Y57.981 E7.06122
G1 X138.826 Y58.205 E7.07417
G1 X138.655 Y58.405 E7.08711
G1 X138.455 Y58.576 E7.10005
G1 X138.231 Y58.713 E7.11299
G1 X137.988 Y58.814 E7.12593
G1 X137.732 Y58.875 E7.13887
G1 X137.530 Y58.891 E7.14886
G1 X137.333 Y59.120 F9000.000
G1 E1.14886 F1800.00000
G92 E0
G1 X78.833 Y57.220 F9000.000
G1 E6.00000 F1800.00000
G1 X78.807 Y57.543 E6.01593 F600.000
G1 X78.732 Y57.857 E6.03186
G1 X78.608 Y58.156 E6.04778
G1 X78.439 Y58.432 E6.06371
G1 X78.228 Y58.678 E6.07964
G1 X77.982 Y58.889 E6.09557
G1 X77.706 Y59.058 E6.11150
G1 X77.407 Y59.182 E6.12743
G1 X77.093 Y59.257 E6.14335
G1 X76.770 Y59.282 E6.15928
G1 X76.447 Y59.257 E6.17521
G1 X76.133 Y59.182 E6.19114
G1 X75.834 Y59.058 E6.20707
G1 X75.558 Y58.889 E6.22299
G1 X75.312 Y58.678 E6.23892
G1 X75.101 Y58.432 E6.25485
G1 X74.932 Y58.156 E6.27078
G1 X74.808 Y57.857 E6.28671
G1 X74.733 Y57.543 E6.30264
G1 X74.707 Y57.220 E6.31856
G1 X74.733 Y56.897 E6.33449
G1 X74.808 Y56.583 E6.35042
G1 X74.932 Y56.284 E6.36635
G1 X75.101 Y56.008 E6.38228
G1 X75.312 Y55.762 E6.39820
G1 X75.558 Y55.551 E6.41413
G1 X75.834 Y55.382 E6.43006
G1 X76.133 Y55.258 E6.44599
G1 X76.447 Y55.183 E6.46192
G1 X76.770 Y55.157 E6.47785 F600.000
G1 X77.093 Y55.183 E6.49377
G1 X77.407 Y55.258 E6.50970
G1 X77.706 Y55.382 E6.52563
G1 X77.982 Y55.551 E6.54156
G1 X78.228 Y55.762 E6.55749
G1 X78.439 Y56.008 E6.57341
G1 X78.608 Y56.284 E6.58934
G1 X78.732 Y56.583 E6.60527
G1 X78.807 Y56.897 E6.62120
G1 X78.828 Y57.160 E6.63417
G1 X78.446 Y57.220 F9000.000
G1 X78.425 Y57.482 E6.64712 F600.000
G1 X78.364 Y57.738 E6.66006
G1 X78.263 Y57.981 E6.67300
G1 X78.126 Y58.205 E6.68594
G1 X77.955 Y58.405 E6.69888
G1 X77.755 Y58.576 E6.71182
G1 X77.531 Y58.713 E6.72476
G1 X77.288 Y58.814 E6.73770
G1 X77.032 Y58.875 E6.75064
G1 X76.770 Y58.896 E6.76358
G1 X76.508 Y58.875 E6.77653
G1 X76.252 Y58.814 E6.78947
G1 X76.009 Y58.713 E6.80241
G1 X75.785 Y58.576 E6.81535
G1 X75.585 Y58.405 E6.82829
G1 X75.414 Y58.205 E6.84123
G1 X75.277 Y57.981 E6.85417
G1 X75.176 Y57.738 E6.86711
G1 X75.115 Y57.482 E6.88005
G1 X75.094 Y57.220 E6.89299
G1 X75.115 Y56.958 E6.90594
G1 X75.176 Y56.702 E6.91888
G1 X75.277 Y56.459 E6.93182
G1 X75.414 Y56.235 E6.94476
G1 X75.585 Y56.035 E6.95770
G1 X75.785 Y55.864 E6.97064
G1 X76.009 Y55.727 E6.98358
G1 X76.252 Y55.626 E6.99652
G1 X76.508 Y55.565 E7.00946
G1 X76.770 Y55.544 E7.02240 F600.000
G1 X77.032 Y55.565 E7.03534
G1 X77.288 Y55.626 E7.04829
G1 X77.531 Y55.727 E7.06123
G1 X77.755 Y55.864 E7.07417
G1 X77.955 Y56.035 E7.08711
G1 X78.126 Y56.235 E7.10005
G1 X78.263 Y56.459 E7.11299
G1 X78.364 Y56.702 E7.12593
G1 X78.425 Y56.958 E7.13887
G1 X78.441 Y57.160 E7.14886
G1 X78.670 Y57.357 F9000.000
G1 E1.14886 F1800.00000
G92 E0
G1 X76.770 Y81.857 F9000.000
G1 E6.00000 F1800.00000
G1 X77.093 Y81.883 E6.01593 F600.000
G1 X77.407 Y81.958 E6.03185
G1 X77.706 Y82.082 E6.04778
G1 X77.982 Y82.251 E6.06371
G1 X78.228 Y82.462 E6.07964
G1 X78.439 Y82.708 E6.09557
G1 X78.608 Y82.984 E6.11150
G1 X78.732 Y83.283 E6.12742
G1 X78.807 Y83.597 E6.14336
G1 X78.833 Y83.920 E6.15928
G1 X78.807 Y84.243 E6.17521
G1 X78.732 Y84.557 E6.19114
G1 X78.608 Y84.856 E6.20707
G1 X78.439 Y85.132 E6.22300
G1 X78.228 Y85.378 E6.23892
G1 X77.982 Y85.589 E6.25485
G1 X77.706 Y85.758 E6.27078
G1 X77.407 Y85.882 E6.28671
G1 X77.093 Y85.957 E6.30263
G1 X76.770 Y85.983 E6.31856
G1 X76.447 Y85.957 E6.33449
G1 X76.133 Y85.882 E6.35041
G1 X75.834 Y85.758 E6.36634
G1 X75.558 Y85.589 E6.38228
G1 X75.312 Y85.378 E6.39821
G1 X75.101 Y85.132 E6.41413
G1 X74.932 Y84.856 E6.43006
G1 X74.808 Y84.557 E6.44599
G1 X74.733 Y84.243 E6.46192
G1 X74.707 Y83.920 E6.47785
G1 X74.733 Y83.597 E6.49377
G1 X74.808 Y83.283 E6.50970
G1 X74.932 Y82.984 E6.52563
G1 X75.101 Y82.708 E6.54156
G1 X75.312 Y82.462 E6.55749
G1 X75.558 Y82.251 E6.57341
G1 X75.834 Y82.082 E6.58935
G1 X76.133 Y81.958 E6.60528
G1 X76.447 Y81.883 E6.62120
G1 X76.710 Y81.862 E6.63418 F600.000
G1 X76.770 Y82.244 F9000.000
G1 X77.032 Y82.265 E6.64712 F600.000
G1 X77.288 Y82.326 E6.66005
G1 X77.531 Y82.427 E6.67300
G1 X77.755 Y82.564 E6.68594
G1 X77.955 Y82.735 E6.69888
G1 X78.126 Y82.935 E6.71182
G1 X78.263 Y83.159 E6.72476
G1 X78.364 Y83.402 E6.73770
G1 X78.425 Y83.658 E6.75065
G1 X78.446 Y83.920 E6.76358
G1 X78.425 Y84.182 E6.77652
G1 X78.364 Y84.438 E6.78947
G1 X78.263 Y84.681 E6.80241
G1 X78.126 Y84.905 E6.81535
G1 X77.955 Y85.105 E6.82829
G1 X77.755 Y85.276 E6.84123
G1 X77.531 Y85.413 E6.85417
G1 X77.288 Y85.514 E6.86711
G1 X77.032 Y85.575 E6.88005
G1 X76.770 Y85.596 E6.89299
G1 X76.508 Y85.575 E6.90594
G1 X76.252 Y85.514 E6.91887
G1 X76.009 Y85.413 E6.93181
G1 X75.785 Y85.276 E6.94476
G1 X75.585 Y85.105 E6.95770
G1 X75.414 Y84.905 E6.97064
G1 X75.277 Y84.681 E6.98358
G1 X75.176 Y84.438 E6.99652
G1 X75.115 Y84.182 E7.00946
G1 X75.094 Y83.920 E7.02240
G1 X75.115 Y83.658 E7.03534
G1 X75.176 Y83.402 E7.04829
G1 X75.277 Y83.159 E7.06123
G1 X75.414 Y82.935 E7.07417
G1 X75.585 Y82.735 E7.08711
G1 X75.785 Y82.564 E7.10005
G1 X76.009 Y82.427 E7.11299
G1 X76.252 Y82.326 E7.12593
G1 X76.508 Y82.265 E7.13887
G1 X76.710 Y82.249 E7.14886 F600.000
G1 X76.907 Y82.020 F9000.000
G1 X76.319 Y81.508 F9000.000
G1 X76.931 Y81.133 E7.18421 F600.000
G1 X77.482 Y80.662 E7.21983
G1 X77.952 Y80.112 E7.25545
G1 X78.330 Y79.495 E7.29107
G1 X78.481 Y79.131 E7.31047
G1 X78.481 Y62.009 E8.15312
G1 X78.330 Y61.645 E8.17252
G1 X77.952 Y61.028 E8.20814
G1 X77.482 Y60.477 E8.24376
G1 X76.931 Y60.007 E8.27938
G1 X76.314 Y59.629 E8.31500
G1 X75.796 Y59.415 E8.34259
G1 X75.367 Y59.152 E8.36738
G1 X75.082 Y58.908 E8.38582
G1 X74.838 Y58.623 E8.40426
G1 X74.643 Y58.304 E8.42269
G1 X74.499 Y57.958 E8.44113
G1 X74.412 Y57.593 E8.45957
G1 X74.383 Y57.220 E8.47801
G1 X74.412 Y56.847 E8.49644
G1 X74.499 Y56.482 E8.51488
G1 X74.643 Y56.136 E8.53332
G1 X74.838 Y55.817 E8.55176
G1 X75.082 Y55.532 E8.57020
G1 X75.367 Y55.288 E8.58863
G1 X75.686 Y55.093 E8.60707
