; generated by Slic3r 1.2.9 on 2018-01-25 at 16:00:20

; external perimeters extrusion width = 0.40mm
; perimeters extrusion width = 0.62mm
; infill extrusion width = 0.33mm
; solid infill extrusion width = 0.62mm
; top infill extrusion width = 0.20mm

M106 S256; Turn on fan to 100% power
M104 S140; turn on extruder temperature at S value
M140 S60; turn on bed temperature at S value
G28; home all axes
M84; disable motors
G1 Z15 F15000; have Z move to 20mm at 15000 mm/min
M190 S55; turn on bed temperature at S value and wait
M140 S55; turn on bed temperature at S value (printing temperature)
M109 S200; turn on extruder temperature at S value and wait (printing temperature)
M104 S200; turn on extruder temperature at S value
G1 Z0 F12000; move Z back to home
G21 ; set units to millimeters
G90 ; use absolute coordinates
M82 ; use absolute distances for extrusion
G92 E0
M106 S255
;Layer change
G1 E-6.00000 F1800.00000
G92 E0
G1 Z0.300 F9000.000
G1 X63.169 Y6.680 F9000.000
G1 E6.00000 F1800.00000
G1 X63.561 Y5.370 E6.06967 F600.000
G1 X64.607 Y4.491 E6.13934
G1 X65.555 Y4.294 E6.18867
G1 X135.805 Y4.294 E9.76913
G1 X137.115 Y4.686 E9.83880
G1 X137.994 Y5.732 E9.90846 F600.000
G1 X138.191 Y6.680 E9.95779
G1 X138.191 Y16.680 E10.46747
G1 X137.799 Y17.990 E10.53714
G1 X136.753 Y18.869 E10.60680
G1 X135.805 Y19.066 E10.65613
G1 X65.555 Y19.066 E14.23659
G1 X64.245 Y18.674 E14.30626
G1 X63.366 Y17.628 E14.37593
G1 X63.169 Y16.680 E14.42526
G1 X63.169 Y6.740 E14.93188
G1 E8.93188 F1800.00000
G92 E0
G1 X70.006 Y11.180 F9000.000
G1 E6.00000 F1800.00000
G1 X69.974 Y11.522 E6.01752 F600.000
G1 X69.878 Y11.852 E6.03504
G1 X69.722 Y12.158 E6.05255
G1 X69.511 Y12.430 E6.07006
G1 X69.256 Y12.655 E6.08740
G1 X69.059 Y12.780 E6.09927
G1 X68.849 Y12.879 E6.11113
G1 X68.522 Y12.974 E6.12847
G1 X68.180 Y13.006 E6.14598
G1 X67.838 Y12.974 E6.16350
G1 X67.511 Y12.879 E6.18084
G1 X67.301 Y12.780 E6.19270
G1 X67.104 Y12.655 E6.20457
G1 X66.849 Y12.430 E6.22190
G1 X66.638 Y12.158 E6.23942
G1 X66.482 Y11.852 E6.25693
G1 X66.386 Y11.522 E6.27445
G1 X66.354 Y11.180 E6.29197
G1 X66.386 Y10.838 E6.30948
G1 X66.482 Y10.508 E6.32700
G1 X66.638 Y10.202 E6.34452
G1 X66.849 Y9.930 E6.36203
G1 X67.107 Y9.703 E6.37955
G1 X67.403 Y9.528 E6.39707
G1 X67.729 Y9.410 E6.41476
G1 X68.168 Y9.354 E6.43733 F600.000
G1 X68.522 Y9.386 E6.45542
G1 X68.852 Y9.482 E6.47295
G1 X69.158 Y9.638 E6.49047
G1 X69.430 Y9.849 E6.50799
G1 X69.657 Y10.107 E6.52550
G1 X69.830 Y10.399 E6.54284
G1 X69.916 Y10.616 E6.55470
G1 X69.974 Y10.841 E6.56657
G1 X70.000 Y11.120 E6.58085
G1 X70.298 Y11.361 F9000.000
G1 X70.069 Y9.991 F9000.000
G1 X69.695 Y9.567 E6.60969 F600.000
G1 X69.366 Y9.311 E6.63093
G1 X68.995 Y9.122 E6.65216
G1 X68.594 Y9.006 E6.67344
G1 X68.161 Y8.966 E6.69557
G1 X67.638 Y9.033 E6.72246
G1 X67.238 Y9.177 E6.74415
G1 X66.879 Y9.389 E6.76538
G1 X66.566 Y9.665 E6.78662
G1 X66.322 Y9.980 E6.80695
G1 X66.166 Y9.927 E6.81538
G1 X66.166 Y7.291 E6.94972
G1 X70.069 Y7.291 E7.14869
G1 X70.069 Y9.931 E7.28327
G1 X70.402 Y11.091 F9000.000
G1 X130.958 Y11.091 E10.36967 F600.000
G1 X131.006 Y11.595 E10.39548
G1 X131.122 Y11.995 E10.41672
G1 X131.311 Y12.366 E10.43794
G1 X131.566 Y12.695 E10.45917
G1 X131.872 Y12.964 E10.47992
G1 X132.114 Y13.118 E10.49457
G1 X132.374 Y13.241 E10.50921
G1 X132.765 Y13.354 E10.52995
G1 X133.180 Y13.393 E10.55119
G1 X133.595 Y13.354 E10.57242
G1 X133.986 Y13.241 E10.59316
G1 X134.246 Y13.118 E10.60780
G1 X134.488 Y12.964 E10.62245
G1 X134.794 Y12.695 E10.64320
G1 X135.038 Y12.380 E10.66353
G1 X135.194 Y12.433 E10.67195
G1 X135.194 Y16.069 E10.85727
G1 X66.166 Y16.069 E14.37548
G1 X66.166 Y12.433 E14.56080
G1 X66.322 Y12.380 E14.56923
G1 X66.566 Y12.695 E14.58955
G1 X66.872 Y12.964 E14.61030
G1 X67.114 Y13.118 E14.62495
G1 X67.374 Y13.241 E14.63959
G1 X67.765 Y13.354 E14.66033
G1 X68.180 Y13.393 E14.68157
G1 X68.595 Y13.354 E14.70280
G1 X68.986 Y13.241 E14.72354
G1 X69.246 Y13.118 E14.73818
G1 X69.488 Y12.964 E14.75283
G1 X69.794 Y12.695 E14.77358
G1 X70.049 Y12.366 E14.79481
G1 X70.238 Y11.995 E14.81604
G1 X70.354 Y11.595 E14.83727
G1 X70.396 Y11.150 E14.86002
G1 X131.354 Y11.180 F9000.000
G1 X131.386 Y10.838 E14.87754 F600.000
G1 X131.482 Y10.508 E14.89506
G1 X131.638 Y10.202 E14.91257
G1 X131.849 Y9.930 E14.93009
G1 X132.107 Y9.703 E14.94760
G1 X132.403 Y9.528 E14.96513
G1 X132.729 Y9.410 E14.98281
G1 X133.168 Y9.354 E15.00538 F600.000
G1 X133.522 Y9.386 E15.02347
G1 X133.852 Y9.482 E15.04101
G1 X134.158 Y9.638 E15.05852
G1 X134.430 Y9.849 E15.07604
G1 X134.657 Y10.107 E15.09356
G1 X134.830 Y10.399 E15.11089
G1 X134.916 Y10.616 E15.12276
G1 X134.974 Y10.841 E15.13462
G1 X135.006 Y11.180 E15.15196
G1 X134.974 Y11.522 E15.16948
G1 X134.878 Y11.852 E15.18699
G1 X134.722 Y12.158 E15.20451
G1 X134.511 Y12.430 E15.22202
G1 X134.256 Y12.655 E15.23936
G1 X134.059 Y12.780 E15.25123
G1 X133.849 Y12.879 E15.26309
G1 X133.522 Y12.974 E15.28043
G1 X133.180 Y13.006 E15.29794
G1 X132.838 Y12.974 E15.31546
G1 X132.511 Y12.879 E15.33280
G1 X132.301 Y12.780 E15.34466
G1 X132.104 Y12.655 E15.35653
G1 X131.849 Y12.430 E15.37386
G1 X131.638 Y12.158 E15.39138
G1 X131.482 Y11.852 E15.40889
G1 X131.386 Y11.522 E15.42641
G1 X131.360 Y11.240 E15.44087
G1 X131.062 Y10.999 F9000.000
G1 X131.291 Y9.765 F9000.000
G1 X131.291 Y7.291 E15.56700 F600.000
G1 X135.194 Y7.291 E15.76596
G1 X135.194 Y9.923 E15.90012
G1 X135.024 Y9.969 E15.90912
G1 X134.971 Y9.879 E15.91447
G1 X134.695 Y9.567 E15.93570
G1 X134.366 Y9.311 E15.95694
G1 X133.995 Y9.122 E15.97817
G1 X133.594 Y9.006 E15.99945
G1 X133.161 Y8.966 E16.02158
G1 X132.638 Y9.033 E16.04847
G1 X132.238 Y9.177 E16.07016
G1 X131.879 Y9.389 E16.09140
G1 X131.566 Y9.665 E16.11263
G1 X131.447 Y9.819 E16.12256
G1 X131.347 Y9.785 E16.12793
G1 X130.905 Y10.705 F9000.000
G1 X130.905 Y6.905 E16.32161 F600.000
G1 X135.580 Y6.905 E16.55988
G1 X135.580 Y16.455 E17.04662
G1 X65.780 Y16.455 E20.60415
G1 X65.780 Y6.905 E21.09088
G1 X70.455 Y6.905 E21.32916
G1 X70.455 Y10.705 E21.52283
G1 X130.845 Y10.705 E24.60075
G1 X131.305 Y10.705 F9000.000
G1 X131.160 Y11.050 F9000.000
G1 X131.148 Y10.788 E24.61414 F600.000
G1 X131.206 Y10.387 E24.63474
G1 X131.305 Y9.974 E24.65641
G1 X131.574 Y8.959 F9000.000
G1 X131.773 Y9.158 E24.67120 F600.000
G1 X132.128 Y8.948 E24.69296
G1 X131.574 Y8.395 E24.73424
G1 X131.574 Y7.830 E24.76405
G1 X132.537 Y8.792 E24.83586
G1 X133.017 Y8.708 E24.86161
G1 X131.883 Y7.574 E24.94624
G1 X132.448 Y7.574 E24.97604
G1 X133.586 Y8.712 E25.06095
G1 X134.393 Y8.955 E25.10546
G1 X133.013 Y7.574 E25.20851
G1 X133.578 Y7.574 E25.23831
G1 X134.911 Y8.907 E25.33780
G1 X134.911 Y8.343 E25.36761
G1 X134.142 Y7.574 E25.42495
G1 X134.707 Y7.574 E25.45475
G1 X134.911 Y7.778 E25.46995
G1 X135.167 Y10.130 F9000.000
G1 X135.274 Y10.780 E25.50352 F600.000
G1 X135.293 Y11.189 E25.52438
G1 X135.273 Y11.590 E25.54486
G1 X135.219 Y11.970 E25.56444
G1 X135.161 Y12.218 E25.57741
G1 X134.911 Y13.298 F9000.000
G1 X134.713 Y13.100 E25.59174 F600.000
G1 X134.390 Y13.326 E25.61193
G1 X134.911 Y13.846 E25.64964
G1 X134.911 Y14.394 E25.67775
G1 X134.022 Y13.505 E25.74219
G1 X133.597 Y13.629 E25.76487
G1 X134.911 Y14.943 E25.86012
G1 X134.911 Y15.491 E25.88823
G1 X133.098 Y13.679 E26.01960
G1 X132.459 Y13.588 E26.05270
G1 X134.657 Y15.786 E26.21201
G1 X134.108 Y15.786 E26.24012
G1 X129.697 Y11.374 E26.55986
G1 X130.245 Y11.374 E26.58797
G1 X130.772 Y11.901 E26.62615
G1 X129.149 Y11.374 F9000.000
G1 X133.560 Y15.786 E26.94589 F600.000
G1 X133.011 Y15.786 E26.97400
G1 X128.600 Y11.374 E27.29374
G1 X128.052 Y11.374 E27.32185
G1 X132.463 Y15.786 E27.64159
G1 X131.914 Y15.786 E27.66970
G1 X127.503 Y11.374 E27.98944
G1 X126.955 Y11.374 E28.01755
G1 X131.366 Y15.786 E28.33729
G1 X130.818 Y15.786 E28.36540
G1 X126.406 Y11.374 E28.68514
G1 X125.858 Y11.374 E28.71325
G1 X130.269 Y15.786 E29.03299
G1 X129.721 Y15.786 E29.06109
G1 X125.310 Y11.374 E29.38083
G1 X124.761 Y11.374 E29.40894
G1 X129.172 Y15.786 E29.72868
G1 X128.624 Y15.786 E29.75679
G1 X124.213 Y11.374 E30.07653
G1 X123.664 Y11.374 E30.10464
G1 X128.076 Y15.786 E30.42438
G1 X127.527 Y15.786 E30.45249
G1 X123.116 Y11.374 E30.77223
G1 X122.568 Y11.374 E30.80034
G1 X126.979 Y15.786 E31.12008
G1 X126.430 Y15.786 E31.14819
G1 X122.019 Y11.374 E31.46793
G1 X121.471 Y11.374 E31.49604
G1 X125.882 Y15.786 E31.81578
G1 X125.333 Y15.786 E31.84389
G1 X120.922 Y11.374 E32.16363
G1 X120.374 Y11.374 E32.19173
G1 X124.785 Y15.786 E32.51148
G1 X124.237 Y15.786 E32.53958
G1 X119.825 Y11.374 E32.85932
G1 X119.277 Y11.374 E32.88743
G1 X123.688 Y15.786 E33.20717
G1 X123.140 Y15.786 E33.23528
G1 X118.729 Y11.374 E33.55502
G1 X118.180 Y11.374 E33.58313
G1 X122.591 Y15.786 E33.90287
G1 X122.043 Y15.786 E33.93098
G1 X117.632 Y11.374 E34.25072
G1 X117.083 Y11.374 E34.27883
G1 X121.495 Y15.786 E34.59857
G1 X120.946 Y15.786 E34.62668
G1 X116.535 Y11.374 E34.94642
G1 X115.987 Y11.374 E34.97453
G1 X120.398 Y15.786 E35.29427
G1 X119.849 Y15.786 E35.32238
G1 X115.438 Y11.374 E35.64212
G1 X114.890 Y11.374 E35.67022
G1 X119.301 Y15.786 E35.98996
G1 X118.752 Y15.786 E36.01807
G1 X114.341 Y11.374 E36.33781
G1 X113.793 Y11.374 E36.36592
G1 X118.204 Y15.786 E36.68566
G1 X117.656 Y15.786 E36.71377
G1 X113.244 Y11.374 E37.03351
G1 X112.696 Y11.374 E37.06162
G1 X117.107 Y15.786 E37.38136
G1 X116.559 Y15.786 E37.40947
G1 X112.148 Y11.374 E37.72921
G1 X111.599 Y11.374 E37.75732
G1 X116.010 Y15.786 E38.07706
G1 X115.462 Y15.786 E38.10517
G1 X111.051 Y11.374 E38.42491
G1 X110.502 Y11.374 E38.45302
G1 X114.914 Y15.786 E38.77276
G1 X114.365 Y15.786 E38.80086
G1 X109.954 Y11.374 E39.12060
G1 X109.406 Y11.374 E39.14871
G1 X113.817 Y15.786 E39.46845
G1 X113.268 Y15.786 E39.49656
G1 X108.857 Y11.374 E39.81630
G1 X108.309 Y11.374 E39.84441
G1 X112.720 Y15.786 E40.16415
G1 X112.171 Y15.786 E40.19226
G1 X107.760 Y11.374 E40.51200
G1 X107.212 Y11.374 E40.54011
G1 X111.623 Y15.786 E40.85985
G1 X111.075 Y15.786 E40.88796
G1 X106.663 Y11.374 E41.20770
G1 X106.115 Y11.374 E41.23581
G1 X110.526 Y15.786 E41.55555
G1 X109.978 Y15.786 E41.58366
G1 X105.567 Y11.374 E41.90340
G1 X105.018 Y11.374 E41.93150
G1 X109.429 Y15.786 E42.25124
G1 X108.881 Y15.786 E42.27935
G1 X104.470 Y11.374 E42.59909
G1 X103.921 Y11.374 E42.62720
G1 X108.333 Y15.786 E42.94694
G1 X107.784 Y15.786 E42.97505
G1 X103.373 Y11.374 E43.29479
G1 X102.825 Y11.374 E43.32290
G1 X107.236 Y15.786 E43.64264
G1 X106.687 Y15.786 E43.67075
G1 X102.276 Y11.374 E43.99049
G1 X101.728 Y11.374 E44.01860
G1 X106.139 Y15.786 E44.33834
G1 X105.590 Y15.786 E44.36645
G1 X101.179 Y11.374 E44.68619
G1 X100.631 Y11.374 E44.71430
G1 X105.042 Y15.786 E45.03404
G1 X104.494 Y15.786 E45.06214
G1 X100.082 Y11.374 E45.38188
G1 X99.534 Y11.374 E45.40999
G1 X103.945 Y15.786 E45.72973
G1 X103.397 Y15.786 E45.75784
G1 X98.986 Y11.374 E46.07758
G1 X98.437 Y11.374 E46.10569
G1 X102.848 Y15.786 E46.42543
G1 X102.300 Y15.786 E46.45354
G1 X97.889 Y11.374 E46.77328
G1 X97.340 Y11.374 E46.80139
G1 X101.752 Y15.786 E47.12113
G1 X101.203 Y15.786 E47.14924
G1 X96.792 Y11.374 E47.46898
G1 X96.244 Y11.374 E47.49709
G1 X100.655 Y15.786 E47.81683
G1 X100.106 Y15.786 E47.84494
G1 X95.695 Y11.374 E48.16468
G1 X95.147 Y11.374 E48.19278
G1 X99.558 Y15.786 E48.51252
G1 X99.009 Y15.786 E48.54063
G1 X94.598 Y11.374 E48.86037
G1 X94.050 Y11.374 E48.88848
G1 X98.461 Y15.786 E49.20822
G1 X97.913 Y15.786 E49.23633
G1 X93.501 Y11.374 E49.55607
G1 X92.953 Y11.374 E49.58418
G1 X97.364 Y15.786 E49.90392
G1 X96.816 Y15.786 E49.93203
G1 X92.405 Y11.374 E50.25177
G1 X91.856 Y11.374 E50.27988
G1 X96.267 Y15.786 E50.59962
G1 X95.719 Y15.786 E50.62773
G1 X91.308 Y11.374 E50.94747
G1 X90.759 Y11.374 E50.97558
G1 X95.171 Y15.786 E51.29532
G1 X94.622 Y15.786 E51.32342
G1 X90.211 Y11.374 E51.64316
G1 X89.663 Y11.374 E51.67127
G1 X94.074 Y15.786 E51.99101
G1 X93.525 Y15.786 E52.01912
G1 X89.114 Y11.374 E52.33886
G1 X88.566 Y11.374 E52.36697
G1 X92.977 Y15.786 E52.68671
G1 X92.429 Y15.786 E52.71482
G1 X88.017 Y11.374 E53.03456
G1 X87.469 Y11.374 E53.06267
G1 X91.880 Y15.786 E53.38241
G1 X91.332 Y15.786 E53.41052
G1 X86.921 Y11.374 E53.73026
G1 X86.372 Y11.374 E53.75837
G1 X90.783 Y15.786 E54.07811
G1 X90.235 Y15.786 E54.10622
G1 X85.824 Y11.374 E54.42596
G1 X85.275 Y11.374 E54.45406
G1 X89.686 Y15.786 E54.77380
G1 X89.138 Y15.786 E54.80191
G1 X84.727 Y11.374 E55.12165
G1 X84.178 Y11.374 E55.14976
G1 X88.590 Y15.786 E55.46950
G1 X88.041 Y15.786 E55.49761
G1 X83.630 Y11.374 E55.81735
G1 X83.082 Y11.374 E55.84546
G1 X87.493 Y15.786 E56.16520
G1 X86.944 Y15.786 E56.19331
G1 X82.533 Y11.374 E56.51305
G1 X81.985 Y11.374 E56.54116
G1 X86.396 Y15.786 E56.86090
G1 X85.848 Y15.786 E56.88901
G1 X81.436 Y11.374 E57.20875
G1 X80.888 Y11.374 E57.23686
G1 X85.299 Y15.786 E57.55660
G1 X84.751 Y15.786 E57.58470
G1 X80.340 Y11.374 E57.90444
G1 X79.791 Y11.374 E57.93255
G1 X84.202 Y15.786 E58.25229
G1 X83.654 Y15.786 E58.28040
G1 X79.243 Y11.374 E58.60014
G1 X78.694 Y11.374 E58.62825
G1 X83.105 Y15.786 E58.94799
G1 X82.557 Y15.786 E58.97610
G1 X78.146 Y11.374 E59.29584
G1 X77.597 Y11.374 E59.32395
G1 X82.009 Y15.786 E59.64369
G1 X81.460 Y15.786 E59.67180
G1 X77.049 Y11.374 E59.99154
G1 X76.501 Y11.374 E60.01965
G1 X80.912 Y15.786 E60.33939
G1 X80.363 Y15.786 E60.36750
G1 X75.952 Y11.374 E60.68724
G1 X75.404 Y11.374 E60.71534
G1 X79.815 Y15.786 E61.03508
G1 X79.267 Y15.786 E61.06319
G1 X74.855 Y11.374 E61.38293
G1 X74.307 Y11.374 E61.41104
G1 X78.718 Y15.786 E61.73078
G1 X78.170 Y15.786 E61.75889
G1 X73.759 Y11.374 E62.07863
G1 X73.210 Y11.374 E62.10674
G1 X77.621 Y15.786 E62.42648
G1 X77.073 Y15.786 E62.45459
G1 X72.662 Y11.374 E62.77433
G1 X72.113 Y11.374 E62.80244
G1 X76.524 Y15.786 E63.12218
G1 X75.976 Y15.786 E63.15029
G1 X71.565 Y11.374 E63.47003
G1 X71.016 Y11.374 E63.49814
G1 X75.428 Y15.786 E63.81788
G1 X74.879 Y15.786 E63.84598
G1 X70.637 Y11.543 E64.15349
G1 X70.519 Y11.974 E64.17638
G1 X74.331 Y15.786 E64.45267
G1 X73.782 Y15.786 E64.48078
G1 X70.345 Y12.348 E64.72995
G1 X70.125 Y12.677 E64.75021
G1 X73.234 Y15.786 E64.97555
G1 X72.686 Y15.786 E65.00366
G1 X69.865 Y12.965 E65.20808
G1 X69.566 Y13.214 E65.22804
G1 X72.137 Y15.786 E65.41442
G1 X71.589 Y15.786 E65.44253
G1 X69.218 Y13.415 E65.61436
G1 X68.819 Y13.564 E65.63621
G1 X71.040 Y15.786 E65.79722
G1 X70.492 Y15.786 E65.82533
G1 X68.360 Y13.654 E65.97984
G1 X67.809 Y13.651 E66.00808
G1 X69.943 Y15.786 E66.16277
G1 X69.395 Y15.786 E66.19088
G1 X67.065 Y13.456 E66.35975
G1 X66.449 Y13.388 E66.39150
G1 X68.847 Y15.786 E66.56526
G1 X68.298 Y15.786 E66.59337
G1 X66.449 Y13.937 E66.72737
G1 X66.449 Y14.485 E66.75548
G1 X67.750 Y15.786 E66.84974
G1 X67.201 Y15.786 E66.87785
G1 X66.449 Y15.034 E66.93235
G1 X66.449 Y15.582 E66.96046
G1 X66.653 Y15.786 E66.97521
G1 X66.199 Y12.218 F9000.000
G1 X66.141 Y11.970 E66.98818 F600.000
G1 X66.087 Y11.590 E67.00776
G1 X66.067 Y11.189 E67.02824
G1 X66.087 Y10.770 E67.04963
G1 X66.141 Y10.390 E67.06920
G1 X66.199 Y10.142 E67.08217
G1 X66.449 Y9.062 F9000.000
G1 X66.647 Y9.260 E67.09727 F600.000
G1 X66.992 Y9.028 E67.11973
G1 X66.449 Y8.485 E67.16118
G1 X66.449 Y7.907 E67.19235
G1 X67.388 Y8.846 E67.26400
G1 X67.849 Y8.730 E67.28968
G1 X66.694 Y7.574 E67.37788
G1 X67.272 Y7.574 E67.40906
G1 X68.392 Y8.694 E67.49455
G1 X69.107 Y8.832 E67.53386
G1 X67.849 Y7.574 E67.62986
G1 X68.427 Y7.574 E67.66104
G1 X69.786 Y8.933 E67.76476
G1 X69.786 Y8.356 E67.79594
G1 X69.004 Y7.574 E67.85558
G1 X69.582 Y7.574 E67.88675
G1 X69.786 Y7.778 E67.90230
M104 S205 ; set temperature
M140 S55 ; wait for bed temperature to be reached
;Layer change
G1 E61.90230 F1800.00000
G92 E0
G1 Z0.520 F9000.000
G1 X69.981 Y11.180 F9000.000
G1 E6.00000 F1800.00000
G1 X69.949 Y11.517 E6.01159 F900.000
G1 X69.854 Y11.843 E6.02318
G1 X69.701 Y12.145 E6.03477
G1 X69.493 Y12.413 E6.04636
G1 X69.241 Y12.635 E6.05784
G1 X69.047 Y12.758 E6.06568
G1 X68.840 Y12.855 E6.07352
G1 X68.517 Y12.949 E6.08500
G1 X68.180 Y12.981 E6.09659
G1 X67.843 Y12.949 E6.10818
G1 X67.520 Y12.855 E6.11967
G1 X67.313 Y12.758 E6.12750
G1 X67.119 Y12.635 E6.13534
G1 X66.867 Y12.413 E6.14683
G1 X66.659 Y12.145 E6.15842
G1 X66.506 Y11.843 E6.17001
