; generated by Slic3r 1.2.9 on 2018-02-06 at 22:11:03

; external perimeters extrusion width = 0.40mm
; perimeters extrusion width = 0.62mm
; infill extrusion width = 0.33mm
; solid infill extrusion width = 0.62mm
; top infill extrusion width = 0.20mm

M106 S256; Turn on fan to 100% power
M104 S140; turn on extruder temperature at S value
M140 S60; turn on bed temperature at S value
G28; home all axes
M84; disable motors
G1 Z15 F15000; have Z move to 20mm at 15000 mm/min
M190 S55; turn on bed temperature at S value and wait
M140 S55; turn on bed temperature at S value (printing temperature)
M109 S200; turn on extruder temperature at S value and wait (printing temperature)
M104 S200; turn on extruder temperature at S value
G1 Z0 F12000; move Z back to home
G21 ; set units to millimeters
G90 ; use absolute coordinates
M82 ; use absolute distances for extrusion
G92 E0
M106 S255
;Layer change
G1 E-6.00000 F1800.00000
G92 E0
G1 Z0.300 F9000.000
G1 X88.304 Y11.076 F9000.000
G1 E6.00000 F1800.00000
G1 X88.342 Y10.779 E6.01474 F600.000
G1 X88.507 Y9.915 E6.05801
G1 X88.581 Y9.625 E6.07276
G1 X88.853 Y8.789 E6.11602
G1 X88.963 Y8.511 E6.13076
G1 X89.337 Y7.715 E6.17402
G1 X89.482 Y7.453 E6.18877
G1 X89.953 Y6.710 E6.23203
G1 X90.129 Y6.468 E6.24677
G1 X90.661 Y5.825 E6.28787
G1 X90.894 Y5.572 E6.30478
G1 X91.535 Y4.971 E6.34804
G1 X91.766 Y4.780 E6.36278
G1 X92.477 Y4.263 E6.40605
G1 X92.730 Y4.102 E6.42079
G1 X93.500 Y3.679 E6.46405
G1 X93.771 Y3.551 E6.47880
G1 X94.589 Y3.228 E6.52207
G1 X94.874 Y3.135 E6.53681
G1 X95.725 Y2.916 E6.58007
G1 X96.019 Y2.860 E6.59482
G1 X96.892 Y2.750 E6.63808
G1 X97.191 Y2.731 E6.65283
G1 X165.069 Y2.731 E9.99350
G1 X165.368 Y2.750 E10.00824
G1 X166.241 Y2.860 E10.05151 F600.000
G1 X166.535 Y2.916 E10.06625
G1 X167.386 Y3.135 E10.10951
G1 X167.671 Y3.228 E10.12425
G1 X168.489 Y3.551 E10.16752
G1 X168.760 Y3.679 E10.18227
G1 X169.530 Y4.102 E10.22553
G1 X169.783 Y4.263 E10.24027
G1 X170.494 Y4.780 E10.28354
G1 X170.725 Y4.971 E10.29828
G1 X171.366 Y5.572 E10.34155
G1 X171.571 Y5.791 E10.35629
G1 X172.131 Y6.468 E10.39955
G1 X172.307 Y6.710 E10.41430
G1 X172.778 Y7.453 E10.45756
G1 X172.923 Y7.715 E10.47230
G1 X173.297 Y8.511 E10.51557
G1 X173.407 Y8.789 E10.53030
G1 X173.679 Y9.625 E10.57357
G1 X173.753 Y9.915 E10.58832
G1 X173.918 Y10.779 E10.63159
G1 X173.956 Y11.076 E10.64632
G1 X174.016 Y12.103 E10.69696
G1 X174.011 Y51.204 E12.62133
G1 X173.964 Y51.551 E12.63855
G1 X173.901 Y51.792 E12.65080
G1 X173.783 Y52.091 E12.66663
G1 X173.630 Y52.367 E12.68216
G1 X173.471 Y52.588 E12.69555
G1 X173.247 Y52.829 E12.71174
G1 X173.008 Y53.026 E12.72697
G1 X172.747 Y53.191 E12.74217
G1 X172.522 Y53.299 E12.75450
G1 X172.179 Y53.414 E12.77226
G1 X171.889 Y53.469 E12.78679
G1 X171.583 Y53.489 E12.80189
G1 X90.677 Y53.489 E16.78370
G1 X90.378 Y53.470 E16.79844
G1 X90.093 Y53.417 E16.81271
G1 X89.755 Y53.306 E16.83020
G1 X89.515 Y53.192 E16.84329
G1 X89.259 Y53.031 E16.85819
G1 X89.018 Y52.834 E16.87349
G1 X88.792 Y52.591 E16.88981
G1 X88.627 Y52.364 E16.90363
G1 X88.478 Y52.093 E16.91885
G1 X88.359 Y51.791 E16.93481
G1 X88.290 Y51.521 E16.94853
G1 X88.248 Y51.189 E16.96500
G1 X88.244 Y12.103 E18.88863
G1 X88.301 Y11.136 E18.93631
G1 E12.93631 F1800.00000
G92 E0
G1 X153.355 Y27.378 F9000.000
G1 E6.00000 F1800.00000
G1 X153.355 Y49.828 E7.10488 F600.000
G1 X127.855 Y49.828 E8.35986
G1 X127.855 Y50.328 E8.38447
G1 X115.405 Y50.328 E8.99720
G1 X115.405 Y49.828 E9.02181
G1 X106.905 Y49.828 E9.44013
G1 X106.905 Y45.163 E9.66971
G1 X106.552 Y44.622 E9.70154
G1 X106.271 Y44.027 E9.73391
G1 X106.069 Y43.403 E9.76620
G1 X105.946 Y42.758 E9.79849
G1 X105.905 Y42.103 E9.83079
G1 X105.946 Y41.448 E9.86309
G1 X106.069 Y40.804 E9.89539
G1 X106.271 Y40.180 E9.92768
G1 X106.552 Y39.584 E9.96005
G1 X106.905 Y39.043 E9.99188
G1 X106.905 Y27.378 E10.56596
G1 X117.905 Y27.378 E11.10732
G1 X117.905 Y26.328 E11.15900
G1 X109.405 Y26.328 E11.57732
G1 X109.405 Y7.878 E12.48534
G1 X117.905 Y7.878 E12.90367
G1 X117.905 Y6.378 E12.97749
G1 X150.355 Y6.378 E14.57452
G1 X150.355 Y27.378 E15.60804
G1 X153.295 Y27.378 E15.75273
G1 X153.755 Y27.378 F9000.000
G1 E9.75273 F1800.00000
G92 E0
G1 X105.955 Y27.532 F9000.000
G1 E6.00000 F1800.00000
G1 X105.941 Y27.767 E6.01158 F600.000
G1 X105.898 Y27.998 E6.02316
G1 X105.828 Y28.222 E6.03472
G1 X105.731 Y28.436 E6.04626
G1 X105.609 Y28.635 E6.05777
G1 X105.463 Y28.817 E6.06925
G1 X105.297 Y28.979 E6.08069
G1 X105.111 Y29.119 E6.09212
G1 X104.910 Y29.233 E6.10351
G1 X104.696 Y29.321 E6.11487
G1 X104.473 Y29.380 E6.12622
G1 X104.245 Y29.410 E6.13758
G1 X104.006 Y29.409 E6.14932
G1 X103.787 Y29.380 E6.16021
G1 X103.564 Y29.321 E6.17156
G1 X103.350 Y29.233 E6.18292
G1 X103.149 Y29.119 E6.19431
G1 X102.963 Y28.979 E6.20573
G1 X102.797 Y28.817 E6.21718
G1 X102.651 Y28.635 E6.22866
G1 X102.525 Y28.430 E6.24051
G1 X102.366 Y28.015 E6.26240
G1 X102.319 Y27.767 E6.27478
G1 X102.305 Y27.532 E6.28639
G1 X102.319 Y27.297 E6.29798
G1 X102.362 Y27.066 E6.30955
G1 X102.432 Y26.842 E6.32111
G1 X102.529 Y26.628 E6.33265
G1 X102.651 Y26.429 E6.34416
G1 X102.797 Y26.246 E6.35564
G1 X102.963 Y26.084 E6.36709
G1 X103.149 Y25.945 E6.37851
G1 X103.350 Y25.830 E6.38990
G1 X103.564 Y25.743 E6.40126
G1 X103.787 Y25.684 E6.41261
G1 X104.015 Y25.654 E6.42394
G1 X104.245 Y25.654 E6.43528 F600.000
G1 X104.473 Y25.684 E6.44661
G1 X104.696 Y25.743 E6.45796
G1 X104.910 Y25.830 E6.46932
G1 X105.111 Y25.945 E6.48071
G1 X105.297 Y26.084 E6.49213
G1 X105.463 Y26.246 E6.50358
G1 X105.609 Y26.429 E6.51506
G1 X105.732 Y26.629 E6.52660
G1 X105.834 Y26.858 E6.53898
G1 X105.941 Y27.290 E6.56088
G1 X105.952 Y27.472 E6.56984
G1 X106.157 Y27.654 F9000.000
G1 E0.56984 F1800.00000
G92 E0
G1 X95.955 Y27.532 F9000.000
G1 E6.00000 F1800.00000
G1 X95.941 Y27.767 E6.01161 F600.000
G1 X95.894 Y28.015 E6.02399
G1 X95.735 Y28.430 E6.04589
G1 X95.609 Y28.635 E6.05773
G1 X95.463 Y28.817 E6.06921
G1 X95.297 Y28.979 E6.08066
G1 X95.111 Y29.119 E6.09208
G1 X94.910 Y29.233 E6.10347
G1 X94.696 Y29.321 E6.11484
G1 X94.473 Y29.380 E6.12618
G1 X94.245 Y29.410 E6.13754
G1 X94.006 Y29.409 E6.14929
G1 X93.787 Y29.380 E6.16018
G1 X93.564 Y29.321 E6.17152
G1 X93.350 Y29.233 E6.18289
G1 X93.149 Y29.119 E6.19428
G1 X92.963 Y28.979 E6.20570
G1 X92.797 Y28.817 E6.21715
G1 X92.651 Y28.635 E6.22863
G1 X92.529 Y28.436 E6.24014
G1 X92.432 Y28.222 E6.25168
G1 X92.362 Y27.998 E6.26323
G1 X92.319 Y27.767 E6.27481
G1 X92.305 Y27.532 E6.28639
G1 X92.319 Y27.297 E6.29798
G1 X92.362 Y27.066 E6.30955
G1 X92.432 Y26.842 E6.32111
G1 X92.529 Y26.628 E6.33265
G1 X92.651 Y26.429 E6.34416
G1 X92.797 Y26.246 E6.35564
G1 X92.963 Y26.084 E6.36709
G1 X93.149 Y25.945 E6.37851
G1 X93.350 Y25.830 E6.38990
G1 X93.564 Y25.743 E6.40127
G1 X93.787 Y25.684 E6.41261
G1 X94.015 Y25.654 E6.42394
G1 X94.245 Y25.654 E6.43528 F600.000
G1 X94.473 Y25.684 E6.44661
G1 X94.696 Y25.743 E6.45796
G1 X94.910 Y25.830 E6.46932
G1 X95.111 Y25.945 E6.48071
G1 X95.297 Y26.084 E6.49213
G1 X95.463 Y26.246 E6.50358
G1 X95.609 Y26.429 E6.51506
G1 X95.731 Y26.628 E6.52657
G1 X95.828 Y26.842 E6.53811
G1 X95.898 Y27.066 E6.54967
G1 X95.952 Y27.472 E6.56984
G1 X96.160 Y27.650 F9000.000
G1 X96.805 Y27.757 F9000.000
G1 X96.805 Y25.942 E6.65914 F600.000
G1 X96.732 Y25.719 E6.67071
G1 X96.674 Y25.413 E6.68601
G1 X96.655 Y25.103 E6.70131
G1 X96.674 Y24.793 E6.71661
G1 X96.732 Y24.487 E6.73191
G1 X96.805 Y24.264 E6.74348
G1 X96.805 Y22.580 E6.82633
G1 X93.805 Y22.580 E6.97398
G1 X93.805 Y14.884 E7.35278
G1 X104.755 Y14.884 E7.89168
G1 X104.755 Y22.580 E8.27049
G1 X101.755 Y22.580 E8.41813
G1 X101.755 Y27.757 E8.67289
G1 X100.155 Y27.757 E8.75163
G1 X100.155 Y39.728 E9.34082
G1 X100.389 Y39.921 E9.35572
G1 X100.643 Y40.271 E9.37703
G1 X100.803 Y40.674 E9.39833
G1 X100.856 Y41.097 E9.41931
G1 X100.839 Y41.337 E9.43115
G1 X100.737 Y41.732 E9.45125
G1 X100.639 Y41.941 E9.46260
G1 X100.389 Y42.285 E9.48356
G1 X100.055 Y42.561 E9.50486
G1 X99.670 Y42.742 E9.52581
G1 X99.446 Y42.800 E9.53717
G1 X99.022 Y42.826 E9.55812
G1 X98.597 Y42.745 E9.57942
G1 X98.220 Y42.569 E9.59987
G1 X98.025 Y42.429 E9.61170
G1 X97.733 Y42.118 E9.63269
G1 X97.524 Y41.739 E9.65399
G1 X97.419 Y41.326 E9.67494
G1 X97.405 Y41.102 E9.68599
G1 X97.421 Y40.870 E9.69747
G1 X97.525 Y40.467 E9.71793
G1 X97.733 Y40.088 E9.73922
G1 X98.024 Y39.778 E9.76018
G1 X98.211 Y39.643 E9.77150
G1 X98.405 Y39.549 E9.78211
G1 X98.405 Y27.757 E10.36248
G1 X96.865 Y27.757 E10.43827
G1 X96.405 Y27.757 F9000.000
G1 X95.672 Y43.631 F9000.000
G1 X96.042 Y43.678 E10.45662 F600.000
G1 X96.323 Y43.758 E10.47103
G1 X96.615 Y43.874 E10.48647
G1 X96.901 Y44.031 E10.50252
G1 X97.165 Y44.222 E10.51858
G1 X97.403 Y44.446 E10.53464
G1 X97.611 Y44.697 E10.55069
G1 X97.786 Y44.973 E10.56675
G1 X97.924 Y45.268 E10.58282
G1 X98.026 Y45.581 E10.59901
G1 X98.093 Y45.943 E10.61715
G1 X98.092 Y46.520 E10.64553
G1 X98.025 Y46.871 E10.66310
G1 X97.924 Y47.184 E10.67929
G1 X97.765 Y47.516 E10.69743
G1 X97.425 Y47.982 E10.72580
G1 X97.165 Y48.226 E10.74337
G1 X96.901 Y48.418 E10.75943
G1 X96.615 Y48.575 E10.77548
G1 X96.207 Y48.737 E10.79708
G1 X95.686 Y48.818 E10.82304
G1 X95.345 Y48.818 E10.83979
G1 X95.022 Y48.777 E10.85585
G1 X94.706 Y48.695 E10.87190
G1 X94.402 Y48.575 E10.88796
G1 X94.117 Y48.418 E10.90401
G1 X93.853 Y48.227 E10.92006
G1 X93.615 Y48.003 E10.93613
G1 X93.407 Y47.752 E10.95219
G1 X93.232 Y47.476 E10.96824
G1 X93.093 Y47.181 E10.98430
G1 X92.991 Y46.868 E11.00052
G1 X92.924 Y46.505 E11.01865
G1 X92.925 Y45.929 E11.04701
G1 X92.992 Y45.578 E11.06458
G1 X93.093 Y45.268 E11.08065
G1 X93.232 Y44.973 E11.09671
G1 X93.407 Y44.697 E11.11275
G1 X93.615 Y44.446 E11.12881
G1 X93.853 Y44.222 E11.14488
G1 X94.117 Y44.031 E11.16093
G1 X94.402 Y43.874 E11.17698
G1 X94.706 Y43.753 E11.19306
G1 X95.022 Y43.672 E11.20911
G1 X95.345 Y43.631 E11.22516
G1 X95.612 Y43.631 E11.23827 F600.000
G1 X95.648 Y44.017 F9000.000
G1 X95.964 Y44.057 E11.25399 F600.000
G1 X96.199 Y44.124 E11.26601
G1 X96.450 Y44.223 E11.27930
G1 X96.694 Y44.357 E11.29296
G1 X96.919 Y44.520 E11.30664
G1 X97.121 Y44.710 E11.32031
G1 X97.298 Y44.924 E11.33398
G1 X97.447 Y45.159 E11.34765
G1 X97.565 Y45.410 E11.36132
G1 X97.652 Y45.676 E11.37507
G1 X97.707 Y45.979 E11.39021
G1 X97.707 Y46.483 E11.41506
G1 X97.651 Y46.775 E11.42965
G1 X97.565 Y47.040 E11.44340
G1 X97.432 Y47.318 E11.45854
G1 X97.135 Y47.726 E11.48338
G1 X96.919 Y47.929 E11.49797
G1 X96.694 Y48.092 E11.51164
G1 X96.450 Y48.226 E11.52531
G1 X96.105 Y48.362 E11.54358
G1 X95.656 Y48.432 E11.56595
G1 X95.370 Y48.432 E11.58004
G1 X95.094 Y48.397 E11.59372
G1 X94.825 Y48.328 E11.60738
G1 X94.567 Y48.226 E11.62106
G1 X94.324 Y48.092 E11.63472
G1 X94.099 Y47.929 E11.64839
G1 X93.896 Y47.739 E11.66206
G1 X93.719 Y47.525 E11.67573
G1 X93.570 Y47.290 E11.68940
G1 X93.452 Y47.039 E11.70307
G1 X93.366 Y46.773 E11.71684
G1 X93.310 Y46.470 E11.73197
G1 X93.311 Y45.966 E11.75680
G1 X93.366 Y45.674 E11.77140
G1 X93.452 Y45.410 E11.78507
G1 X93.571 Y45.159 E11.79875
G1 X93.719 Y44.924 E11.81241
G1 X93.896 Y44.710 E11.82608
G1 X94.099 Y44.520 E11.83976
G1 X94.324 Y44.357 E11.85342
G1 X94.567 Y44.223 E11.86709
G1 X94.825 Y44.121 E11.88077
G1 X95.094 Y44.052 E11.89444
G1 X95.370 Y44.017 E11.90810
G1 X95.588 Y44.017 E11.91882 F600.000
G1 X95.623 Y44.403 F9000.000
G1 X95.887 Y44.436 E11.93191 F600.000
G1 X96.286 Y44.573 E11.95266
G1 X96.487 Y44.683 E11.96394
G1 X96.672 Y44.818 E11.97522
G1 X96.839 Y44.975 E11.98650
G1 X96.985 Y45.152 E11.99778
G1 X97.108 Y45.345 E12.00907
G1 X97.206 Y45.552 E12.02035
G1 X97.277 Y45.771 E12.03166
G1 X97.322 Y46.014 E12.04380
G1 X97.321 Y46.447 E12.06511
G1 X97.277 Y46.678 E12.07673
G1 X97.206 Y46.897 E12.08804
G1 X97.099 Y47.119 E12.10017
G1 X96.844 Y47.469 E12.12148
G1 X96.672 Y47.631 E12.13310
G1 X96.487 Y47.766 E12.14438
G1 X96.286 Y47.876 E12.15566
G1 X96.004 Y47.988 E12.17061
G1 X95.626 Y48.046 E12.18939
G1 X95.394 Y48.046 E12.20083
G1 X95.167 Y48.018 E12.21211
G1 X94.945 Y47.961 E12.22339
G1 X94.731 Y47.876 E12.23468
G1 X94.531 Y47.766 E12.24595
G1 X94.345 Y47.631 E12.25724
G1 X94.178 Y47.474 E12.26852
G1 X94.032 Y47.297 E12.27980
G1 X93.909 Y47.104 E12.29108
G1 X93.811 Y46.896 E12.30237
G1 X93.740 Y46.678 E12.31368
G1 X93.696 Y46.435 E12.32581
G1 X93.696 Y46.003 E12.34712
G1 X93.741 Y45.771 E12.35874
G1 X93.811 Y45.552 E12.37003
G1 X93.909 Y45.345 E12.38131
G1 X94.032 Y45.152 E12.39259
G1 X94.178 Y44.975 E12.40387
G1 X94.345 Y44.818 E12.41515
G1 X94.531 Y44.683 E12.42644
G1 X94.731 Y44.573 E12.43771
G1 X94.945 Y44.488 E12.44900
G1 X95.167 Y44.431 E12.46028
G1 X95.394 Y44.403 E12.47156
G1 X95.563 Y44.403 E12.47989 F600.000
G1 X95.775 Y44.184 F9000.000
G1 E6.47989 F1800.00000
G92 E0
G1 X91.632 Y50.107 F9000.000
G1 E6.00000 F1800.00000
G1 X91.629 Y28.766 E7.05029 F600.000
G1 X91.797 Y28.718 E7.05891
G1 X92.019 Y29.079 E7.07974
G1 X92.224 Y29.336 E7.09596
G1 X92.461 Y29.566 E7.11219
G1 X92.725 Y29.765 E7.12844
G1 X93.012 Y29.928 E7.14469
G1 X93.317 Y30.054 E7.16095
G1 X93.637 Y30.138 E7.17722
G1 X93.954 Y30.180 E7.19294
G1 X94.293 Y30.182 E7.20964
G1 X94.623 Y30.138 E7.22603
G1 X94.943 Y30.054 E7.24230
G1 X95.248 Y29.928 E7.25856
G1 X95.535 Y29.765 E7.27481
G1 X95.799 Y29.566 E7.29106
G1 X96.036 Y29.336 E7.30730
G1 X96.241 Y29.079 E7.32352
G1 X96.429 Y28.773 E7.34120
G1 X96.523 Y28.528 E7.35409
G1 X97.634 Y28.528 E7.40875
G1 X97.634 Y39.108 E7.92946
G1 X97.512 Y39.197 E7.93685
G1 X97.104 Y39.631 E7.96619
G1 X96.802 Y40.181 E7.99704
G1 X96.656 Y40.746 E8.02577
G1 X96.632 Y41.100 E8.04326
G1 X96.653 Y41.448 E8.06039
G1 X96.802 Y42.025 E8.08973
G1 X97.104 Y42.575 E8.12063
G1 X97.514 Y43.012 E8.15011
G1 X97.829 Y43.237 E8.16915
G1 X98.357 Y43.485 E8.19787
G1 X98.973 Y43.602 E8.22872
G1 X99.568 Y43.565 E8.25805
G1 X99.932 Y43.471 E8.27659
G1 X100.472 Y43.217 E8.30592
G1 X100.955 Y42.817 E8.33682
G1 X101.306 Y42.335 E8.36615
G1 X101.466 Y41.995 E8.38465
G1 X101.604 Y41.461 E8.41182
G1 X101.631 Y41.075 E8.43086
G1 X101.556 Y40.480 E8.46033
G1 X101.324 Y39.897 E8.49123
G1 X100.926 Y39.349 E8.52457
G1 X100.926 Y28.528 E9.05711
G1 X101.737 Y28.528 E9.09700
G1 X101.831 Y28.773 E9.10989
G1 X102.019 Y29.079 E9.12759
G1 X102.224 Y29.336 E9.14380
G1 X102.461 Y29.566 E9.16003
G1 X102.725 Y29.765 E9.17628
G1 X103.012 Y29.928 E9.19253
G1 X103.317 Y30.054 E9.20879
G1 X103.637 Y30.138 E9.22506
G1 X103.954 Y30.180 E9.24079
G1 X104.293 Y30.182 E9.25748
G1 X104.623 Y30.138 E9.27388
G1 X104.943 Y30.053 E9.29014
G1 X105.248 Y29.928 E9.30640
G1 X105.535 Y29.765 E9.32265
G1 X105.799 Y29.566 E9.33891
G1 X106.134 Y29.241 E9.36187
G1 X106.134 Y38.813 E9.83298
G1 X105.876 Y39.208 E9.85615
G1 X105.553 Y39.895 E9.89354
G1 X105.320 Y40.611 E9.93061
G1 X105.179 Y41.351 E9.96768
G1 X105.132 Y42.103 E10.00476
G1 X105.179 Y42.855 E10.04183
G1 X105.320 Y43.595 E10.07890
G1 X105.553 Y44.311 E10.11597
G1 X105.876 Y44.999 E10.15336
G1 X106.134 Y45.393 E10.17653
G1 X106.134 Y50.105 E10.40845
G1 X91.692 Y50.107 E11.11919
G1 E5.11919 F1800.00000
G92 E0
G1 X95.346 Y12.575 F9000.000
G1 E6.00000 F1800.00000
G1 X95.022 Y12.534 E6.01606 F600.000
G1 X94.706 Y12.453 E6.03211
G1 X94.402 Y12.333 E6.04818
G1 X94.117 Y12.176 E6.06423
G1 X93.853 Y11.984 E6.08028
G1 X93.615 Y11.760 E6.09635
G1 X93.407 Y11.509 E6.11241
G1 X93.232 Y11.234 E6.12845
G1 X93.093 Y10.938 E6.14452
G1 X92.991 Y10.625 E6.16073
G1 X92.924 Y10.263 E6.17887
G1 X92.925 Y9.686 E6.20723
G1 X92.992 Y9.336 E6.22480
G1 X93.093 Y9.025 E6.24086
G1 X93.232 Y8.730 E6.25693
G1 X93.407 Y8.455 E6.27297
G1 X93.615 Y8.203 E6.28903
G1 X93.853 Y7.980 E6.30510
G1 X94.117 Y7.788 E6.32115
G1 X94.402 Y7.631 E6.33721
G1 X94.706 Y7.511 E6.35327
G1 X95.022 Y7.430 E6.36933
G1 X95.376 Y7.385 E6.38689 F600.000
G1 X95.951 Y7.420 E6.41526
G1 X96.309 Y7.510 E6.43340
G1 X96.615 Y7.631 E6.44960
G1 X96.901 Y7.788 E6.46566
G1 X97.165 Y7.980 E6.48172
G1 X97.403 Y8.203 E6.49778
G1 X97.611 Y8.455 E6.51383
G1 X97.786 Y8.730 E6.52990
G1 X97.924 Y9.025 E6.54596
G1 X98.025 Y9.336 E6.56200
G1 X98.086 Y9.656 E6.57806
G1 X98.107 Y9.982 E6.59413
G1 X98.086 Y10.308 E6.61019
G1 X98.025 Y10.628 E6.62625
G1 X97.924 Y10.938 E6.64230
G1 X97.786 Y11.233 E6.65836
