; generated by Slic3r 1.2.9 on 2018-02-04 at 13:20:58

; external perimeters extrusion width = 0.40mm
; perimeters extrusion width = 0.62mm
; infill extrusion width = 0.33mm
; solid infill extrusion width = 0.62mm
; top infill extrusion width = 0.20mm

M106 S256; Turn on fan to 100% power
M104 S140; turn on extruder temperature at S value
M140 S60; turn on bed temperature at S value
G28; home all axes
M84; disable motors
G1 Z15 F15000; have Z move to 20mm at 15000 mm/min
M190 S55; turn on bed temperature at S value and wait
M140 S55; turn on bed temperature at S value (printing temperature)
M109 S200; turn on extruder temperature at S value and wait (printing temperature)
M104 S200; turn on extruder temperature at S value
G1 Z0 F12000; move Z back to home
G21 ; set units to millimeters
G90 ; use absolute coordinates
M82 ; use absolute distances for extrusion
G92 E0
M106 S255
;Layer change
G1 E-6.00000 F1800.00000
G92 E0
G1 Z0.300 F9000.000
G1 X99.839 Y11.740 F9000.000
G1 E6.00000 F1800.00000
G1 X100.231 Y10.430 E6.06727 F600.000
G1 X101.277 Y9.551 E6.13455
G1 X102.225 Y9.354 E6.18218
G1 X169.475 Y9.354 E9.49189
G1 X170.785 Y9.746 E9.55917
G1 X171.664 Y10.792 E9.62644 F600.000
G1 X171.861 Y11.740 E9.67407
G1 X171.861 Y33.740 E10.75680
G1 X171.469 Y35.050 E10.82408
G1 X170.423 Y35.929 E10.89135
G1 X169.475 Y36.126 E10.93898
G1 X102.225 Y36.126 E14.24870
G1 X100.915 Y35.734 E14.31597
G1 X100.036 Y34.688 E14.38325
G1 X99.839 Y33.740 E14.43088
G1 X99.839 Y11.800 E15.51066
G1 E9.51066 F1800.00000
G92 E0
G1 X168.611 Y28.005 F9000.000
G1 E6.00000 F1800.00000
G1 X168.626 Y28.244 E6.01176 F600.000
G1 X168.593 Y28.592 E6.02896
G1 X168.494 Y28.931 E6.04634
G1 X168.334 Y29.246 E6.06373
G1 X168.114 Y29.527 E6.08132
G1 X167.945 Y29.685 E6.09269
G1 X167.752 Y29.826 E6.10445
G1 X167.441 Y29.984 E6.12165
G1 X167.102 Y30.083 E6.13903
G1 X166.750 Y30.116 E6.15640
G1 X166.398 Y30.083 E6.17378
G1 X166.059 Y29.984 E6.19116
G1 X165.745 Y29.824 E6.20854
G1 X165.466 Y29.608 E6.22591
G1 X165.232 Y29.343 E6.24329
G1 X165.052 Y29.038 E6.26069
G1 X164.932 Y28.702 E6.27828
G1 X164.889 Y28.475 E6.28964
G1 X164.874 Y28.236 E6.30140
G1 X164.907 Y27.888 E6.31860
G1 X165.006 Y27.549 E6.33598
G1 X165.166 Y27.235 E6.35336
G1 X165.382 Y26.956 E6.37074
G1 X165.647 Y26.722 E6.38812
G1 X165.951 Y26.543 E6.40549
G1 X166.280 Y26.424 E6.42270
G1 X166.515 Y26.379 E6.43445
G1 X166.745 Y26.365 E6.44582 F600.000
G1 X167.101 Y26.397 E6.46341
G1 X167.441 Y26.496 E6.48080
G1 X167.755 Y26.656 E6.49818
G1 X168.034 Y26.872 E6.51556
G1 X168.268 Y27.137 E6.53294
G1 X168.448 Y27.442 E6.55033
G1 X168.568 Y27.778 E6.56792
G1 X168.600 Y27.946 E6.57633
G1 X168.829 Y28.102 F9000.000
G1 X168.479 Y30.251 F9000.000
G1 X168.479 Y32.744 E6.69902 F600.000
G1 X142.846 Y32.744 E7.96053
G1 X142.846 Y29.736 E8.10855
G1 X164.569 Y29.736 E9.17763
G1 X164.936 Y30.172 E9.20567
G1 X165.330 Y30.478 E9.23022
G1 X165.774 Y30.705 E9.25477
G1 X166.253 Y30.844 E9.27932
G1 X166.750 Y30.891 E9.30388
G1 X167.247 Y30.844 E9.32843
G1 X167.726 Y30.705 E9.35299
G1 X168.156 Y30.485 E9.37677
G1 X168.430 Y30.286 E9.39343
G1 X168.479 Y26.241 F9000.000
G1 X168.170 Y26.002 E9.41264 F600.000
G1 X167.726 Y25.775 E9.43720
G1 X167.245 Y25.636 E9.46183
G1 X166.756 Y25.591 E9.48601
G1 X166.417 Y25.613 E9.50270
G1 X166.076 Y25.678 E9.51981
G1 X165.621 Y25.842 E9.54358
G1 X165.192 Y26.096 E9.56814
G1 X164.818 Y26.425 E9.59269
G1 X164.753 Y26.509 E9.59792
G1 X164.596 Y26.456 E9.60606
G1 X164.596 Y12.736 E10.28127
G1 X168.479 Y12.736 E10.47234
G1 X168.479 Y26.181 E11.13404
G1 E5.13404 F1800.00000
G92 E0
G1 X164.211 Y29.351 F9000.000
G1 E6.00000 F1800.00000
G1 X164.211 Y12.351 E6.83666 F600.000
G1 X168.864 Y12.351 E7.06569
G1 X168.864 Y27.054 E7.78932
G1 X168.694 Y27.101 E7.79801
G1 X168.581 Y26.910 E7.80894
G1 X168.299 Y26.590 E7.82990
G1 X167.963 Y26.329 E7.85086
G1 X167.583 Y26.136 E7.87183
G1 X167.173 Y26.016 E7.89284
G1 X166.751 Y25.978 E7.91373
G1 X166.466 Y25.996 E7.92776
G1 X166.178 Y26.051 E7.94219
G1 X165.786 Y26.192 E7.96268
G1 X165.420 Y26.409 E7.98364
G1 X165.100 Y26.691 E8.00461
G1 X164.839 Y27.027 E8.02558
G1 X164.646 Y27.407 E8.04654
G1 X164.527 Y27.816 E8.06751
G1 X164.488 Y28.230 E8.08800
G1 X164.506 Y28.523 E8.10243
G1 X164.559 Y28.803 E8.11645
G1 X164.702 Y29.203 E8.13735
G1 X164.919 Y29.570 E8.15836
G1 X165.201 Y29.890 E8.17932
G1 X165.537 Y30.151 E8.20029
G1 X165.917 Y30.344 E8.22125
G1 X166.326 Y30.463 E8.24222
G1 X166.750 Y30.503 E8.26319
G1 X167.174 Y30.463 E8.28415
G1 X167.583 Y30.344 E8.30512
G1 X167.954 Y30.155 E8.32561
G1 X168.191 Y29.983 E8.34004
G1 X168.399 Y29.788 E8.35407
G1 X168.708 Y29.392 E8.37877
G1 X168.864 Y29.446 E8.38690
G1 X168.864 Y33.129 E8.56817
G1 X142.461 Y33.129 E9.86763
G1 X142.461 Y29.351 E10.05361
G1 X164.151 Y29.351 E11.12108
G1 X163.825 Y28.965 F9000.000
G1 X163.825 Y11.965 E11.95774 F600.000
G1 X169.250 Y11.965 E12.22473
G1 X169.250 Y33.515 E13.28531
G1 X142.075 Y33.515 E14.62273
G1 X142.075 Y28.965 E14.84666
G1 X163.765 Y28.965 E15.91414
G1 X164.225 Y28.965 F9000.000
G1 X164.880 Y25.670 F9000.000
G1 X165.078 Y25.868 E15.92838 F600.000
G1 X165.432 Y25.659 E15.94925
G1 X164.880 Y25.107 E15.98890
G1 X164.880 Y24.544 E16.01750
G1 X165.826 Y25.491 E16.08548
G1 X166.266 Y25.367 E16.10866
G1 X164.880 Y23.981 E16.20821
G1 X164.880 Y23.418 E16.23680
G1 X166.772 Y25.311 E16.37275
G1 X167.380 Y25.355 E16.40369
G1 X164.880 Y22.856 E16.58328
G1 X164.880 Y22.293 E16.61188
G1 X168.187 Y25.600 E16.84945
G1 X168.195 Y25.045 E16.87765
G1 X164.880 Y21.730 E17.11580
G1 X164.880 Y21.167 E17.14439
G1 X168.195 Y24.482 E17.38254
G1 X168.195 Y23.919 E17.41114
G1 X164.880 Y20.604 E17.64929
G1 X164.880 Y20.041 E17.67788
G1 X168.195 Y23.356 E17.91603
G1 X168.195 Y22.793 E17.94463
G1 X164.880 Y19.478 E18.18278
G1 X164.880 Y18.915 E18.21137
G1 X168.195 Y22.230 E18.44952
G1 X168.195 Y21.667 E18.47812
G1 X164.880 Y18.352 E18.71627
G1 X164.880 Y17.789 E18.74486
G1 X168.195 Y21.104 E18.98301
G1 X168.195 Y20.541 E19.01161
G1 X164.880 Y17.226 E19.24976
G1 X164.880 Y16.664 E19.27835
G1 X168.195 Y19.979 E19.51650
G1 X168.195 Y19.416 E19.54510
G1 X164.880 Y16.101 E19.78324
G1 X164.880 Y15.538 E19.81184
G1 X168.195 Y18.853 E20.04999
G1 X168.195 Y18.290 E20.07858
G1 X164.880 Y14.975 E20.31673
G1 X164.880 Y14.412 E20.34533
G1 X168.195 Y17.727 E20.58348
G1 X168.195 Y17.164 E20.61207
G1 X164.880 Y13.849 E20.85022
G1 X164.880 Y13.286 E20.87882
G1 X168.195 Y16.601 E21.11697
G1 X168.195 Y16.038 E21.14556
G1 X165.177 Y13.020 E21.36239
G1 X165.740 Y13.020 E21.39099
G1 X168.195 Y15.475 E21.56737
G1 X168.195 Y14.912 E21.59597
G1 X166.303 Y13.020 E21.73192
G1 X166.866 Y13.020 E21.76051
G1 X168.195 Y14.349 E21.85602
G1 X168.195 Y13.787 E21.88461
G1 X167.428 Y13.020 E21.93968
G1 X167.991 Y13.020 E21.96828
G1 X168.195 Y13.224 E21.98290
G1 X168.830 Y27.263 F9000.000
G1 X168.901 Y27.675 E22.00347 F600.000
G1 X168.929 Y27.957 E22.01741
G1 X168.929 Y28.455 E22.04194
G1 X168.929 Y28.455 F9000.000
G1 X168.917 Y28.667 E22.06453 F600.000
G1 X168.837 Y29.233 E22.12547
G1 X168.195 Y31.052 F9000.000
G1 X167.996 Y30.853 E22.13934 F600.000
G1 X167.609 Y31.014 E22.16003
G1 X168.195 Y31.599 E22.20094
G1 X168.195 Y32.146 E22.22797
G1 X167.177 Y31.128 E22.29910
G1 X166.677 Y31.175 E22.32391
G1 X167.961 Y32.460 E22.41363
G1 X167.414 Y32.460 E22.44066
G1 X166.066 Y31.112 E22.53482
G1 X165.177 Y30.771 F9000.000
G1 X166.867 Y32.460 E22.65282 F600.000
G1 X166.319 Y32.460 E22.67985
G1 X163.879 Y30.020 E22.85027
G1 X163.332 Y30.020 E22.87730
G1 X165.772 Y32.460 E23.04772
G1 X165.225 Y32.460 E23.07475
G1 X162.785 Y30.020 E23.24518
G1 X162.238 Y30.020 E23.27221
G1 X164.677 Y32.460 E23.44263
G1 X164.130 Y32.460 E23.46966
G1 X161.690 Y30.020 E23.64008
G1 X161.143 Y30.020 E23.66711
G1 X163.583 Y32.460 E23.83753
G1 X163.036 Y32.460 E23.86456
G1 X160.596 Y30.020 E24.03498
G1 X160.048 Y30.020 E24.06201
G1 X162.488 Y32.460 E24.23244
G1 X161.941 Y32.460 E24.25946
G1 X159.501 Y30.020 E24.42989
G1 X158.954 Y30.020 E24.45692
G1 X161.394 Y32.460 E24.62734
G1 X160.847 Y32.460 E24.65437
G1 X158.407 Y30.020 E24.82479
G1 X157.859 Y30.020 E24.85182
G1 X160.299 Y32.460 E25.02224
G1 X159.752 Y32.460 E25.04927
G1 X157.312 Y30.020 E25.21969
G1 X156.765 Y30.020 E25.24672
G1 X159.205 Y32.460 E25.41714
G1 X158.657 Y32.460 E25.44417
G1 X156.217 Y30.020 E25.61460
G1 X155.670 Y30.020 E25.64163
G1 X158.110 Y32.460 E25.81205
G1 X157.563 Y32.460 E25.83908
G1 X155.123 Y30.020 E26.00950
G1 X154.576 Y30.020 E26.03653
G1 X157.016 Y32.460 E26.20695
G1 X156.468 Y32.460 E26.23398
G1 X154.028 Y30.020 E26.40440
G1 X153.481 Y30.020 E26.43143
G1 X155.921 Y32.460 E26.60185
G1 X155.374 Y32.460 E26.62888
G1 X152.934 Y30.020 E26.79931
G1 X152.387 Y30.020 E26.82634
G1 X154.826 Y32.460 E26.99676
G1 X154.279 Y32.460 E27.02379
G1 X151.839 Y30.020 E27.19421
G1 X151.292 Y30.020 E27.22124
G1 X153.732 Y32.460 E27.39166
G1 X153.185 Y32.460 E27.41869
G1 X150.745 Y30.020 E27.58911
G1 X150.197 Y30.020 E27.61614
G1 X152.637 Y32.460 E27.78657
G1 X152.090 Y32.460 E27.81359
G1 X149.650 Y30.020 E27.98402
G1 X149.103 Y30.020 E28.01105
G1 X151.543 Y32.460 E28.18147
G1 X150.996 Y32.460 E28.20850
G1 X148.556 Y30.020 E28.37892
G1 X148.008 Y30.020 E28.40595
G1 X150.448 Y32.460 E28.57637
G1 X149.901 Y32.460 E28.60340
G1 X147.461 Y30.020 E28.77382
G1 X146.914 Y30.020 E28.80085
G1 X149.354 Y32.460 E28.97128
G1 X148.806 Y32.460 E28.99831
G1 X146.366 Y30.020 E29.16873
G1 X145.819 Y30.020 E29.19576
G1 X148.259 Y32.460 E29.36618
G1 X147.712 Y32.460 E29.39321
G1 X145.272 Y30.020 E29.56363
G1 X144.725 Y30.020 E29.59066
G1 X147.165 Y32.460 E29.76108
G1 X146.617 Y32.460 E29.78811
G1 X144.177 Y30.020 E29.95853
G1 X143.630 Y30.020 E29.98556
G1 X146.070 Y32.460 E30.15599
G1 X145.523 Y32.460 E30.18302
G1 X143.130 Y30.067 E30.35014
G1 X143.130 Y30.615 E30.37717
G1 X144.975 Y32.460 E30.50606
G1 X144.428 Y32.460 E30.53309
G1 X143.130 Y31.162 E30.62377
G1 X143.130 Y31.709 E30.65079
G1 X143.881 Y32.460 E30.70324
G1 X143.334 Y32.460 E30.73027
G1 X143.130 Y32.256 E30.74449
G1 E24.74449 F1800.00000
G92 E0
G1 X106.825 Y28.240 F9000.000
G1 E6.00000 F1800.00000
G1 X106.811 Y28.475 E6.01159 F600.000
G1 X106.766 Y28.710 E6.02336
G1 X106.647 Y29.039 E6.04056
G1 X106.468 Y29.343 E6.05794
G1 X106.234 Y29.608 E6.07532
G1 X105.955 Y29.824 E6.09269
G1 X105.641 Y29.984 E6.11007
G1 X105.302 Y30.083 E6.12745
G1 X104.950 Y30.116 E6.14483
G1 X104.598 Y30.083 E6.16220
G1 X104.259 Y29.984 E6.17958
G1 X103.944 Y29.824 E6.19697
G1 X103.663 Y29.604 E6.21457
G1 X103.505 Y29.435 E6.22593
G1 X103.364 Y29.242 E6.23769
G1 X103.206 Y28.931 E6.25489
G1 X103.107 Y28.592 E6.27227
G1 X103.074 Y28.240 E6.28965
G1 X103.107 Y27.888 E6.30703
G1 X103.206 Y27.549 E6.32440
G1 X103.366 Y27.235 E6.34178
G1 X103.582 Y26.956 E6.35916
G1 X103.847 Y26.722 E6.37654
G1 X104.151 Y26.543 E6.39391
G1 X104.480 Y26.424 E6.41112
G1 X104.715 Y26.379 E6.42287
G1 X104.945 Y26.365 E6.43424 F600.000
G1 X105.301 Y26.397 E6.45183
G1 X105.641 Y26.496 E6.46922
G1 X105.955 Y26.656 E6.48660
G1 X106.234 Y26.872 E6.50398
G1 X106.468 Y27.137 E6.52136
G1 X106.648 Y27.442 E6.53875
G1 X106.768 Y27.778 E6.55634
G1 X106.822 Y28.180 E6.57630
G1 X107.029 Y28.358 F9000.000
G1 E0.57630 F1800.00000
G92 E0
G1 X103.221 Y30.238 F9000.000
G1 E6.00000 F1800.00000
G1 X103.528 Y30.477 E6.01917 F600.000
G1 X103.974 Y30.705 E6.04380
G1 X104.453 Y30.844 E6.06835
G1 X104.950 Y30.891 E6.09291
G1 X105.447 Y30.844 E6.11746
G1 X105.926 Y30.705 E6.14202
G1 X106.370 Y30.478 E6.16657
G1 X106.764 Y30.172 E6.19112
G1 X107.131 Y29.736 E6.21915
G1 X128.854 Y29.736 E7.28824
G1 X128.854 Y32.744 E7.43626
G1 X103.221 Y32.744 E8.69776
G1 X103.221 Y30.298 E8.81815
G1 X103.221 Y26.197 F9000.000
G1 X103.221 Y12.736 E9.48060 F600.000
G1 X107.104 Y12.736 E9.67168
G1 X107.104 Y26.692 E10.35854
G1 X106.764 Y26.308 E10.38378
G1 X106.370 Y26.002 E10.40834
G1 X105.926 Y25.775 E10.43289
G1 X105.445 Y25.636 E10.45752
G1 X104.956 Y25.591 E10.48171
G1 X104.617 Y25.613 E10.49839
G1 X104.276 Y25.678 E10.51550
G1 X103.821 Y25.842 E10.53928
G1 X103.273 Y26.166 E10.57064
G1 E4.57064 F1800.00000
G92 E0
G1 X107.489 Y29.351 F9000.000
G1 E6.00000 F1800.00000
G1 X129.239 Y29.351 E7.07043 F600.000
G1 X129.239 Y33.129 E7.25640
G1 X102.836 Y33.129 E8.55586
G1 X102.836 Y29.442 E8.73733
G1 X102.995 Y29.390 E8.74560
G1 X103.207 Y29.681 E8.76331
G1 X103.402 Y29.889 E8.77734
G1 X103.736 Y30.151 E8.79823
G1 X104.117 Y30.344 E8.81924
G1 X104.526 Y30.463 E8.84020
G1 X104.950 Y30.503 E8.86117
G1 X105.374 Y30.463 E8.88214
G1 X105.783 Y30.344 E8.90310
G1 X106.163 Y30.151 E8.92407
G1 X106.499 Y29.890 E8.94503
G1 X106.781 Y29.570 E8.96600
G1 X106.998 Y29.204 E8.98696
G1 X107.139 Y28.812 E9.00746
G1 X107.194 Y28.523 E9.02191
G1 X107.212 Y28.240 E9.03589
G1 X107.194 Y27.957 E9.04984
G1 X107.141 Y27.677 E9.06387
G1 X106.998 Y27.277 E9.08476
G1 X106.781 Y26.910 E9.10577
G1 X106.499 Y26.590 E9.12674
G1 X106.163 Y26.329 E9.14771
G1 X105.783 Y26.136 E9.16867
G1 X105.373 Y26.016 E9.18968
G1 X104.951 Y25.978 E9.21057
G1 X104.666 Y25.996 E9.22460
G1 X104.378 Y26.051 E9.23903
G1 X103.986 Y26.192 E9.25952
G1 X103.620 Y26.409 E9.28048
G1 X103.300 Y26.691 E9.30145
G1 X102.992 Y27.088 E9.32619
G1 X102.836 Y27.034 E9.33433
G1 X102.836 Y12.351 E10.05698
G1 X107.489 Y12.351 E10.28602
G1 X107.489 Y29.291 E11.11972
G1 X107.875 Y28.965 F9000.000
G1 X129.625 Y28.965 E12.19015 F600.000
G1 X129.625 Y33.515 E12.41408
G1 X102.450 Y33.515 E13.75150
G1 X102.450 Y11.965 E14.81208
G1 X107.875 Y11.965 E15.07907
G1 X107.875 Y28.905 E15.91278
G1 X107.875 Y29.365 F9000.000
G1 E9.91278 F1800.00000
G92 E0
G1 X102.863 Y29.231 F9000.000
G1 E6.00000 F1800.00000
G1 X102.783 Y28.667 E6.06072 F600.000
G1 X102.771 Y28.455 E6.08330
G1 X102.771 Y28.025 F9000.000
G1 X102.783 Y27.813 E6.10588 F600.000
G1 X102.863 Y27.248 E6.16681
G1 X103.505 Y25.419 F9000.000
G1 X103.703 Y25.617 E6.18082 F600.000
G1 X104.103 Y25.463 E6.20224
G1 X103.505 Y24.865 E6.24452
G1 X103.505 Y24.311 E6.27221
G1 X104.546 Y25.352 E6.34579
G1 X105.055 Y25.307 E6.37136
G1 X103.505 Y23.757 E6.48097
G1 X103.505 Y23.203 E6.50866
G1 X105.685 Y25.383 E6.66276
G1 X106.610 Y25.754 F9000.000
G1 X103.505 Y22.649 E6.88225 F600.000
G1 X103.505 Y22.095 E6.90994
G1 X106.820 Y25.410 E7.14429
G1 X106.820 Y24.856 E7.17198
G1 X103.505 Y21.541 E7.40633
G1 X103.505 Y20.987 E7.43402
G1 X106.820 Y24.302 E7.66837
G1 X106.820 Y23.748 E7.69606
G1 X103.505 Y20.433 E7.93042
G1 X103.505 Y19.879 E7.95811
G1 X106.820 Y23.194 E8.19246
G1 X106.820 Y22.640 E8.22015
G1 X103.505 Y19.326 E8.45450
G1 X103.505 Y18.772 E8.48219
G1 X106.820 Y22.087 E8.71654
G1 X106.820 Y21.533 E8.74423
G1 X103.505 Y18.218 E8.97858
G1 X103.505 Y17.664 E9.00628
G1 X106.820 Y20.979 E9.24063
G1 X106.820 Y20.425 E9.26832
G1 X103.505 Y17.110 E9.50267
G1 X103.505 Y16.556 E9.53036
G1 X106.820 Y19.871 E9.76471
G1 X106.820 Y19.317 E9.79240
G1 X103.505 Y16.002 E10.02675
G1 X103.505 Y15.448 E10.05444
G1 X106.820 Y18.763 E10.28880
G1 X106.820 Y18.209 E10.31649
G1 X103.505 Y14.894 E10.55084
G1 X103.505 Y14.340 E10.57853
G1 X106.820 Y17.655 E10.81288
G1 X106.820 Y17.101 E10.84057
G1 X103.505 Y13.786 E11.07492
G1 X103.505 Y13.232 E11.10261
G1 X106.820 Y16.547 E11.33697
G1 X106.820 Y15.993 E11.36466
G1 X103.847 Y13.020 E11.57485
G1 X104.401 Y13.020 E11.60254
G1 X106.820 Y15.439 E11.77358
G1 X106.820 Y14.885 E11.80127
G1 X104.955 Y13.020 E11.93315
G1 X105.508 Y13.020 E11.96084
G1 X106.820 Y14.331 E12.05355
G1 X106.820 Y13.778 E12.08124
G1 X106.062 Y13.020 E12.13480
G1 X106.616 Y13.020 E12.16249
G1 X106.820 Y13.224 E12.17688
G1 E6.17688 F1800.00000
G92 E0
G1 X103.709 Y32.460 F9000.000
G1 E6.00000 F1800.00000
G1 X103.505 Y32.256 E6.01437 F600.000
G1 X103.505 Y31.703 E6.04197
G1 X104.262 Y32.460 E6.09537
G1 X104.815 Y32.460 E6.12297
G1 X103.505 Y31.150 E6.21540
G1 X103.919 Y31.011 E6.23718
G1 X105.368 Y32.460 E6.33944
G1 X105.921 Y32.460 E6.36704
G1 X104.613 Y31.152 E6.45936
G1 X105.162 Y31.148 E6.48678
G1 X106.474 Y32.460 E6.57935
G1 X107.027 Y32.460 E6.60695
G1 X105.632 Y31.065 E6.70540
G1 X106.049 Y30.929 E6.72728
G1 X107.580 Y32.460 E6.83535
G1 X108.133 Y32.460 E6.86295
G1 X106.415 Y30.742 E6.98419
