; generated by Slic3r 1.2.9 on 2017-12-07 at 20:31:20

; external perimeters extrusion width = 0.40mm
; perimeters extrusion width = 0.62mm
; infill extrusion width = 0.33mm
; solid infill extrusion width = 0.62mm
; top infill extrusion width = 0.20mm

M106 S256; Turn on fan to 100% power
M104 S140; turn on extruder temperature at S value
M140 S60; turn on bed temperature at S value
G28; home all axes
M84; disable motors
G1 Z15 F15000; have Z move to 20mm at 15000 mm/min
M190 S55; turn on bed temperature at S value and wait
M140 S55; turn on bed temperature at S value (printing temperature)
M109 S200; turn on extruder temperature at S value and wait (printing temperature)
M104 S200; turn on extruder temperature at S value
G1 Z0 F12000; move Z back to home
G21 ; set units to millimeters
G90 ; use absolute coordinates
M82 ; use absolute distances for extrusion
G92 E0
M106 S255
;Layer change
G1 E-6.00000 F1800.00000
G92 E0
G1 Z0.300 F9000.000
G1 X74.621 Y15.708 F9000.000
G1 E6.00000 F1800.00000
G1 X74.696 Y15.417 E6.01491 F600.000
G1 X74.996 Y14.493 E6.06330
G1 X75.127 Y14.152 E6.08150
G1 X75.569 Y13.213 E6.13318
G1 X75.713 Y12.950 E6.14810
G1 X76.269 Y12.074 E6.19978
G1 X76.445 Y11.831 E6.21469
G1 X77.107 Y11.032 E6.26637
G1 X77.312 Y10.813 E6.28128
G1 X78.069 Y10.103 E6.33296
G1 X78.299 Y9.912 E6.34788
G1 X79.139 Y9.302 E6.39956
G1 X79.392 Y9.141 E6.41447
G1 X80.302 Y8.641 E6.46615
G1 X80.573 Y8.514 E6.48107
G1 X81.538 Y8.131 E6.53274
G1 X81.823 Y8.039 E6.54766
G1 X82.828 Y7.781 E6.59934
G1 X83.122 Y7.725 E6.61425
G1 X84.152 Y7.595 E6.66593
G1 X84.451 Y7.576 E6.68085
G1 X85.489 Y7.576 E6.73252
G1 X85.788 Y7.595 E6.74744
G1 X86.818 Y7.725 E6.79912 F600.000
G1 X87.112 Y7.781 E6.81403
G1 X88.117 Y8.039 E6.86571
G1 X88.402 Y8.131 E6.88063
G1 X89.367 Y8.514 E6.93230
G1 X89.664 Y8.655 E6.94870
G1 X90.548 Y9.141 E6.99890
G1 X90.801 Y9.302 E7.01381
G1 X91.641 Y9.912 E7.06549
G1 X91.871 Y10.103 E7.08041
G1 X92.628 Y10.813 E7.13209
G1 X92.833 Y11.032 E7.14700
G1 X93.495 Y11.831 E7.19868
G1 X93.671 Y12.074 E7.21359
G1 X94.227 Y12.950 E7.26527
G1 X94.371 Y13.213 E7.28019
G1 X94.813 Y14.152 E7.33186
G1 X94.923 Y14.430 E7.34678
G1 X95.244 Y15.417 E7.39846
G1 X95.319 Y15.708 E7.41337
G1 X95.513 Y16.727 E7.46505
G1 X95.551 Y17.024 E7.47997
G1 X95.616 Y18.060 E7.53164
G1 X95.616 Y18.360 E7.54656
G1 X95.551 Y19.396 E7.59824
G1 X95.513 Y19.693 E7.61315
G1 X95.319 Y20.712 E7.66483
G1 X95.244 Y21.003 E7.67975
G1 X94.923 Y21.990 E7.73142
G1 X94.813 Y22.268 E7.74634
G1 X94.371 Y23.207 E7.79802
G1 X94.227 Y23.470 E7.81293
G1 X93.671 Y24.346 E7.86461
G1 X93.495 Y24.589 E7.87953
G1 X92.833 Y25.388 E7.93121
G1 X92.628 Y25.607 E7.94612
G1 X91.871 Y26.317 E7.99780
G1 X91.641 Y26.508 E8.01272
G1 X90.801 Y27.118 E8.06439
G1 X90.548 Y27.279 E8.07931
G1 X89.638 Y27.779 E8.13099
G1 X89.367 Y27.906 E8.14590
G1 X88.402 Y28.289 E8.19758
G1 X88.117 Y28.381 E8.21249
G1 X87.112 Y28.639 E8.26417
G1 X86.818 Y28.695 E8.27909
G1 X85.788 Y28.825 E8.33077
G1 X85.489 Y28.844 E8.34568
G1 X84.451 Y28.844 E8.39736
G1 X84.152 Y28.825 E8.41228
G1 X83.122 Y28.695 E8.46395
G1 X82.828 Y28.639 E8.47887
G1 X81.823 Y28.381 E8.53055
G1 X81.538 Y28.289 E8.54546
G1 X80.573 Y27.906 E8.59714
G1 X80.302 Y27.779 E8.61206
G1 X79.392 Y27.279 E8.66374
G1 X79.139 Y27.118 E8.67865
G1 X78.299 Y26.508 E8.73033
G1 X78.069 Y26.317 E8.74525
G1 X77.312 Y25.607 E8.79692
G1 X77.107 Y25.388 E8.81184
G1 X76.445 Y24.589 E8.86352
G1 X76.269 Y24.346 E8.87843
G1 X75.713 Y23.470 E8.93011
G1 X75.569 Y23.207 E8.94502
G1 X75.127 Y22.268 E8.99670
G1 X75.017 Y21.990 E9.01162
G1 X74.696 Y21.003 E9.06330
G1 X74.621 Y20.712 E9.07821
G1 X74.427 Y19.693 E9.12989
G1 X74.389 Y19.396 E9.14481
G1 X74.324 Y18.360 E9.19649
G1 X74.324 Y18.060 E9.21140
G1 X74.389 Y17.024 E9.26308
G1 X74.427 Y16.727 E9.27799
G1 X74.610 Y15.766 E9.32668
G1 E3.32668 F1800.00000
G92 E0
G1 X87.710 Y18.556 F9000.000
G1 E6.00000 F1800.00000
G1 X87.645 Y18.897 E6.01727 F600.000
G1 X87.536 Y19.234 E6.03492
G1 X87.350 Y19.604 E6.05553
G1 X87.204 Y19.833 E6.06905
G1 X86.983 Y20.101 E6.08632
G1 X86.730 Y20.338 E6.10359
G1 X86.450 Y20.542 E6.12086
G1 X86.146 Y20.709 E6.13813
G1 X85.823 Y20.837 E6.15540
G1 X85.488 Y20.923 E6.17266
G1 X85.143 Y20.966 E6.18993
G1 X84.797 Y20.966 E6.20720
G1 X84.452 Y20.923 E6.22447
G1 X84.117 Y20.837 E6.24174
G1 X83.794 Y20.709 E6.25901
G1 X83.490 Y20.542 E6.27628
G1 X83.210 Y20.338 E6.29354
G1 X82.957 Y20.101 E6.31081
G1 X82.736 Y19.833 E6.32808
G1 X82.550 Y19.541 E6.34535
G1 X82.402 Y19.227 E6.36262
G1 X82.293 Y18.890 E6.38027
G1 X82.225 Y18.481 E6.40088
G1 X82.208 Y18.210 E6.41440
G1 X82.230 Y17.864 E6.43167
G1 X82.295 Y17.523 E6.44894
G1 X82.402 Y17.193 E6.46621
G1 X82.550 Y16.879 E6.48348
G1 X82.736 Y16.587 E6.50075
G1 X82.957 Y16.319 E6.51801
G1 X83.210 Y16.082 E6.53528
G1 X83.490 Y15.878 E6.55255
G1 X83.794 Y15.711 E6.56982
G1 X84.117 Y15.583 E6.58709
G1 X84.452 Y15.497 E6.60436
G1 X84.797 Y15.454 E6.62163
G1 X85.143 Y15.454 E6.63889 F600.000
G1 X85.488 Y15.497 E6.65616
G1 X85.823 Y15.583 E6.67343
G1 X86.146 Y15.711 E6.69070
G1 X86.450 Y15.878 E6.70797
G1 X86.730 Y16.082 E6.72524
G1 X86.983 Y16.319 E6.74250
G1 X87.204 Y16.587 E6.75977
G1 X87.390 Y16.879 E6.77704
G1 X87.538 Y17.193 E6.79431
G1 X87.645 Y17.523 E6.81158
G1 X87.710 Y17.864 E6.82885
G1 X87.732 Y18.210 E6.84611
G1 X87.714 Y18.496 E6.86040
G1 X87.327 Y18.508 F9000.000
G1 X87.271 Y18.801 E6.87525 F600.000
G1 X87.178 Y19.087 E6.89024
G1 X87.014 Y19.414 E6.90843
G1 X86.892 Y19.606 E6.91979
G1 X86.702 Y19.836 E6.93464
G1 X86.484 Y20.040 E6.94949
G1 X86.243 Y20.216 E6.96434
G1 X85.981 Y20.359 E6.97920
G1 X85.704 Y20.469 E6.99405
G1 X85.415 Y20.543 E7.00890
G1 X85.119 Y20.581 E7.02375
G1 X84.821 Y20.581 E7.03861
G1 X84.525 Y20.543 E7.05346
G1 X84.236 Y20.469 E7.06831
G1 X83.959 Y20.359 E7.08316
G1 X83.697 Y20.216 E7.09802
G1 X83.456 Y20.040 E7.11287
G1 X83.238 Y19.836 E7.12772
G1 X83.048 Y19.606 E7.14257
G1 X82.888 Y19.354 E7.15743
G1 X82.761 Y19.084 E7.17228
G1 X82.668 Y18.798 E7.18727
G1 X82.609 Y18.438 E7.20547
G1 X82.595 Y18.210 E7.21682
G1 X82.613 Y17.912 E7.23167
G1 X82.669 Y17.619 E7.24652
G1 X82.761 Y17.336 E7.26137
G1 X82.888 Y17.066 E7.27623
G1 X83.048 Y16.814 E7.29108
G1 X83.238 Y16.584 E7.30593
G1 X83.456 Y16.380 E7.32079
G1 X83.697 Y16.204 E7.33564
G1 X83.959 Y16.061 E7.35049
G1 X84.236 Y15.951 E7.36534
G1 X84.525 Y15.877 E7.38020
G1 X84.821 Y15.839 E7.39505
G1 X85.119 Y15.839 E7.40990 F600.000
G1 X85.415 Y15.877 E7.42475
G1 X85.704 Y15.951 E7.43961
G1 X85.981 Y16.061 E7.45446
G1 X86.243 Y16.204 E7.46931
G1 X86.484 Y16.380 E7.48416
G1 X86.702 Y16.584 E7.49902
G1 X86.892 Y16.814 E7.51387
G1 X87.052 Y17.066 E7.52872
G1 X87.179 Y17.336 E7.54357
G1 X87.271 Y17.619 E7.55843
G1 X87.327 Y17.912 E7.57328
G1 X87.345 Y18.210 E7.58813
G1 X87.330 Y18.448 E7.60000
G1 X87.560 Y18.693 F9000.000
G1 X92.501 Y19.495 F9000.000
G1 X92.383 Y20.113 E7.63135 F600.000
G1 X92.086 Y21.027 E7.67920
G1 X91.677 Y21.897 E7.72705
G1 X91.162 Y22.708 E7.77490
G1 X90.549 Y23.449 E7.82276
G1 X89.848 Y24.107 E7.87061
G1 X89.071 Y24.672 E7.91846
G1 X88.229 Y25.135 E7.96631
G1 X87.335 Y25.489 E8.01416
G1 X86.404 Y25.728 E8.06201
G1 X85.451 Y25.848 E8.10987
G1 X84.489 Y25.848 E8.15772
G1 X83.536 Y25.728 E8.20557
G1 X82.605 Y25.489 E8.25342
G1 X81.711 Y25.135 E8.30127
G1 X80.869 Y24.672 E8.34913
G1 X80.092 Y24.107 E8.39698
G1 X79.391 Y23.449 E8.44483
G1 X78.778 Y22.708 E8.49268
G1 X78.263 Y21.897 E8.54053
G1 X77.867 Y21.053 E8.58695
G1 X77.557 Y20.112 E8.63628
G1 X77.377 Y19.169 E8.68408
G1 X77.317 Y18.210 E8.73193
G1 X77.377 Y17.251 E8.77978
G1 X77.557 Y16.307 E8.82763
G1 X77.835 Y15.453 E8.87231
G1 X78.265 Y14.521 E8.92343
G1 X78.778 Y13.712 E8.97116
G1 X79.391 Y12.971 E9.01902
G1 X80.092 Y12.313 E9.06687
G1 X80.869 Y11.748 E9.11472
G1 X81.686 Y11.299 E9.16114
G1 X82.606 Y10.931 E9.21047
G1 X83.536 Y10.692 E9.25826
G1 X84.489 Y10.572 E9.30612
G1 X85.451 Y10.572 E9.35397
G1 X86.376 Y10.689 E9.40039
G1 X87.336 Y10.932 E9.44971 F600.000
G1 X88.229 Y11.285 E9.49751
G1 X89.071 Y11.748 E9.54536
G1 X89.848 Y12.313 E9.59322
G1 X90.549 Y12.971 E9.64107
G1 X91.162 Y13.712 E9.68892
G1 X91.677 Y14.523 E9.73677
G1 X92.086 Y15.393 E9.78462
G1 X92.383 Y16.307 E9.83248
G1 X92.563 Y17.251 E9.88033
G1 X92.623 Y18.210 E9.92818
G1 X92.563 Y19.169 E9.97603
G1 X92.512 Y19.436 E9.98955
G1 X92.880 Y19.567 F9000.000
G1 X92.757 Y20.209 E10.02210 F600.000
G1 X92.445 Y21.170 E10.07237
G1 X92.015 Y22.083 E10.12264
G1 X91.474 Y22.936 E10.17291
G1 X90.831 Y23.713 E10.22317
G1 X90.095 Y24.405 E10.27344
G1 X89.278 Y24.998 E10.32371
G1 X88.393 Y25.484 E10.37398
G1 X87.454 Y25.856 E10.42425
G1 X86.476 Y26.107 E10.47451
G1 X85.475 Y26.234 E10.52478
G1 X84.465 Y26.234 E10.57505
G1 X83.464 Y26.107 E10.62532
G1 X82.486 Y25.856 E10.67558
G1 X81.547 Y25.484 E10.72585
G1 X80.662 Y24.998 E10.77612
G1 X79.845 Y24.405 E10.82639
G1 X79.109 Y23.713 E10.87666
G1 X78.466 Y22.936 E10.92692
G1 X77.925 Y22.083 E10.97719
G1 X77.508 Y21.196 E11.02599
G1 X77.183 Y20.209 E11.07774
G1 X76.994 Y19.218 E11.12798
G1 X76.930 Y18.210 E11.17825
G1 X76.994 Y17.202 E11.22852
G1 X77.183 Y16.211 E11.27879
G1 X77.475 Y15.313 E11.32580
G1 X77.925 Y14.336 E11.37934
G1 X78.466 Y13.484 E11.42957
G1 X79.109 Y12.707 E11.47983
G1 X79.845 Y12.015 E11.53010
G1 X80.662 Y11.422 E11.58037
G1 X81.521 Y10.950 E11.62917
G1 X82.486 Y10.564 E11.68091
G1 X83.464 Y10.313 E11.73116
G1 X84.465 Y10.186 E11.78143
G1 X85.475 Y10.186 E11.83170
G1 X86.447 Y10.309 E11.88050
G1 X87.455 Y10.564 E11.93224 F600.000
G1 X88.393 Y10.936 E11.98249
G1 X89.278 Y11.422 E12.03276
G1 X90.095 Y12.015 E12.08302
G1 X90.831 Y12.707 E12.13329
G1 X91.474 Y13.484 E12.18356
G1 X92.015 Y14.337 E12.23383
G1 X92.445 Y15.250 E12.28409
G1 X92.757 Y16.211 E12.33436
G1 X92.946 Y17.202 E12.38463
G1 X93.010 Y18.210 E12.43490
G1 X92.946 Y19.218 E12.48517
G1 X92.891 Y19.508 E12.49989
G1 X92.502 Y19.699 F9000.000
G1 X91.844 Y20.920 F9000.000
G1 X87.704 Y16.780 E12.79671 F600.000
G1 X87.965 Y17.596 E12.84014
G1 X91.672 Y21.303 E13.10590
G1 X91.494 Y21.681 E13.12705
G1 X88.012 Y18.198 E13.37671
G1 X87.958 Y18.699 E13.40225
G1 X91.291 Y22.033 E13.64123
G1 X91.076 Y22.372 E13.66162
G1 X87.842 Y19.139 E13.89340
G1 X87.675 Y19.527 E13.91481
G1 X90.846 Y22.697 E14.14212
G1 X90.594 Y23.001 E14.16211
G1 X87.474 Y19.881 E14.38582
G1 X87.231 Y20.194 E14.40588
G1 X90.326 Y23.289 E14.62777
G1 X90.049 Y23.566 E14.64767
G1 X86.954 Y20.471 E14.86956
G1 X86.641 Y20.714 E14.88962
G1 X89.767 Y23.840 E15.11374
G1 X89.454 Y24.082 E15.13380
G1 X86.291 Y20.919 E15.36055
G1 X85.901 Y21.085 E15.38202
G1 X89.133 Y24.316 E15.61366
G1 X88.795 Y24.533 E15.63403
G1 X85.464 Y21.202 E15.87282
G1 X84.956 Y21.250 E15.89865
G1 X88.436 Y24.730 E16.14812
G1 X88.070 Y24.919 E16.16902
G1 X84.359 Y21.208 E16.43502
G1 X83.552 Y20.956 E16.47788
G1 X87.672 Y25.076 E16.77323
G1 X87.271 Y25.230 E16.79501
G1 X77.959 Y15.919 E17.46254
G1 X78.096 Y15.500 E17.48486
G1 X82.236 Y19.640 E17.78164
G1 X81.980 Y18.829 E17.82473
G1 X78.271 Y15.120 E18.09063
G1 X78.447 Y14.740 E18.11184
G1 X81.928 Y18.222 E18.36142
G1 X81.982 Y17.721 E18.38696
G1 X78.649 Y14.387 E18.62594
G1 X78.864 Y14.048 E18.64633
G1 X82.098 Y17.281 E18.87811
G1 X82.261 Y16.889 E18.89962
G1 X79.094 Y13.723 E19.12665
G1 X79.346 Y13.419 E19.14664
G1 X82.466 Y16.539 E19.37036
G1 X82.709 Y16.226 E19.39042
G1 X79.614 Y13.131 E19.61231
G1 X79.891 Y12.854 E19.63221
G1 X82.986 Y15.949 E19.85410
G1 X83.299 Y15.706 E19.87416
G1 X80.173 Y12.580 E20.09828
G1 X80.486 Y12.338 E20.11834
G1 X83.649 Y15.501 E20.34509
G1 X84.039 Y15.335 E20.36656
G1 X80.807 Y12.104 E20.59820
G1 X81.145 Y11.887 E20.61857
G1 X84.476 Y15.218 E20.85736
G1 X84.984 Y15.170 E20.88319
G1 X81.504 Y11.690 E21.13266
G1 X81.873 Y11.504 E21.15361
G1 X85.581 Y15.212 E21.41944
G1 X86.388 Y15.464 E21.46230
G1 X82.269 Y11.345 E21.75755
G1 X82.669 Y11.190 E21.77929
G1 X91.981 Y20.501 E22.44683
G1 X92.114 Y20.080 E22.46924
G1 X83.111 Y11.076 E23.11469
G1 X83.556 Y10.966 E23.13794
G1 X92.203 Y19.613 E23.75784
G1 X92.285 Y19.140 E23.78218
G1 X84.049 Y10.904 E24.37262
G1 X84.556 Y10.856 E24.39844
G1 X92.318 Y18.618 E24.95489
G1 X92.325 Y18.069 E24.98271
G1 X85.111 Y10.856 E25.49982
G1 X85.713 Y10.902 E25.53040
G1 X92.287 Y17.477 E26.00171
G1 X92.172 Y16.806 E26.03621
G1 X86.369 Y11.003 E26.45219
G1 X87.113 Y11.191 E26.49106
G1 X91.970 Y16.048 E26.83925
G1 X91.597 Y15.120 F9000.000
G1 X88.037 Y11.560 E27.09448 F600.000
G1 X89.735 Y12.703 F9000.000
G1 X90.499 Y13.468 E27.14926 F600.000
G1 X86.829 Y25.344 F9000.000
G1 X77.826 Y16.340 E27.79471 F600.000
G1 X77.737 Y16.807 E27.81877
G1 X86.384 Y25.454 E28.43867
G1 X85.891 Y25.516 E28.46386
G1 X77.655 Y17.280 E29.05430
G1 X77.622 Y17.802 E29.08083
G1 X85.384 Y25.564 E29.63727
G1 X84.829 Y25.564 E29.66542
G1 X77.615 Y18.351 E30.18253
G1 X77.653 Y18.943 E30.21262
G1 X84.227 Y25.518 E30.68393
G1 X83.575 Y25.421 E30.71735
G1 X77.768 Y19.614 E31.13363
G1 X77.973 Y20.375 E31.17356
G1 X82.828 Y25.229 E31.52157
G1 X81.903 Y24.860 F9000.000
G1 X78.343 Y21.300 E31.77680 F600.000
G1 X79.441 Y22.953 F9000.000
G1 X80.204 Y23.716 E31.83155 F600.000
M104 S199 ; set temperature
M140 S55 ; wait for bed temperature to be reached
;Layer change
G1 E25.83155 F1800.00000
G92 E0
G1 Z0.520 F9000.000
G1 X87.756 Y18.590 F9000.000
G1 E6.00000 F1800.00000
G1 X87.695 Y18.910 E6.01763 F900.000
G1 X87.586 Y19.246 E6.03673
G1 X87.435 Y19.565 E6.05584
G1 X87.246 Y19.864 E6.07495
G1 X87.021 Y20.136 E6.09406
G1 X86.763 Y20.378 E6.11316
G1 X86.477 Y20.585 E6.13227
G1 X86.168 Y20.756 E6.15138
G1 X85.839 Y20.886 E6.17049
G1 X85.497 Y20.973 E6.18959
G1 X85.147 Y21.018 E6.20870
G1 X84.793 Y21.018 E6.22781
G1 X84.443 Y20.973 E6.24692
G1 X84.091 Y20.883 E6.26657
G1 X83.688 Y20.710 E6.29027
G1 X83.463 Y20.585 E6.30421
G1 X83.177 Y20.378 E6.32332
G1 X82.919 Y20.136 E6.34243
G1 X82.694 Y19.864 E6.36153
G1 X82.505 Y19.565 E6.38064
G1 X82.354 Y19.246 E6.39975
G1 X82.275 Y19.000 E6.41369
G1 X82.180 Y18.573 E6.43740
G1 X82.157 Y18.210 E6.45705
G1 X82.179 Y17.857 E6.47615
G1 X82.245 Y17.510 E6.49526
G1 X82.354 Y17.174 E6.51437
G1 X82.464 Y16.941 E6.52831
G1 X82.688 Y16.564 E6.55202
G1 X82.919 Y16.284 E6.57167
G1 X83.177 Y16.042 E6.59077
G1 X83.463 Y15.835 E6.60988
G1 X83.772 Y15.664 E6.62899
G1 X84.101 Y15.534 E6.64810
G1 X84.443 Y15.447 E6.66720
G1 X84.793 Y15.402 E6.68631
G1 X85.147 Y15.402 E6.70542 F900.000
G1 X85.497 Y15.447 E6.72453
G1 X85.839 Y15.534 E6.74363
G1 X86.168 Y15.664 E6.76274
G1 X86.477 Y15.835 E6.78185
G1 X86.763 Y16.042 E6.80096
G1 X87.021 Y16.284 E6.82006
G1 X87.246 Y16.556 E6.83917
G1 X87.435 Y16.855 E6.85828
G1 X87.586 Y17.174 E6.87739
G1 X87.695 Y17.510 E6.89649
G1 X87.761 Y17.857 E6.91560
G1 X87.783 Y18.210 E6.93471
G1 X87.763 Y18.530 E6.95205
G1 X87.302 Y18.505 F9000.000
G1 X87.247 Y18.795 E6.96191 F900.000
G1 X87.155 Y19.075 E6.97177
G1 X87.030 Y19.342 E6.98163
G1 X86.872 Y19.592 E6.99149
G1 X86.683 Y19.819 E7.00135
G1 X86.468 Y20.021 E7.01121
G1 X86.229 Y20.194 E7.02107
G1 X85.971 Y20.337 E7.03093
G1 X85.696 Y20.445 E7.04079
G1 X85.410 Y20.519 E7.05065
G1 X85.118 Y20.556 E7.06051
G1 X84.822 Y20.556 E7.07037
G1 X84.530 Y20.519 E7.08023
G1 X84.241 Y20.445 E7.09019
G1 X83.892 Y20.294 E7.10289
G1 X83.711 Y20.194 E7.10979
G1 X83.472 Y20.021 E7.11965
G1 X83.257 Y19.819 E7.12951
G1 X83.068 Y19.592 E7.13937
G1 X82.910 Y19.342 E7.14923
G1 X82.785 Y19.075 E7.15908
G1 X82.721 Y18.879 E7.16599
G1 X82.638 Y18.508 E7.17869
G1 X82.620 Y18.210 E7.18865
G1 X82.638 Y17.915 E7.19851
G1 X82.693 Y17.625 E7.20837
G1 X82.785 Y17.345 E7.21823
G1 X82.873 Y17.158 E7.22513
G1 X83.067 Y16.831 E7.23783
G1 X83.257 Y16.601 E7.24779
G1 X83.472 Y16.399 E7.25765
G1 X83.711 Y16.226 E7.26751
G1 X83.969 Y16.083 E7.27737
G1 X84.244 Y15.975 E7.28722
G1 X84.530 Y15.901 E7.29708
G1 X84.822 Y15.864 E7.30694
G1 X85.118 Y15.864 E7.31680 F900.000
G1 X85.410 Y15.901 E7.32666
G1 X85.696 Y15.975 E7.33652
G1 X85.971 Y16.083 E7.34638
G1 X86.229 Y16.226 E7.35624
G1 X86.468 Y16.399 E7.36610
G1 X86.683 Y16.601 E7.37596
G1 X86.872 Y16.828 E7.38582
G1 X87.030 Y17.078 E7.39568
G1 X87.155 Y17.345 E7.40554
G1 X87.247 Y17.625 E7.41540
