; generated by Slic3r 1.2.9 on 2018-01-09 at 21:17:54

; external perimeters extrusion width = 0.40mm
; perimeters extrusion width = 0.62mm
; infill extrusion width = 0.33mm
; solid infill extrusion width = 0.62mm
; top infill extrusion width = 0.20mm

M106 S256; Turn on fan to 100% power
M104 S140; turn on extruder temperature at S value
M140 S60; turn on bed temperature at S value
G28; home all axes
M84; disable motors
G1 Z15 F15000; have Z move to 20mm at 15000 mm/min
M190 S55; turn on bed temperature at S value and wait
M140 S55; turn on bed temperature at S value (printing temperature)
M109 S200; turn on extruder temperature at S value and wait (printing temperature)
M104 S200; turn on extruder temperature at S value
G1 Z0 F12000; move Z back to home
G21 ; set units to millimeters
G90 ; use absolute coordinates
M82 ; use absolute distances for extrusion
G92 E0
M106 S255
;Layer change
G1 E-6.00000 F1800.00000
G92 E0
G1 Z0.300 F9000.000
G1 X121.641 Y16.817 F9000.000
G1 E6.00000 F1800.00000
G1 X121.849 Y15.728 E6.05583 F600.000
G1 X121.923 Y15.438 E6.07092
G1 X122.266 Y14.384 E6.12674
G1 X122.376 Y14.106 E6.14183
G1 X122.848 Y13.103 E6.19766
G1 X122.992 Y12.840 E6.21275
G1 X123.586 Y11.905 E6.26858
G1 X123.762 Y11.662 E6.28367
G1 X124.469 Y10.808 E6.33950
G1 X124.674 Y10.590 E6.35459
G1 X125.482 Y9.831 E6.41041
G1 X125.713 Y9.640 E6.42550
G1 X126.609 Y8.989 E6.48133
G1 X126.862 Y8.828 E6.49642
G1 X127.833 Y8.294 E6.55225
G1 X128.104 Y8.167 E6.56734
G1 X129.105 Y7.771 E6.62153
G1 X129.420 Y7.666 E6.63825
G1 X130.493 Y7.391 E6.69408
G1 X130.787 Y7.335 E6.70917
G1 X131.887 Y7.196 E6.76500
G1 X132.186 Y7.177 E6.78009
G1 X133.294 Y7.177 E6.83591
G1 X133.593 Y7.196 E6.85100
G1 X134.693 Y7.335 E6.90684 F600.000
G1 X134.987 Y7.391 E6.92192
G1 X136.060 Y7.666 E6.97775
G1 X136.345 Y7.759 E6.99284
G1 X137.376 Y8.167 E7.04866
G1 X137.647 Y8.294 E7.06376
G1 X138.618 Y8.828 E7.11958
G1 X138.871 Y8.989 E7.13467
G1 X139.768 Y9.640 E7.19050
G1 X139.998 Y9.831 E7.20559
G1 X140.806 Y10.590 E7.26142
G1 X141.011 Y10.808 E7.27651
G1 X141.718 Y11.662 E7.33233
G1 X141.894 Y11.905 E7.34743
G1 X142.488 Y12.840 E7.40325
G1 X142.632 Y13.103 E7.41834
G1 X143.104 Y14.106 E7.47417
G1 X143.214 Y14.384 E7.48926
G1 X143.557 Y15.438 E7.54509
G1 X143.631 Y15.728 E7.56018
G1 X143.839 Y16.817 E7.61600
G1 X143.876 Y17.114 E7.63109
G1 X143.946 Y18.220 E7.68692
G1 X143.946 Y18.520 E7.70201
G1 X143.876 Y19.626 E7.75784
G1 X143.839 Y19.923 E7.77293
G1 X143.631 Y21.012 E7.82875
G1 X143.547 Y21.333 E7.84548
G1 X143.214 Y22.356 E7.89967
G1 X143.104 Y22.634 E7.91476
G1 X142.632 Y23.637 E7.97059
G1 X142.488 Y23.900 E7.98568
G1 X141.894 Y24.835 E8.04150
G1 X141.718 Y25.078 E8.05659
G1 X141.011 Y25.932 E8.11242
G1 X140.806 Y26.150 E8.12751
G1 X139.998 Y26.909 E8.18334
G1 X139.768 Y27.100 E8.19843
G1 X138.871 Y27.751 E8.25425
G1 X138.618 Y27.912 E8.26935
G1 X137.647 Y28.446 E8.32517
G1 X137.376 Y28.573 E8.34026
G1 X136.345 Y28.981 E8.39609
G1 X136.060 Y29.074 E8.41118
G1 X134.987 Y29.349 E8.46701
G1 X134.693 Y29.405 E8.48210
G1 X133.593 Y29.544 E8.53792
G1 X133.294 Y29.563 E8.55302
G1 X132.186 Y29.563 E8.60884
G1 X131.887 Y29.544 E8.62393
G1 X130.787 Y29.405 E8.67976
G1 X130.493 Y29.349 E8.69485
G1 X129.420 Y29.074 E8.75068
G1 X129.135 Y28.981 E8.76576
G1 X128.104 Y28.573 E8.82159
G1 X127.833 Y28.446 E8.83668
G1 X126.862 Y27.912 E8.89251
G1 X126.609 Y27.751 E8.90760
G1 X125.712 Y27.100 E8.96343
G1 X125.482 Y26.909 E8.97852
G1 X124.674 Y26.150 E9.03435
G1 X124.469 Y25.932 E9.04943
G1 X123.762 Y25.078 E9.10526
G1 X123.586 Y24.835 E9.12035
G1 X123.010 Y23.927 E9.17454
G1 X122.848 Y23.637 E9.19127
G1 X122.376 Y22.634 E9.24709
G1 X122.266 Y22.356 E9.26218
G1 X121.933 Y21.333 E9.31637
G1 X121.849 Y21.012 E9.33310
G1 X121.641 Y19.923 E9.38893
G1 X121.604 Y19.626 E9.40402
G1 X121.534 Y18.520 E9.45984
G1 X121.534 Y18.220 E9.47493
G1 X121.634 Y16.876 E9.54281
G1 E3.54281 F1800.00000
G92 E0
G1 X135.986 Y18.780 F9000.000
G1 E6.00000 F1800.00000
G1 X135.909 Y19.184 E6.02070 F600.000
G1 X135.782 Y19.574 E6.04139
G1 X135.607 Y19.946 E6.06209
G1 X135.387 Y20.293 E6.08279
G1 X135.125 Y20.610 E6.10349
G1 X134.826 Y20.891 E6.12418
G1 X134.493 Y21.132 E6.14488
G1 X134.133 Y21.330 E6.16558
G1 X133.751 Y21.482 E6.18628
G1 X133.353 Y21.584 E6.20697
G1 X132.945 Y21.635 E6.22767
G1 X132.535 Y21.635 E6.24837
G1 X132.127 Y21.584 E6.26906
G1 X131.729 Y21.482 E6.28976
G1 X131.347 Y21.330 E6.31046
G1 X130.987 Y21.132 E6.33116
G1 X130.654 Y20.891 E6.35185
G1 X130.354 Y20.609 E6.37262
G1 X130.086 Y20.281 E6.39394
G1 X129.873 Y19.946 E6.41394
G1 X129.698 Y19.574 E6.43464
G1 X129.571 Y19.184 E6.45533
G1 X129.494 Y18.780 E6.47603
G1 X129.468 Y18.370 E6.49673
G1 X129.494 Y17.960 E6.51743
G1 X129.571 Y17.556 E6.53812
G1 X129.698 Y17.166 E6.55882
G1 X129.873 Y16.794 E6.57952
G1 X130.093 Y16.447 E6.60021
G1 X130.355 Y16.130 E6.62091
G1 X130.654 Y15.849 E6.64161
G1 X130.987 Y15.608 E6.66231
G1 X131.347 Y15.410 E6.68300
G1 X131.729 Y15.258 E6.70370
G1 X132.127 Y15.156 E6.72440
G1 X132.535 Y15.105 E6.74510
G1 X132.945 Y15.105 E6.76579 F600.000
G1 X133.353 Y15.156 E6.78649
G1 X133.751 Y15.258 E6.80719
G1 X134.133 Y15.410 E6.82789
G1 X134.493 Y15.608 E6.84858
G1 X134.826 Y15.849 E6.86928
G1 X135.126 Y16.131 E6.89005
G1 X135.394 Y16.459 E6.91137
G1 X135.607 Y16.794 E6.93137
G1 X135.783 Y17.167 E6.95213
G1 X135.912 Y17.570 E6.97346
G1 X135.986 Y17.960 E6.99345
G1 X136.012 Y18.370 E7.01415
G1 X135.990 Y18.720 E7.03183
G1 X135.603 Y18.732 F9000.000
G1 X135.535 Y19.088 E7.05008 F600.000
G1 X135.423 Y19.432 E7.06833
G1 X135.269 Y19.760 E7.08658
G1 X135.074 Y20.066 E7.10484
G1 X134.843 Y20.345 E7.12309
G1 X134.579 Y20.593 E7.14134
G1 X134.286 Y20.806 E7.15960
G1 X133.969 Y20.981 E7.17785
G1 X133.632 Y21.114 E7.19610
G1 X133.281 Y21.204 E7.21436
G1 X132.921 Y21.250 E7.23261
G1 X132.559 Y21.250 E7.25086
G1 X132.199 Y21.204 E7.26911
G1 X131.848 Y21.114 E7.28737
G1 X131.511 Y20.981 E7.30562
G1 X131.194 Y20.806 E7.32387
G1 X130.901 Y20.593 E7.34213
G1 X130.636 Y20.345 E7.36041
G1 X130.399 Y20.055 E7.37929
G1 X130.211 Y19.760 E7.39688
G1 X130.057 Y19.432 E7.41513
G1 X129.945 Y19.088 E7.43339
G1 X129.877 Y18.732 E7.45164
G1 X129.855 Y18.370 E7.46989
G1 X129.877 Y18.008 E7.48815
G1 X129.945 Y17.652 E7.50640
G1 X130.057 Y17.308 E7.52465
G1 X130.211 Y16.980 E7.54291
G1 X130.406 Y16.674 E7.56116
G1 X130.637 Y16.395 E7.57941
G1 X130.901 Y16.147 E7.59766
G1 X131.194 Y15.934 E7.61592
G1 X131.511 Y15.759 E7.63417
G1 X131.848 Y15.626 E7.65242
G1 X132.199 Y15.536 E7.67068
G1 X132.559 Y15.490 E7.68893
G1 X132.921 Y15.490 E7.70718 F600.000
G1 X133.281 Y15.536 E7.72544
G1 X133.632 Y15.626 E7.74369
G1 X133.969 Y15.759 E7.76194
G1 X134.286 Y15.934 E7.78019
G1 X134.579 Y16.147 E7.79845
G1 X134.844 Y16.395 E7.81673
G1 X135.081 Y16.685 E7.83561
G1 X135.269 Y16.980 E7.85320
G1 X135.423 Y17.308 E7.87148
G1 X135.537 Y17.665 E7.89036
G1 X135.603 Y18.008 E7.90796
G1 X135.625 Y18.370 E7.92621
G1 X135.606 Y18.672 E7.94144
G1 X135.887 Y18.957 F9000.000
G1 X140.909 Y19.065 F9000.000
G1 X140.888 Y19.399 E7.95829 F600.000
G1 X140.695 Y20.413 E8.01025
G1 X140.376 Y21.393 E8.06220
G1 X139.937 Y22.327 E8.11416
G1 X139.385 Y23.198 E8.16611
G1 X138.727 Y23.992 E8.21807
G1 X137.975 Y24.698 E8.27003
G1 X137.141 Y25.305 E8.32198
G1 X136.237 Y25.801 E8.37394
G1 X135.278 Y26.181 E8.42589
G1 X134.279 Y26.438 E8.47785
G1 X133.256 Y26.567 E8.52980
G1 X132.224 Y26.567 E8.58176
G1 X131.201 Y26.438 E8.63372
G1 X130.202 Y26.181 E8.68567
G1 X129.243 Y25.801 E8.73763
G1 X128.339 Y25.305 E8.78958
G1 X127.505 Y24.698 E8.84154
G1 X126.753 Y23.992 E8.89349
G1 X126.095 Y23.198 E8.94545
G1 X125.543 Y22.327 E8.99741
G1 X125.104 Y21.393 E9.04936
G1 X124.785 Y20.413 E9.10132
G1 X124.592 Y19.399 E9.15327
G1 X124.527 Y18.370 E9.20523
G1 X124.592 Y17.341 E9.25718
G1 X124.785 Y16.327 E9.30914
G1 X125.104 Y15.347 E9.36110
G1 X125.543 Y14.413 E9.41305
G1 X126.095 Y13.542 E9.46501
G1 X126.753 Y12.748 E9.51696
G1 X127.505 Y12.042 E9.56892
G1 X128.339 Y11.435 E9.62087
G1 X129.215 Y10.954 E9.67125
G1 X130.203 Y10.559 E9.72483
G1 X131.201 Y10.302 E9.77673
G1 X132.224 Y10.173 E9.82868
G1 X133.256 Y10.173 E9.88064
G1 X134.248 Y10.298 E9.93101
G1 X135.279 Y10.559 E9.98459 F600.000
G1 X136.237 Y10.938 E10.03650
G1 X137.141 Y11.435 E10.08845
G1 X137.975 Y12.042 E10.14041
G1 X138.727 Y12.748 E10.19236
G1 X139.385 Y13.542 E10.24432
G1 X139.937 Y14.413 E10.29627
G1 X140.376 Y15.347 E10.34823
G1 X140.695 Y16.327 E10.40019
G1 X140.888 Y17.341 E10.45214
G1 X140.953 Y18.370 E10.50410
G1 X140.913 Y19.006 E10.53618
G1 X141.294 Y19.090 F9000.000
G1 X141.272 Y19.448 E10.55425 F600.000
G1 X141.069 Y20.509 E10.60865
G1 X140.736 Y21.536 E10.66305
G1 X140.276 Y22.513 E10.71745
G1 X139.697 Y23.425 E10.77185
G1 X139.009 Y24.257 E10.82625
G1 X138.222 Y24.996 E10.88065
G1 X137.348 Y25.631 E10.93505
G1 X136.402 Y26.151 E10.98945
G1 X135.397 Y26.549 E11.04385
G1 X134.351 Y26.817 E11.09825
G1 X133.280 Y26.953 E11.15265
G1 X132.200 Y26.953 E11.20705
G1 X131.129 Y26.817 E11.26145
G1 X130.083 Y26.549 E11.31585
G1 X129.078 Y26.151 E11.37025
G1 X128.132 Y25.631 E11.42465
G1 X127.258 Y24.996 E11.47905
G1 X126.471 Y24.257 E11.53345
G1 X125.783 Y23.425 E11.58785
G1 X125.204 Y22.513 E11.64225
G1 X124.744 Y21.536 E11.69665
G1 X124.411 Y20.509 E11.75105
G1 X124.208 Y19.448 E11.80545
G1 X124.140 Y18.370 E11.85985
G1 X124.208 Y17.292 E11.91425
G1 X124.411 Y16.231 E11.96865
G1 X124.744 Y15.204 E12.02305
G1 X125.204 Y14.227 E12.07745
G1 X125.783 Y13.315 E12.13185
G1 X126.471 Y12.483 E12.18625
G1 X127.258 Y11.744 E12.24065
G1 X128.132 Y11.109 E12.29505
G1 X129.050 Y10.604 E12.34783
G1 X130.083 Y10.191 E12.40386
G1 X131.129 Y9.923 E12.45824
G1 X132.200 Y9.787 E12.51264
G1 X133.280 Y9.787 E12.56704
G1 X134.320 Y9.919 E12.61982
G1 X135.398 Y10.191 E12.67584 F600.000
G1 X136.402 Y10.589 E12.73022
G1 X137.348 Y11.109 E12.78462
G1 X138.222 Y11.744 E12.83902
G1 X139.009 Y12.483 E12.89342
G1 X139.697 Y13.315 E12.94782
G1 X140.276 Y14.227 E13.00222
G1 X140.736 Y15.204 E13.05662
G1 X141.069 Y16.231 E13.11102
G1 X141.272 Y17.292 E13.16542
G1 X141.340 Y18.370 E13.21982
G1 X141.298 Y19.030 E13.25313
G1 X140.973 Y19.249 F9000.000
G1 X140.258 Y20.909 F9000.000
G1 X135.781 Y16.432 E13.57662 F600.000
G1 X136.181 Y17.386 F9000.000
G1 X140.122 Y21.327 E13.86141 F600.000
G1 X139.946 Y21.704 E13.88268
G1 X136.281 Y18.038 E14.14757
G1 X136.277 Y18.588 E14.17567
G1 X139.769 Y22.080 E14.42800
G1 X139.570 Y22.434 E14.44875
G1 X136.206 Y19.070 E14.69185
G1 X136.082 Y19.500 E14.71470
G1 X139.355 Y22.772 E14.95119
G1 X139.135 Y23.106 E14.97159
G1 X135.918 Y19.889 E15.20408
G1 X135.719 Y20.242 E15.22483
G1 X138.885 Y23.409 E15.45363
G1 X138.630 Y23.707 E15.47368
G1 X135.488 Y20.564 E15.70075
G1 X135.227 Y20.857 E15.72077
G1 X138.353 Y23.983 E15.94669
G1 X138.077 Y24.260 E15.96668
G1 X134.937 Y21.120 E16.19354
G1 X134.617 Y21.353 E16.21378
G1 X137.788 Y24.524 E16.44290
G1 X137.467 Y24.757 E16.46313
G1 X134.261 Y21.551 E16.69481
G1 X133.871 Y21.713 E16.71642
G1 X137.147 Y24.990 E16.95316
G1 X136.804 Y25.200 E16.97372
G1 X133.440 Y21.836 E17.21675
G1 X132.961 Y21.910 E17.24154
G1 X136.447 Y25.396 E17.49343
G1 X136.082 Y25.584 E17.51442
G1 X132.415 Y21.917 E17.77936
G1 X131.748 Y21.803 E17.81395
G1 X135.685 Y25.741 E18.09849
G1 X135.289 Y25.898 E18.12026
G1 X130.804 Y21.412 E18.44439
G1 X129.699 Y20.308 F9000.000
G1 X125.222 Y15.831 E18.76789 F600.000
G1 X125.358 Y15.413 E18.79032
G1 X129.297 Y19.353 E19.07496
G1 X129.199 Y18.702 E19.10860
G1 X125.534 Y15.036 E19.37349
G1 X125.711 Y14.660 E19.39473
G1 X129.203 Y18.152 E19.64706
G1 X129.274 Y17.670 E19.67192
G1 X125.910 Y14.306 E19.91502
G1 X126.125 Y13.968 E19.93550
G1 X129.398 Y17.240 E20.17199
G1 X129.562 Y16.851 E20.19356
G1 X126.345 Y13.634 E20.42604
G1 X126.595 Y13.331 E20.44612
G1 X129.761 Y16.498 E20.67492
G1 X129.992 Y16.176 E20.69518
G1 X126.850 Y13.033 E20.92225
G1 X127.127 Y12.757 E20.94224
G1 X130.253 Y15.883 E21.16816
G1 X130.543 Y15.620 E21.18816
G1 X127.403 Y12.480 E21.41503
G1 X127.692 Y12.216 E21.43504
G1 X130.863 Y15.387 E21.66415
G1 X131.219 Y15.189 E21.68494
G1 X128.013 Y11.983 E21.91663
G1 X128.333 Y11.750 E21.93686
G1 X131.609 Y15.027 E22.17360
G1 X132.040 Y14.904 E22.19647
G1 X128.676 Y11.540 E22.43950
G1 X129.033 Y11.344 E22.46032
G1 X132.519 Y14.830 E22.71221
G1 X133.065 Y14.823 E22.74009
G1 X129.401 Y11.159 E23.00485
G1 X129.796 Y11.001 E23.02659
G1 X133.732 Y14.937 E23.31102
G1 X134.676 Y15.328 F9000.000
G1 X130.191 Y10.843 E23.63512 F600.000
G1 X130.626 Y10.725 E23.65816
G1 X140.393 Y20.492 E24.36393
G1 X140.492 Y20.037 E24.38770
G1 X131.066 Y10.612 E25.06879
G1 X131.543 Y10.535 E25.09347
G1 X140.581 Y19.573 E25.74649
G1 X140.630 Y19.069 E25.77236
G1 X132.035 Y10.473 E26.39346
G1 X132.571 Y10.457 E26.42089
G1 X140.663 Y18.548 E27.00557
G1 X140.638 Y17.971 E27.03510
G1 X133.124 Y10.457 E27.57806
G1 X133.754 Y10.533 E27.61045
G1 X140.587 Y17.367 E28.10425
G1 X140.457 Y16.683 E28.13981
G1 X134.436 Y10.662 E28.57491
G1 X135.198 Y10.871 E28.61528
G1 X140.227 Y15.900 E28.97869
G1 X139.828 Y14.948 F9000.000
G1 X136.153 Y11.273 E29.24428 F600.000
G1 X137.914 Y12.480 F9000.000
G1 X138.678 Y13.244 E29.29949 F600.000
G1 X134.854 Y26.015 F9000.000
G1 X125.087 Y16.248 E30.00526 F600.000
G1 X124.988 Y16.703 E30.02903
G1 X134.414 Y26.128 E30.71012
G1 X133.937 Y26.205 E30.73480
G1 X124.899 Y17.167 E31.38782
G1 X124.850 Y17.671 E31.41369
G1 X133.445 Y26.267 E32.03478
G1 X132.909 Y26.283 E32.06222
G1 X124.817 Y18.192 E32.64690
G1 X124.842 Y18.769 E32.67642
G1 X132.356 Y26.283 E33.21939
G1 X131.726 Y26.207 E33.25178
G1 X124.893 Y19.373 E33.74558
G1 X125.023 Y20.057 E33.78114
G1 X131.048 Y26.082 E34.21649
G1 X130.282 Y25.869 E34.25710
G1 X125.253 Y20.840 E34.62050
G1 X125.652 Y21.792 F9000.000
G1 X129.327 Y25.467 E34.88609 F600.000
G1 X127.566 Y24.260 F9000.000
G1 X126.803 Y23.496 E34.94127 F600.000
M104 S199 ; set temperature
M140 S55 ; wait for bed temperature to be reached
;Layer change
G1 E28.94127 F1800.00000
G92 E0
G1 Z0.520 F9000.000
G1 X136.039 Y18.759 F9000.000
G1 E6.00000 F1800.00000
G1 X135.959 Y19.196 E6.02434 F900.000
G1 X135.830 Y19.593 E6.04717
G1 X135.652 Y19.971 E6.07001
G1 X135.429 Y20.323 E6.09284
G1 X135.163 Y20.645 E6.11568
G1 X134.858 Y20.931 E6.13852
G1 X134.521 Y21.176 E6.16135
G1 X134.155 Y21.377 E6.18419
G1 X133.767 Y21.531 E6.20702
G1 X133.363 Y21.634 E6.22986
G1 X132.949 Y21.687 E6.25270
G1 X132.531 Y21.687 E6.27553
G1 X132.117 Y21.634 E6.29837
G1 X131.713 Y21.531 E6.32121
G1 X131.325 Y21.377 E6.34404
G1 X130.959 Y21.176 E6.36688
G1 X130.622 Y20.931 E6.38971
G1 X130.315 Y20.642 E6.41276
G1 X130.031 Y20.291 E6.43746
G1 X129.828 Y19.971 E6.45821
G1 X129.650 Y19.593 E6.48104
G1 X129.521 Y19.196 E6.50388
G1 X129.443 Y18.787 E6.52672
G1 X129.417 Y18.370 E6.54955
G1 X129.443 Y17.953 E6.57239
G1 X129.521 Y17.544 E6.59522
G1 X129.650 Y17.147 E6.61806
G1 X129.828 Y16.769 E6.64090
G1 X130.051 Y16.417 E6.66373
G1 X130.317 Y16.095 E6.68657
G1 X130.622 Y15.809 E6.70941
G1 X130.959 Y15.564 E6.73224
G1 X131.325 Y15.363 E6.75508
G1 X131.713 Y15.209 E6.77791
G1 X132.117 Y15.106 E6.80075
G1 X132.531 Y15.053 E6.82359
G1 X132.949 Y15.053 E6.84642 F900.000
G1 X133.363 Y15.106 E6.86926
G1 X133.767 Y15.209 E6.89209
G1 X134.155 Y15.363 E6.91493
G1 X134.521 Y15.564 E6.93777
G1 X134.858 Y15.809 E6.96060
G1 X135.165 Y16.098 E6.98365
G1 X135.449 Y16.449 E7.00835
G1 X135.652 Y16.769 E7.02910
G1 X135.832 Y17.150 E7.05215
G1 X135.966 Y17.581 E7.07684
G1 X136.037 Y17.953 E7.09759
G1 X136.063 Y18.370 E7.12043
G1 X136.043 Y18.699 E7.13847
G1 X135.578 Y18.729 F9000.000
G1 X135.511 Y19.081 E7.15061 F900.000
G1 X135.400 Y19.423 E7.16275
G1 X135.247 Y19.748 E7.17489
G1 X135.054 Y20.051 E7.18703
G1 X134.825 Y20.328 E7.19917
G1 X134.563 Y20.574 E7.21131
G1 X134.273 Y20.785 E7.22345
G1 X133.958 Y20.958 E7.23559
G1 X133.624 Y21.090 E7.24773
G1 X133.276 Y21.180 E7.25987
G1 X132.920 Y21.225 E7.27201
G1 X132.560 Y21.225 E7.28415
G1 X132.204 Y21.180 E7.29629
G1 X131.856 Y21.090 E7.30843
G1 X131.522 Y20.958 E7.32056
G1 X131.207 Y20.785 E7.33270
G1 X130.917 Y20.574 E7.34484
