; generated by Slic3r 1.2.9 on 2017-09-05 at 15:58:43

; external perimeters extrusion width = 0.40mm
; perimeters extrusion width = 0.62mm
; infill extrusion width = 0.33mm
; solid infill extrusion width = 0.62mm
; top infill extrusion width = 0.20mm

M106 S256; Turn on fan to 100% power
M104 S140; turn on extruder temperature at S value
M140 S60; turn on bed temperature at S value
G28; home all axes
M84; disable motors
G1 Z15 F15000; have Z move to 20mm at 15000 mm/min
M190 S55; turn on bed temperature at S value and wait
M140 S55; turn on bed temperature at S value (printing temperature)
M109 S200; turn on extruder temperature at S value and wait (printing temperature)
M104 S200; turn on extruder temperature at S value
G1 Z0 F12000; move Z back to home
G21 ; set units to millimeters
G90 ; use absolute coordinates
M82 ; use absolute distances for extrusion
G92 E0
M106 S255
;Layer change
G1 E-6.00000 F1800.00000
G92 E0
G1 Z0.300 F9000.000
G1 X78.483 Y14.973 F9000.000
G1 E6.00000 F1800.00000
G1 X78.595 Y14.485 E6.02492 F600.000
G1 X78.766 Y13.957 E6.05253
G1 X79.113 Y13.177 E6.09503
G1 X79.257 Y12.915 E6.10994
G1 X79.554 Y12.447 E6.13755
G1 X80.083 Y11.777 E6.18005
G1 X80.693 Y11.179 E6.22255
G1 X80.924 Y10.988 E6.23747
G1 X81.372 Y10.662 E6.26508
G1 X82.111 Y10.235 E6.30758
G1 X82.382 Y10.107 E6.32249
G1 X83.182 Y9.810 E6.36499
G1 X83.719 Y9.673 E6.39260
G1 X84.564 Y9.547 E6.43510
G1 X84.863 Y9.528 E6.45002
G1 X85.716 Y9.547 E6.49252
G1 X86.266 Y9.616 E6.52013 F600.000
G1 X86.589 Y9.680 E6.53652
G1 X87.382 Y9.903 E6.57754
G1 X87.898 Y10.107 E6.60515
G1 X88.655 Y10.502 E6.64765
G1 X89.356 Y10.988 E6.69015
G1 X89.991 Y11.559 E6.73266
G1 X90.197 Y11.777 E6.74757
G1 X90.726 Y12.447 E6.79007
G1 X91.167 Y13.177 E6.83258
G1 X91.514 Y13.957 E6.87507
G1 X91.685 Y14.485 E6.90268
G1 X91.864 Y15.320 E6.94518
G1 X91.901 Y15.617 E6.96010
G1 X91.936 Y16.470 E7.00260
G1 X91.864 Y17.320 E7.04510
G1 X91.760 Y17.865 E7.07271
G1 X91.523 Y18.654 E7.11372
G1 X91.404 Y18.961 E7.13012
G1 X91.167 Y19.463 E7.15773
G1 X90.726 Y20.193 E7.20023
G1 X90.550 Y20.436 E7.21515
G1 X89.991 Y21.081 E7.25765
G1 X89.356 Y21.652 E7.30015
G1 X88.908 Y21.978 E7.32776
G1 X88.169 Y22.405 E7.37026
G1 X87.382 Y22.737 E7.41276
G1 X86.561 Y22.967 E7.45526
G1 X85.716 Y23.093 E7.49777
G1 X85.417 Y23.112 E7.51268
G1 X84.564 Y23.093 E7.55518
G1 X83.719 Y22.967 E7.59769
G1 X83.182 Y22.830 E7.62529
G1 X82.382 Y22.533 E7.66779
G1 X81.625 Y22.138 E7.71030
G1 X80.924 Y21.652 E7.75280
G1 X80.693 Y21.461 E7.76772
G1 X80.083 Y20.863 E7.81022
G1 X79.554 Y20.193 E7.85272
G1 X79.257 Y19.725 E7.88032
G1 X78.876 Y18.961 E7.92283
G1 X78.595 Y18.155 E7.96533
G1 X78.520 Y17.865 E7.98024
G1 X78.379 Y17.023 E8.02274
G1 X78.344 Y16.170 E8.06525
G1 X78.379 Y15.617 E8.09285
G1 X78.471 Y15.032 E8.12236
G1 E2.12236 F1800.00000
G92 E0
G1 X87.880 Y16.666 F9000.000
G1 E6.00000 F1800.00000
G1 X87.815 Y17.007 E6.01727 F600.000
G1 X87.708 Y17.337 E6.03454
G1 X87.560 Y17.651 E6.05181
G1 X87.374 Y17.943 E6.06907
G1 X87.153 Y18.211 E6.08634
G1 X86.900 Y18.448 E6.10361
G1 X86.620 Y18.652 E6.12088
G1 X86.316 Y18.819 E6.13815
G1 X85.993 Y18.947 E6.15542
G1 X85.658 Y19.033 E6.17268
G1 X85.313 Y19.076 E6.18995
G1 X84.967 Y19.076 E6.20722
G1 X84.622 Y19.033 E6.22449
G1 X84.287 Y18.947 E6.24176
G1 X83.964 Y18.819 E6.25903
G1 X83.660 Y18.652 E6.27630
G1 X83.380 Y18.448 E6.29356
G1 X83.121 Y18.205 E6.31122
G1 X82.865 Y17.880 E6.33182
G1 X82.720 Y17.651 E6.34535
G1 X82.572 Y17.337 E6.36262
G1 X82.465 Y17.007 E6.37989
G1 X82.400 Y16.666 E6.39715
G1 X82.378 Y16.312 E6.41481
G1 X82.414 Y15.900 E6.43542
G1 X82.465 Y15.633 E6.44894
G1 X82.572 Y15.303 E6.46621
G1 X82.720 Y14.989 E6.48348
G1 X82.906 Y14.697 E6.50075
G1 X83.127 Y14.429 E6.51802
G1 X83.380 Y14.192 E6.53528
G1 X83.660 Y13.988 E6.55255
G1 X83.964 Y13.821 E6.56982
G1 X84.287 Y13.693 E6.58709
G1 X84.622 Y13.607 E6.60436
G1 X84.967 Y13.564 E6.62163
G1 X85.313 Y13.564 E6.63889 F600.000
G1 X85.658 Y13.607 E6.65616
G1 X85.993 Y13.693 E6.67343
G1 X86.316 Y13.821 E6.69070
G1 X86.620 Y13.988 E6.70797
G1 X86.900 Y14.192 E6.72524
G1 X87.153 Y14.429 E6.74250
G1 X87.374 Y14.697 E6.75977
G1 X87.560 Y14.989 E6.77704
G1 X87.708 Y15.303 E6.79431
G1 X87.815 Y15.633 E6.81158
G1 X87.880 Y15.974 E6.82885
G1 X87.902 Y16.320 E6.84612
G1 X87.884 Y16.606 E6.86040
G1 X87.497 Y16.618 F9000.000
G1 X87.441 Y16.911 E6.87525 F600.000
G1 X87.349 Y17.194 E6.89010
G1 X87.222 Y17.464 E6.90495
G1 X87.062 Y17.716 E6.91981
G1 X86.872 Y17.946 E6.93466
G1 X86.654 Y18.150 E6.94951
G1 X86.413 Y18.326 E6.96436
G1 X86.151 Y18.469 E6.97922
G1 X85.874 Y18.579 E6.99407
G1 X85.585 Y18.653 E7.00892
G1 X85.289 Y18.691 E7.02378
G1 X84.991 Y18.691 E7.03863
G1 X84.695 Y18.653 E7.05348
G1 X84.406 Y18.579 E7.06833
G1 X84.129 Y18.469 E7.08319
G1 X83.867 Y18.326 E7.09804
G1 X83.626 Y18.150 E7.11289
G1 X83.406 Y17.944 E7.12788
G1 X83.181 Y17.657 E7.14608
G1 X83.058 Y17.464 E7.15743
G1 X82.931 Y17.194 E7.17228
G1 X82.839 Y16.911 E7.18713
G1 X82.783 Y16.618 E7.20199
G1 X82.764 Y16.317 E7.21698
G1 X82.796 Y15.953 E7.23517
G1 X82.839 Y15.729 E7.24652
G1 X82.931 Y15.446 E7.26137
G1 X83.058 Y15.176 E7.27623
G1 X83.218 Y14.924 E7.29108
G1 X83.408 Y14.694 E7.30593
G1 X83.626 Y14.490 E7.32079
G1 X83.867 Y14.314 E7.33564
G1 X84.129 Y14.171 E7.35049
G1 X84.406 Y14.061 E7.36534
G1 X84.695 Y13.987 E7.38020
G1 X84.991 Y13.949 E7.39505
G1 X85.289 Y13.949 E7.40990 F600.000
G1 X85.585 Y13.987 E7.42475
G1 X85.874 Y14.061 E7.43961
G1 X86.151 Y14.171 E7.45446
G1 X86.413 Y14.314 E7.46931
G1 X86.654 Y14.490 E7.48416
G1 X86.872 Y14.694 E7.49902
G1 X87.062 Y14.924 E7.51387
G1 X87.222 Y15.176 E7.52872
G1 X87.349 Y15.446 E7.54357
G1 X87.441 Y15.729 E7.55843
G1 X87.497 Y16.022 E7.57328
G1 X87.515 Y16.320 E7.58813
G1 X87.500 Y16.558 E7.60000
G1 X87.731 Y16.803 F9000.000
G1 X88.896 Y16.885 F9000.000
G1 X88.824 Y17.266 E7.61931 F600.000
G1 X88.685 Y17.694 E7.64170
G1 X88.472 Y18.154 E7.66696
G1 X88.217 Y18.555 E7.69064
G1 X87.912 Y18.923 E7.71442
G1 X87.564 Y19.250 E7.73820
G1 X87.178 Y19.531 E7.76198
G1 X86.759 Y19.761 E7.78576
G1 X86.315 Y19.937 E7.80954
G1 X85.880 Y20.049 E7.83193
G1 X85.377 Y20.116 E7.85718
G1 X84.901 Y20.116 E7.88087
G1 X84.427 Y20.056 E7.90464
G1 X83.965 Y19.937 E7.92842
G1 X83.521 Y19.761 E7.95220
G1 X83.102 Y19.531 E7.97598
G1 X82.716 Y19.250 E7.99976
G1 X82.368 Y18.923 E8.02354
G1 X82.063 Y18.555 E8.04732
G1 X81.807 Y18.152 E8.07110
G1 X81.616 Y17.745 E8.09349
G1 X81.457 Y17.266 E8.11865
G1 X81.365 Y16.769 E8.14381
G1 X81.337 Y16.320 E8.16620
G1 X81.367 Y15.843 E8.18998
G1 X81.456 Y15.374 E8.21376
G1 X81.595 Y14.946 E8.23615
G1 X81.808 Y14.486 E8.26140
G1 X82.063 Y14.085 E8.28508
G1 X82.368 Y13.717 E8.30886
G1 X82.716 Y13.390 E8.33264
G1 X83.102 Y13.109 E8.35642
G1 X83.521 Y12.879 E8.38020
G1 X83.965 Y12.703 E8.40398
G1 X84.427 Y12.584 E8.42776
G1 X84.901 Y12.524 E8.45154
G1 X85.379 Y12.524 E8.47532
G1 X85.784 Y12.575 E8.49565
G1 X86.319 Y12.705 E8.52308 F600.000
G1 X86.759 Y12.879 E8.54663
G1 X87.178 Y13.109 E8.57041
G1 X87.564 Y13.390 E8.59419
G1 X87.912 Y13.717 E8.61797
G1 X88.217 Y14.085 E8.64175
G1 X88.473 Y14.488 E8.66553
G1 X88.676 Y14.920 E8.68931
G1 X88.824 Y15.374 E8.71309
G1 X88.913 Y15.843 E8.73687
G1 X88.943 Y16.320 E8.76065
G1 X88.908 Y16.826 E8.78589
G1 X89.275 Y16.957 F9000.000
G1 X89.198 Y17.362 E8.80642 F600.000
G1 X89.044 Y17.835 E8.83116
G1 X88.811 Y18.339 E8.85883
G1 X88.529 Y18.783 E8.88499
G1 X88.194 Y19.188 E8.91119
G1 X87.811 Y19.548 E8.93738
G1 X87.385 Y19.857 E8.96358
G1 X86.924 Y20.111 E8.98977
G1 X86.435 Y20.304 E9.01597
G1 X85.953 Y20.428 E9.04071
G1 X85.402 Y20.501 E9.06839
G1 X84.877 Y20.501 E9.09454
G1 X84.355 Y20.435 E9.12074
G1 X83.845 Y20.304 E9.14694
G1 X83.356 Y20.111 E9.17313
G1 X82.895 Y19.857 E9.19933
G1 X82.469 Y19.548 E9.22552
G1 X82.086 Y19.188 E9.25172
G1 X81.751 Y18.783 E9.27791
G1 X81.469 Y18.338 E9.30411
G1 X81.257 Y17.889 E9.32885
G1 X81.082 Y17.362 E9.35649
G1 X80.982 Y16.816 E9.38412
G1 X80.950 Y16.320 E9.40887
G1 X80.983 Y15.795 E9.43506
G1 X81.082 Y15.278 E9.46126
G1 X81.236 Y14.805 E9.48600
G1 X81.469 Y14.301 E9.51367
G1 X81.751 Y13.857 E9.53983
G1 X82.086 Y13.452 E9.56603
G1 X82.469 Y13.092 E9.59222
G1 X82.895 Y12.783 E9.61842
G1 X83.356 Y12.529 E9.64461
G1 X83.845 Y12.335 E9.67081
G1 X84.355 Y12.205 E9.69701
G1 X84.877 Y12.139 E9.72320
G1 X85.403 Y12.139 E9.74940
G1 X85.853 Y12.196 E9.77200
G1 X86.436 Y12.336 E9.80184 F600.000
G1 X86.924 Y12.529 E9.82796
G1 X87.385 Y12.783 E9.85415
G1 X87.811 Y13.092 E9.88035
G1 X88.194 Y13.452 E9.90654
G1 X88.529 Y13.857 E9.93274
G1 X88.811 Y14.302 E9.95893
G1 X89.035 Y14.778 E9.98513
G1 X89.198 Y15.278 E10.01133
G1 X89.297 Y15.795 E10.03752
G1 X89.330 Y16.320 E10.06372
G1 X89.286 Y16.898 E10.09258
G1 X88.902 Y17.101 F9000.000
G1 X87.776 Y14.695 F9000.000
G1 X88.513 Y15.432 E10.14663 F600.000
G1 X88.115 Y15.602 E10.16909
G1 X88.641 Y16.128 E10.20771
G1 X88.186 Y16.241 E10.23204
G1 X88.640 Y16.695 E10.26535
G1 X88.564 Y17.187 E10.29118
G1 X88.137 Y16.760 E10.32250
G1 X88.024 Y17.215 E10.34682
G1 X88.432 Y17.623 E10.37676
G1 X88.254 Y18.013 E10.39900
G1 X87.859 Y17.619 E10.42795
G1 X87.651 Y17.979 E10.44953
G1 X88.038 Y18.366 E10.47791
G1 X87.779 Y18.675 E10.49883
G1 X87.404 Y18.300 E10.52631
G1 X87.120 Y18.584 E10.54715
G1 X87.495 Y18.959 E10.57461
G1 X87.184 Y19.216 E10.59554
G1 X86.800 Y18.832 E10.62373
G1 X86.440 Y19.041 E10.64528
G1 X86.831 Y19.431 E10.67393
G1 X86.440 Y19.609 E10.69620
G1 X86.039 Y19.208 E10.72562
G1 X85.582 Y19.319 E10.75002
G1 X86.005 Y19.742 E10.78106
G1 X85.516 Y19.821 E10.80677
G1 X85.055 Y19.360 E10.84058
G1 X84.952 Y19.825 E10.86528
G1 X84.426 Y19.299 E10.90387
G1 X84.253 Y19.694 E10.92625
G1 X83.506 Y18.948 E10.98104
G1 X83.065 Y19.074 E11.00486
G1 X82.417 Y18.427 E11.05235
G1 X82.504 Y17.945 E11.07774
G1 X81.769 Y17.210 E11.13166
G1 X82.165 Y17.038 E11.15407
G1 X81.639 Y16.512 E11.19268
G1 X82.093 Y16.399 E11.21700
G1 X81.640 Y15.945 E11.25028
G1 X81.716 Y15.453 E11.27611
G1 X82.143 Y15.880 E11.30744
G1 X82.256 Y15.425 E11.33175
G1 X81.848 Y15.017 E11.36169
G1 X82.026 Y14.627 E11.38394
G1 X82.421 Y15.021 E11.41289
G1 X82.629 Y14.661 E11.43447
G1 X82.242 Y14.274 E11.46285
G1 X82.501 Y13.965 E11.48377
G1 X82.876 Y14.340 E11.51124
G1 X83.160 Y14.056 E11.53208
G1 X82.785 Y13.681 E11.55954
G1 X83.096 Y13.424 E11.58047
G1 X83.480 Y13.808 E11.60866
G1 X83.840 Y13.599 E11.63022
G1 X83.449 Y13.209 E11.65886
G1 X83.840 Y13.031 E11.68113
G1 X84.241 Y13.432 E11.71055
G1 X84.698 Y13.321 E11.73495
G1 X84.275 Y12.898 E11.76600
G1 X84.763 Y12.818 E11.79166
G1 X85.225 Y13.280 E11.82554
G1 X85.328 Y12.815 E11.85024
G1 X85.854 Y13.341 E11.88882
G1 X86.030 Y12.949 E11.91112
G1 X86.774 Y13.692 E11.96567
G1 X87.215 Y13.566 E11.98949
G1 X87.863 Y14.213 E12.03698
M104 S199 ; set temperature
M140 S55 ; wait for bed temperature to be reached
;Layer change
G1 E6.03698 F1800.00000
G92 E0
G1 Z0.520 F9000.000
G1 X87.926 Y16.700 F9000.000
G1 E6.00000 F1800.00000
G1 X87.865 Y17.020 E6.01762 F707.292
G1 X87.756 Y17.356 E6.03673
G1 X87.605 Y17.675 E6.05584
G1 X87.416 Y17.974 E6.07494
G1 X87.191 Y18.246 E6.09405
G1 X86.933 Y18.488 E6.11316
G1 X86.647 Y18.695 E6.13226
G1 X86.338 Y18.866 E6.15137
G1 X86.009 Y18.996 E6.17048
G1 X85.667 Y19.083 E6.18959
G1 X85.317 Y19.128 E6.20870
G1 X84.963 Y19.128 E6.22780
G1 X84.613 Y19.083 E6.24691
G1 X84.271 Y18.996 E6.26602
G1 X83.942 Y18.866 E6.28513
G1 X83.633 Y18.695 E6.30423
G1 X83.347 Y18.488 E6.32334
G1 X83.089 Y18.246 E6.34245
G1 X82.864 Y17.974 E6.36156
G1 X82.675 Y17.675 E6.38066
G1 X82.524 Y17.356 E6.39977
G1 X82.415 Y17.020 E6.41888
G1 X82.349 Y16.673 E6.43799
G1 X82.327 Y16.320 E6.45709
G1 X82.349 Y15.967 E6.47620
G1 X82.415 Y15.620 E6.49531
G1 X82.524 Y15.284 E6.51441
G1 X82.675 Y14.965 E6.53352
G1 X82.864 Y14.666 E6.55263
G1 X83.089 Y14.394 E6.57174
G1 X83.347 Y14.152 E6.59085
G1 X83.633 Y13.945 E6.60995
G1 X83.942 Y13.774 E6.62906
G1 X84.271 Y13.644 E6.64817
G1 X84.613 Y13.557 E6.66728
G1 X84.963 Y13.512 E6.68638
G1 X85.317 Y13.512 E6.70549 F707.292
G1 X85.667 Y13.557 E6.72460
G1 X86.019 Y13.647 E6.74425
G1 X86.422 Y13.820 E6.76795
G1 X86.647 Y13.945 E6.78190
G1 X86.933 Y14.152 E6.80100
G1 X87.191 Y14.394 E6.82011
G1 X87.416 Y14.666 E6.83922
G1 X87.605 Y14.965 E6.85832
G1 X87.756 Y15.284 E6.87743
G1 X87.865 Y15.620 E6.89654
G1 X87.931 Y15.967 E6.91565
G1 X87.953 Y16.320 E6.93475
G1 X87.933 Y16.640 E6.95210
G1 X87.472 Y16.615 F9000.000
G1 X87.417 Y16.905 E6.96196 F707.292
G1 X87.325 Y17.185 E6.97182
G1 X87.200 Y17.452 E6.98168
G1 X87.042 Y17.702 E6.99154
G1 X86.853 Y17.929 E7.00140
G1 X86.638 Y18.131 E7.01126
G1 X86.399 Y18.304 E7.02112
G1 X86.141 Y18.447 E7.03098
G1 X85.866 Y18.555 E7.04084
G1 X85.580 Y18.629 E7.05070
G1 X85.288 Y18.666 E7.06056
G1 X84.992 Y18.666 E7.07042
G1 X84.700 Y18.629 E7.08028
G1 X84.414 Y18.555 E7.09014
G1 X84.139 Y18.447 E7.10000
G1 X83.881 Y18.304 E7.10986
G1 X83.642 Y18.131 E7.11971
G1 X83.427 Y17.929 E7.12957
G1 X83.238 Y17.702 E7.13943
G1 X83.080 Y17.452 E7.14929
G1 X82.955 Y17.185 E7.15915
G1 X82.863 Y16.905 E7.16901
G1 X82.808 Y16.615 E7.17887
G1 X82.790 Y16.320 E7.18873
G1 X82.808 Y16.025 E7.19859
G1 X82.863 Y15.735 E7.20845
G1 X82.955 Y15.455 E7.21831
G1 X83.080 Y15.188 E7.22817
G1 X83.238 Y14.938 E7.23803
G1 X83.427 Y14.711 E7.24789
G1 X83.642 Y14.509 E7.25775
G1 X83.881 Y14.336 E7.26761
G1 X84.139 Y14.193 E7.27747
G1 X84.414 Y14.085 E7.28733
G1 X84.700 Y14.011 E7.29719
G1 X84.992 Y13.974 E7.30705
G1 X85.288 Y13.974 E7.31690 F707.292
G1 X85.580 Y14.011 E7.32676
G1 X85.869 Y14.085 E7.33673
G1 X86.218 Y14.236 E7.34942
G1 X86.399 Y14.336 E7.35633
G1 X86.638 Y14.509 E7.36619
G1 X86.853 Y14.711 E7.37604
G1 X87.042 Y14.938 E7.38590
G1 X87.200 Y15.188 E7.39576
G1 X87.325 Y15.455 E7.40562
G1 X87.417 Y15.735 E7.41548
G1 X87.472 Y16.025 E7.42534
G1 X87.490 Y16.320 E7.43520
G1 X87.476 Y16.555 E7.44306
G1 X87.703 Y16.798 F9000.000
G1 X88.973 Y16.901 F9000.000
G1 X88.900 Y17.285 E7.46422 F707.292
G1 X88.773 Y17.676 E7.48645
G1 X88.539 Y18.194 E7.51720
G1 X88.280 Y18.602 E7.54328
G1 X87.970 Y18.977 E7.56964
G1 X87.614 Y19.311 E7.59601
G1 X87.220 Y19.597 E7.62237
G1 X86.793 Y19.832 E7.64874
G1 X86.340 Y20.012 E7.67510
G1 X85.941 Y20.114 E7.69733
G1 X85.379 Y20.194 E7.72808
G1 X84.896 Y20.194 E7.75416
G1 X84.413 Y20.133 E7.78052
G1 X83.940 Y20.012 E7.80689
G1 X83.487 Y19.832 E7.83325
G1 X83.060 Y19.597 E7.85962
G1 X82.666 Y19.311 E7.88598
G1 X82.310 Y18.977 E7.91234
G1 X82.000 Y18.602 E7.93871
G1 X81.738 Y18.190 E7.96507
G1 X81.563 Y17.818 E7.98730
G1 X81.379 Y17.280 E8.01805
G1 X81.289 Y16.807 E8.04413
G1 X81.258 Y16.320 E8.07050
G1 X81.289 Y15.833 E8.09686
G1 X81.380 Y15.355 E8.12322
G1 X81.507 Y14.964 E8.14546
G1 X81.741 Y14.446 E8.17620
G1 X82.000 Y14.038 E8.20228
G1 X82.310 Y13.663 E8.22865
G1 X82.666 Y13.329 E8.25501
G1 X83.060 Y13.043 E8.28137
G1 X83.487 Y12.808 E8.30774
G1 X83.940 Y12.628 E8.33410
G1 X84.413 Y12.507 E8.36047
G1 X84.896 Y12.446 E8.38683
G1 X85.384 Y12.446 E8.41319
G1 X85.792 Y12.497 E8.43543
G1 X86.344 Y12.630 E8.46617 F707.292
G1 X86.793 Y12.808 E8.49226
G1 X87.220 Y13.043 E8.51862
G1 X87.614 Y13.329 E8.54498
G1 X87.970 Y13.663 E8.57135
G1 X88.280 Y14.038 E8.59771
G1 X88.542 Y14.450 E8.62407
G1 X88.749 Y14.891 E8.65044
G1 X88.900 Y15.355 E8.67680
G1 X88.991 Y15.833 E8.70317
G1 X89.022 Y16.320 E8.72953
G1 X88.984 Y16.842 E8.75784
G1 X89.427 Y16.988 F9000.000
G1 X89.348 Y17.400 E8.77188 F707.292
G1 X89.204 Y17.843 E8.78743
G1 X88.946 Y18.414 E8.80836
G1 X88.655 Y18.874 E8.82653
G1 X88.307 Y19.294 E8.84476
G1 X87.909 Y19.668 E8.86298
G1 X87.468 Y19.988 E8.88121
G1 X86.990 Y20.251 E8.89943
G1 X86.483 Y20.452 E8.91766
G1 X86.032 Y20.568 E8.93321
G1 X85.411 Y20.656 E8.95414
G1 X84.867 Y20.656 E8.97231
G1 X84.326 Y20.588 E8.99054
G1 X83.797 Y20.452 E9.00876
G1 X83.290 Y20.251 E9.02699
G1 X82.812 Y19.988 E9.04521
G1 X82.371 Y19.668 E9.06344
G1 X81.973 Y19.294 E9.08166
G1 X81.625 Y18.874 E9.09989
G1 X81.333 Y18.413 E9.11811
G1 X81.135 Y17.992 E9.13366
G1 X80.932 Y17.399 E9.15459
G1 X80.830 Y16.865 E9.17277
G1 X80.795 Y16.320 E9.19099
G1 X80.830 Y15.775 E9.20922
G1 X80.932 Y15.240 E9.22744
G1 X81.076 Y14.797 E9.24299
