; generated by Slic3r 1.2.9 on 2018-05-13 at 13:38:38

; external perimeters extrusion width = 0.40mm
; perimeters extrusion width = 0.62mm
; infill extrusion width = 0.33mm
; solid infill extrusion width = 0.62mm
; top infill extrusion width = 0.20mm

M106 S256; Turn on fan to 100% power
M104 S140; turn on extruder temperature at S value
M140 S60; turn on bed temperature at S value
G28; home all axes
M84; disable motors
G1 Z15 F15000; have Z move to 20mm at 15000 mm/min
M190 S55; turn on bed temperature at S value and wait
M140 S55; turn on bed temperature at S value (printing temperature)
M109 S200; turn on extruder temperature at S value and wait (printing temperature)
M104 S200; turn on extruder temperature at S value
G1 Z0 F12000; move Z back to home
G21 ; set units to millimeters
G90 ; use absolute coordinates
M82 ; use absolute distances for extrusion
G92 E0
M106 S255
;Layer change
G1 E-6.00000 F1800.00000
G92 E0
G1 Z0.300 F9000.000
G1 X33.100 Y36.762 F9000.000
G1 E6.00000 F1800.00000
G1 X43.572 Y27.333 E6.69348 F600.000
G1 X60.953 Y17.298 E7.68121
G1 X80.040 Y11.096 E8.66895
G1 X81.626 Y10.930 E8.74741
G1 X100.000 Y8.998 E9.65669 F600.000
G1 X119.960 Y11.096 E10.64443
G1 X139.047 Y17.298 E11.63217
G1 X156.428 Y27.333 E12.61990
G1 X171.343 Y40.762 E13.60764
G1 X183.140 Y56.999 E14.59538
G1 X191.303 Y75.334 E15.58312
G1 X195.476 Y94.965 E16.57086
G1 X195.476 Y115.035 E17.55859
G1 X191.303 Y134.666 E18.54633
G1 X183.140 Y153.001 E19.53407
G1 X171.343 Y169.238 E20.52181
G1 X156.428 Y182.667 E21.50955
G1 X139.047 Y192.702 E22.49728
G1 X119.960 Y198.904 E23.48502
G1 X100.000 Y201.002 E24.47276
G1 X80.040 Y198.904 E25.46050
G1 X60.953 Y192.702 E26.44824
G1 X43.572 Y182.667 E27.43597
G1 X28.657 Y169.238 E28.42371
G1 X16.860 Y153.001 E29.41145
G1 X8.697 Y134.666 E30.39919
G1 X4.524 Y115.035 E31.38693
G1 X4.524 Y94.965 E32.37466
G1 X8.697 Y75.334 E33.36240
G1 X16.860 Y56.999 E34.35014
G1 X28.657 Y40.762 E35.33788
G1 X33.056 Y36.802 E35.62919
G1 X33.358 Y37.048 F9000.000
G1 X43.800 Y27.647 E36.32067 F600.000
G1 X61.110 Y17.652 E37.30442
G1 X80.121 Y11.475 E38.28817
G1 X81.666 Y11.313 E38.36463
G1 X100.000 Y9.386 E39.27191 F600.000
G1 X119.879 Y11.475 E40.25566
G1 X138.890 Y17.652 E41.23941
G1 X156.200 Y27.647 E42.22316
G1 X171.055 Y41.022 E43.20691
G1 X182.804 Y57.193 E44.19066
G1 X190.934 Y75.454 E45.17441
G1 X195.090 Y95.006 E46.15815
G1 X195.090 Y114.994 E47.14190
G1 X190.934 Y134.546 E48.12565
G1 X182.804 Y152.807 E49.10940
G1 X171.055 Y168.978 E50.09315
G1 X156.200 Y182.353 E51.07690
G1 X138.890 Y192.348 E52.06064
G1 X119.879 Y198.525 E53.04439
G1 X100.000 Y200.614 E54.02814
G1 X80.121 Y198.525 E55.01189
G1 X61.110 Y192.348 E55.99564
G1 X43.800 Y182.353 E56.97939
G1 X28.945 Y168.978 E57.96314
G1 X17.196 Y152.807 E58.94688
G1 X9.066 Y134.546 E59.93063
G1 X4.910 Y114.994 E60.91438
G1 X4.910 Y95.006 E61.89813
G1 X9.066 Y75.454 E62.88188
G1 X17.196 Y57.193 E63.86563
G1 X28.945 Y41.022 E64.84937
G1 X33.314 Y37.088 E65.13869
G1 X33.616 Y37.335 F9000.000
G1 X44.027 Y27.960 E65.82818 F600.000
G1 X61.268 Y18.007 E66.80793
G1 X80.201 Y11.855 E67.78770
G1 X81.706 Y11.697 E67.86217
G1 X100.000 Y9.774 E68.76745 F600.000
G1 X119.799 Y11.855 E69.74721
G1 X138.732 Y18.007 E70.72697
G1 X155.973 Y27.960 E71.70673
G1 X170.767 Y41.281 E72.68649
G1 X182.468 Y57.387 E73.66625
G1 X190.566 Y75.573 E74.64601
G1 X194.705 Y95.046 E75.62577
G1 X194.705 Y114.954 E76.60553
G1 X190.566 Y134.427 E77.58529
G1 X182.468 Y152.613 E78.56505
G1 X170.767 Y168.719 E79.54480
G1 X155.973 Y182.040 E80.52456
G1 X138.732 Y191.993 E81.50432
G1 X119.799 Y198.145 E82.48408
G1 X100.000 Y200.226 E83.46384
G1 X80.201 Y198.145 E84.44360
G1 X61.268 Y191.993 E85.42336
G1 X44.027 Y182.040 E86.40312
G1 X29.233 Y168.719 E87.38288
G1 X17.532 Y152.613 E88.36264
G1 X9.434 Y134.427 E89.34240
G1 X5.295 Y114.954 E90.32216
G1 X5.295 Y95.046 E91.30191
G1 X9.434 Y75.573 E92.28167
G1 X17.532 Y57.387 E93.26143
G1 X29.233 Y41.281 E94.24119
G1 X33.572 Y37.375 E94.52851
G1 X33.533 Y36.943 F9000.000
G1 X12.045 Y16.841 F9000.000
G1 X11.617 Y17.226 E94.55683 F600.000
G1 X11.119 Y17.514 E94.58513
G1 X10.572 Y17.692 E94.61345
G1 X10.000 Y17.752 E94.64176
G1 X9.428 Y17.692 E94.67007
G1 X8.881 Y17.514 E94.69839
G1 X8.383 Y17.226 E94.72669
G1 X7.955 Y16.841 E94.75501
G1 X7.617 Y16.376 E94.78331
G1 X7.383 Y15.850 E94.81163
G1 X7.263 Y15.288 E94.83995
G1 X7.263 Y14.712 E94.86825
G1 X7.383 Y14.150 E94.89657
G1 X7.617 Y13.624 E94.92488
G1 X7.955 Y13.159 E94.95319
G1 X8.383 Y12.774 E94.98150
G1 X8.881 Y12.486 E95.00981
G1 X9.428 Y12.308 E95.03813
G1 X10.000 Y12.248 E95.06644 F600.000
G1 X10.572 Y12.308 E95.09475
G1 X11.119 Y12.486 E95.12306
G1 X11.617 Y12.774 E95.15137
G1 X12.045 Y13.159 E95.17969
G1 X12.383 Y13.624 E95.20799
G1 X12.617 Y14.150 E95.23631
G1 X12.737 Y14.712 E95.26463
G1 X12.737 Y15.288 E95.29293
G1 X12.617 Y15.850 E95.32125
G1 X12.383 Y16.376 E95.34956
G1 X12.080 Y16.793 E95.37491
G1 X11.757 Y16.582 F9000.000
G1 X11.389 Y16.913 E95.39924 F600.000
G1 X10.962 Y17.160 E95.42356
G1 X10.491 Y17.312 E95.44789
G1 X10.000 Y17.364 E95.47220
G1 X9.509 Y17.312 E95.49652
G1 X9.038 Y17.160 E95.52085
G1 X8.611 Y16.913 E95.54517
G1 X8.243 Y16.582 E95.56950
G1 X7.953 Y16.182 E95.59381
G1 X7.752 Y15.731 E95.61814
G1 X7.649 Y15.247 E95.64247
G1 X7.649 Y14.753 E95.66678
G1 X7.752 Y14.269 E95.69111
G1 X7.953 Y13.818 E95.71543
G1 X8.243 Y13.418 E95.73975
G1 X8.611 Y13.087 E95.76408
G1 X9.038 Y12.840 E95.78840
G1 X9.509 Y12.688 E95.81272
G1 X10.000 Y12.636 E95.83704 F600.000
G1 X10.491 Y12.688 E95.86136
G1 X10.962 Y12.840 E95.88569
G1 X11.389 Y13.087 E95.91001
G1 X11.757 Y13.418 E95.93433
G1 X12.047 Y13.818 E95.95865
G1 X12.248 Y14.269 E95.98298
G1 X12.351 Y14.753 E96.00730
G1 X12.351 Y15.247 E96.03162
G1 X12.248 Y15.731 E96.05595
G1 X12.047 Y16.182 E96.08027
G1 X11.792 Y16.533 E96.10164
G1 X11.469 Y16.322 F9000.000
G1 X11.162 Y16.599 E96.12197 F600.000
G1 X10.804 Y16.805 E96.14230
G1 X10.411 Y16.933 E96.16264
G1 X10.000 Y16.976 E96.18297
G1 X9.589 Y16.933 E96.20330
G1 X9.196 Y16.805 E96.22364
G1 X8.838 Y16.599 E96.24397
G1 X8.531 Y16.322 E96.26430
G1 X8.289 Y15.988 E96.28463
G1 X8.120 Y15.611 E96.30497
G1 X8.035 Y15.207 E96.32530
G1 X8.035 Y14.793 E96.34563
G1 X8.120 Y14.389 E96.36597
G1 X8.289 Y14.012 E96.38630
G1 X8.531 Y13.678 E96.40663
G1 X8.838 Y13.401 E96.42697
G1 X9.196 Y13.195 E96.44730
G1 X9.589 Y13.067 E96.46763
G1 X10.000 Y13.024 E96.48797 F600.000
G1 X10.411 Y13.067 E96.50830
G1 X10.804 Y13.195 E96.52863
G1 X11.162 Y13.401 E96.54896
G1 X11.469 Y13.678 E96.56930
G1 X11.711 Y14.012 E96.58963
G1 X11.880 Y14.389 E96.60996
G1 X11.965 Y14.793 E96.63030
G1 X11.965 Y15.207 E96.65063
G1 X11.880 Y15.611 E96.67096
G1 X11.711 Y15.988 E96.69130
G1 X11.504 Y16.274 E96.70868
G1 X11.579 Y16.707 F9000.000
G1 E90.70868 F1800.00000
G92 E0
G1 X10.000 Y192.248 F9000.000
G1 E6.00000 F1800.00000
G1 X10.572 Y192.308 E6.02831 F600.000
G1 X11.119 Y192.486 E6.05663
G1 X11.617 Y192.774 E6.08493
G1 X12.045 Y193.159 E6.11325
G1 X12.383 Y193.624 E6.14155
G1 X12.617 Y194.150 E6.16987
G1 X12.737 Y194.712 E6.19819
G1 X12.737 Y195.288 E6.22649
G1 X12.617 Y195.850 E6.25481
G1 X12.383 Y196.376 E6.28312
G1 X12.045 Y196.841 E6.31143
G1 X11.617 Y197.226 E6.33975
G1 X11.119 Y197.514 E6.36805
G1 X10.572 Y197.692 E6.39637
G1 X10.000 Y197.752 E6.42468
G1 X9.428 Y197.692 E6.45299
G1 X8.881 Y197.514 E6.48130
G1 X8.383 Y197.226 E6.50961
G1 X7.955 Y196.841 E6.53793
G1 X7.617 Y196.376 E6.56623
G1 X7.383 Y195.850 E6.59455
G1 X7.263 Y195.288 E6.62287
G1 X7.263 Y194.712 E6.65117
G1 X7.383 Y194.150 E6.67949
G1 X7.617 Y193.624 E6.70780
G1 X7.955 Y193.159 E6.73611
G1 X8.383 Y192.774 E6.76442
G1 X8.887 Y192.483 E6.79309
G1 X9.462 Y192.305 E6.82273
G1 X9.940 Y192.255 E6.84638 F600.000
G1 X10.000 Y192.636 F9000.000
G1 X10.491 Y192.688 E6.87070 F600.000
G1 X10.962 Y192.840 E6.89502
G1 X11.389 Y193.087 E6.91934
G1 X11.757 Y193.418 E6.94367
G1 X12.047 Y193.818 E6.96799
G1 X12.248 Y194.269 E6.99231
G1 X12.351 Y194.753 E7.01664
G1 X12.351 Y195.247 E7.04095
G1 X12.248 Y195.731 E7.06528
G1 X12.047 Y196.182 E7.08961
G1 X11.757 Y196.582 E7.11393
G1 X11.389 Y196.913 E7.13825
G1 X10.962 Y197.160 E7.16257
G1 X10.491 Y197.312 E7.18690
G1 X10.000 Y197.364 E7.21121
G1 X9.509 Y197.312 E7.23553
G1 X9.038 Y197.160 E7.25986
G1 X8.611 Y196.913 E7.28418
G1 X8.243 Y196.582 E7.30851
G1 X7.953 Y196.182 E7.33282
G1 X7.752 Y195.731 E7.35715
G1 X7.649 Y195.247 E7.38148
G1 X7.649 Y194.753 E7.40579
G1 X7.752 Y194.269 E7.43012
G1 X7.953 Y193.818 E7.45444
G1 X8.243 Y193.418 E7.47876
G1 X8.611 Y193.087 E7.50309
G1 X9.042 Y192.838 E7.52763
G1 X9.540 Y192.684 E7.55328
G1 X9.940 Y192.642 E7.57307 F600.000
G1 X10.000 Y193.024 F9000.000
G1 X10.411 Y193.067 E7.59340 F600.000
G1 X10.804 Y193.195 E7.61374
G1 X11.162 Y193.401 E7.63407
G1 X11.469 Y193.678 E7.65440
G1 X11.711 Y194.012 E7.67474
G1 X11.880 Y194.389 E7.69507
G1 X11.965 Y194.793 E7.71541
G1 X11.965 Y195.207 E7.73574
G1 X11.880 Y195.611 E7.75607
G1 X11.711 Y195.988 E7.77641
G1 X11.469 Y196.322 E7.79674
G1 X11.162 Y196.599 E7.81707
G1 X10.804 Y196.805 E7.83740
G1 X10.411 Y196.933 E7.85774
G1 X10.000 Y196.976 E7.87807
G1 X9.589 Y196.933 E7.89840
G1 X9.196 Y196.805 E7.91874
G1 X8.838 Y196.599 E7.93907
G1 X8.531 Y196.322 E7.95940
G1 X8.289 Y195.988 E7.97973
G1 X8.120 Y195.611 E8.00007
G1 X8.035 Y195.207 E8.02040
G1 X8.035 Y194.793 E8.04073
G1 X8.120 Y194.389 E8.06107
G1 X8.289 Y194.012 E8.08140
G1 X8.531 Y193.678 E8.10173
G1 X8.838 Y193.401 E8.12207
G1 X9.198 Y193.194 E8.14248
G1 X9.618 Y193.064 E8.16414
G1 X9.940 Y193.030 E8.18009 F600.000
G1 X10.212 Y192.685 F9000.000
G1 E2.18009 F1800.00000
G92 E0
G1 X187.263 Y194.713 F9000.000
G1 E6.00000 F1800.00000
G1 X187.383 Y194.150 E6.02832 F600.000
G1 X187.617 Y193.624 E6.05664
G1 X187.955 Y193.159 E6.08494
G1 X188.383 Y192.774 E6.11326
G1 X188.887 Y192.483 E6.14193
G1 X189.462 Y192.305 E6.17156
G1 X190.000 Y192.248 E6.19816 F600.000
G1 X190.572 Y192.308 E6.22647
G1 X191.119 Y192.486 E6.25479
G1 X191.617 Y192.774 E6.28310
G1 X192.045 Y193.159 E6.31141
G1 X192.383 Y193.624 E6.33972
G1 X192.617 Y194.150 E6.36804
G1 X192.737 Y194.712 E6.39635
G1 X192.737 Y195.287 E6.42465
G1 X192.617 Y195.850 E6.45297
G1 X192.383 Y196.376 E6.48129
G1 X192.045 Y196.841 E6.50959
G1 X191.617 Y197.226 E6.53791
G1 X191.124 Y197.511 E6.56596
G1 X190.595 Y197.689 E6.59343
G1 X190.000 Y197.752 E6.62286
G1 X189.428 Y197.692 E6.65117
G1 X188.881 Y197.514 E6.67949
G1 X188.383 Y197.226 E6.70780
G1 X187.955 Y196.841 E6.73611
G1 X187.617 Y196.376 E6.76442
G1 X187.383 Y195.850 E6.79273
G1 X187.263 Y195.288 E6.82105
G1 X187.263 Y194.773 E6.84640
G1 X187.649 Y194.753 F9000.000
G1 X187.752 Y194.269 E6.87073 F600.000
G1 X187.953 Y193.818 E6.89505
G1 X188.243 Y193.418 E6.91937
G1 X188.611 Y193.087 E6.94370
G1 X189.042 Y192.838 E6.96823
G1 X189.540 Y192.684 E6.99388
G1 X190.000 Y192.636 E7.01663 F600.000
G1 X190.491 Y192.688 E7.04095
G1 X190.962 Y192.840 E7.06528
G1 X191.389 Y193.087 E7.08960
G1 X191.757 Y193.418 E7.11392
G1 X192.047 Y193.818 E7.13824
G1 X192.248 Y194.269 E7.16257
G1 X192.351 Y194.753 E7.18689
G1 X192.351 Y195.247 E7.21121
G1 X192.248 Y195.731 E7.23554
G1 X192.047 Y196.182 E7.25986
G1 X191.757 Y196.582 E7.28418
G1 X191.389 Y196.913 E7.30851
G1 X190.964 Y197.158 E7.33266
G1 X190.512 Y197.310 E7.35615
G1 X190.000 Y197.364 E7.38149
G1 X189.509 Y197.312 E7.40581
G1 X189.038 Y197.160 E7.43014
G1 X188.611 Y196.913 E7.45446
G1 X188.243 Y196.582 E7.47878
G1 X187.953 Y196.182 E7.50310
G1 X187.752 Y195.731 E7.52743
G1 X187.649 Y195.247 E7.55175
G1 X187.649 Y194.813 E7.57311
G1 X188.035 Y194.793 F9000.000
G1 X188.120 Y194.389 E7.59345 F600.000
G1 X188.289 Y194.012 E7.61378
G1 X188.531 Y193.678 E7.63411
G1 X188.838 Y193.401 E7.65445
G1 X189.198 Y193.194 E7.67486
G1 X189.618 Y193.064 E7.69652
G1 X190.000 Y193.024 E7.71542 F600.000
G1 X190.411 Y193.067 E7.73575
G1 X190.804 Y193.195 E7.75609
G1 X191.162 Y193.401 E7.77642
G1 X191.469 Y193.678 E7.79675
G1 X191.711 Y194.012 E7.81708
G1 X191.880 Y194.389 E7.83742
G1 X191.965 Y194.793 E7.85775
G1 X191.965 Y195.207 E7.87808
G1 X191.880 Y195.611 E7.89842
G1 X191.711 Y195.988 E7.91875
G1 X191.469 Y196.322 E7.93908
G1 X191.162 Y196.599 E7.95942
G1 X190.805 Y196.805 E7.97969
G1 X190.429 Y196.931 E7.99918
G1 X190.000 Y196.976 E8.02044
G1 X189.589 Y196.933 E8.04077
G1 X189.196 Y196.805 E8.06110
G1 X188.838 Y196.599 E8.08143
G1 X188.531 Y196.322 E8.10177
G1 X188.289 Y195.988 E8.12210
G1 X188.120 Y195.611 E8.14243
G1 X188.035 Y195.207 E8.16277
G1 X188.035 Y194.853 E8.18014
G1 X187.719 Y194.547 F9000.000
G1 E2.18014 F1800.00000
G92 E0
G1 X190.000 Y17.752 F9000.000
G1 E6.00000 F1800.00000
G1 X189.428 Y17.692 E6.02831 F600.000
G1 X188.881 Y17.514 E6.05663
G1 X188.383 Y17.226 E6.08493
G1 X187.955 Y16.841 E6.11325
G1 X187.617 Y16.376 E6.14155
G1 X187.383 Y15.850 E6.16987
G1 X187.263 Y15.287 E6.19819
G1 X187.263 Y14.713 E6.22649
G1 X187.383 Y14.150 E6.25481
G1 X187.617 Y13.624 E6.28312
G1 X187.955 Y13.159 E6.31143
G1 X188.383 Y12.774 E6.33975
G1 X188.887 Y12.483 E6.36841
G1 X189.462 Y12.305 E6.39805
G1 X190.000 Y12.248 E6.42465 F600.000
G1 X190.572 Y12.308 E6.45296
G1 X191.119 Y12.486 E6.48128
G1 X191.617 Y12.774 E6.50958
G1 X192.045 Y13.159 E6.53790
G1 X192.383 Y13.624 E6.56621
G1 X192.617 Y14.150 E6.59452
G1 X192.737 Y14.713 E6.62284
G1 X192.737 Y15.287 E6.65114
G1 X192.617 Y15.850 E6.67946
G1 X192.383 Y16.376 E6.70778
G1 X192.041 Y16.847 E6.73644
G1 X191.587 Y17.244 E6.76608
G1 X191.119 Y17.514 E6.79268
G1 X190.572 Y17.692 E6.82099
G1 X190.060 Y17.745 E6.84635
G1 X190.000 Y17.364 F9000.000
G1 X189.509 Y17.312 E6.87067 F600.000
G1 X189.038 Y17.160 E6.89500
G1 X188.611 Y16.913 E6.91932
G1 X188.243 Y16.582 E6.94364
G1 X187.953 Y16.182 E6.96796
G1 X187.752 Y15.731 E6.99228
G1 X187.649 Y15.247 E7.01661
G1 X187.649 Y14.753 E7.04093
G1 X187.752 Y14.269 E7.06525
G1 X187.953 Y13.818 E7.08958
G1 X188.243 Y13.418 E7.11390
G1 X188.611 Y13.087 E7.13822
G1 X189.042 Y12.838 E7.16276
G1 X189.540 Y12.684 E7.18841
G1 X190.000 Y12.636 E7.21116 F600.000
G1 X190.491 Y12.688 E7.23548
G1 X190.962 Y12.840 E7.25981
G1 X191.389 Y13.087 E7.28413
G1 X191.757 Y13.418 E7.30845
G1 X192.047 Y13.818 E7.33277
G1 X192.248 Y14.269 E7.35710
G1 X192.351 Y14.753 E7.38142
G1 X192.351 Y15.247 E7.40574
G1 X192.248 Y15.731 E7.43006
G1 X192.047 Y16.182 E7.45439
G1 X191.754 Y16.585 E7.47893
G1 X191.362 Y16.928 E7.50458
G1 X190.962 Y17.160 E7.52732
G1 X190.491 Y17.312 E7.55165
G1 X190.060 Y17.358 E7.57302
G1 X190.000 Y16.976 F9000.000
G1 X189.589 Y16.933 E7.59335 F600.000
G1 X189.196 Y16.805 E7.61369
G1 X188.838 Y16.599 E7.63402
G1 X188.531 Y16.322 E7.65435
G1 X188.289 Y15.988 E7.67468
G1 X188.120 Y15.611 E7.69502
G1 X188.035 Y15.207 E7.71535
G1 X188.035 Y14.793 E7.73568
G1 X188.120 Y14.389 E7.75602
G1 X188.289 Y14.012 E7.77635
G1 X188.531 Y13.678 E7.79668
G1 X188.838 Y13.401 E7.81702
G1 X189.198 Y13.194 E7.83743
G1 X189.618 Y13.064 E7.85909
G1 X190.000 Y13.024 E7.87799 F600.000
G1 X190.411 Y13.067 E7.89832
G1 X190.804 Y13.195 E7.91866
G1 X191.162 Y13.401 E7.93899
G1 X191.469 Y13.678 E7.95932
G1 X191.711 Y14.012 E7.97965
G1 X191.880 Y14.389 E7.99999
G1 X191.965 Y14.793 E8.02032
G1 X191.965 Y15.207 E8.04065
G1 X191.880 Y15.611 E8.06099
G1 X191.711 Y15.988 E8.08132
G1 X191.468 Y16.324 E8.10173
G1 X191.136 Y16.613 E8.12339
G1 X190.804 Y16.805 E8.14229
G1 X190.411 Y16.933 E8.16263
G1 X190.060 Y16.970 E8.18000
G1 X189.788 Y17.315 F9000.000
G1 E2.18000 F1800.00000
G92 E0
G1 X199.004 Y5.996 F9000.000
G1 E6.00000 F1800.00000
G1 X199.004 Y204.004 E15.74495 F600.000
G1 X0.996 Y204.004 E25.48991
G1 X0.996 Y5.996 E35.23486
G1 X198.944 Y5.996 E44.97686
G1 X199.389 Y5.611 F9000.000
G1 X199.389 Y204.389 E54.75977 F600.000
G1 X0.611 Y204.389 E64.54269
G1 X0.611 Y5.611 E74.32560
G1 X199.329 Y5.611 E84.10555
G1 X199.775 Y5.225 F9000.000
G1 X199.775 Y204.775 E93.92642 F600.000
G1 X0.225 Y204.775 E103.74729
G1 X0.225 Y5.225 E113.56816
G1 X199.715 Y5.225 E123.38607
G1 X199.575 Y5.571 F9000.000
G1 X198.720 Y6.484 F9000.000
G1 X198.516 Y6.280 E123.40025 F600.000
G1 X197.971 Y6.280 E123.42711
G1 X198.720 Y7.029 E123.47928
