; generated by Slic3r 1.2.9 on 2020-01-22 at 15:27:37

; external perimeters extrusion width = 0.40mm
; perimeters extrusion width = 0.62mm
; infill extrusion width = 0.33mm
; solid infill extrusion width = 0.62mm
; top infill extrusion width = 0.20mm

M106 S256; Turn on fan to 100% power
M104 S140; turn on extruder temperature at S value
M140 S60; turn on bed temperature at S value
G28; home all axes
M84; disable motors
G1 Z15 F15000; have Z move to 20mm at 15000 mm/min
M190 S55; turn on bed temperature at S value and wait
M140 S55; turn on bed temperature at S value (printing temperature)
M109 S200; turn on extruder temperature at S value and wait (printing temperature)
M104 S200; turn on extruder temperature at S value
G1 Z0 F12000; move Z back to home
G21 ; set units to millimeters
G90 ; use absolute coordinates
M82 ; use absolute distances for extrusion
G92 E0
M106 S255
;Layer change
G1 E-6.00000 F1800.00000
G92 E0
G1 Z0.300 F9000.000
G1 X72.477 Y15.406 F9000.000
G1 E6.00000 F1800.00000
G1 X72.557 Y15.033 E6.01878 F600.000
G1 X72.751 Y14.436 E6.04964
G1 X72.953 Y13.981 E6.07419
G1 X73.267 Y13.437 E6.10506
G1 X73.560 Y13.034 E6.12960
G1 X73.980 Y12.568 E6.16047
G1 X74.350 Y12.234 E6.18501
G1 X74.858 Y11.865 E6.21588
G1 X75.290 Y11.616 E6.24042
G1 X75.863 Y11.361 E6.27129
G1 X76.337 Y11.207 E6.29583
G1 X76.950 Y11.077 E6.32670
G1 X77.446 Y11.024 E6.35124
G1 X118.074 Y11.024 E8.35071
G1 X118.570 Y11.077 E8.37526
G1 X119.183 Y11.207 E8.40613 F600.000
G1 X119.657 Y11.361 E8.43068
G1 X120.230 Y11.616 E8.46154
G1 X120.662 Y11.865 E8.48608
G1 X121.170 Y12.234 E8.51695
G1 X121.540 Y12.568 E8.54149
G1 X121.960 Y13.034 E8.57235
G1 X122.253 Y13.438 E8.59692
G1 X122.567 Y13.981 E8.62779
G1 X122.769 Y14.436 E8.65232
G1 X122.963 Y15.033 E8.68318
G1 X123.067 Y15.520 E8.70772
G1 X123.133 Y16.144 E8.73859
G1 X123.133 Y16.643 E8.76315
G1 X123.067 Y17.267 E8.79401
G1 X122.963 Y17.754 E8.81855
G1 X122.751 Y18.405 E8.85225
G1 X101.010 Y80.202 E12.07628
G1 X100.206 Y81.307 E12.14355
G1 X98.760 Y81.796 E12.21868
G1 X74.760 Y81.796 E13.39985
G1 X73.450 Y81.404 E13.46712
G1 X72.571 Y80.358 E13.53439
G1 X72.374 Y79.410 E13.58203
G1 X72.374 Y16.394 E16.68338
G1 X72.465 Y15.465 E16.72932
G1 E10.72932 F1800.00000
G92 E0
G1 X96.993 Y27.177 F9000.000
G1 E6.00000 F1800.00000
G1 X96.993 Y77.643 E8.48364 F600.000
G1 X76.527 Y77.643 E9.49083
G1 X76.527 Y27.177 E11.97447
G1 X96.933 Y27.177 E12.97871
G1 X97.378 Y26.792 F9000.000
G1 X97.378 Y78.028 E15.50030 F600.000
G1 X76.142 Y78.028 E16.54545
G1 X76.142 Y26.792 E19.06705
G1 X97.318 Y26.792 E20.10924
G1 X97.764 Y26.406 F9000.000
G1 X97.764 Y78.414 E22.66879 F600.000
G1 X75.756 Y78.414 E23.75190
G1 X75.756 Y26.406 E26.31145
G1 X97.704 Y26.406 E27.39160
G1 X98.149 Y26.021 F9000.000
G1 X98.149 Y78.799 E29.98911 F600.000
G1 X75.371 Y78.799 E31.11017
G1 X75.371 Y26.021 E33.70768
G1 X98.089 Y26.021 E34.82578
G1 X98.535 Y25.635 F9000.000
G1 X98.535 Y79.185 E37.46125 F600.000
G1 X74.985 Y79.185 E38.62026
G1 X74.985 Y25.635 E41.25573
G1 X98.475 Y25.635 E42.41179
G1 X98.335 Y25.981 F9000.000
G1 X96.709 Y27.665 F9000.000
G1 X96.505 Y27.461 E42.42599 F600.000
G1 X95.959 Y27.461 E42.45293
G1 X96.709 Y28.211 E42.50522
G1 X96.709 Y28.758 E42.53216
G1 X95.412 Y27.461 E42.62256
G1 X94.866 Y27.461 E42.64950
G1 X96.709 Y29.304 E42.77799
G1 X96.709 Y29.850 E42.80492
G1 X94.320 Y27.461 E42.97151
G1 X93.773 Y27.461 E42.99845
G1 X96.709 Y30.397 E43.20314
G1 X96.709 Y30.943 E43.23008
G1 X93.227 Y27.461 E43.47286
G1 X92.681 Y27.461 E43.49980
G1 X96.709 Y31.489 E43.78068
G1 X96.709 Y32.036 E43.80762
G1 X92.134 Y27.461 E44.12660
G1 X91.588 Y27.461 E44.15354
G1 X96.709 Y32.582 E44.51061
G1 X96.709 Y33.128 E44.53755
G1 X91.042 Y27.461 E44.93272
G1 X90.495 Y27.461 E44.95966
G1 X96.709 Y33.675 E45.39293
G1 X96.709 Y34.221 E45.41987
G1 X89.949 Y27.461 E45.89124
G1 X89.402 Y27.461 E45.91818
G1 X96.709 Y34.768 E46.42765
G1 X96.709 Y35.314 E46.45459
G1 X88.856 Y27.461 E47.00215
G1 X88.310 Y27.461 E47.02909
G1 X96.709 Y35.860 E47.61475
G1 X96.709 Y36.407 E47.64169
G1 X87.763 Y27.461 E48.26545
G1 X87.217 Y27.461 E48.29239
G1 X96.709 Y36.953 E48.95425
G1 X96.709 Y37.499 E48.98118
G1 X86.671 Y27.461 E49.68114
G1 X86.124 Y27.461 E49.70808
G1 X96.709 Y38.046 E50.44613
G1 X96.709 Y38.592 E50.47307
G1 X85.578 Y27.461 E51.24922
G1 X85.032 Y27.461 E51.27616
G1 X96.709 Y39.138 E52.09041
G1 X96.709 Y39.685 E52.11734
G1 X84.485 Y27.461 E52.96969
G1 X83.939 Y27.461 E52.99663
G1 X96.709 Y40.231 E53.88707
G1 X96.709 Y40.778 E53.91401
G1 X83.392 Y27.461 E54.84255
G1 X82.846 Y27.461 E54.86949
G1 X96.709 Y41.324 E55.83613
G1 X96.709 Y41.870 E55.86307
G1 X82.300 Y27.461 E56.86780
G1 X81.753 Y27.461 E56.89474
G1 X96.709 Y42.417 E57.93757
G1 X96.709 Y42.963 E57.96451
G1 X81.207 Y27.461 E59.04544
G1 X80.661 Y27.461 E59.07238
G1 X96.709 Y43.509 E60.19141
G1 X96.709 Y44.056 E60.21835
G1 X80.114 Y27.461 E61.37548
G1 X79.568 Y27.461 E61.40241
G1 X96.709 Y44.602 E62.59764
G1 X96.709 Y45.148 E62.62458
G1 X79.022 Y27.461 E63.85790
G1 X78.475 Y27.461 E63.88484
G1 X96.709 Y45.695 E65.15626
G1 X96.709 Y46.241 E65.18319
G1 X77.929 Y27.461 E66.49271
G1 X77.383 Y27.461 E66.51965
G1 X96.709 Y46.787 E67.86726
G1 X96.709 Y47.334 E67.89420
G1 X76.844 Y27.469 E69.27939
G1 X76.811 Y27.983 E69.30478
G1 X96.709 Y47.880 E70.69222
G1 X96.709 Y48.427 E70.71916
G1 X76.811 Y28.529 E72.10661
G1 X76.811 Y29.075 E72.13355
G1 X96.709 Y48.973 E73.52099
G1 X96.709 Y49.519 E73.54793
G1 X76.811 Y29.622 E74.93538
G1 X76.811 Y30.168 E74.96232
G1 X96.709 Y50.066 E76.34976
G1 X96.709 Y50.612 E76.37670
G1 X76.811 Y30.715 E77.76415
G1 X76.811 Y31.261 E77.79109
G1 X96.709 Y51.158 E79.17853
G1 X96.709 Y51.705 E79.20547
G1 X76.811 Y31.807 E80.59292
G1 X76.811 Y32.354 E80.61986
G1 X96.709 Y52.251 E82.00730
G1 X96.709 Y52.797 E82.03424
G1 X76.811 Y32.900 E83.42169
G1 X76.811 Y33.446 E83.44863
G1 X96.709 Y53.344 E84.83607
G1 X96.709 Y53.890 E84.86301
G1 X76.811 Y33.993 E86.25046
G1 X76.811 Y34.539 E86.27740
G1 X96.709 Y54.437 E87.66484
G1 X96.709 Y54.983 E87.69178
G1 X76.811 Y35.085 E89.07923
G1 X76.811 Y35.632 E89.10617
G1 X96.709 Y55.529 E90.49361
G1 X96.709 Y56.076 E90.52055
G1 X76.811 Y36.178 E91.90800
G1 X76.811 Y36.725 E91.93494
G1 X96.709 Y56.622 E93.32238
G1 X96.709 Y57.168 E93.34932
G1 X76.811 Y37.271 E94.73677
G1 X76.811 Y37.817 E94.76371
G1 X96.709 Y57.715 E96.15115
G1 X96.709 Y58.261 E96.17809
G1 X76.811 Y38.364 E97.56554
G1 X76.811 Y38.910 E97.59248
G1 X96.709 Y58.807 E98.97992
G1 X96.709 Y59.354 E99.00686
G1 X76.811 Y39.456 E100.39431
G1 X76.811 Y40.003 E100.42125
G1 X96.709 Y59.900 E101.80869
G1 X96.709 Y60.447 E101.83563
G1 X76.811 Y40.549 E103.22308
G1 X76.811 Y41.095 E103.25002
G1 X96.709 Y60.993 E104.63746
G1 X96.709 Y61.539 E104.66440
G1 X76.811 Y41.642 E106.05185
G1 X76.811 Y42.188 E106.07879
G1 X96.709 Y62.086 E107.46623
G1 X96.709 Y62.632 E107.49317
G1 X76.811 Y42.734 E108.88062
G1 X76.811 Y43.281 E108.90756
G1 X96.709 Y63.178 E110.29500
G1 X96.709 Y63.725 E110.32194
G1 X76.811 Y43.827 E111.70939
G1 X76.811 Y44.374 E111.73633
G1 X96.709 Y64.271 E113.12377
G1 X96.709 Y64.817 E113.15071
G1 X76.811 Y44.920 E114.53816
G1 X76.811 Y45.466 E114.56510
G1 X96.709 Y65.364 E115.95254
G1 X96.709 Y65.910 E115.97948
G1 X76.811 Y46.013 E117.36693
G1 X76.811 Y46.559 E117.39387
G1 X96.709 Y66.456 E118.78131
G1 X96.709 Y67.003 E118.80825
G1 X76.811 Y47.105 E120.19570
G1 X76.811 Y47.652 E120.22264
G1 X96.709 Y67.549 E121.61008
G1 X96.709 Y68.096 E121.63702
G1 X76.811 Y48.198 E123.02447
G1 X76.811 Y48.744 E123.05141
G1 X96.709 Y68.642 E124.43885
G1 X96.709 Y69.188 E124.46579
G1 X76.811 Y49.291 E125.85324
G1 X76.811 Y49.837 E125.88018
G1 X96.709 Y69.735 E127.26762
G1 X96.709 Y70.281 E127.29456
G1 X76.811 Y50.384 E128.68201
G1 X76.811 Y50.930 E128.70895
G1 X96.709 Y70.827 E130.09639
G1 X96.709 Y71.374 E130.12333
G1 X76.811 Y51.476 E131.51078
G1 X76.811 Y52.023 E131.53772
G1 X96.709 Y71.920 E132.92516
G1 X96.709 Y72.466 E132.95210
G1 X76.811 Y52.569 E134.33955
G1 X76.811 Y53.115 E134.36648
G1 X96.709 Y73.013 E135.75393
G1 X96.709 Y73.559 E135.78087
G1 X76.811 Y53.662 E137.16832
G1 X76.811 Y54.208 E137.19525
G1 X96.709 Y74.106 E138.58270
G1 X96.709 Y74.652 E138.60964
G1 X76.811 Y54.754 E139.99709
G1 X76.811 Y55.301 E140.02402
G1 X96.709 Y75.198 E141.41147
G1 X96.709 Y75.745 E141.43841
G1 X76.811 Y55.847 E142.82586
G1 X76.811 Y56.394 E142.85279
G1 X96.709 Y76.291 E144.24024
G1 X96.709 Y76.837 E144.26718
G1 X76.811 Y56.940 E145.65463
G1 X76.811 Y57.486 E145.68156
G1 X96.676 Y77.351 E147.06675
G1 X96.137 Y77.359 E147.09332
G1 X76.811 Y58.033 E148.44092
G1 X76.811 Y58.579 E148.46786
G1 X95.591 Y77.359 E149.77737
G1 X95.045 Y77.359 E149.80431
G1 X76.811 Y59.125 E151.07573
G1 X76.811 Y59.672 E151.10267
G1 X94.498 Y77.359 E152.33598
G1 X93.952 Y77.359 E152.36292
G1 X76.811 Y60.218 E153.55814
G1 X76.811 Y60.764 E153.58508
G1 X93.406 Y77.359 E154.74220
G1 X92.859 Y77.359 E154.76914
G1 X76.811 Y61.311 E155.88816
G1 X76.811 Y61.857 E155.91510
G1 X92.313 Y77.359 E156.99602
G1 X91.767 Y77.359 E157.02296
G1 X76.811 Y62.403 E158.06579
G1 X76.811 Y62.950 E158.09273
G1 X91.220 Y77.359 E159.09746
G1 X90.674 Y77.359 E159.12440
G1 X76.811 Y63.496 E160.09103
G1 X76.811 Y64.043 E160.11797
G1 X90.127 Y77.359 E161.04650
G1 X89.581 Y77.359 E161.07344
G1 X76.811 Y64.589 E161.96388
G1 X76.811 Y65.135 E161.99082
G1 X89.035 Y77.359 E162.84316
G1 X88.488 Y77.359 E162.87009
G1 X76.811 Y65.682 E163.68434
G1 X76.811 Y66.228 E163.71127
G1 X87.942 Y77.359 E164.48742
G1 X87.396 Y77.359 E164.51436
G1 X76.811 Y66.774 E165.25240
G1 X76.811 Y67.321 E165.27934
G1 X86.849 Y77.359 E165.97929
G1 X86.303 Y77.359 E166.00623
G1 X76.811 Y67.867 E166.66808
G1 X76.811 Y68.413 E166.69502
G1 X85.757 Y77.359 E167.31877
G1 X85.210 Y77.359 E167.34571
G1 X76.811 Y68.960 E167.93137
G1 X76.811 Y69.506 E167.95831
G1 X84.664 Y77.359 E168.50587
G1 X84.117 Y77.359 E168.53281
G1 X76.811 Y70.053 E169.04227
G1 X76.811 Y70.599 E169.06920
G1 X83.571 Y77.359 E169.54057
G1 X83.025 Y77.359 E169.56751
G1 X76.811 Y71.145 E170.00077
G1 X76.811 Y71.692 E170.02771
G1 X82.478 Y77.359 E170.42288
G1 X81.932 Y77.359 E170.44982
G1 X76.811 Y72.238 E170.80689
G1 X76.811 Y72.784 E170.83383
G1 X81.386 Y77.359 E171.15280
G1 X80.839 Y77.359 E171.17974
G1 X76.811 Y73.331 E171.46061
G1 X76.811 Y73.877 E171.48755
G1 X80.293 Y77.359 E171.73033
G1 X79.747 Y77.359 E171.75727
G1 X76.811 Y74.423 E171.96195
G1 X76.811 Y74.970 E171.98889
G1 X79.200 Y77.359 E172.15547
G1 X78.654 Y77.359 E172.18241
G1 X76.811 Y75.516 E172.31089
G1 X76.811 Y76.062 E172.33783
G1 X78.108 Y77.359 E172.42822
G1 X77.561 Y77.359 E172.45516
G1 X76.811 Y76.609 E172.50745
G1 X76.811 Y77.155 E172.53439
G1 X77.015 Y77.359 E172.54858
G1 E166.54858 F1800.00000
G92 E0
G1 X101.196 Y18.130 F9000.000
G1 E6.00000 F1800.00000
G1 X100.847 Y17.975 E6.01879 F600.000
G1 X100.538 Y17.751 E6.03758
G1 X100.283 Y17.467 E6.05637
G1 X100.092 Y17.136 E6.07516
G1 X99.974 Y16.773 E6.09395
G1 X99.934 Y16.394 E6.11274
G1 X99.974 Y16.014 E6.13153
G1 X100.092 Y15.651 E6.15032
G1 X100.283 Y15.320 E6.16911
G1 X100.538 Y15.036 E6.18790
G1 X100.847 Y14.812 E6.20669
G1 X101.196 Y14.657 E6.22548
G1 X101.569 Y14.577 E6.24427
G1 X101.951 Y14.577 E6.26305 F600.000
G1 X102.324 Y14.657 E6.28184
G1 X102.673 Y14.812 E6.30064
G1 X102.982 Y15.036 E6.31943
G1 X103.237 Y15.320 E6.33821
G1 X103.428 Y15.651 E6.35701
G1 X103.546 Y16.014 E6.37579
G1 X103.586 Y16.394 E6.39458
G1 X103.546 Y16.773 E6.41337
G1 X103.428 Y17.136 E6.43216
G1 X103.237 Y17.467 E6.45095
G1 X102.982 Y17.751 E6.46974
G1 X102.673 Y17.975 E6.48853
G1 X102.324 Y18.130 E6.50732
G1 X101.951 Y18.210 E6.52611
G1 X101.569 Y18.210 E6.54490
G1 X101.254 Y18.143 E6.56074
G1 X100.903 Y18.376 F9000.000
G1 X101.000 Y19.052 F9000.000
G1 X100.903 Y19.032 E6.56562 F600.000
G1 X100.373 Y18.796 E6.59415
G1 X99.904 Y18.455 E6.62269
G1 X99.516 Y18.024 E6.65123
G1 X99.226 Y17.522 E6.67977
G1 X99.047 Y16.970 E6.70831
G1 X98.986 Y16.394 E6.73684
G1 X99.047 Y15.817 E6.76538
G1 X99.226 Y15.265 E6.79392
G1 X99.516 Y14.763 E6.82246
G1 X99.904 Y14.332 E6.85100
G1 X100.373 Y13.991 E6.87954
G1 X100.903 Y13.756 E6.90807
G1 X101.470 Y13.635 E6.93661
G1 X102.050 Y13.635 E6.96515
G1 X102.119 Y13.650 E6.96862
G1 X102.617 Y13.756 E6.99369 F600.000
G1 X103.147 Y13.991 E7.02223
G1 X103.616 Y14.332 E7.05077
G1 X104.004 Y14.763 E7.07931
G1 X104.294 Y15.265 E7.10784
G1 X104.473 Y15.817 E7.13638
G1 X104.534 Y16.394 E7.16492
G1 X104.473 Y16.970 E7.19346
G1 X104.294 Y17.522 E7.22200
G1 X104.004 Y18.024 E7.25054
G1 X103.616 Y18.455 E7.27907
G1 X103.147 Y18.796 E7.30761
G1 X102.617 Y19.032 E7.33615
G1 X102.050 Y19.152 E7.36469
G1 X101.470 Y19.152 E7.39323
G1 X101.058 Y19.065 E7.41394
G1 X100.969 Y18.958 F9000.000
G1 X101.098 Y18.591 F9000.000
G1 X100.586 Y18.368 E7.47344 F600.000
G1 X100.221 Y18.102 E7.52159
G1 X99.900 Y17.745 E7.57285
G1 X99.650 Y17.301 E7.62719
G1 X99.511 Y16.872 E7.67533
G1 X99.461 Y16.394 E7.72659
G1 X99.511 Y15.916 E7.77785 F600.000
G1 X99.650 Y15.486 E7.82599
G1 X99.900 Y15.042 E7.88033
G1 X100.221 Y14.685 E7.93159
G1 X100.586 Y14.419 E7.97974
G1 X101.049 Y14.207 E8.03406
G1 X101.520 Y14.107 E8.08533
G1 X101.971 Y14.106 E8.13347
G1 X102.471 Y14.207 E8.18781
G1 X102.934 Y14.419 E8.24213
G1 X103.299 Y14.685 E8.29028
G1 X103.620 Y15.042 E8.34154
G1 X103.870 Y15.486 E8.39587
G1 X104.009 Y15.916 E8.44402
G1 X104.059 Y16.394 E8.49528
G1 X104.009 Y16.872 E8.54654
G1 X103.870 Y17.301 E8.59468
G1 X103.620 Y17.745 E8.64901
G1 X103.299 Y18.102 E8.70027
G1 X102.934 Y18.368 E8.74843
G1 X102.471 Y18.580 E8.80275
G1 X101.971 Y18.681 E8.85708
G1 X101.520 Y18.680 E8.90523
G1 X101.156 Y18.604 E8.94482
G1 E2.94482 F1800.00000
G92 E0
G1 X107.974 Y16.773 F9000.000
G1 E6.00000 F1800.00000
G1 X107.934 Y16.394 E6.01879 F600.000
G1 X107.974 Y16.014 E6.03758
G1 X108.092 Y15.651 E6.05637
G1 X108.283 Y15.320 E6.07516
G1 X108.538 Y15.036 E6.09395
G1 X108.847 Y14.812 E6.11274
G1 X109.196 Y14.657 E6.13153
G1 X109.569 Y14.577 E6.15032
G1 X109.951 Y14.577 E6.16910 F600.000
G1 X110.324 Y14.657 E6.18789
G1 X110.673 Y14.812 E6.20669
G1 X110.982 Y15.036 E6.22548
G1 X111.237 Y15.320 E6.24426
G1 X111.428 Y15.651 E6.26306
G1 X111.546 Y16.014 E6.28184
G1 X111.586 Y16.394 E6.30063
G1 X111.546 Y16.773 E6.31942
G1 X111.428 Y17.136 E6.33821
G1 X111.237 Y17.467 E6.35700
G1 X110.982 Y17.751 E6.37579
G1 X110.673 Y17.975 E6.39458
G1 X110.324 Y18.130 E6.41337
G1 X109.951 Y18.210 E6.43216
G1 X109.569 Y18.210 E6.45095
G1 X109.196 Y18.130 E6.46974
G1 X108.847 Y17.975 E6.48853
G1 X108.538 Y17.751 E6.50732
G1 X108.283 Y17.467 E6.52611
G1 X108.092 Y17.136 E6.54490
G1 X107.992 Y16.830 E6.56074
G1 X107.615 Y16.643 F9000.000
G1 X107.077 Y17.064 F9000.000
G1 X107.047 Y16.970 E6.56561 F600.000
G1 X106.986 Y16.394 E6.59415
G1 X107.047 Y15.817 E6.62269
G1 X107.226 Y15.265 E6.65123
G1 X107.516 Y14.763 E6.67976
G1 X107.904 Y14.332 E6.70830
G1 X108.373 Y13.991 E6.73684
G1 X108.903 Y13.756 E6.76538
G1 X109.470 Y13.635 E6.79392
G1 X110.050 Y13.635 E6.82246
G1 X110.119 Y13.650 E6.82592
G1 X110.617 Y13.756 E6.85100 F600.000
G1 X111.147 Y13.991 E6.87953
G1 X111.616 Y14.332 E6.90807
G1 X112.004 Y14.763 E6.93661
G1 X112.294 Y15.265 E6.96515
G1 X112.473 Y15.817 E6.99369
G1 X112.534 Y16.394 E7.02223
G1 X112.473 Y16.970 E7.05077
G1 X112.294 Y17.522 E7.07930
G1 X112.004 Y18.024 E7.10784
G1 X111.616 Y18.455 E7.13638
G1 X111.147 Y18.796 E7.16492
G1 X110.617 Y19.032 E7.19346
G1 X110.050 Y19.152 E7.22200
G1 X109.470 Y19.152 E7.25054
G1 X108.903 Y19.032 E7.27908
G1 X108.373 Y18.796 E7.30761
G1 X107.904 Y18.455 E7.33615
G1 X107.516 Y18.024 E7.36469
G1 X107.226 Y17.522 E7.39323
G1 X107.096 Y17.122 E7.41394
G1 X107.144 Y16.991 F9000.000
G1 X107.526 Y16.919 F9000.000
G1 X107.461 Y16.394 E7.47039 F600.000
G1 X107.511 Y15.916 E7.52165 F600.000
G1 X107.650 Y15.486 E7.56979
G1 X107.919 Y15.020 E7.62719
G1 X108.221 Y14.685 E7.67533
G1 X108.610 Y14.402 E7.72660
G1 X109.049 Y14.207 E7.77785
G1 X109.520 Y14.107 E7.82912
G1 X110.000 Y14.107 E7.88038
G1 X110.442 Y14.200 E7.92853
G1 X110.934 Y14.419 E7.98592
G1 X111.299 Y14.685 E8.03407
G1 X111.620 Y15.042 E8.08533
