; generated by Slic3r 1.2.9 on 2018-02-09 at 16:25:06

; external perimeters extrusion width = 0.40mm
; perimeters extrusion width = 0.62mm
; infill extrusion width = 0.33mm
; solid infill extrusion width = 0.62mm
; top infill extrusion width = 0.20mm

M106 S256; Turn on fan to 100% power
M104 S140; turn on extruder temperature at S value
M140 S60; turn on bed temperature at S value
G28; home all axes
M84; disable motors
G1 Z15 F15000; have Z move to 20mm at 15000 mm/min
M190 S55; turn on bed temperature at S value and wait
M140 S55; turn on bed temperature at S value (printing temperature)
M109 S200; turn on extruder temperature at S value and wait (printing temperature)
M104 S200; turn on extruder temperature at S value
G1 Z0 F12000; move Z back to home
G21 ; set units to millimeters
G90 ; use absolute coordinates
M82 ; use absolute distances for extrusion
G92 E0
M106 S255
;Layer change
G1 E-6.00000 F1800.00000
G92 E0
G1 Z0.300 F9000.000
G1 X62.869 Y62.835 F9000.000
G1 E6.00000 F1800.00000
G1 X63.131 Y62.595 E6.01748 F600.000
G1 X65.074 Y61.063 E6.13924
G1 X65.317 Y60.894 E6.15383
G1 X67.436 Y59.615 E6.27563
G1 X67.771 Y59.446 E6.29410
G1 X71.469 Y57.944 E6.49055
G1 X71.840 Y57.828 E6.50964
G1 X74.443 Y57.237 E6.64100
G1 X74.792 Y57.185 E6.65837
G1 X78.638 Y56.903 E6.84816
G1 X111.634 Y56.972 E8.47207
G1 X115.491 Y57.293 E8.66258 F600.000
G1 X115.880 Y57.359 E8.68198
G1 X119.129 Y58.190 E8.84705
G1 X119.498 Y58.317 E8.86623
G1 X122.562 Y59.664 E9.03093
G1 X122.860 Y59.821 E9.04755
G1 X124.959 Y61.125 E9.16915
G1 X125.202 Y61.297 E9.18378
G1 X127.122 Y62.851 E9.30539
G1 X127.376 Y63.090 E9.32252
G1 X129.367 Y65.251 E9.46712
G1 X129.613 Y65.568 E9.48692
G1 X131.304 Y68.175 E9.63982
G1 X131.496 Y68.535 E9.65991
G1 X132.999 Y72.046 E9.84788
G1 X133.105 Y72.351 E9.86377
G1 X133.764 Y74.746 E9.98600
G1 X133.824 Y75.028 E10.00022
G1 X134.358 Y78.622 E10.17904
G1 X134.384 Y78.947 E10.19505
G1 X134.424 Y82.526 E10.37120
G1 X134.408 Y82.830 E10.38620
G1 X133.960 Y86.645 E10.57524
G1 X133.913 Y86.912 E10.58859
G1 X132.935 Y91.080 E10.79929
G1 X132.817 Y91.446 E10.81823
G1 X131.749 Y94.031 E10.95584
G1 X131.538 Y94.429 E10.97806
G1 X129.393 Y97.692 E11.17024
G1 X129.233 Y97.909 E11.18350
G1 X124.810 Y103.218 E11.52353
G1 X96.630 Y132.370 E13.51900
G1 X95.438 Y133.039 E13.58628
G1 X94.075 Y132.944 E13.65355
G1 X93.192 Y132.361 E13.70562
G1 X67.661 Y105.689 E15.52276
G1 X63.905 Y101.715 E15.79186
G1 X59.953 Y96.681 E16.10682
G1 X59.773 Y96.415 E16.12261
G1 X57.993 Y93.372 E16.29612
G1 X57.777 Y92.884 E16.32239
G1 X56.593 Y89.125 E16.51635
G1 X56.520 Y88.830 E16.53133
G1 X55.850 Y85.092 E16.71822
G1 X55.818 Y84.831 E16.73116
G1 X55.582 Y81.317 E16.90449
G1 X55.581 Y81.001 E16.92004
G1 X55.828 Y77.224 E17.10632
G1 X55.878 Y76.873 E17.12377
G1 X56.710 Y73.044 E17.31662
G1 X56.827 Y72.663 E17.33620
G1 X58.352 Y68.858 E17.53795
G1 X58.556 Y68.461 E17.55991
G1 X60.500 Y65.418 E17.73766
G1 X60.771 Y65.069 E17.75942
G1 X62.828 Y62.879 E17.90728
G1 E11.90728 F1800.00000
G92 E0
G1 X95.039 Y67.722 F9000.000
G1 E6.00000 F1800.00000
G1 X96.680 Y65.969 E6.11819 F600.000
G1 X99.223 Y63.694 E6.28610
G1 X101.398 Y62.293 E6.41341
G1 X104.584 Y60.985 E6.58291
G1 X108.738 Y60.133 E6.79162
G1 X111.620 Y59.970 E6.93367
G1 X115.186 Y60.274 E7.10983
G1 X118.338 Y61.081 E7.26995
G1 X121.316 Y62.389 E7.43005
G1 X123.346 Y63.650 E7.54764
G1 X125.203 Y65.152 E7.66518
G1 X127.128 Y67.243 E7.80504
G1 X128.762 Y69.761 E7.95281
G1 X130.227 Y73.187 E8.13616
G1 X130.866 Y75.505 E8.25453
G1 X131.388 Y79.022 E8.42947
G1 X131.427 Y82.520 E8.60165
G1 X130.988 Y86.261 E8.78706
G1 X130.030 Y90.347 E8.99361
G1 X129.002 Y92.832 E9.12594
G1 X126.908 Y96.018 E9.31356
G1 X122.530 Y101.274 E9.65026
G1 X117.426 Y106.198 E9.99925
G1 X110.903 Y111.893 E10.42542
G1 X102.402 Y120.444 E11.01885
G1 X99.266 Y124.200 E11.25967
G1 X95.724 Y128.660 E11.53998
G1 X94.918 Y129.708 E11.60503
G1 X94.116 Y128.657 E11.67007
G1 X90.594 Y124.185 E11.95023
G1 X88.733 Y121.885 E12.09582
G1 X85.009 Y117.832 E12.36668
G1 X77.345 Y110.287 E12.89601
G1 X69.809 Y103.600 E13.39183
G1 X66.102 Y99.677 E13.65747
G1 X62.339 Y94.867 E13.95805
G1 X60.614 Y91.919 E14.12616
G1 X59.463 Y88.262 E14.31481
G1 X58.805 Y84.596 E14.49812
G1 X58.574 Y81.156 E14.66780
G1 X58.815 Y77.465 E14.84985
G1 X59.627 Y73.730 E15.03795
G1 X61.112 Y70.026 E15.23435
G1 X62.994 Y67.078 E15.40649
G1 X65.022 Y64.919 E15.55226
G1 X66.899 Y63.439 E15.66990
G1 X68.944 Y62.204 E15.78746
G1 X72.551 Y60.739 E15.97908
G1 X75.061 Y60.169 E16.10577
G1 X78.630 Y59.901 E16.28187
G1 X82.487 Y60.230 E16.47239
G1 X85.663 Y60.982 E16.63301
G1 X88.794 Y62.306 E16.80032
G1 X91.463 Y64.135 E16.95957
G1 X94.408 Y67.014 E17.16226
G1 X95.000 Y67.677 E17.20600
G1 X95.046 Y67.150 F9000.000
G1 X96.411 Y65.693 E17.30425 F600.000
G1 X98.989 Y63.386 E17.47450
G1 X101.219 Y61.950 E17.60505
G1 X104.471 Y60.614 E17.77807
G1 X108.688 Y59.749 E17.98995
G1 X111.625 Y59.584 E18.13473
G1 X115.251 Y59.893 E18.31381
G1 X118.464 Y60.715 E18.47706
G1 X121.497 Y62.047 E18.64006
G1 X123.570 Y63.335 E18.76018
G1 X125.467 Y64.870 E18.88029
G1 X127.434 Y67.005 E19.02315
G1 X129.104 Y69.579 E19.17416
G1 X130.592 Y73.059 E19.36042
G1 X131.244 Y75.426 E19.48123
G1 X131.774 Y78.991 E19.65862
G1 X131.813 Y82.540 E19.83332
G1 X131.369 Y86.328 E20.02102
G1 X130.398 Y90.466 E20.23019
G1 X129.345 Y93.013 E20.36585
G1 X127.219 Y96.248 E20.55635
G1 X122.812 Y101.537 E20.89515
G1 X117.687 Y106.482 E21.24565
G1 X111.167 Y112.174 E21.67162
G1 X102.687 Y120.704 E22.26356
G1 X99.565 Y124.444 E22.50332
G1 X96.027 Y128.898 E22.78326
G1 X94.916 Y130.342 E22.87292
G1 X93.811 Y128.893 E22.96259
G1 X90.293 Y124.425 E23.24247
G1 X88.441 Y122.137 E23.38734
G1 X84.732 Y118.100 E23.65713
G1 X77.081 Y110.569 E24.18549
G1 X69.541 Y103.877 E24.68165
G1 X65.809 Y99.929 E24.94901
G1 X62.019 Y95.084 E25.25176
G1 X60.259 Y92.076 E25.42328
G1 X59.087 Y88.355 E25.61529
G1 X58.422 Y84.643 E25.80086
G1 X58.187 Y81.157 E25.97284
G1 X58.432 Y77.411 E26.15757
G1 X59.257 Y73.617 E26.34867
G1 X60.767 Y69.849 E26.54844
G1 X62.689 Y66.841 E26.72412
G1 X64.761 Y64.634 E26.87308
G1 X66.679 Y63.121 E26.99332
G1 X68.770 Y61.858 E27.11356
G1 X72.435 Y60.370 E27.30823
G1 X75.004 Y59.787 E27.43787
G1 X78.631 Y59.514 E27.61690
G1 X82.548 Y59.848 E27.81035
G1 X85.783 Y60.614 E27.97396
G1 X88.980 Y61.966 E28.14478
G1 X91.708 Y63.836 E28.30759
G1 X94.687 Y66.747 E28.51257
G1 X95.006 Y67.105 E28.53619
G1 X95.330 Y67.432 F9000.000
G1 X90.608 Y63.967 F9000.000
G1 X124.799 Y98.158 E30.92622 F600.000
G1 X125.048 Y97.860 E30.94544
G1 X95.154 Y67.965 E33.03511
G1 X95.419 Y67.682 E33.05427
G1 X125.297 Y97.561 E35.14283
G1 X125.546 Y97.262 E35.16206
G1 X95.684 Y67.399 E37.24951
G1 X95.948 Y67.117 E37.26866
G1 X125.795 Y96.963 E39.35501
G1 X126.044 Y96.664 E39.37423
G1 X96.213 Y66.834 E41.45946
G1 X96.478 Y66.551 E41.47861
G1 X126.293 Y96.366 E43.56273
G1 X126.542 Y96.067 E43.58196
G1 X96.743 Y66.268 E45.66496
G1 X97.022 Y65.999 E45.68411
G1 X126.779 Y95.756 E47.76419
G1 X126.996 Y95.425 E47.78373
G1 X97.311 Y65.740 E49.85879
G1 X97.600 Y65.482 E49.87796
G1 X127.213 Y95.095 E51.94800
G1 X127.430 Y94.764 E51.96754
G1 X97.889 Y65.223 E54.03256
G1 X98.178 Y64.964 E54.05173
G1 X127.647 Y94.434 E56.11172
G1 X127.865 Y94.103 E56.13127
G1 X98.467 Y64.706 E58.18624
G1 X98.756 Y64.447 E58.20542
G1 X128.082 Y93.773 E60.25537
G1 X128.299 Y93.443 E60.27492
G1 X99.045 Y64.188 E62.31985
G1 X99.334 Y63.930 E62.33902
G1 X128.516 Y93.112 E64.37893
G1 X128.734 Y92.782 E64.39848
G1 X99.663 Y63.711 E66.43060
G1 X99.996 Y63.496 E66.45019
G1 X128.901 Y92.401 E68.47069
G1 X129.061 Y92.013 E68.49141
G1 X100.329 Y63.282 E70.49983
G1 X100.662 Y63.067 E70.51941
G1 X129.221 Y91.626 E72.51573
G1 X129.381 Y91.238 E72.53646
G1 X100.996 Y62.853 E74.52069
G1 X101.329 Y62.638 E74.54027
G1 X129.541 Y90.851 E76.51241
G1 X129.702 Y90.463 E76.53314
G1 X101.691 Y62.453 E78.49115
G1 X102.079 Y62.293 E78.51190
G1 X129.827 Y90.041 E80.45153
G1 X129.931 Y89.597 E80.47405
G1 X102.467 Y62.134 E82.39382
G1 X102.856 Y61.974 E82.41457
G1 X130.035 Y89.154 E84.31447
G1 X130.139 Y88.710 E84.33700
G1 X103.244 Y61.815 E86.21704
G1 X103.632 Y61.655 E86.23779
G1 X130.243 Y88.266 E88.09797
G1 X130.347 Y87.823 E88.12049
G1 X104.020 Y61.496 E89.96081
G1 X104.409 Y61.336 E89.98156
G1 X130.452 Y87.379 E91.80202
G1 X130.556 Y86.936 E91.82454
G1 X104.829 Y61.209 E93.62289
G1 X105.284 Y61.116 E93.64583
G1 X130.660 Y86.492 E95.41968
G1 X130.740 Y86.024 E95.44315
G1 X105.738 Y61.023 E97.19081
G1 X106.193 Y60.929 E97.21374
G1 X130.797 Y85.534 E98.93365
G1 X130.855 Y85.044 E98.95805
G1 X106.647 Y60.836 E100.65020
G1 X107.102 Y60.743 E100.67313
G1 X130.912 Y84.553 E102.33753
G1 X130.969 Y84.063 E102.36193
G1 X107.556 Y60.650 E103.99857
G1 X108.011 Y60.557 E104.02151
G1 X131.027 Y83.573 E105.63040
G1 X131.084 Y83.083 E105.65480
G1 X108.465 Y60.463 E107.23593
G1 X108.950 Y60.401 E107.26010
G1 X131.142 Y82.592 E108.81136
G1 X131.137 Y82.040 E108.83867
G1 X109.469 Y60.371 E110.35335
G1 X109.987 Y60.342 E110.37901
G1 X131.131 Y81.486 E111.85702
G1 X131.125 Y80.932 E111.88440
G1 X110.505 Y60.313 E113.32574
G1 X111.024 Y60.284 E113.35141
G1 X131.119 Y80.378 E114.75608
G1 X131.113 Y79.824 E114.78346
G1 X111.544 Y60.256 E116.15135
G1 X112.143 Y60.307 E116.18106
G1 X131.106 Y79.271 E117.50667
G1 X131.033 Y78.650 E117.53758
G1 X112.741 Y60.358 E118.81621
G1 X113.340 Y60.409 E118.84592
G1 X130.938 Y78.006 E120.07602
G1 X130.842 Y77.363 E120.10816
G1 X113.939 Y60.460 E121.28973
G1 X114.538 Y60.511 E121.31943
G1 X130.746 Y76.720 E122.45246
G1 X130.651 Y76.076 E122.48461
G1 X115.158 Y60.583 E123.56761
G1 X115.894 Y60.772 E123.60516
G1 X130.515 Y75.393 E124.62722
G1 X130.307 Y74.637 E124.66597
G1 X116.630 Y60.960 E125.62204
G1 X117.366 Y61.148 E125.65959
G1 X130.099 Y73.881 E126.54966
G1 X129.820 Y73.055 F9000.000
G1 X118.102 Y61.337 E127.36882 F600.000
G1 X119.067 Y61.754 F9000.000
G1 X129.411 Y72.098 E128.09186 F600.000
G1 X129.002 Y71.141 F9000.000
G1 X120.044 Y62.184 E128.71799 F600.000
G1 X121.021 Y62.613 F9000.000
G1 X128.592 Y70.184 E129.24721 F600.000
G1 X127.686 Y68.730 F9000.000
G1 X122.446 Y63.490 E129.61346 F600.000
G1 X124.721 Y65.218 F9000.000
G1 X125.365 Y65.861 E129.65844 F600.000
G1 E123.65844 F1800.00000
G92 E0
G1 X88.867 Y62.773 F9000.000
G1 E6.00000 F1800.00000
G1 X124.550 Y98.457 E8.49438 F600.000
G1 X124.302 Y98.756 E8.51361
G1 X87.767 Y62.221 E11.06746
G1 X86.818 Y61.820 F9000.000
G1 X124.053 Y99.055 E13.67025 F600.000
G1 X123.804 Y99.354 E13.68947
G1 X85.869 Y61.419 E16.34119
G1 X85.053 Y61.151 E16.38363
G1 X123.555 Y99.652 E19.07498
G1 X123.306 Y99.951 E19.09420
G1 X84.336 Y60.981 E21.81832
G1 X83.618 Y60.811 E21.85477
G1 X123.057 Y100.250 E24.61166
G1 X122.808 Y100.549 E24.63088
G1 X82.900 Y60.641 E27.42053
G1 X82.210 Y60.498 E27.45538
G1 X122.559 Y100.848 E30.27589
G1 X122.306 Y101.142 E30.29509
G1 X81.611 Y60.447 E33.13978
G1 X81.012 Y60.396 E33.16949
G1 X122.028 Y101.411 E36.03654
G1 X121.749 Y101.680 E36.05569
G1 X80.414 Y60.345 E38.94512
G1 X79.815 Y60.294 E38.97482
G1 X121.470 Y101.949 E41.88661
G1 X121.191 Y102.218 E41.90576
G1 X79.216 Y60.243 E44.83992
G1 X78.617 Y60.192 E44.86962
G1 X120.912 Y102.487 E47.82614
G1 X120.634 Y102.756 E47.84529
G1 X78.097 Y60.220 E50.81868
G1 X77.588 Y60.258 E50.84393
G1 X120.355 Y103.025 E53.83345
G1 X120.076 Y103.294 E53.85260
G1 X77.078 Y60.296 E56.85824
G1 X76.569 Y60.335 E56.88349
G1 X119.797 Y103.563 E59.90525
G1 X119.519 Y103.832 E59.92439
G1 X76.060 Y60.373 E62.96228
G1 X75.550 Y60.411 E62.98753
G1 X119.240 Y104.101 E66.04153
G1 X118.961 Y104.370 E66.06068
G1 X75.041 Y60.450 E69.13081
G1 X74.594 Y60.550 E69.15347
G1 X118.682 Y104.639 E72.23537
G1 X118.404 Y104.908 E72.25452
G1 X74.147 Y60.651 E75.34815
G1 X73.701 Y60.753 E75.37078
G1 X118.125 Y105.177 E78.47612
G1 X117.846 Y105.446 E78.49527
G1 X73.254 Y60.854 E81.61233
G1 X72.808 Y60.955 E81.63496
G1 X117.567 Y105.714 E84.76375
G1 X117.288 Y105.983 E84.78289
G1 X72.389 Y61.084 E87.92146
G1 X72.000 Y61.242 E87.94224
G1 X116.997 Y106.240 E91.08768
G1 X116.705 Y106.495 E91.10687
G1 X71.610 Y61.401 E94.25910
G1 X71.221 Y61.559 E94.27988
G1 X116.413 Y106.751 E97.43890
G1 X116.120 Y107.006 E97.45809
G1 X70.831 Y61.717 E100.62389
G1 X70.442 Y61.875 E100.64467
G1 X115.828 Y107.261 E103.81726
G1 X115.535 Y107.517 E103.83645
G1 X70.052 Y62.033 E107.01582
G1 X69.663 Y62.192 E107.03660
G1 X115.243 Y107.772 E110.22276
G1 X114.950 Y108.027 E110.24195
G1 X69.273 Y62.350 E113.43490
G1 X68.901 Y62.526 E113.45523
G1 X114.658 Y108.282 E116.65373
G1 X114.366 Y108.538 E116.67292
G1 X68.560 Y62.732 E119.87486
G1 X68.218 Y62.938 E119.89457
G1 X114.073 Y108.793 E123.09994
G1 X113.781 Y109.048 E123.11912
G1 X67.877 Y63.144 E126.32792
G1 X67.535 Y63.351 E126.34764
G1 X113.488 Y109.304 E129.55986
G1 X113.196 Y109.559 E129.57904
G1 X67.194 Y63.557 E132.79469
G1 X66.870 Y63.781 E132.81415
G1 X112.904 Y109.814 E136.03198
G1 X112.611 Y110.070 E136.05117
G1 X66.564 Y64.023 E139.26996
G1 X66.258 Y64.264 E139.28924
G1 X112.319 Y110.325 E142.50900
G1 X112.026 Y110.580 E142.52819
G1 X65.952 Y64.505 E145.74891
G1 X65.645 Y64.747 E145.76819
G1 X111.734 Y110.835 E148.98988
G1 X111.442 Y111.091 E149.00907
G1 X65.339 Y64.988 E152.23173
G1 X65.064 Y65.260 E152.25087
G1 X111.149 Y111.346 E155.47236
G1 X110.857 Y111.601 E155.49154
G1 X64.790 Y65.534 E158.71173
G1 X64.523 Y65.816 E158.73088
G1 X110.576 Y111.868 E161.95005
G1 X110.302 Y112.143 E161.96919
G1 X64.258 Y66.098 E165.18781
G1 X63.993 Y66.380 E165.20697
G1 X110.029 Y112.417 E168.42504
G1 X109.756 Y112.692 E168.44419
G1 X63.727 Y66.663 E171.66172
G1 X63.462 Y66.945 E171.68087
G1 X109.483 Y112.967 E174.89785
G1 X109.210 Y113.241 E174.91700
G1 X63.198 Y67.229 E178.13336
G1 X62.984 Y67.563 E178.15297
G1 X108.937 Y113.516 E181.36517
G1 X108.664 Y113.790 E181.38431
G1 X62.771 Y67.897 E184.59235
G1 X62.558 Y68.232 E184.61195
G1 X108.391 Y114.065 E187.81582
G1 X108.118 Y114.340 E187.83496
G1 X62.344 Y68.566 E191.03467
G1 X62.131 Y68.900 E191.05427
G1 X107.845 Y114.614 E194.24981
G1 X107.572 Y114.889 E194.26896
G1 X61.917 Y69.234 E197.46033
G1 X61.704 Y69.568 E197.47994
G1 X107.299 Y115.164 E200.66715
G1 X107.026 Y115.438 E200.68629
G1 X61.490 Y69.903 E203.86934
G1 X61.298 Y70.258 E203.88931
G1 X106.753 Y115.713 E207.06671
G1 X106.480 Y115.988 E207.08585
G1 X61.141 Y70.649 E210.25511
G1 X60.984 Y71.040 E210.27594
G1 X106.207 Y116.262 E213.43706
G1 X105.933 Y116.537 E213.45621
G1 X60.828 Y71.431 E216.60920
G1 X60.671 Y71.822 E216.63002
G1 X105.660 Y116.812 E219.77488
G1 X105.387 Y117.086 E219.79402
G1 X60.514 Y72.213 E222.93074
G1 X60.358 Y72.604 E222.95156
G1 X105.114 Y117.361 E226.08015
G1 X104.841 Y117.636 E226.09929
G1 X60.201 Y72.995 E229.21974
G1 X60.044 Y73.386 E229.24056
G1 X104.568 Y117.910 E232.35288
G1 X104.295 Y118.185 E232.37202
G1 X59.891 Y73.781 E235.47598
G1 X59.793 Y74.231 E235.49873
G1 X104.022 Y118.459 E238.59044
G1 X103.749 Y118.734 E238.60958
G1 X59.695 Y74.680 E241.68903
G1 X59.597 Y75.130 E241.71179
G1 X103.476 Y119.009 E244.77900
G1 X103.203 Y119.283 E244.79814
G1 X59.500 Y75.580 E247.85309
G1 X59.402 Y76.030 E247.87585
G1 X102.930 Y119.558 E250.91855
G1 X102.657 Y119.833 E250.93769
G1 X59.304 Y76.480 E253.96815
G1 X59.206 Y76.930 E253.99090
G1 X102.384 Y120.107 E257.00910
G1 X102.120 Y120.391 E257.02826
G1 X59.108 Y77.380 E260.03483
G1 X59.067 Y77.886 E260.05994
G1 X101.870 Y120.689 E263.05200
G1 X101.621 Y120.988 E263.07122
G1 X59.033 Y78.400 E266.04820
G1 X59.000 Y78.914 E266.07367
G1 X101.372 Y121.287 E269.03558
G1 X101.123 Y121.585 E269.05481
G1 X58.966 Y79.428 E272.00166
G1 X58.932 Y79.942 E272.02712
G1 X100.874 Y121.884 E274.95891
G1 X100.624 Y122.182 E274.97813
G1 X58.899 Y80.457 E277.89485
G1 X58.865 Y80.971 E277.92031
G1 X100.375 Y122.481 E280.82197
G1 X100.126 Y122.779 E280.84119
G1 X58.890 Y81.543 E283.72369
G1 X58.929 Y82.130 E283.75278
G1 X99.877 Y123.078 E286.61511
G1 X99.628 Y123.376 E286.63433
G1 X58.969 Y82.717 E289.47647
G1 X59.008 Y83.305 E289.50556
G1 X99.379 Y123.675 E292.32753
G1 X99.129 Y123.973 E292.34675
