; generated by Slic3r 1.2.9 on 2021-02-09 at 19:56:45

; external perimeters extrusion width = 0.40mm
; perimeters extrusion width = 0.62mm
; infill extrusion width = 0.33mm
; solid infill extrusion width = 0.62mm
; top infill extrusion width = 0.20mm
; support material extrusion width = 0.40mm

M106 S256; Turn on fan to 100% power
M104 S140; turn on extruder temperature at S value
M140 S60; turn on bed temperature at S value
G28; home all axes
M84; disable motors
G1 Z15 F15000; have Z move to 20mm at 15000 mm/min
M190 S55; turn on bed temperature at S value and wait
M140 S55; turn on bed temperature at S value (printing temperature)
M109 S200; turn on extruder temperature at S value and wait (printing temperature)
M104 S200; turn on extruder temperature at S value
G1 Z0 F12000; move Z back to home
G21 ; set units to millimeters
G90 ; use absolute coordinates
M82 ; use absolute distances for extrusion
G92 E0
M106 S255
;Layer change
G1 E-6.00000 F1800.00000
G92 E0
G1 Z0.300 F9000.000
G1 X86.536 Y85.972 F9000.000
G1 E6.00000 F1800.00000
G1 X86.906 Y85.639 E6.02454 F600.000
G1 X88.598 Y84.410 E6.12743
G1 X89.030 Y84.160 E6.15198
G1 X90.939 Y83.310 E6.25486
G1 X91.414 Y83.156 E6.27941
G1 X93.459 Y82.721 E6.38230
G1 X93.955 Y82.669 E6.40684
G1 X116.045 Y82.669 E7.49403
G1 X116.541 Y82.721 E7.51857
G1 X118.586 Y83.156 E7.62146 F600.000
G1 X119.061 Y83.310 E7.64601
G1 X120.970 Y84.160 E7.74889
G1 X121.402 Y84.410 E7.77344
G1 X123.094 Y85.639 E7.87633
G1 X123.464 Y85.972 E7.90087
G1 X124.863 Y87.526 E8.00375
G1 X125.156 Y87.929 E8.02830
G1 X126.202 Y89.740 E8.13119
G1 X126.404 Y90.195 E8.15574
G1 X127.050 Y92.184 E8.25863
G1 X127.154 Y92.672 E8.28317
G1 X127.386 Y95.000 E8.39833
G1 X127.386 Y115.000 E9.38263
G1 X127.154 Y117.328 E9.49779
G1 X127.050 Y117.816 E9.52234
G1 X126.404 Y119.805 E9.62523
G1 X126.202 Y120.260 E9.64977
G1 X125.156 Y122.071 E9.75267
G1 X124.863 Y122.474 E9.77721
G1 X123.464 Y124.028 E9.88010
G1 X123.094 Y124.361 E9.90463
G1 X121.402 Y125.590 E10.00752
G1 X120.970 Y125.840 E10.03207
G1 X119.061 Y126.690 E10.13496
G1 X118.586 Y126.844 E10.15951
G1 X116.541 Y127.279 E10.26239
G1 X116.045 Y127.331 E10.28694
G1 X93.955 Y127.331 E11.37413
G1 X93.459 Y127.279 E11.39867
G1 X91.414 Y126.844 E11.50156
G1 X90.939 Y126.690 E11.52611
G1 X89.030 Y125.840 E11.62899
G1 X88.598 Y125.590 E11.65353
G1 X86.906 Y124.361 E11.75643
G1 X86.536 Y124.028 E11.78097
G1 X85.137 Y122.474 E11.88385
G1 X84.844 Y122.071 E11.90840
G1 X83.798 Y120.260 E12.01129
G1 X83.596 Y119.805 E12.03584
G1 X82.950 Y117.816 E12.13873
G1 X82.846 Y117.328 E12.16327
G1 X82.627 Y115.249 E12.26616
G1 X82.614 Y115.000 E12.27845
G1 X82.614 Y95.000 E13.26275
G1 X82.846 Y92.672 E13.37791
G1 X82.950 Y92.184 E13.40245
G1 X83.596 Y90.195 E13.50534
G1 X83.798 Y89.740 E13.52989
G1 X84.844 Y87.929 E13.63278
G1 X85.137 Y87.526 E13.65733
G1 X86.496 Y86.017 E13.75726
G1 E7.75726 F1800.00000
G92 E0
G1 X105.811 Y105.916 F9000.000
G1 E6.00000 F1800.00000
G1 X105.551 Y106.092 E6.01547 F600.000
G1 X105.157 Y106.215 E6.03579
G1 X104.872 Y106.215 E6.04980
G1 X104.622 Y106.162 E6.06238
G1 X104.389 Y106.058 E6.07495
G1 X104.182 Y105.908 E6.08752
G1 X104.011 Y105.718 E6.10010
G1 X103.883 Y105.497 E6.11267
G1 X103.805 Y105.254 E6.12525
G1 X103.778 Y105.000 E6.13782
G1 X103.805 Y104.746 E6.15040
G1 X103.883 Y104.503 E6.16297
G1 X104.011 Y104.282 E6.17555
G1 X104.189 Y104.084 E6.18862
G1 X104.449 Y103.908 E6.20408
G1 X104.843 Y103.784 E6.22441
G1 X105.128 Y103.784 E6.23842 F600.000
G1 X105.378 Y103.838 E6.25099
G1 X105.611 Y103.942 E6.26357
G1 X105.818 Y104.092 E6.27614
G1 X105.989 Y104.282 E6.28872
G1 X106.117 Y104.503 E6.30129
G1 X106.195 Y104.746 E6.31387
G1 X106.222 Y105.000 E6.32644
G1 X106.195 Y105.254 E6.33902
G1 X106.117 Y105.497 E6.35159
G1 X105.989 Y105.718 E6.36416
G1 X105.851 Y105.871 E6.37428
G1 X105.556 Y105.623 F9000.000
G1 X105.382 Y105.741 E6.38464 F600.000
G1 X105.098 Y105.830 E6.39927
G1 X104.913 Y105.830 E6.40839
G1 X104.742 Y105.794 E6.41697
G1 X104.583 Y105.723 E6.42556
G1 X104.442 Y105.620 E6.43414
G1 X104.325 Y105.490 E6.44273
G1 X104.238 Y105.339 E6.45131
G1 X104.184 Y105.173 E6.45990
G1 X104.166 Y105.000 E6.46848
G1 X104.184 Y104.826 E6.47707
G1 X104.238 Y104.661 E6.48566
G1 X104.325 Y104.510 E6.49424
G1 X104.444 Y104.377 E6.50301
G1 X104.618 Y104.259 E6.51337
G1 X104.902 Y104.170 E6.52800
G1 X105.087 Y104.170 E6.53711 F600.000
G1 X105.258 Y104.206 E6.54570
G1 X105.417 Y104.277 E6.55428
G1 X105.558 Y104.380 E6.56287
G1 X105.675 Y104.510 E6.57145
G1 X105.762 Y104.661 E6.58004
G1 X105.816 Y104.826 E6.58862
G1 X105.834 Y105.000 E6.59721
G1 X105.816 Y105.173 E6.60580
G1 X105.762 Y105.339 E6.61438
G1 X105.675 Y105.490 E6.62297
G1 X105.596 Y105.578 E6.62878
G1 X105.588 Y105.831 F9000.000
G1 X105.556 Y124.335 F9000.000
G1 X94.019 Y124.335 E7.19658 F600.000
G1 X92.100 Y123.927 E7.29315
G1 X90.307 Y123.129 E7.38972
G1 X88.720 Y121.975 E7.48629
G1 X87.407 Y120.517 E7.58286
G1 X86.425 Y118.818 E7.67943
G1 X85.819 Y116.951 E7.77600
G1 X85.611 Y114.968 E7.87415
G1 X85.611 Y95.032 E8.85531
G1 X85.819 Y93.049 E8.95346
G1 X86.416 Y91.211 E9.04853
G1 X87.407 Y89.482 E9.14661
G1 X88.720 Y88.025 E9.24314
G1 X90.307 Y86.871 E9.33971
G1 X92.100 Y86.073 E9.43628
G1 X94.019 Y85.665 E9.53284
G1 X116.012 Y85.672 E10.61523
G1 X117.900 Y86.073 E10.71026 F600.000
G1 X119.693 Y86.871 E10.80683
G1 X121.280 Y88.025 E10.90340
G1 X122.593 Y89.483 E10.99997
G1 X123.575 Y91.182 E11.09654
G1 X124.181 Y93.049 E11.19311
G1 X124.389 Y95.032 E11.29127
G1 X124.389 Y114.968 E12.27242
G1 X124.181 Y116.951 E12.37057
G1 X123.584 Y118.789 E12.46565
G1 X122.593 Y120.518 E12.56373
G1 X121.280 Y121.975 E12.66025
G1 X119.693 Y123.129 E12.75682
G1 X117.900 Y123.927 E12.85339
G1 X115.981 Y124.335 E12.94996
G1 X105.616 Y124.335 E13.46009
G1 X105.556 Y124.720 F9000.000
G1 X93.978 Y124.720 E14.02988 F600.000
G1 X91.980 Y124.295 E14.13044
G1 X90.113 Y123.464 E14.23099
G1 X88.460 Y122.263 E14.33156
G1 X87.093 Y120.745 E14.43211
G1 X86.071 Y118.975 E14.53268
G1 X85.440 Y117.032 E14.63324
G1 X85.225 Y114.988 E14.73438
G1 X85.225 Y95.012 E15.71752
G1 X85.440 Y92.968 E15.81866
G1 X86.062 Y91.054 E15.91770
G1 X87.093 Y89.255 E16.01977
G1 X88.460 Y87.737 E16.12031
G1 X90.113 Y86.536 E16.22087
G1 X91.980 Y85.705 E16.32143
G1 X93.978 Y85.280 E16.42199
G1 X116.052 Y85.286 E17.50836
G1 X118.020 Y85.705 E17.60738 F600.000
G1 X119.887 Y86.536 E17.70794
G1 X121.540 Y87.737 E17.80850
G1 X122.907 Y89.255 E17.90906
G1 X123.929 Y91.025 E18.00962
G1 X124.560 Y92.968 E18.11018
G1 X124.775 Y95.012 E18.21132
G1 X124.775 Y114.988 E19.19446
G1 X124.560 Y117.032 E19.29561
G1 X123.938 Y118.946 E19.39464
G1 X122.907 Y120.745 E19.49671
G1 X121.540 Y122.263 E19.59725
G1 X119.887 Y123.464 E19.69781
G1 X118.020 Y124.295 E19.79837
G1 X116.022 Y124.720 E19.89893
G1 X105.616 Y124.720 E20.41105
G1 X105.356 Y124.374 F9000.000
G1 X91.854 Y123.462 F9000.000
G1 X86.536 Y118.145 E20.78414 F600.000
G1 X86.271 Y117.330 E20.82662
G1 X92.682 Y123.741 E21.27639
G1 X93.380 Y123.890 E21.31179
G1 X86.075 Y116.584 E21.82433
G1 X86.010 Y115.970 E21.85497
G1 X94.078 Y124.038 E22.42100
G1 X94.641 Y124.051 E22.44892
G1 X85.946 Y115.356 E23.05896
G1 X85.894 Y114.755 E23.08889
G1 X95.191 Y124.051 E23.74110
G1 X95.740 Y124.051 E23.76837
G1 X85.894 Y114.205 E24.45914
G1 X85.894 Y113.655 E24.48641
G1 X96.290 Y124.051 E25.21575
G1 X96.840 Y124.051 E25.24302
G1 X85.894 Y113.105 E26.01093
G1 X85.894 Y112.556 E26.03820
G1 X97.390 Y124.051 E26.84468
G1 X97.939 Y124.051 E26.87195
G1 X85.894 Y112.006 E27.71699
G1 X85.894 Y111.456 E27.74426
G1 X98.489 Y124.051 E28.62787
G1 X99.039 Y124.051 E28.65514
G1 X85.894 Y110.907 E29.57732
G1 X85.894 Y110.357 E29.60459
G1 X99.588 Y124.051 E30.56533
G1 X100.138 Y124.051 E30.59260
G1 X85.894 Y109.807 E31.59191
G1 X85.894 Y109.257 E31.61919
G1 X100.688 Y124.051 E32.65706
G1 X101.238 Y124.051 E32.68433
G1 X85.894 Y108.708 E33.76078
G1 X85.894 Y108.158 E33.78805
G1 X101.787 Y124.051 E34.90306
G1 X102.337 Y124.051 E34.93033
G1 X85.894 Y107.608 E36.08391
G1 X85.894 Y107.058 E36.11118
G1 X102.887 Y124.051 E37.30332
G1 X103.436 Y124.051 E37.33059
G1 X85.894 Y106.509 E38.56130
G1 X85.894 Y105.959 E38.58857
G1 X103.986 Y124.051 E39.85785
G1 X104.536 Y124.051 E39.88512
G1 X85.894 Y105.409 E41.19297
G1 X85.894 Y104.860 E41.22024
G1 X105.086 Y124.051 E42.56665
G1 X105.635 Y124.051 E42.59392
G1 X85.894 Y104.310 E43.97890
G1 X85.894 Y103.760 E44.00617
G1 X106.185 Y124.051 E45.42972
G1 X106.735 Y124.051 E45.45699
G1 X85.894 Y103.210 E46.91910
G1 X85.894 Y102.661 E46.94637
G1 X107.284 Y124.051 E48.44705
G1 X107.834 Y124.051 E48.47432
G1 X85.894 Y102.111 E50.01357
G1 X85.894 Y101.561 E50.04084
G1 X108.384 Y124.051 E51.61865
G1 X108.934 Y124.051 E51.64592
G1 X85.894 Y101.012 E53.26230
G1 X85.894 Y100.462 E53.28957
G1 X109.483 Y124.051 E54.94452
G1 X110.033 Y124.051 E54.97179
G1 X85.894 Y99.912 E56.66531
G1 X85.894 Y99.362 E56.69258
G1 X110.583 Y124.051 E58.42466
G1 X111.132 Y124.051 E58.45193
G1 X85.894 Y98.813 E60.22258
G1 X85.894 Y98.263 E60.24985
G1 X111.682 Y124.051 E62.05906
G1 X112.232 Y124.051 E62.08633
G1 X85.894 Y97.713 E63.93412
G1 X85.894 Y97.164 E63.96139
G1 X112.782 Y124.051 E65.84773
G1 X113.331 Y124.051 E65.87501
G1 X85.894 Y96.614 E67.79992
G1 X85.894 Y96.064 E67.82719
G1 X113.881 Y124.051 E69.79067
G1 X114.431 Y124.051 E69.81795
G1 X85.894 Y95.514 E71.81999
G1 X85.895 Y94.965 E71.84724
G1 X114.980 Y124.051 E73.88783
G1 X115.530 Y124.051 E73.91510
G1 X85.947 Y94.468 E75.99058
G1 X85.999 Y93.970 E76.01540
G1 X116.070 Y124.041 E78.12510
G1 X116.524 Y123.945 E78.14809
G1 X86.052 Y93.473 E80.28594
G1 X86.115 Y92.987 E80.31026
G1 X116.977 Y123.848 E82.47546
G1 X117.430 Y123.752 E82.49845
G1 X86.250 Y92.572 E84.68599
G1 X86.385 Y92.157 E84.70763
G1 X117.881 Y123.653 E86.91736
G1 X118.262 Y123.484 E86.93801
G1 X86.520 Y91.742 E89.16497
G1 X86.654 Y91.327 E89.18661
G1 X118.642 Y123.315 E91.43079
G1 X119.022 Y123.145 E91.45144
G1 X86.847 Y90.970 E93.70879
G1 X87.047 Y90.621 E93.72877
G1 X119.403 Y122.976 E95.99876
G1 X119.752 Y122.775 E96.01873
G1 X87.248 Y90.271 E98.29915
G1 X89.611 Y87.687 F9000.000
G1 X105.472 Y103.548 E99.41192 F600.000
G1 X104.875 Y103.501 E99.44165
G1 X89.293 Y87.919 E100.53485
G1 X88.976 Y88.152 E100.55435
G1 X104.455 Y103.630 E101.64029
G1 X104.109 Y103.834 E101.66021
G1 X88.702 Y88.427 E102.74115
G1 X88.437 Y88.712 E102.76045
G1 X103.832 Y104.107 E103.84052
G1 X103.625 Y104.449 E103.86038
G1 X88.177 Y89.001 E104.94418
G1 X87.916 Y89.291 E104.96349
G1 X103.512 Y104.887 E106.05769
G1 X103.545 Y105.469 E106.08663
G1 X87.656 Y89.580 E107.20140
G1 X87.448 Y89.922 E107.22125
G1 X120.070 Y122.544 E109.50995
G1 X120.388 Y122.313 E109.52948
G1 X104.528 Y106.452 E110.64225
G1 X105.125 Y106.499 E110.67199
G1 X120.707 Y122.081 E111.76518
G1 X121.023 Y121.848 E111.78469
G1 X105.545 Y106.370 E112.87062
G1 X105.891 Y106.166 E112.89054
G1 X121.298 Y121.573 E113.97149
G1 X121.563 Y121.288 E113.99079
G1 X106.168 Y105.893 E115.07085
G1 X106.375 Y105.551 E115.09071
G1 X121.823 Y120.999 E116.17452
G1 X122.084 Y120.709 E116.19383
G1 X106.487 Y105.113 E117.28802
G1 X106.455 Y104.531 E117.31696
G1 X122.344 Y120.420 E118.43173
G1 X122.552 Y120.078 E118.45157
G1 X89.930 Y87.456 E120.74028
G1 X90.248 Y87.225 E120.75980
G1 X122.752 Y119.729 E123.04023
G1 X122.953 Y119.380 E123.06021
G1 X90.597 Y87.024 E125.33019
G1 X90.978 Y86.855 E125.35085
G1 X123.153 Y119.030 E127.60820
G1 X123.346 Y118.673 E127.62833
G1 X91.358 Y86.685 E129.87251
G1 X91.738 Y86.516 E129.89317
G1 X123.480 Y118.258 E132.12012
G1 X123.615 Y117.843 E132.14176
G1 X92.119 Y86.347 E134.35149
G1 X92.570 Y86.248 E134.37439
G1 X123.750 Y117.428 E136.56194
G1 X123.885 Y117.013 E136.58358
G1 X93.023 Y86.152 E138.74878
G1 X93.476 Y86.055 E138.77177
G1 X123.948 Y116.527 E140.90962
G1 X124.001 Y116.030 E140.93443
G1 X93.930 Y85.959 E143.04414
G1 X94.470 Y85.949 E143.07094
G1 X124.053 Y115.532 E145.14642
G1 X124.105 Y115.035 E145.17123
G1 X95.020 Y85.950 E147.21180
G1 X95.570 Y85.950 E147.23908
G1 X124.106 Y114.486 E149.24110
G1 X124.106 Y113.936 E149.26837
G1 X96.120 Y85.950 E151.23181
G1 X96.669 Y85.950 E151.25909
G1 X124.106 Y113.386 E153.18395
G1 X124.106 Y112.836 E153.21122
G1 X97.219 Y85.950 E155.09751
G1 X97.769 Y85.950 E155.12479
G1 X124.106 Y112.287 E156.97250
G1 X124.106 Y111.737 E156.99977
G1 X98.319 Y85.951 E158.80890
G1 X98.869 Y85.951 E158.83618
G1 X124.106 Y111.187 E160.60673
G1 X124.106 Y110.638 E160.63400
G1 X99.419 Y85.951 E162.36597
G1 X99.969 Y85.951 E162.39325
G1 X124.106 Y110.088 E164.08664
G1 X124.106 Y109.538 E164.11391
G1 X100.519 Y85.951 E165.76873
G1 X101.068 Y85.951 E165.79601
G1 X124.106 Y108.988 E167.41225
G1 X124.106 Y108.439 E167.43952
G1 X101.618 Y85.951 E169.01718
G1 X102.168 Y85.952 E169.04445
G1 X124.106 Y107.889 E170.58354
G1 X124.106 Y107.339 E170.61081
G1 X102.718 Y85.952 E172.11131
G1 X103.268 Y85.952 E172.13859
G1 X124.106 Y106.790 E173.60051
G1 X124.106 Y106.240 E173.62778
G1 X103.818 Y85.952 E175.05113
G1 X104.368 Y85.952 E175.07841
G1 X124.106 Y105.690 E176.46318
G1 X124.106 Y105.140 E176.49045
G1 X104.918 Y85.952 E177.83664
G1 X105.467 Y85.953 E177.86392
G1 X124.106 Y104.591 E179.17153
G1 X124.106 Y104.041 E179.19880
G1 X106.017 Y85.953 E180.46783
G1 X106.567 Y85.953 E180.49511
G1 X124.106 Y103.491 E181.72556
G1 X124.106 Y102.942 E181.75284
G1 X107.117 Y85.953 E182.94471
G1 X107.667 Y85.953 E182.97199
G1 X124.106 Y102.392 E184.12529
G1 X124.106 Y101.842 E184.15256
G1 X108.217 Y85.953 E185.26728
G1 X108.767 Y85.954 E185.29456
G1 X124.106 Y101.292 E186.37070
G1 X124.106 Y100.743 E186.39797
G1 X109.317 Y85.954 E187.43553
G1 X109.867 Y85.954 E187.46281
G1 X124.106 Y100.193 E188.46180
G1 X124.106 Y99.643 E188.48907
G1 X110.416 Y85.954 E189.44948
G1 X110.966 Y85.954 E189.47676
G1 X124.106 Y99.094 E190.39858
G1 X124.106 Y98.544 E190.42585
G1 X111.516 Y85.954 E191.30910
G1 X112.066 Y85.955 E191.33638
G1 X124.106 Y97.994 E192.18106
G1 X124.106 Y97.444 E192.20833
G1 X112.616 Y85.955 E193.01442
G1 X113.166 Y85.955 E193.04170
G1 X124.106 Y96.895 E193.80921
G1 X124.106 Y96.345 E193.83649
G1 X113.716 Y85.955 E194.56542
G1 X114.266 Y85.955 E194.59270
G1 X124.106 Y95.795 E195.28306
G1 X124.106 Y95.246 E195.31033
G1 X114.815 Y85.955 E195.96211
G1 X115.365 Y85.956 E195.98939
G1 X124.054 Y94.645 E196.59899
G1 X123.990 Y94.030 E196.62963
G1 X115.922 Y85.962 E197.19568
G1 X116.620 Y86.110 E197.23108
G1 X123.925 Y93.416 E197.74362
G1 X123.729 Y92.670 E197.78190
G1 X117.318 Y86.259 E198.23168
G1 X118.146 Y86.538 F9000.000
G1 X123.464 Y91.856 E198.60479 F600.000
G1 X122.977 Y90.819 F9000.000
G1 X119.137 Y86.979 E198.87420 F600.000
G1 X120.849 Y88.141 F9000.000
G1 X121.373 Y88.665 E198.91100 F600.000
G1 X87.023 Y119.181 F9000.000
G1 X90.863 Y123.021 E199.18040 F600.000
G1 X89.151 Y121.859 F9000.000
G1 X88.627 Y121.336 E199.21713 F600.000
M104 S205 ; set temperature
M140 S55 ; wait for bed temperature to be reached
;Layer change
G1 E193.21713 F1800.00000
G92 E0
G1 Z0.520 F9000.000
G1 X105.153 Y106.453 F9000.000
G1 E6.00000 F1800.00000
G1 X104.847 Y106.453 E6.01633 F900.000
G1 X104.548 Y106.390 E6.03267
G1 X104.269 Y106.266 E6.04900
G1 X104.022 Y106.086 E6.06533
G1 X103.818 Y105.859 E6.08167
G1 X103.665 Y105.594 E6.09800
G1 X103.571 Y105.304 E6.11433
G1 X103.539 Y105.000 E6.13066
G1 X103.571 Y104.696 E6.14700
G1 X103.665 Y104.406 E6.16333
G1 X103.818 Y104.141 E6.17966
G1 X104.035 Y103.899 E6.19704
G1 X104.345 Y103.700 E6.21674
G1 X104.548 Y103.610 E6.22862
G1 X104.847 Y103.547 E6.24495
G1 X105.153 Y103.547 E6.26129 F900.000
G1 X105.452 Y103.610 E6.27762
G1 X105.731 Y103.734 E6.29395
G1 X105.978 Y103.914 E6.31028
G1 X106.182 Y104.141 E6.32662
G1 X106.335 Y104.406 E6.34295
G1 X106.429 Y104.696 E6.35928
G1 X106.461 Y105.000 E6.37562
G1 X106.429 Y105.304 E6.39195
G1 X106.335 Y105.594 E6.40828
G1 X106.182 Y105.859 E6.42462
G1 X105.978 Y106.086 E6.44095
G1 X105.731 Y106.266 E6.45728
G1 X105.452 Y106.390 E6.47361
G1 X105.211 Y106.441 E6.48674
G1 X105.104 Y105.991 F9000.000
G1 X104.896 Y105.991 E6.49362 F900.000
G1 X104.692 Y105.948 E6.50050
