; generated by Slic3r 1.2.9 on 2017-07-16 at 16:12:47

; external perimeters extrusion width = 0.40mm
; perimeters extrusion width = 0.62mm
; infill extrusion width = 0.33mm
; solid infill extrusion width = 0.62mm
; top infill extrusion width = 0.20mm

M106 S256; Turn on fan to 100% power
M104 S140; turn on extruder temperature at S value
M140 S60; turn on bed temperature at S value
G28; home all axes
M84; disable motors
G1 Z15 F15000; have Z move to 20mm at 15000 mm/min
M190 S55; turn on bed temperature at S value and wait
M140 S55; turn on bed temperature at S value (printing temperature)
M109 S200; turn on extruder temperature at S value and wait (printing temperature)
M104 S200; turn on extruder temperature at S value
G1 Z0 F12000; move Z back to home
G21 ; set units to millimeters
G90 ; use absolute coordinates
M82 ; use absolute distances for extrusion
G92 E0
M106 S255
;Layer change
G1 E-6.00000 F1800.00000
G92 E0
G1 Z0.300 F9000.000
G1 X20.599 Y70.169 F9000.000
G1 E6.00000 F1800.00000
G1 X102.548 Y46.112 E10.25233 F600.000
G1 X103.193 Y46.015 E10.28483
G1 X121.193 Y45.815 E11.18108
G1 X122.646 Y46.289 E11.25717
G1 X139.146 Y58.597 E12.28209 F600.000
G1 X142.247 Y61.054 E12.47904
G1 X145.268 Y63.571 E12.67481
G1 X151.273 Y68.704 E13.06814
G1 X154.318 Y71.336 E13.26852
G1 X157.415 Y74.134 E13.47638
G1 X160.415 Y77.165 E13.68870
G1 X163.577 Y81.068 E13.93877
G1 X163.762 Y81.331 E13.95478
G1 X166.762 Y86.296 E14.24359
G1 X166.912 Y86.588 E14.25993
G1 X169.912 Y93.568 E14.63822
G1 X170.086 Y94.206 E14.67115
G1 X170.586 Y98.097 E14.86646
G1 X170.586 Y98.705 E14.89674
G1 X170.086 Y102.596 E15.09205
G1 X169.939 Y103.168 E15.12144
G1 X168.439 Y106.968 E15.32485
G1 X166.878 Y110.290 E15.50762
G1 X165.302 Y113.118 E15.66880
G1 X163.714 Y115.546 E15.81327
G1 X162.120 Y117.656 E15.94490
G1 X160.447 Y119.604 E16.07274
G1 X158.947 Y121.179 E16.18103
G1 X157.381 Y122.701 E16.28977
G1 X155.833 Y124.123 E16.39445
G1 X154.302 Y125.480 E16.49632
G1 X151.273 Y128.097 E16.69563
G1 X145.265 Y133.233 E17.08914
G1 X142.239 Y135.755 E17.28527
G1 X140.716 Y136.981 E17.38261
G1 X139.152 Y138.200 E17.48135
G1 X122.649 Y150.549 E18.50760
G1 X121.188 Y151.025 E18.58407
G1 X103.188 Y150.786 E19.48035
G1 X102.548 Y150.690 E19.51261
G1 X11.548 Y123.968 E24.23470
G1 X10.402 Y123.224 E24.30276
G1 X9.834 Y121.679 E24.38467
G1 X9.834 Y75.115 E26.70305
G1 X10.226 Y73.806 E26.77111
G1 X11.548 Y72.826 E26.85303
G1 X20.542 Y70.186 E27.31970
G1 E21.31970 F1800.00000
G92 E0
G1 X63.121 Y106.633 F9000.000
G1 E6.00000 F1800.00000
G1 X62.898 Y106.058 E6.03073 F600.000
G1 X62.306 Y104.032 E6.13582
G1 X61.933 Y102.262 E6.22585
G1 X61.690 Y100.336 E6.32254
G1 X61.609 Y98.401 E6.41896
G1 X61.690 Y96.466 E6.51537
G1 X61.933 Y94.539 E6.61206
G1 X62.336 Y92.629 E6.70928
G1 X62.898 Y90.742 E6.80729
G1 X63.617 Y88.888 E6.90632
G1 X64.488 Y87.072 E7.00659
G1 X65.509 Y85.303 E7.10829
G1 X66.675 Y83.587 E7.21156
G1 X67.980 Y81.932 E7.31654
G1 X69.420 Y80.342 E7.42331
G1 X70.989 Y78.826 E7.53195
G1 X72.680 Y77.387 E7.64248
G1 X74.486 Y76.032 E7.75490
G1 X76.401 Y74.766 E7.86918
G1 X78.416 Y73.594 E7.98527
G1 X80.524 Y72.520 E8.10307
G1 X82.717 Y71.547 E8.22250
G1 X84.985 Y70.680 E8.34341
G1 X87.321 Y69.922 E8.46567
G1 X89.536 Y69.324 E8.57992
G1 X92.156 Y68.744 E8.71350
G1 X94.638 Y68.328 E8.83882
G1 X97.149 Y68.029 E8.96471
G1 X99.680 Y67.850 E9.09102
G1 X102.031 Y67.795 E9.20811 F600.000
G1 X104.759 Y67.850 E9.34400
G1 X107.291 Y68.029 E9.47036
G1 X109.802 Y68.328 E9.59625
G1 X112.283 Y68.744 E9.72152
G1 X114.725 Y69.276 E9.84597
G1 X117.119 Y69.922 E9.96941
G1 X119.455 Y70.680 E10.09167
G1 X121.723 Y71.547 E10.21259
G1 X123.916 Y72.520 E10.33201
G1 X126.024 Y73.594 E10.44982
G1 X128.039 Y74.766 E10.56591
G1 X129.954 Y76.032 E10.68019
G1 X131.760 Y77.387 E10.79261
G1 X133.325 Y78.719 E10.89492
G1 X135.019 Y80.341 E11.01169
G1 X136.460 Y81.932 E11.11854
G1 X137.765 Y83.587 E11.22351
G1 X138.931 Y85.303 E11.32678
G1 X139.952 Y87.072 E11.42848
G1 X140.823 Y88.888 E11.52875
G1 X141.542 Y90.742 E11.62778
G1 X142.104 Y92.629 E11.72579
G1 X142.507 Y94.539 E11.82302
G1 X142.750 Y96.466 E11.91970
G1 X142.831 Y98.401 E12.01612
G1 X142.750 Y100.336 E12.11253
G1 X142.507 Y102.262 E12.20922
G1 X142.104 Y104.173 E12.30644
G1 X141.542 Y106.059 E12.40445
G1 X140.823 Y107.914 E12.50348
G1 X139.952 Y109.730 E12.60375
G1 X138.931 Y111.499 E12.70545
G1 X137.765 Y113.215 E12.80872
G1 X136.460 Y114.870 E12.91370
G1 X135.020 Y116.459 E13.02047
G1 X133.451 Y117.976 E13.12911
G1 X131.760 Y119.414 E13.23964
G1 X129.954 Y120.769 E13.35206
G1 X128.039 Y122.035 E13.46634
G1 X126.024 Y123.208 E13.58243
G1 X123.916 Y124.282 E13.70024
G1 X121.723 Y125.255 E13.81966
G1 X119.455 Y126.122 E13.94058
G1 X117.119 Y126.880 E14.06284
G1 X114.725 Y127.526 E14.18628
G1 X112.465 Y128.018 E14.30145
G1 X109.803 Y128.474 E14.43593
G1 X107.291 Y128.772 E14.56187
G1 X104.760 Y128.952 E14.68818
G1 X102.220 Y129.012 E14.81470
G1 X99.680 Y128.952 E14.94122
G1 X97.149 Y128.772 E15.06753
G1 X94.638 Y128.474 E15.19343
G1 X92.157 Y128.058 E15.31869
G1 X89.715 Y127.526 E15.44314
G1 X87.321 Y126.880 E15.56658
G1 X84.985 Y126.122 E15.68884
G1 X82.717 Y125.255 E15.80975
G1 X80.524 Y124.282 E15.92918
G1 X78.416 Y123.208 E16.04699
G1 X76.401 Y122.035 E16.16308
G1 X74.486 Y120.769 E16.27736
G1 X72.680 Y119.414 E16.38978
G1 X70.989 Y117.976 E16.50031
G1 X69.420 Y116.459 E16.60894
G1 X67.980 Y114.870 E16.71572
G1 X66.675 Y113.215 E16.82070
G1 X65.509 Y111.499 E16.92397
G1 X64.488 Y109.730 E17.02567
G1 X63.617 Y107.914 E17.12594
G1 X63.142 Y106.689 E17.19134
G1 X63.480 Y106.494 F9000.000
G1 X63.263 Y105.934 E17.22125 F600.000
G1 X62.681 Y103.938 E17.32479
G1 X62.313 Y102.198 E17.41330
G1 X62.074 Y100.303 E17.50839
G1 X61.995 Y98.401 E17.60319
G1 X62.074 Y96.498 E17.69800
G1 X62.313 Y94.603 E17.79309
G1 X62.710 Y92.724 E17.88874
G1 X63.264 Y90.867 E17.98520
G1 X63.971 Y89.041 E18.08271
G1 X64.830 Y87.252 E18.18151
G1 X65.836 Y85.508 E18.28177
G1 X66.986 Y83.815 E18.38365
G1 X68.275 Y82.181 E18.48729
G1 X69.698 Y80.611 E18.59278
G1 X71.248 Y79.111 E18.70017
G1 X72.921 Y77.689 E18.80950
G1 X74.708 Y76.348 E18.92076
G1 X76.604 Y75.094 E19.03392
G1 X78.601 Y73.933 E19.14892
G1 X80.690 Y72.868 E19.26568
G1 X82.864 Y71.904 E19.38409
G1 X85.114 Y71.044 E19.50400
G1 X87.431 Y70.292 E19.62529
G1 X89.628 Y69.698 E19.73861
G1 X92.229 Y69.122 E19.87126
G1 X94.693 Y68.709 E19.99562
G1 X97.185 Y68.413 E20.12060
G1 X99.698 Y68.235 E20.24600
G1 X102.031 Y68.180 E20.36221 F600.000
G1 X104.742 Y68.235 E20.49720
G1 X107.255 Y68.413 E20.62262
G1 X109.747 Y68.709 E20.74759
G1 X112.210 Y69.122 E20.87194
G1 X114.634 Y69.650 E20.99545
G1 X117.009 Y70.292 E21.11793
G1 X119.326 Y71.044 E21.23922
G1 X121.576 Y71.904 E21.35914
G1 X123.750 Y72.868 E21.47755
G1 X125.839 Y73.933 E21.59430
G1 X127.836 Y75.094 E21.70931
G1 X129.732 Y76.348 E21.82247
G1 X131.519 Y77.689 E21.93373
G1 X133.067 Y79.005 E22.03488
G1 X134.742 Y80.610 E22.15041
G1 X136.165 Y82.181 E22.25592
G1 X137.454 Y83.815 E22.35956
G1 X138.604 Y85.508 E22.46144
G1 X139.610 Y87.252 E22.56170
G1 X140.469 Y89.041 E22.66050
G1 X141.176 Y90.867 E22.75801
G1 X141.730 Y92.724 E22.85447
G1 X142.127 Y94.603 E22.95012
G1 X142.366 Y96.498 E23.04521
G1 X142.445 Y98.401 E23.14002
G1 X142.366 Y100.303 E23.23482
G1 X142.127 Y102.198 E23.32991
G1 X141.730 Y104.078 E23.42556
G1 X141.176 Y105.934 E23.52202
G1 X140.469 Y107.761 E23.61953
G1 X139.610 Y109.550 E23.71833
G1 X138.604 Y111.294 E23.81859
G1 X137.454 Y112.987 E23.92047
G1 X136.165 Y114.621 E24.02411
G1 X134.742 Y116.191 E24.12960
G1 X133.192 Y117.690 E24.23699
G1 X131.519 Y119.113 E24.34632
G1 X129.732 Y120.454 E24.45758
G1 X127.836 Y121.707 E24.57074
G1 X125.839 Y122.869 E24.68574
G1 X123.750 Y123.934 E24.80250
G1 X121.576 Y124.898 E24.92091
G1 X119.326 Y125.758 E25.04082
G1 X117.009 Y126.510 E25.16211
G1 X114.634 Y127.151 E25.28460
G1 X112.392 Y127.640 E25.39887
G1 X109.748 Y128.092 E25.53242
G1 X107.255 Y128.388 E25.65742
G1 X104.742 Y128.566 E25.78282
G1 X102.220 Y128.626 E25.90843
G1 X99.698 Y128.566 E26.03405
G1 X97.185 Y128.388 E26.15945
G1 X94.693 Y128.092 E26.28443
G1 X92.230 Y127.679 E26.40877
G1 X89.806 Y127.151 E26.53228
G1 X87.431 Y126.510 E26.65477
G1 X85.114 Y125.758 E26.77605
G1 X82.864 Y124.898 E26.89597
G1 X80.690 Y123.934 E27.01438
G1 X78.601 Y122.869 E27.13113
G1 X76.604 Y121.707 E27.24614
G1 X74.708 Y120.454 E27.35930
G1 X72.921 Y119.113 E27.47056
G1 X71.248 Y117.690 E27.57989
G1 X69.698 Y116.191 E27.68728
G1 X68.275 Y114.621 E27.79276
G1 X66.986 Y112.987 E27.89640
G1 X65.836 Y111.294 E27.99829
G1 X64.830 Y109.550 E28.09855
G1 X63.971 Y107.761 E28.19734
G1 X63.502 Y106.550 E28.26200
G1 X63.085 Y106.433 F9000.000
G1 X58.831 Y100.011 F9000.000
G1 X55.609 Y100.011 E28.42238 F600.000
G1 X55.609 Y96.790 E28.58276
G1 X58.831 Y96.790 E28.74314
G1 X58.831 Y99.951 E28.90054
G1 X58.445 Y99.626 F9000.000
G1 X55.995 Y99.626 E29.02252 F600.000
G1 X55.995 Y97.176 E29.14450
G1 X58.445 Y97.176 E29.26649
G1 X58.445 Y99.566 E29.38548
G1 X58.445 Y100.026 F9000.000
G1 X46.831 Y100.011 F9000.000
G1 X43.609 Y100.011 E29.54587 F600.000
G1 X43.609 Y96.790 E29.70625
G1 X46.831 Y96.790 E29.86663
G1 X46.831 Y99.951 E30.02403
G1 X46.445 Y99.626 F9000.000
G1 X43.995 Y99.626 E30.14601 F600.000
G1 X43.995 Y97.176 E30.26799
G1 X46.445 Y97.176 E30.38998
G1 X46.445 Y99.566 E30.50897
G1 X46.445 Y100.026 F9000.000
G1 E24.50897 F1800.00000
G92 E0
G1 X148.609 Y100.011 F9000.000
G1 E6.00000 F1800.00000
G1 X148.609 Y96.790 E6.16038 F600.000
G1 X151.831 Y96.790 E6.32076
G1 X151.831 Y100.011 E6.48115
G1 X148.669 Y100.011 E6.63854
G1 X148.995 Y99.626 F9000.000
G1 X148.995 Y97.176 E6.76053 F600.000
G1 X151.445 Y97.176 E6.88251
G1 X151.445 Y99.626 E7.00449
G1 X149.055 Y99.626 E7.12349
G1 X148.595 Y99.626 F9000.000
G1 X155.609 Y100.011 F9000.000
G1 X155.609 Y96.790 E7.28387 F600.000
G1 X158.831 Y96.790 E7.44425
G1 X158.831 Y100.011 E7.60463
G1 X155.669 Y100.011 E7.76203
G1 X155.995 Y99.626 F9000.000
G1 X155.995 Y97.176 E7.88401 F600.000
G1 X158.445 Y97.176 E8.00600
G1 X158.445 Y99.626 E8.12798
G1 X156.055 Y99.626 E8.24697
G1 X155.595 Y99.626 F9000.000
G1 X103.831 Y147.371 F9000.000
G1 X98.486 Y144.688 E8.54475 F600.000
G1 X93.469 Y142.359 E8.82010
G1 X88.454 Y140.203 E9.09192
G1 X83.439 Y138.201 E9.36074
G1 X78.426 Y136.340 E9.62700
G1 X73.414 Y134.606 E9.89108
G1 X68.402 Y132.989 E10.15327
G1 X63.391 Y131.480 E10.41384
G1 X58.380 Y130.071 E10.67298
G1 X53.370 Y128.756 E10.93088
G1 X48.360 Y127.529 E11.18767
G1 X43.351 Y126.388 E11.44347
G1 X38.342 Y125.329 E11.69839
G1 X33.333 Y124.350 E11.95251
G1 X28.324 Y123.447 E12.20592
G1 X23.315 Y122.622 E12.45867
G1 X18.305 Y121.871 E12.71087
G1 X12.831 Y121.144 E12.98585
G1 X12.831 Y115.111 E13.28622
G1 X42.831 Y115.111 E14.77989
G1 X42.831 Y81.690 E16.44390
G1 X12.831 Y81.690 E17.93757
G1 X12.831 Y75.660 E18.23779
G1 X13.298 Y75.607 E18.26118
G1 X23.315 Y74.180 E18.76498
G1 X33.333 Y72.452 E19.27112
G1 X43.351 Y70.413 E19.78015
G1 X53.370 Y68.046 E20.29273
G1 X63.391 Y65.322 E20.80976
G1 X73.414 Y62.196 E21.33250
G1 X83.440 Y58.600 E21.86282
G1 X93.470 Y54.442 E22.40341
G1 X103.831 Y49.437 E22.97629
G1 X103.831 Y49.011 E22.99749
G1 X121.155 Y49.011 E23.86004
G1 X122.303 Y50.198 E23.94225
G1 X125.350 Y52.753 E24.14023
G1 X128.381 Y54.830 E24.32319
G1 X131.382 Y56.778 E24.50132
G1 X134.368 Y58.803 E24.68092
G1 X137.349 Y60.995 E24.86519
G1 X140.335 Y63.361 E25.05483
G1 X143.326 Y65.853 E25.24868
G1 X149.322 Y70.979 E25.64144
G1 X152.316 Y73.565 E25.83843
G1 X155.298 Y76.255 E26.03837
G1 X158.264 Y79.251 E26.24827
G1 X161.219 Y82.916 E26.48267
G1 X164.176 Y87.809 E26.76733
G1 X167.125 Y94.673 E27.13927
G1 X167.604 Y98.401 E27.32642
G1 X167.124 Y102.138 E27.51403
G1 X165.659 Y105.849 E27.71266
G1 X164.177 Y108.992 E27.88570
G1 X162.698 Y111.636 E28.03650
G1 X161.221 Y113.884 E28.17045
G1 X159.745 Y115.830 E28.29204
G1 X158.267 Y117.548 E28.40489
G1 X156.786 Y119.103 E28.51180
G1 X155.301 Y120.545 E28.61485
G1 X153.812 Y121.911 E28.71546
G1 X150.820 Y124.535 E28.91360
G1 X143.326 Y130.949 E29.40470
G1 X140.333 Y133.443 E29.59868
G1 X138.841 Y134.644 E29.69407
G1 X137.349 Y135.807 E29.78825
G1 X135.858 Y136.926 E29.88105
G1 X134.368 Y137.999 E29.97247
G1 X132.877 Y139.028 E30.06268
G1 X131.385 Y140.022 E30.15197
G1 X128.385 Y141.969 E30.33001
G1 X126.875 Y142.972 E30.42028
G1 X125.356 Y144.046 E30.51290
G1 X123.828 Y145.239 E30.60942
G1 X122.294 Y146.614 E30.71198
G1 X121.182 Y147.790 E30.79257
G1 X103.831 Y147.790 E31.65648
G1 X103.831 Y147.431 E31.67436
G1 X103.445 Y147.609 F9000.000
G1 X98.318 Y145.035 E31.96000 F600.000
G1 X93.312 Y142.712 E32.23478
G1 X88.306 Y140.559 E32.50607
G1 X83.301 Y138.561 E32.77440
G1 X78.296 Y136.703 E33.04022
G1 X73.291 Y134.972 E33.30388
G1 X68.287 Y133.357 E33.56568
G1 X63.283 Y131.850 E33.82589
G1 X58.279 Y130.443 E34.08469
G1 X53.275 Y129.129 E34.34226
G1 X48.272 Y127.905 E34.59873
G1 X43.268 Y126.765 E34.85423
G1 X38.265 Y125.707 E35.10886
G1 X33.262 Y124.729 E35.36269
G1 X28.258 Y123.828 E35.61580
G1 X23.255 Y123.003 E35.86827
G1 X18.251 Y122.253 E36.12017
G1 X12.445 Y121.482 E36.41181
G1 X12.445 Y114.726 E36.74820
G1 X42.445 Y114.726 E38.24187
G1 X42.445 Y82.076 E39.86748
G1 X12.445 Y82.076 E41.36115
G1 X12.445 Y75.316 E41.69771
G1 X13.249 Y75.225 E41.73798
G1 X23.255 Y73.799 E42.24122
G1 X33.262 Y72.073 E42.74679
G1 X43.268 Y70.037 E43.25523
G1 X53.275 Y67.672 E43.76719
G1 X63.283 Y64.952 E44.28355
G1 X73.292 Y61.830 E44.80553
G1 X83.301 Y58.241 E45.33498
G1 X93.312 Y54.090 E45.87455
G1 X103.445 Y49.195 E46.43484
G1 X103.445 Y48.626 E46.46319
G1 X121.318 Y48.626 E47.35308
G1 X122.566 Y49.915 E47.44243
G1 X125.584 Y52.445 E47.63848
G1 X128.595 Y54.510 E47.82026
G1 X131.596 Y56.456 E47.99834
G1 X134.590 Y58.488 E48.17850
G1 X137.583 Y60.689 E48.36348
G1 X140.578 Y63.061 E48.55371
G1 X143.575 Y65.558 E48.74792
G1 X149.573 Y70.686 E49.14084
G1 X152.571 Y73.276 E49.33809
G1 X155.565 Y75.976 E49.53878
G1 X158.552 Y78.993 E49.75021
G1 X161.535 Y82.694 E49.98688
G1 X164.519 Y87.633 E50.27416
G1 X167.501 Y94.570 E50.65011
G1 X167.993 Y98.401 E50.84241
G1 X167.500 Y102.235 E51.03489
G1 X166.013 Y106.002 E51.23653
G1 X164.520 Y109.169 E51.41086
G1 X163.028 Y111.836 E51.56301
G1 X161.536 Y114.107 E51.69829
G1 X160.045 Y116.072 E51.82112
G1 X158.553 Y117.807 E51.93505
G1 X157.060 Y119.375 E52.04283
G1 X155.566 Y120.825 E52.14652
G1 X154.070 Y122.198 E52.24762
G1 X151.073 Y124.826 E52.44608
G1 X146.574 Y128.687 E52.74124
G1 X143.575 Y131.244 E52.93745
G1 X140.577 Y133.741 E53.13170
G1 X139.080 Y134.946 E53.22740
G1 X137.583 Y136.113 E53.32191
G1 X136.087 Y137.237 E53.41507
G1 X134.590 Y138.314 E53.50688
G1 X133.094 Y139.348 E53.59744
G1 X131.596 Y140.345 E53.68700
G1 X128.596 Y142.291 E53.86505
G1 X127.093 Y143.290 E53.95494
G1 X125.586 Y144.355 E54.04682
G1 X124.076 Y145.535 E54.14224
G1 X122.563 Y146.890 E54.24335
G1 X121.348 Y148.176 E54.33141
G1 X103.445 Y148.176 E55.22279
G1 X103.445 Y147.669 E55.24803
G1 X103.567 Y147.228 F9000.000
G1 X104.310 Y147.506 F9000.000
G1 X82.171 Y125.367 E56.80798 F600.000
G1 X83.086 Y125.737 F9000.000
G1 X104.856 Y147.506 E58.34188 F600.000
G1 X105.402 Y147.506 E58.36906
G1 X83.969 Y126.074 E59.87917
G1 X84.847 Y126.406 F9000.000
G1 X105.947 Y147.506 E61.36593 F600.000
G1 X106.493 Y147.506 E61.39311
G1 X85.655 Y126.668 E62.86139
G1 X86.462 Y126.930 E62.90371
G1 X107.039 Y147.506 E64.35351
G1 X107.584 Y147.506 E64.38070
G1 X87.260 Y127.182 E65.81274
G1 X88.008 Y127.384 E65.85132
G1 X108.130 Y147.506 E67.26913
G1 X108.676 Y147.506 E67.29632
G1 X88.755 Y127.586 E68.69991
G1 X89.503 Y127.788 E68.73849
G1 X109.222 Y147.506 E70.12785
G1 X109.767 Y147.506 E70.15504
G1 X90.204 Y127.943 E71.53350
G1 X90.901 Y128.095 E71.56908
G1 X110.313 Y147.506 E72.93682
G1 X110.859 Y147.506 E72.96400
G1 X91.599 Y128.247 E74.32103
G1 X92.279 Y128.381 E74.35558
G1 X111.404 Y147.506 E75.70313
G1 X111.950 Y147.506 E75.73032
G1 X92.935 Y128.491 E77.07013
G1 X93.591 Y128.601 E77.10325
G1 X112.496 Y147.506 E78.43531
G1 X113.042 Y147.506 E78.46250
G1 X94.246 Y128.711 E79.78682
