; generated by Slic3r 1.2.9 on 2017-07-17 at 12:22:26

; external perimeters extrusion width = 0.40mm
; perimeters extrusion width = 0.62mm
; infill extrusion width = 0.33mm
; solid infill extrusion width = 0.62mm
; top infill extrusion width = 0.20mm

M106 S256; Turn on fan to 100% power
M104 S140; turn on extruder temperature at S value
M140 S60; turn on bed temperature at S value
G28; home all axes
M84; disable motors
G1 Z15 F15000; have Z move to 20mm at 15000 mm/min
M190 S55; turn on bed temperature at S value and wait
M140 S55; turn on bed temperature at S value (printing temperature)
M109 S200; turn on extruder temperature at S value and wait (printing temperature)
M104 S200; turn on extruder temperature at S value
G1 Z0 F12000; move Z back to home
G21 ; set units to millimeters
G90 ; use absolute coordinates
M82 ; use absolute distances for extrusion
G92 E0
M106 S255
;Layer change
G1 E-6.00000 F1800.00000
G92 E0
G1 Z0.300 F9000.000
G1 X27.408 Y27.408 F9000.000
G1 E6.00000 F1800.00000
G1 X40.125 Y14.691 E6.89544 F600.000
G1 X41.328 Y14.042 E6.96350
G1 X42.991 Y14.304 E7.04734
G1 X155.416 Y81.434 E13.56679 F600.000
G1 X155.880 Y81.795 E13.59606
G1 X159.849 Y85.764 E13.87555
G1 X160.548 Y87.430 E13.96549
G1 X161.143 Y155.193 E17.33944
G1 X161.032 Y155.934 E17.37675
G1 X160.180 Y158.625 E17.51732
G1 X159.411 Y159.756 E17.58538
G1 X158.625 Y160.180 E17.62982
G1 X155.934 Y161.032 E17.77039
G1 X155.193 Y161.143 E17.80771
G1 X87.430 Y160.548 E21.18165
G1 X85.764 Y159.849 E21.27160
G1 X81.795 Y155.880 E21.55109
G1 X81.434 Y155.416 E21.58035
G1 X14.304 Y42.991 E28.09980
G1 X13.997 Y41.659 E28.16786
G1 X14.691 Y40.125 E28.25171
G1 X27.365 Y27.450 E29.14416
G1 E23.14416 F1800.00000
G92 E0
G1 X25.271 Y49.611 F9000.000
G1 E6.00000 F1800.00000
G1 X49.611 Y25.271 E7.71380 F600.000
G1 X91.981 Y67.642 E10.69722
G1 X90.103 Y69.520 E10.82945
G1 X96.594 Y76.545 E11.30566
G1 X107.626 Y88.861 E12.12892
G1 X117.623 Y100.424 E12.88993
G1 X126.426 Y111.052 E13.57704
G1 X133.899 Y120.580 E14.17995
G1 X139.925 Y128.860 E14.68980
G1 X144.412 Y135.770 E15.10001
G1 X147.299 Y141.224 E15.40728
G1 X148.552 Y145.238 E15.61663
G1 X147.938 Y147.938 E15.75450
G1 X145.238 Y148.552 E15.89236
G1 X141.224 Y147.299 E16.10171
G1 X135.770 Y144.412 E16.40898
G1 X128.860 Y139.925 E16.81919
G1 X120.580 Y133.899 E17.32905
G1 X111.052 Y126.426 E17.93195
G1 X100.424 Y117.623 E18.61906
G1 X88.861 Y107.626 E19.38008
G1 X76.545 Y96.594 E20.20333
G1 X69.520 Y90.103 E20.67954
G1 X67.642 Y91.981 E20.81177
G1 X25.314 Y49.653 E23.79221
G1 X25.817 Y49.611 F9000.000
G1 X49.611 Y25.817 E25.46761 F600.000
G1 X91.436 Y67.642 E28.41263
G1 X89.569 Y69.509 E28.54411
G1 X96.309 Y76.805 E29.03863
G1 X107.337 Y89.116 E29.86157
G1 X117.328 Y100.673 E30.62222
G1 X126.126 Y111.294 E31.30886
G1 X133.591 Y120.813 E31.91117
G1 X139.607 Y129.079 E32.42017
G1 X144.079 Y135.965 E32.82901
G1 X146.942 Y141.373 E33.13365
G1 X148.153 Y145.254 E33.33605
G1 X147.616 Y147.616 E33.45667
G1 X145.254 Y148.153 E33.57728
G1 X141.373 Y146.942 E33.77968
G1 X135.965 Y144.079 E34.08432
G1 X129.079 Y139.607 E34.49316
G1 X120.813 Y133.591 E35.00216
G1 X111.294 Y126.126 E35.60447
G1 X100.673 Y117.328 E36.29111
G1 X89.116 Y107.337 E37.05176
G1 X76.805 Y96.309 E37.87470
G1 X69.509 Y89.569 E38.36922
G1 X67.642 Y91.436 E38.50070
G1 X25.859 Y49.653 E41.44274
G1 X25.534 Y49.328 F9000.000
G1 E35.44274 F1800.00000
G92 E0
G1 X109.226 Y129.312 F9000.000
G1 E6.00000 F1800.00000
G1 X105.108 Y126.036 E6.26204 F600.000
G1 X92.225 Y115.238 E7.09895
G1 X78.543 Y103.266 E8.00414
G1 X64.278 Y90.308 E8.96365
G1 X49.657 Y76.569 E9.96261
G1 X34.909 Y62.266 E10.98549
G1 X25.968 Y53.325 E11.61504
G1 X22.693 Y49.608 E11.86165
G1 X19.720 Y45.760 E12.10380
G1 X17.623 Y42.627 E12.29148
G1 X18.068 Y42.698 E12.31389
G1 X20.905 Y42.787 E12.45521
G1 X23.731 Y42.520 E12.59654
G1 X26.501 Y41.901 E12.73786
G1 X29.172 Y40.939 E12.87919
G1 X31.701 Y39.650 E13.02052
G1 X34.049 Y38.055 E13.16185
G1 X36.178 Y36.178 E13.30317
G1 X38.055 Y34.049 E13.44450
G1 X39.650 Y31.701 E13.58583
G1 X40.939 Y29.172 E13.72715
G1 X41.901 Y26.501 E13.86848
G1 X42.520 Y23.731 E14.00981
G1 X42.787 Y20.905 E14.15113
G1 X42.698 Y18.068 E14.29246
G1 X42.629 Y17.636 E14.31424
G1 X45.760 Y19.721 E14.50151
G1 X49.608 Y22.693 E14.74363
G1 X53.325 Y25.968 E14.99024
G1 X62.266 Y34.909 E15.61978
G1 X76.569 Y49.657 E16.64267
G1 X90.308 Y64.278 E17.64163
G1 X103.266 Y78.543 E18.60114
G1 X115.238 Y92.225 E19.50633
G1 X126.036 Y105.108 E20.34324
G1 X129.312 Y109.226 E20.60528
G1 X154.193 Y84.346 E22.35718
G1 X157.298 Y87.451 E22.57586
G1 X132.064 Y112.685 E24.35265
G1 X135.487 Y116.987 E24.62634
G1 X143.442 Y127.673 E25.28963
G1 X149.773 Y136.994 E25.85065
G1 X154.377 Y144.793 E26.30153
G1 X157.175 Y150.920 E26.63691
G1 X158.126 Y155.186 E26.85452
G1 X157.419 Y157.419 E26.97113
G1 X155.186 Y158.126 E27.08774
G1 X150.920 Y157.175 E27.30535
G1 X144.793 Y154.377 E27.64073
G1 X136.994 Y149.773 E28.09161
G1 X127.673 Y143.442 E28.65262
G1 X116.987 Y135.487 E29.31592
G1 X112.685 Y132.064 E29.58961
G1 X87.451 Y157.298 E31.36640
G1 X84.346 Y154.193 E31.58508
G1 X109.184 Y129.355 E33.33399
G1 X108.648 Y129.345 F9000.000
G1 X104.864 Y126.334 E33.57476 F600.000
G1 X91.974 Y115.531 E34.41213
G1 X78.286 Y103.554 E35.31770
G1 X64.017 Y90.591 E36.27755
G1 X49.390 Y76.847 E37.27682
G1 X34.638 Y62.540 E38.30001
G1 X25.687 Y53.589 E38.93031
G1 X22.396 Y49.854 E39.17814
G1 X19.407 Y45.985 E39.42156
G1 X16.812 Y42.108 E39.65383
G1 X18.104 Y42.313 E39.71898
G1 X20.893 Y42.401 E39.85790
G1 X23.670 Y42.138 E39.99681
G1 X26.393 Y41.530 E40.13572
G1 X29.018 Y40.584 E40.27463
G1 X31.504 Y39.318 E40.41354
G1 X33.812 Y37.750 E40.55245
G1 X35.905 Y35.905 E40.69136
G1 X37.750 Y33.812 E40.83027
G1 X39.318 Y31.504 E40.96918
G1 X40.584 Y29.018 E41.10809
G1 X41.530 Y26.393 E41.24701
G1 X42.138 Y23.670 E41.38592
G1 X42.401 Y20.893 E41.52483
G1 X42.313 Y18.104 E41.66374
G1 X42.111 Y16.827 E41.72810
G1 X45.985 Y19.407 E41.95986
G1 X49.854 Y22.396 E42.20326
G1 X53.589 Y25.687 E42.45110
G1 X62.540 Y34.638 E43.08140
G1 X76.847 Y49.390 E44.10459
G1 X90.591 Y64.017 E45.10385
G1 X103.554 Y78.286 E46.06370
G1 X115.531 Y91.974 E46.96928
G1 X126.334 Y104.864 E47.80664
G1 X129.345 Y108.648 E48.04742
G1 X154.193 Y83.800 E49.79700
G1 X157.844 Y87.451 E50.05408
G1 X132.581 Y112.715 E51.83293
G1 X135.793 Y116.752 E52.08980
G1 X143.756 Y127.450 E52.75381
G1 X150.099 Y136.788 E53.31585
G1 X154.719 Y144.614 E53.76836
G1 X157.542 Y150.797 E54.10675
G1 X158.525 Y155.204 E54.33155
G1 X157.726 Y157.726 E54.46329
G1 X155.204 Y158.525 E54.59503
G1 X150.797 Y157.542 E54.81983
G1 X144.614 Y154.719 E55.15823
G1 X136.788 Y150.099 E55.61073
G1 X127.450 Y143.756 E56.17277
G1 X116.752 Y135.793 E56.83678
G1 X112.715 Y132.581 E57.09365
G1 X87.451 Y157.844 E58.87250
G1 X83.800 Y154.193 E59.12958
G1 X108.606 Y129.387 E60.87618
G1 X108.909 Y129.042 F9000.000
G1 X109.181 Y128.826 F9000.000
G1 X85.047 Y104.692 E62.57659 F600.000
G1 X84.807 Y108.271 F9000.000
G1 X68.256 Y91.721 E63.74266 F600.000
G1 X67.983 Y91.993 E63.76189
G1 X80.439 Y104.449 E64.63947
G1 X79.811 Y100.001 F9000.000
G1 X106.512 Y126.702 E66.52067 F600.000
G1 X107.929 Y124.300 F9000.000
G1 X123.616 Y139.987 E67.62590 F600.000
G1 X125.751 Y141.576 F9000.000
G1 X111.033 Y126.858 E68.66289 F600.000
G1 X113.563 Y128.842 F9000.000
G1 X127.886 Y143.165 E69.67205 F600.000
G1 X129.604 Y144.338 F9000.000
G1 X116.093 Y130.827 E70.62397 F600.000
G1 X114.521 Y133.074 F9000.000
G1 X93.909 Y112.462 E72.07624 F600.000
G1 X93.314 Y115.687 F9000.000
G1 X68.802 Y91.175 E73.80327 F600.000
G1 X69.075 Y90.902 E73.82250
G1 X96.685 Y118.513 E75.76782
G1 X97.937 Y115.945 F9000.000
G1 X117.191 Y135.198 E77.12437 F600.000
G1 X119.346 Y136.808 F9000.000
G1 X101.573 Y119.035 E78.37659 F600.000
G1 X100.056 Y121.338 F9000.000
G1 X69.347 Y90.629 E80.54019 F600.000
G1 X68.529 Y91.448 F9000.000
G1 X89.174 Y112.093 E81.99477 F600.000
G1 X89.880 Y108.979 F9000.000
G1 X112.649 Y131.748 E83.59893 F600.000
G1 X112.376 Y132.021 E83.61815
G1 X109.624 Y129.268 E83.81207
G1 X109.351 Y129.541 E83.83129
G1 X112.103 Y132.293 E84.02521
G1 X111.830 Y132.566 E84.04443
G1 X109.078 Y129.814 E84.23835
G1 X108.805 Y130.087 E84.25757
G1 X111.557 Y132.839 E84.45148
G1 X111.284 Y133.112 E84.47071
G1 X108.532 Y130.360 E84.66462
G1 X108.259 Y130.632 E84.68385
G1 X111.012 Y133.385 E84.87776
G1 X110.739 Y133.658 E84.89698
G1 X107.986 Y130.905 E85.09090
G1 X107.714 Y131.178 E85.11012
G1 X110.466 Y133.930 E85.30404
G1 X110.193 Y134.203 E85.32326
G1 X107.441 Y131.451 E85.51718
G1 X107.168 Y131.724 E85.53640
G1 X109.920 Y134.476 E85.73032
G1 X109.647 Y134.749 E85.74954
G1 X106.895 Y131.997 E85.94345
G1 X106.622 Y132.270 E85.96268
G1 X109.375 Y135.022 E86.15659
G1 X109.102 Y135.295 E86.17582
G1 X106.349 Y132.542 E86.36973
G1 X106.077 Y132.815 E86.38895
G1 X108.829 Y135.568 E86.58287
G1 X108.556 Y135.840 E86.60209
G1 X105.804 Y133.088 E86.79601
G1 X105.531 Y133.361 E86.81523
G1 X108.283 Y136.113 E87.00915
G1 X108.010 Y136.386 E87.02837
G1 X105.258 Y133.634 E87.22229
G1 X104.985 Y133.907 E87.24151
G1 X107.738 Y136.659 E87.43542
G1 X107.465 Y136.932 E87.45465
G1 X104.712 Y134.179 E87.64856
G1 X104.440 Y134.452 E87.66779
G1 X107.192 Y137.205 E87.86170
G1 X106.919 Y137.477 E87.88092
G1 X104.167 Y134.725 E88.07484
G1 X103.894 Y134.998 E88.09406
G1 X106.646 Y137.750 E88.28798
G1 X106.373 Y138.023 E88.30720
G1 X103.621 Y135.271 E88.50112
G1 X103.348 Y135.544 E88.52034
G1 X106.100 Y138.296 E88.71426
G1 X105.828 Y138.569 E88.73348
G1 X103.075 Y135.816 E88.92739
G1 X102.802 Y136.089 E88.94662
G1 X105.555 Y138.842 E89.14053
G1 X105.282 Y139.114 E89.15976
G1 X102.530 Y136.362 E89.35367
G1 X102.257 Y136.635 E89.37289
G1 X105.009 Y139.387 E89.56681
G1 X104.736 Y139.660 E89.58603
G1 X101.984 Y136.908 E89.77995
G1 X101.711 Y137.181 E89.79917
G1 X104.463 Y139.933 E89.99309
G1 X104.191 Y140.206 E90.01231
G1 X101.438 Y137.454 E90.20623
G1 X101.165 Y137.726 E90.22545
G1 X103.918 Y140.479 E90.41936
G1 X103.645 Y140.752 E90.43859
G1 X100.893 Y137.999 E90.63250
G1 X100.620 Y138.272 E90.65173
G1 X103.372 Y141.024 E90.84564
G1 X103.099 Y141.297 E90.86486
G1 X100.347 Y138.545 E91.05878
G1 X100.074 Y138.818 E91.07800
G1 X102.826 Y141.570 E91.27192
G1 X102.554 Y141.843 E91.29114
G1 X99.801 Y139.091 E91.48506
G1 X99.528 Y139.363 E91.50428
G1 X102.281 Y142.116 E91.69820
G1 X102.008 Y142.389 E91.71742
G1 X99.256 Y139.636 E91.91134
G1 X98.983 Y139.909 E91.93056
G1 X101.735 Y142.661 E92.12447
G1 X101.462 Y142.934 E92.14370
G1 X98.710 Y140.182 E92.33761
G1 X98.437 Y140.455 E92.35684
G1 X101.189 Y143.207 E92.55075
G1 X100.916 Y143.480 E92.56997
G1 X98.164 Y140.728 E92.76389
G1 X97.891 Y141.000 E92.78311
G1 X100.644 Y143.753 E92.97703
G1 X100.371 Y144.026 E92.99625
G1 X97.618 Y141.273 E93.19017
G1 X97.346 Y141.546 E93.20939
G1 X100.098 Y144.298 E93.40331
G1 X99.825 Y144.571 E93.42253
G1 X97.073 Y141.819 E93.61644
G1 X96.800 Y142.092 E93.63567
G1 X99.552 Y144.844 E93.82958
G1 X99.279 Y145.117 E93.84881
G1 X96.527 Y142.365 E94.04272
G1 X96.254 Y142.638 E94.06195
G1 X99.007 Y145.390 E94.25586
G1 X98.734 Y145.663 E94.27508
G1 X95.981 Y142.910 E94.46900
G1 X95.709 Y143.183 E94.48822
G1 X98.461 Y145.936 E94.68214
G1 X98.188 Y146.208 E94.70136
G1 X95.436 Y143.456 E94.89528
G1 X95.163 Y143.729 E94.91450
G1 X97.915 Y146.481 E95.10842
G1 X97.642 Y146.754 E95.12764
G1 X94.890 Y144.002 E95.32155
G1 X94.617 Y144.275 E95.34078
G1 X97.370 Y147.027 E95.53469
G1 X97.097 Y147.300 E95.55392
G1 X94.344 Y144.547 E95.74783
G1 X94.072 Y144.820 E95.76706
G1 X96.824 Y147.573 E95.96097
G1 X96.551 Y147.845 E95.98019
G1 X93.799 Y145.093 E96.17411
G1 X93.526 Y145.366 E96.19333
G1 X96.278 Y148.118 E96.38725
G1 X96.005 Y148.391 E96.40647
G1 X93.253 Y145.639 E96.60039
G1 X92.980 Y145.912 E96.61961
G1 X95.732 Y148.664 E96.81353
G1 X95.460 Y148.937 E96.83275
G1 X92.707 Y146.184 E97.02666
G1 X92.434 Y146.457 E97.04589
G1 X95.187 Y149.210 E97.23980
G1 X94.914 Y149.482 E97.25903
G1 X92.162 Y146.730 E97.45294
G1 X91.889 Y147.003 E97.47217
G1 X94.641 Y149.755 E97.66608
G1 X94.368 Y150.028 E97.68530
G1 X91.616 Y147.276 E97.87922
G1 X91.343 Y147.549 E97.89844
G1 X94.095 Y150.301 E98.09236
G1 X93.823 Y150.574 E98.11158
G1 X91.070 Y147.822 E98.30550
G1 X90.797 Y148.094 E98.32472
G1 X93.550 Y150.847 E98.51864
G1 X93.277 Y151.120 E98.53786
G1 X90.525 Y148.367 E98.73178
G1 X90.252 Y148.640 E98.75100
G1 X93.004 Y151.392 E98.94491
G1 X92.731 Y151.665 E98.96414
G1 X89.979 Y148.913 E99.15805
G1 X89.706 Y149.186 E99.17728
G1 X92.458 Y151.938 E99.37119
G1 X92.186 Y152.211 E99.39041
G1 X89.433 Y149.459 E99.58433
G1 X89.160 Y149.731 E99.60355
G1 X91.913 Y152.484 E99.79747
G1 X91.640 Y152.757 E99.81669
G1 X88.888 Y150.004 E100.01061
G1 X88.615 Y150.277 E100.02983
G1 X91.367 Y153.029 E100.22375
G1 X91.094 Y153.302 E100.24297
G1 X88.342 Y150.550 E100.43689
G1 X88.069 Y150.823 E100.45611
G1 X90.821 Y153.575 E100.65002
G1 X90.548 Y153.848 E100.66925
G1 X87.796 Y151.096 E100.86316
G1 X87.523 Y151.368 E100.88239
G1 X90.276 Y154.121 E101.07630
G1 X90.003 Y154.394 E101.09553
G1 X87.250 Y151.641 E101.28944
G1 X86.978 Y151.914 E101.30866
G1 X89.730 Y154.666 E101.50258
G1 X89.457 Y154.939 E101.52180
G1 X86.705 Y152.187 E101.71572
G1 X86.432 Y152.460 E101.73494
G1 X89.184 Y155.212 E101.92886
G1 X88.911 Y155.485 E101.94808
G1 X86.159 Y152.733 E102.14200
G1 X85.886 Y153.006 E102.16122
G1 X88.639 Y155.758 E102.35514
G1 X88.366 Y156.031 E102.37436
G1 X85.613 Y153.278 E102.56827
G1 X85.341 Y153.551 E102.58750
G1 X88.093 Y156.304 E102.78141
G1 X87.820 Y156.576 E102.80064
G1 X85.068 Y153.824 E102.99455
G1 E96.99455 F1800.00000
G92 E0
G1 X103.427 Y124.163 F9000.000
G1 E6.00000 F1800.00000
G1 X73.970 Y94.706 E8.07540 F600.000
G1 X69.095 Y94.197 F9000.000
G1 X19.070 Y44.172 E11.59992 F600.000
G1 X18.440 Y42.996 F9000.000
G1 X24.986 Y49.542 E12.06114 F600.000
G1 X25.259 Y49.269 E12.08036
G1 X19.003 Y43.014 E12.52110
G1 X19.567 Y43.031 E12.54918
G1 X25.532 Y48.996 E12.96946
G1 X25.805 Y48.724 E12.98868
G1 X20.130 Y43.049 E13.38848
G1 X20.694 Y43.067 E13.41656
G1 X26.078 Y48.451 E13.79589
G1 X26.350 Y48.178 E13.81512
G1 X21.208 Y43.036 E14.17740
G1 X21.707 Y42.989 E14.20235
G1 X26.623 Y47.905 E14.54873
G1 X26.896 Y47.632 E14.56796
G1 X22.206 Y42.942 E14.89843
G1 X22.704 Y42.895 E14.92338
G1 X27.169 Y47.359 E15.23795
G1 X27.442 Y47.087 E15.25718
G1 X23.203 Y42.847 E15.55585
G1 X23.701 Y42.800 E15.58080
G1 X27.715 Y46.814 E15.86356
G1 X27.988 Y46.541 E15.88279
G1 X24.148 Y42.701 E16.15332
G1 X24.594 Y42.601 E16.17608
G1 X28.260 Y46.268 E16.43441
G1 X28.533 Y45.995 E16.45364
G1 X25.040 Y42.502 E16.69977
G1 X25.486 Y42.402 E16.72253
G1 X28.806 Y45.722 E16.95647
G1 X29.079 Y45.450 E16.97569
G1 X25.932 Y42.302 E17.19742
G1 X26.378 Y42.203 E17.22019
G1 X29.352 Y45.177 E17.42973
G1 X29.625 Y44.904 E17.44895
G1 X26.793 Y42.073 E17.64842
G1 X27.195 Y41.928 E17.66967
G1 X29.897 Y44.631 E17.86009
G1 X30.170 Y44.358 E17.87932
G1 X27.596 Y41.784 E18.06070
G1 X27.997 Y41.639 E18.08194
G1 X30.443 Y44.085 E18.25428
G1 X30.716 Y43.812 E18.27350
G1 X28.398 Y41.495 E18.43679
G1 X28.800 Y41.350 E18.45804
G1 X30.989 Y43.540 E18.61228
G1 X31.262 Y43.267 E18.63150
G1 X29.201 Y41.206 E18.77670
G1 X29.566 Y41.025 E18.79699
G1 X31.534 Y42.994 E18.93570
G1 X31.807 Y42.721 E18.95492
G1 X29.927 Y40.841 E19.08738
G1 X30.289 Y40.657 E19.10760
G1 X32.080 Y42.448 E19.23381
G1 X32.353 Y42.175 E19.25304
G1 X30.650 Y40.473 E19.37301
G1 X31.012 Y40.288 E19.39322
G1 X32.626 Y41.903 E19.50694
G1 X32.899 Y41.630 E19.52617
G1 X31.373 Y40.104 E19.63365
G1 X31.735 Y39.920 E19.65386
G1 X33.172 Y41.357 E19.75509
G1 X33.444 Y41.084 E19.77432
G1 X32.067 Y39.706 E19.87138
G1 X32.392 Y39.486 E19.89095
G1 X33.717 Y40.811 E19.98434
G1 X33.990 Y40.538 E20.00356
G1 X32.717 Y39.265 E20.09329
G1 X33.041 Y39.044 E20.11286
G1 X34.263 Y40.265 E20.19892
G1 X34.536 Y39.993 E20.21814
G1 X33.366 Y38.823 E20.30053
G1 X33.691 Y38.602 E20.32010
G1 X34.809 Y39.720 E20.39883
G1 X35.081 Y39.447 E20.41805
G1 X34.016 Y38.382 E20.49311
G1 X34.325 Y38.145 E20.51250
G1 X35.354 Y39.174 E20.58502
