; generated by Slic3r 1.2.9 on 2017-02-18 at 11:04:47

; external perimeters extrusion width = 0.40mm
; perimeters extrusion width = 0.56mm
; infill extrusion width = 0.38mm
; solid infill extrusion width = 0.56mm
; top infill extrusion width = 0.22mm

M106 S256; Turn on fan to 100% power
M104 S140; turn on extruder temperature at S value
M140 S60; turn on bed temperature at S value
G28; home all axes
M84; disable motors
G1 Z15 F15000; have Z move to 20mm at 15000 mm/min
M190 S55; turn on bed temperature at S value and wait
M140 S55; turn on bed temperature at S value (printing temperature)
M109 S205; turn on extruder temperature at S value and wait (printing temperature)
M104 S205; turn on extruder temperature at S value
G1 Z0 F12000; move Z back to home
G21 ; set units to millimeters
G90 ; use absolute coordinates
M82 ; use absolute distances for extrusion
G92 E0
M106 S255
;Layer change
G1 E-6.00000 F1800.00000
G92 E0
G1 Z0.300 F9000.000
G1 X72.903 Y48.713 F9000.000
G1 E6.00000 F1800.00000
G1 X73.488 Y47.837 E6.05242 F600.000
G1 X73.957 Y47.266 E6.08923
G1 X74.244 Y46.979 E6.10945
G1 X74.816 Y46.510 E6.14625
G1 X80.298 Y42.846 E6.47455
G1 X80.950 Y42.498 E6.51136
G1 X81.326 Y42.342 E6.53157
G1 X82.033 Y42.128 E6.56838
G1 X87.434 Y41.053 E6.84257
G1 X88.500 Y40.841 E6.89668
G1 X89.236 Y40.769 E6.93348
G1 X89.642 Y40.769 E6.95370
G1 X90.378 Y40.841 E6.99051 F600.000
G1 X96.844 Y42.128 E7.31880
G1 X97.552 Y42.342 E7.35561
G1 X97.927 Y42.498 E7.37583
G1 X98.579 Y42.846 E7.41264
G1 X104.062 Y46.510 E7.74093
G1 X104.633 Y46.979 E7.77774
G1 X104.920 Y47.266 E7.79796
G1 X105.389 Y47.837 E7.83477
G1 X109.052 Y53.320 E8.16306
G1 X109.401 Y53.972 E8.19987
G1 X109.556 Y54.347 E8.22009
G1 X109.771 Y55.054 E8.25690
G1 X111.057 Y61.521 E8.58519
G1 X111.130 Y62.257 E8.62200
G1 X111.130 Y62.663 E8.64222
G1 X111.057 Y63.399 E8.67903
G1 X109.771 Y69.866 E9.00732
G1 X109.556 Y70.573 E9.04413
G1 X109.401 Y70.948 E9.06435
G1 X109.052 Y71.600 E9.10116
G1 X105.389 Y77.083 E9.42945
G1 X104.920 Y77.654 E9.46626
G1 X104.633 Y77.941 E9.48648
G1 X104.062 Y78.410 E9.52329
G1 X98.579 Y82.074 E9.85158
G1 X97.927 Y82.422 E9.88839
G1 X97.552 Y82.578 E9.90860
G1 X96.844 Y82.792 E9.94541
G1 X90.378 Y84.079 E10.27371
G1 X89.642 Y84.151 E10.31051
G1 X89.236 Y84.151 E10.33073
G1 X88.500 Y84.079 E10.36754
G1 X82.033 Y82.792 E10.69583
G1 X81.325 Y82.578 E10.73264
G1 X80.950 Y82.422 E10.75286
G1 X80.298 Y82.074 E10.78967
G1 X79.395 Y81.470 E10.84378
G1 X74.816 Y78.410 E11.11796
G1 X74.244 Y77.941 E11.15477
G1 X73.957 Y77.654 E11.17499
G1 X73.488 Y77.083 E11.21180
G1 X69.825 Y71.600 E11.54009
G1 X69.476 Y70.948 E11.57690
G1 X69.321 Y70.573 E11.59712
G1 X69.106 Y69.866 E11.63393
G1 X68.032 Y64.465 E11.90811
G1 X67.820 Y63.399 E11.96222
G1 X67.748 Y62.663 E11.99903
G1 X67.748 Y62.257 E12.01925
G1 X67.820 Y61.521 E12.05606
G1 X69.106 Y55.054 E12.38435
G1 X69.321 Y54.347 E12.42116
G1 X69.476 Y53.972 E12.44138
G1 X69.825 Y53.320 E12.47819
G1 X72.870 Y48.762 E12.75107
G1 X73.224 Y48.927 F9000.000
G1 X73.809 Y48.051 E12.80349 F600.000
G1 X74.230 Y47.538 E12.83654
G1 X74.517 Y47.251 E12.85676
G1 X75.030 Y46.830 E12.88980
G1 X80.513 Y43.167 E13.21809
G1 X81.098 Y42.854 E13.25114
G1 X81.473 Y42.699 E13.27136
G1 X82.108 Y42.506 E13.30440
G1 X88.575 Y41.220 E13.63270
G1 X89.236 Y41.155 E13.66574
G1 X89.642 Y41.155 E13.68596
G1 X90.302 Y41.220 E13.71900 F600.000
G1 X96.769 Y42.506 E14.04730
G1 X97.404 Y42.699 E14.08034
G1 X97.780 Y42.854 E14.10056
G1 X98.365 Y43.167 E14.13361
G1 X103.847 Y46.830 E14.46190
G1 X104.360 Y47.251 E14.49494
G1 X104.648 Y47.538 E14.51516
G1 X105.069 Y48.051 E14.54821
G1 X108.732 Y53.534 E14.87650
G1 X109.045 Y54.119 E14.90954
G1 X109.200 Y54.494 E14.92976
G1 X109.393 Y55.129 E14.96281
G1 X110.679 Y61.596 E15.29110
G1 X110.744 Y62.257 E15.32415
G1 X110.744 Y62.663 E15.34436
G1 X110.679 Y63.324 E15.37741
G1 X109.393 Y69.791 E15.70570
G1 X109.200 Y70.426 E15.73875
G1 X109.045 Y70.801 E15.75897
G1 X108.732 Y71.386 E15.79201
G1 X105.069 Y76.869 E16.12030
G1 X104.648 Y77.382 E16.15335
G1 X104.360 Y77.669 E16.17357
G1 X103.847 Y78.090 E16.20661
G1 X98.365 Y81.753 E16.53490
G1 X97.780 Y82.066 E16.56795
G1 X97.404 Y82.221 E16.58817
G1 X96.769 Y82.414 E16.62121
G1 X90.302 Y83.700 E16.94951
G1 X89.642 Y83.765 E16.98255
G1 X89.236 Y83.765 E17.00277
G1 X88.575 Y83.700 E17.03581
G1 X82.108 Y82.414 E17.36411
G1 X81.473 Y82.221 E17.39715
G1 X81.098 Y82.066 E17.41737
G1 X80.513 Y81.753 E17.45042
G1 X79.609 Y81.149 E17.50452
G1 X75.030 Y78.090 E17.77871
G1 X74.517 Y77.669 E17.81175
G1 X74.230 Y77.382 E17.83197
G1 X73.809 Y76.869 E17.86502
G1 X70.146 Y71.386 E18.19331
G1 X69.833 Y70.801 E18.22636
G1 X69.677 Y70.426 E18.24657
G1 X69.485 Y69.791 E18.27962
G1 X68.410 Y64.389 E18.55380
G1 X68.198 Y63.324 E18.60791
G1 X68.133 Y62.663 E18.64096
G1 X68.133 Y62.257 E18.66118
G1 X68.198 Y61.596 E18.69422
G1 X69.485 Y55.129 E19.02251
G1 X69.677 Y54.494 E19.05556
G1 X69.833 Y54.119 E19.07578
G1 X70.146 Y53.534 E19.10882
G1 X73.191 Y48.977 E19.38171
G1 E13.38171 F1800.00000
G92 E0
G1 X105.296 Y69.593 F9000.000
G1 E6.00000 F1800.00000
G1 X102.097 Y74.381 E6.28668 F600.000
G1 X99.728 Y72.011 E6.45351
G1 X98.990 Y72.749 E6.50546
G1 X101.359 Y75.118 E6.67229
G1 X96.572 Y78.317 E6.95897
G1 X95.289 Y75.222 E7.12580
G1 X94.325 Y75.621 E7.17775
G1 X95.608 Y78.717 E7.34457
G1 X89.960 Y79.840 E7.63126
G1 X89.960 Y76.489 E7.79809
G1 X88.917 Y76.489 E7.85003
G1 X88.917 Y79.840 E8.01686
G1 X83.270 Y78.717 E8.30355
G1 X84.552 Y75.621 E8.47037
G1 X83.588 Y75.222 E8.52232
G1 X82.306 Y78.317 E8.68915
G1 X77.518 Y75.118 E8.97583
G1 X79.887 Y72.749 E9.14266
G1 X79.150 Y72.011 E9.19461
G1 X76.780 Y74.381 E9.36144
G1 X73.581 Y69.593 E9.64812
G1 X76.677 Y68.311 E9.81495
G1 X76.278 Y67.347 E9.86689
G1 X73.182 Y68.629 E10.03372
G1 X72.059 Y62.982 E10.32041
G1 X75.410 Y62.982 E10.48723
G1 X75.410 Y61.938 E10.53918
G1 X72.059 Y61.938 E10.70601
G1 X73.182 Y56.291 E10.99269
G1 X76.278 Y57.573 E11.15952
G1 X76.677 Y56.609 E11.21147
G1 X73.581 Y55.327 E11.37830
G1 X76.780 Y50.539 E11.66498
G1 X79.150 Y52.909 E11.83181
G1 X79.887 Y52.171 E11.88376
G1 X77.518 Y49.802 E12.05058
G1 X82.306 Y46.603 E12.33727
G1 X83.588 Y49.698 E12.50410
G1 X84.552 Y49.299 E12.55604
G1 X83.270 Y46.203 E12.72287
G1 X88.917 Y45.080 E13.00956
G1 X88.917 Y48.431 E13.17638
G1 X89.960 Y48.431 E13.22833
G1 X89.960 Y45.080 E13.39516
G1 X95.608 Y46.203 E13.68184
G1 X94.325 Y49.299 E13.84867
G1 X95.289 Y49.698 E13.90062
G1 X96.572 Y46.603 E14.06745
G1 X101.359 Y49.802 E14.35413
G1 X98.990 Y52.171 E14.52096
G1 X99.728 Y52.909 E14.57290
G1 X102.097 Y50.539 E14.73973
G1 X105.296 Y55.327 E15.02642
G1 X102.200 Y56.609 E15.19324
G1 X102.600 Y57.573 E15.24519
G1 X105.695 Y56.291 E15.41202
G1 X106.819 Y61.938 E15.69870
G1 X103.468 Y61.938 E15.86553
G1 X103.468 Y62.982 E15.91748
G1 X106.819 Y62.982 E16.08431
G1 X105.695 Y68.629 E16.37099
G1 X102.600 Y67.347 E16.53782
G1 X102.200 Y68.311 E16.58977
G1 X105.241 Y69.570 E16.75361
G1 X105.642 Y69.793 F9000.000
G1 E10.75361 F1800.00000
G92 E0
G1 X89.575 Y48.045 F9000.000
G1 E6.00000 F1800.00000
G1 X89.303 Y48.045 E6.01355 F600.000
G1 X89.303 Y45.151 E6.15766
G1 X89.575 Y45.151 E6.17121
G1 X89.575 Y47.985 E6.31233
G1 E0.31233 F1800.00000
G92 E0
G1 X84.048 Y49.090 F9000.000
G1 E6.00000 F1800.00000
G1 X83.797 Y49.195 E6.01355 F600.000
G1 X82.689 Y46.520 E6.15766
G1 X82.940 Y46.416 E6.17121
G1 X84.025 Y49.035 E6.31233
G1 E0.31233 F1800.00000
G92 E0
G1 X79.342 Y52.171 F9000.000
G1 E6.00000 F1800.00000
G1 X79.150 Y52.363 E6.01355 F600.000
G1 X77.103 Y50.317 E6.15766
G1 X77.295 Y50.124 E6.17121
G1 X79.300 Y52.129 E6.31233
G1 E0.31233 F1800.00000
G92 E0
G1 X76.173 Y56.818 F9000.000
G1 E6.00000 F1800.00000
G1 X76.069 Y57.069 E6.01355 F600.000
G1 X73.395 Y55.962 E6.15766
G1 X73.499 Y55.710 E6.17121
G1 X76.118 Y56.795 E6.31233
G1 E0.31233 F1800.00000
G92 E0
G1 X75.024 Y62.324 F9000.000
G1 E6.00000 F1800.00000
G1 X75.024 Y62.596 E6.01355 F600.000
G1 X72.130 Y62.596 E6.15766
G1 X72.130 Y62.324 E6.17121
G1 X74.964 Y62.324 E6.31233
G1 E0.31233 F1800.00000
G92 E0
G1 X76.069 Y67.851 F9000.000
G1 E6.00000 F1800.00000
G1 X76.173 Y68.102 E6.01355 F600.000
G1 X73.499 Y69.210 E6.15766
G1 X73.395 Y68.958 E6.17121
G1 X76.014 Y67.874 E6.31233
G1 E0.31233 F1800.00000
G92 E0
G1 X79.150 Y72.557 F9000.000
G1 E6.00000 F1800.00000
G1 X79.342 Y72.749 E6.01355 F600.000
G1 X77.295 Y74.796 E6.15766
G1 X77.103 Y74.603 E6.17121
G1 X79.107 Y72.599 E6.31233
G1 E0.31233 F1800.00000
G92 E0
G1 X83.797 Y75.725 F9000.000
G1 E6.00000 F1800.00000
G1 X84.048 Y75.830 E6.01355 F600.000
G1 X82.940 Y78.504 E6.15766
G1 X82.689 Y78.400 E6.17121
G1 X83.774 Y75.781 E6.31233
G1 E0.31233 F1800.00000
G92 E0
G1 X89.303 Y76.875 F9000.000
G1 E6.00000 F1800.00000
G1 X89.575 Y76.875 E6.01355 F600.000
G1 X89.575 Y79.769 E6.15766
G1 X89.303 Y79.769 E6.17121
G1 X89.303 Y76.935 E6.31233
G1 E0.31233 F1800.00000
G92 E0
G1 X94.829 Y75.830 F9000.000
G1 E6.00000 F1800.00000
G1 X95.081 Y75.725 E6.01355 F600.000
G1 X96.188 Y78.400 E6.15766
G1 X95.937 Y78.504 E6.17121
G1 X94.852 Y75.885 E6.31233
G1 E0.31233 F1800.00000
G92 E0
G1 X99.535 Y72.749 F9000.000
G1 E6.00000 F1800.00000
G1 X99.728 Y72.557 E6.01355 F600.000
G1 X101.774 Y74.603 E6.15766
G1 X101.582 Y74.796 E6.17121
G1 X99.578 Y72.791 E6.31233
G1 E0.31233 F1800.00000
G92 E0
G1 X102.704 Y68.102 F9000.000
G1 E6.00000 F1800.00000
G1 X102.808 Y67.851 E6.01355 F600.000
G1 X105.482 Y68.958 E6.15766
G1 X105.378 Y69.210 E6.17121
G1 X102.760 Y68.125 E6.31233
G1 E0.31233 F1800.00000
G92 E0
G1 X103.853 Y62.596 F9000.000
G1 E6.00000 F1800.00000
G1 X103.853 Y62.324 E6.01355 F600.000
G1 X106.748 Y62.324 E6.15766
G1 X106.748 Y62.596 E6.17121
G1 X103.913 Y62.596 E6.31233
G1 E0.31233 F1800.00000
G92 E0
G1 X102.808 Y57.069 F9000.000
G1 E6.00000 F1800.00000
G1 X102.704 Y56.818 E6.01355 F600.000
G1 X105.378 Y55.710 E6.15766
G1 X105.482 Y55.962 E6.17121
G1 X102.864 Y57.046 E6.31233
G1 E0.31233 F1800.00000
G92 E0
G1 X99.728 Y52.363 F9000.000
G1 E6.00000 F1800.00000
G1 X99.535 Y52.171 E6.01355 F600.000
G1 X101.582 Y50.124 E6.15766
G1 X101.774 Y50.317 E6.17121
G1 X99.770 Y52.321 E6.31233
G1 E0.31233 F1800.00000
G92 E0
G1 X95.081 Y49.195 F9000.000
G1 E6.00000 F1800.00000
G1 X94.829 Y49.090 E6.01355 F600.000
G1 X95.937 Y46.416 E6.15766
G1 X96.188 Y46.520 E6.17121
G1 X95.104 Y49.139 E6.31233
G1 X96.873 Y46.512 F9000.000
G1 X101.823 Y49.820 E6.60874 F600.000
G1 X102.079 Y50.076 E6.62676
G1 X105.717 Y55.521 E6.95284
G1 X105.856 Y55.856 E6.97086
G1 X107.134 Y62.279 E7.29694
G1 X107.134 Y62.641 E7.31495
G1 X105.856 Y69.064 E7.64104
G1 X105.717 Y69.399 E7.65905
G1 X102.079 Y74.844 E7.98514
G1 X101.823 Y75.100 E8.00315
G1 X96.377 Y78.739 E8.32924
G1 X96.043 Y78.877 E8.34725
G1 X89.620 Y80.155 E8.67333
G1 X89.258 Y80.155 E8.69135
G1 X82.834 Y78.877 E9.01743
G1 X82.500 Y78.739 E9.03545
G1 X77.054 Y75.100 E9.36153
G1 X76.799 Y74.844 E9.37954
G1 X73.160 Y69.399 E9.70563
G1 X73.022 Y69.064 E9.72364
G1 X71.744 Y62.641 E10.04973
G1 X71.744 Y62.279 E10.06774
G1 X73.022 Y55.856 E10.39383
G1 X73.160 Y55.521 E10.41184
G1 X76.799 Y50.076 E10.73792
G1 X77.055 Y49.820 E10.75594
G1 X82.500 Y46.181 E11.08202
G1 X82.834 Y46.043 E11.10003
G1 X89.258 Y44.765 E11.42612
G1 X89.620 Y44.765 E11.44413
G1 X96.043 Y46.043 E11.77022 F600.000
G1 X96.377 Y46.181 E11.78823
G1 X96.823 Y46.479 E11.81491
G1 X96.847 Y46.912 F9000.000
G1 E5.81491 F1800.00000
G92 E0
G1 X90.185 Y48.500 F9000.000
G1 E6.00000 F1800.00000
G1 X94.091 Y49.277 E6.19827 F600.000
G1 X95.471 Y49.849 F9000.000
G1 X98.782 Y52.061 E6.39654 F600.000
G1 X99.838 Y53.117 F9000.000
G1 X102.050 Y56.428 E6.59481 F600.000
G1 X102.622 Y57.808 F9000.000
G1 X103.399 Y61.713 E6.79308 F600.000
G1 X103.399 Y63.207 F9000.000
G1 X102.622 Y67.112 E6.99134 F600.000
G1 X102.050 Y68.492 F9000.000
G1 X99.838 Y71.803 E7.18961 F600.000
G1 X98.782 Y72.859 F9000.000
G1 X95.471 Y75.071 E7.38788 F600.000
G1 X94.091 Y75.643 F9000.000
G1 X90.185 Y76.420 E7.58615 F600.000
G1 X88.692 Y76.420 F9000.000
G1 X84.786 Y75.643 E7.78442 F600.000
G1 X83.407 Y75.071 F9000.000
G1 X80.096 Y72.859 E7.98269 F600.000
G1 X79.040 Y71.803 F9000.000
G1 X76.827 Y68.492 E8.18096 F600.000
G1 X76.256 Y67.112 F9000.000
G1 X75.479 Y63.207 E8.37923 F600.000
G1 X75.479 Y61.713 F9000.000
G1 X76.256 Y57.808 E8.57750 F600.000
G1 X76.827 Y56.428 F9000.000
G1 X79.040 Y53.117 E8.77577 F600.000
G1 X80.096 Y52.061 F9000.000
G1 X83.407 Y49.849 E8.97403 F600.000
G1 X84.786 Y49.277 F9000.000
G1 X88.692 Y48.500 E9.17230 F600.000
M104 S195 ; set temperature
M140 S55 ; wait for bed temperature to be reached
;Layer change
G1 E3.17230 F1800.00000
G92 E0
G1 Z0.550 F9000.000
G1 X88.893 Y76.501 F9000.000
G1 E6.00000 F1800.00000
G1 X88.893 Y79.709 E6.11955 F900.000
G1 X83.343 Y78.605 E6.33043
G1 X84.570 Y75.641 E6.44998
G1 X88.834 Y76.489 E6.61197
G1 X89.292 Y76.527 F9000.000
G1 X83.561 Y75.223 F9000.000
G1 X82.333 Y78.187 E6.73152 F900.000
G1 X77.628 Y75.043 E6.94239
G1 X79.897 Y72.774 E7.06194
G1 X83.511 Y75.189 E7.22394
G1 X83.920 Y75.400 F9000.000
G1 X79.124 Y72.002 F9000.000
G1 X76.856 Y74.270 E7.34349 F900.000
G1 X73.712 Y69.565 E7.55436
G1 X76.676 Y68.338 E7.67391
G1 X79.091 Y71.952 E7.83590
G1 X79.388 Y72.303 F9000.000
G1 X76.258 Y67.328 F9000.000
G1 X73.294 Y68.556 E7.95545 F900.000
G1 X72.190 Y63.006 E8.16633
G1 X75.398 Y63.006 E8.28588
G1 X76.246 Y67.270 E8.44787
G1 X76.386 Y67.707 F9000.000
G1 X75.398 Y61.914 F9000.000
G1 X72.190 Y61.914 E8.56742 F900.000
G1 X73.294 Y56.364 E8.77830
G1 X76.258 Y57.592 E8.89785
G1 X75.410 Y61.855 E9.05984
G1 X75.372 Y62.313 F9000.000
G1 X76.676 Y56.582 F9000.000
G1 X73.712 Y55.355 E9.17939 F900.000
G1 X76.856 Y50.650 E9.39026
G1 X79.124 Y52.918 E9.50981
G1 X76.709 Y56.532 E9.67181
G1 X76.499 Y56.941 F9000.000
G1 X79.897 Y52.146 F9000.000
G1 X77.628 Y49.877 E9.79136 F900.000
G1 X82.333 Y46.733 E10.00223
G1 X83.561 Y49.697 E10.12178
G1 X79.947 Y52.112 E10.28377
G1 X79.596 Y52.409 F9000.000
G1 X84.570 Y49.279 F9000.000
G1 X83.343 Y46.315 E10.40332 F900.000
G1 X88.893 Y45.211 E10.61420
G1 X88.893 Y48.419 E10.73375
G1 X84.629 Y49.267 E10.89574
G1 X84.191 Y49.408 F9000.000
G1 X89.985 Y48.419 F9000.000
G1 X89.985 Y45.211 E11.01529 F900.000
G1 X95.535 Y46.315 E11.22617
G1 X94.307 Y49.279 E11.34572
G1 X90.044 Y48.431 E11.50771
G1 X89.586 Y48.393 F9000.000
G1 X89.985 Y48.969 F9000.000
M106 S255
G1 X94.039 Y49.763 E11.68644 F3000.000
G1 X95.164 Y50.229 E11.73914
G1 X98.548 Y52.490 E11.91521
G1 X99.409 Y53.351 E11.96791
G1 X101.670 Y56.735 E12.14398
G1 X102.136 Y57.860 E12.19667
G1 X102.930 Y61.851 E12.37275
G1 X102.930 Y63.069 E12.42544
G1 X102.136 Y67.060 E12.60152
G1 X101.670 Y68.185 E12.65421
G1 X99.409 Y71.569 E12.83028
G1 X98.548 Y72.430 E12.88298
G1 X95.164 Y74.691 E13.05905
G1 X94.039 Y75.157 E13.11174
G1 X90.048 Y75.951 E13.28782
G1 X88.830 Y75.951 E13.34051
G1 X84.838 Y75.157 E13.51659
G1 X83.713 Y74.691 E13.56928
G1 X80.330 Y72.430 E13.74535
G1 X79.468 Y71.569 E13.79805
G1 X77.208 Y68.185 E13.97412
G1 X76.741 Y67.060 E14.02681
G1 X75.948 Y63.069 E14.20289
G1 X75.948 Y61.851 E14.25558
G1 X76.741 Y57.860 E14.43166
G1 X77.208 Y56.735 E14.48435
G1 X79.468 Y53.351 E14.66042
G1 X80.330 Y52.490 E14.71312
G1 X83.713 Y50.229 E14.88919
G1 X84.838 Y49.763 E14.94189
G1 X88.830 Y48.969 E15.11796
M106 S255
M106 S255
G1 X89.925 Y48.969 E15.16534 F3000.000
M106 S255
G1 E9.16534 F1800.00000
G92 E0
G1 X95.316 Y49.697 F9000.000
G1 E6.00000 F1800.00000
G1 X96.544 Y46.733 E6.11955 F900.000
G1 X101.249 Y49.877 E6.33043
G1 X98.981 Y52.146 E6.44998
G1 X95.366 Y49.731 E6.61197
G1 X94.958 Y49.520 F9000.000
G1 X99.753 Y52.918 F9000.000
G1 X102.022 Y50.650 E6.73152 F900.000
G1 X105.165 Y55.355 E6.94239
G1 X102.202 Y56.582 E7.06194
G1 X99.786 Y52.968 E7.22393
G1 X99.489 Y52.617 F9000.000
G1 X102.620 Y57.592 F9000.000
G1 X105.583 Y56.364 E7.34348 F900.000
G1 X106.687 Y61.914 E7.55436
G1 X103.479 Y61.914 E7.67391
G1 X102.631 Y57.650 E7.83590
G1 X102.491 Y57.213 F9000.000
G1 X103.479 Y63.006 F9000.000
G1 X106.687 Y63.006 E7.95545 F900.000
G1 X105.583 Y68.556 E8.16633
G1 X102.620 Y67.328 E8.28588
G1 X103.468 Y63.065 E8.44787
G1 X103.506 Y62.607 F9000.000
