; generated by Slic3r 1.2.9 on 2017-02-09 at 20:08:51

; external perimeters extrusion width = 0.40mm
; perimeters extrusion width = 0.56mm
; infill extrusion width = 0.38mm
; solid infill extrusion width = 0.56mm
; top infill extrusion width = 0.22mm

M106 S256; Turn on fan to 100% power
M104 S140; turn on extruder temperature at S value
M140 S60; turn on bed temperature at S value
G28; home all axes
M84; disable motors
G1 Z15 F15000; have Z move to 20mm at 15000 mm/min
M190 S55; turn on bed temperature at S value and wait
M140 S55; turn on bed temperature at S value (printing temperature)
M109 S195; turn on extruder temperature at S value and wait (printing temperature)
M104 S195; turn on extruder temperature at S value
G1 Z0 F12000; move Z back to home
G21 ; set units to millimeters
G90 ; use absolute coordinates
M82 ; use absolute distances for extrusion
G92 E0
M106 S255
;Layer change
G1 E-6.00000 F1800.00000
G92 E0
G1 Z0.300 F9000.000
G1 X63.770 Y61.102 F9000.000
G1 E6.00000 F1800.00000
G1 X64.811 Y60.061 E6.07326 F600.000
G1 X71.980 Y55.271 E6.50254
G1 X73.339 Y54.708 E6.57580
G1 X91.887 Y51.019 E7.51737
G1 X93.358 Y51.019 E7.59063
G1 X101.815 Y52.701 E8.01991
G1 X103.174 Y53.264 E8.09317 F600.000
G1 X118.898 Y63.770 E9.03474
G1 X119.939 Y64.811 E9.10801
G1 X124.729 Y71.980 E9.53728
G1 X125.292 Y73.339 E9.61054
G1 X128.981 Y91.887 E10.55211
G1 X128.981 Y93.358 E10.62537
G1 X128.561 Y95.473 E10.73269
G1 X127.299 Y101.815 E11.05465
G1 X126.736 Y103.174 E11.12791
G1 X116.230 Y118.898 E12.06948
G1 X115.189 Y119.939 E12.14275
G1 X108.020 Y124.729 E12.57202
G1 X106.661 Y125.292 E12.64528
G1 X88.113 Y128.981 E13.58685
G1 X86.642 Y128.981 E13.66012
G1 X78.185 Y127.299 E14.08939
G1 X76.826 Y126.736 E14.16266
G1 X63.879 Y118.085 E14.93791
G1 X61.102 Y116.230 E15.10423
G1 X60.061 Y115.189 E15.17749
G1 X55.271 Y108.020 E15.60676
G1 X54.708 Y106.661 E15.68003
G1 X51.019 Y88.113 E16.62160
G1 X51.019 Y86.642 E16.69486
G1 X52.701 Y78.185 E17.12413
G1 X53.264 Y76.826 E17.19740
G1 X63.737 Y61.152 E18.13598
G1 X64.091 Y61.316 F9000.000
G1 X65.025 Y60.382 E18.20175 F600.000
G1 X72.194 Y55.592 E18.63103
G1 X73.414 Y55.086 E18.69680
G1 X91.962 Y51.397 E19.63837
G1 X93.283 Y51.397 E19.70414
G1 X101.739 Y53.079 E20.13341
G1 X102.960 Y53.585 E20.19919 F600.000
G1 X118.684 Y64.091 E21.14076
G1 X119.618 Y65.025 E21.20653
G1 X124.408 Y72.194 E21.63580
G1 X124.914 Y73.414 E21.70157
G1 X128.603 Y91.962 E22.64314
G1 X128.603 Y93.283 E22.70891
G1 X126.921 Y101.739 E23.13819
G1 X126.415 Y102.960 E23.20396
G1 X115.909 Y118.684 E24.14553
G1 X114.975 Y119.618 E24.21130
G1 X107.806 Y124.408 E24.64058
G1 X106.586 Y124.914 E24.70635
G1 X88.038 Y128.603 E25.64792
G1 X86.717 Y128.603 E25.71369
G1 X78.261 Y126.921 E26.14297
G1 X77.040 Y126.415 E26.20874
G1 X64.093 Y117.765 E26.98399
G1 X61.316 Y115.909 E27.15031
G1 X60.382 Y114.975 E27.21608
G1 X55.592 Y107.806 E27.64535
G1 X55.086 Y106.586 E27.71113
G1 X51.397 Y88.038 E28.65270
G1 X51.397 Y86.717 E28.71847
G1 X53.079 Y78.261 E29.14774
G1 X53.585 Y77.040 E29.21351
G1 X64.058 Y61.366 E30.15210
G1 E24.15210 F1800.00000
G92 E0
G1 X109.411 Y108.002 F9000.000
G1 E6.00000 F1800.00000
G1 X106.372 Y112.550 E6.27233 F600.000
G1 X104.568 Y113.756 E6.38037
G1 X99.204 Y114.823 E6.65270
G1 X96.015 Y107.125 E7.06755
G1 X90.996 Y108.123 E7.32232
G1 X90.996 Y116.455 E7.73717
G1 X85.632 Y117.522 E8.00950
G1 X83.503 Y117.099 E8.11754
G1 X78.956 Y114.060 E8.38987
G1 X82.155 Y106.337 E8.80608
G1 X77.909 Y103.500 E9.06033
G1 X71.998 Y109.411 E9.47653
G1 X67.450 Y106.372 E9.74886
G1 X66.244 Y104.568 E9.85690
G1 X65.177 Y99.204 E10.12923
G1 X72.939 Y95.989 E10.54750
G1 X71.945 Y90.996 E10.80094
G1 X63.545 Y90.996 E11.21921
G1 X62.478 Y85.632 E11.49154
G1 X62.901 Y83.503 E11.59958
G1 X65.940 Y78.956 E11.87191
G1 X73.730 Y82.182 E12.29174
G1 X76.551 Y77.960 E12.54457
G1 X70.589 Y71.998 E12.96440
G1 X73.628 Y67.450 E13.23673
G1 X75.432 Y66.244 E13.34477
G1 X80.796 Y65.177 E13.61710
G1 X84.024 Y72.970 E14.03707
G1 X89.004 Y71.980 E14.28985
G1 X89.004 Y63.545 E14.70982
G1 X94.368 Y62.478 E14.98215
G1 X96.497 Y62.901 E15.09019
G1 X101.044 Y65.940 E15.36251
G1 X97.827 Y73.707 E15.78113
G1 X102.057 Y76.534 E16.03444
G1 X108.002 Y70.589 E16.45305
G1 X112.550 Y73.628 E16.72538
G1 X113.756 Y75.432 E16.83342
G1 X114.823 Y80.796 E17.10575
G1 X107.093 Y83.998 E17.52230
G1 X108.089 Y89.004 E17.77641
G1 X116.455 Y89.004 E18.19296
G1 X117.522 Y94.368 E18.46529
G1 X117.099 Y96.497 E18.57333
G1 X114.060 Y101.044 E18.84566
G1 X106.360 Y97.855 E19.26065
G1 X103.517 Y102.109 E19.51537
G1 X109.369 Y107.960 E19.92738
G1 X108.915 Y108.051 F9000.000
G1 X106.094 Y112.272 E20.18013 F600.000
G1 X104.418 Y113.392 E20.28053
G1 X99.439 Y114.383 E20.53329
G1 X96.250 Y106.685 E20.94814
G1 X90.611 Y107.807 E21.23443
G1 X90.611 Y116.139 E21.64928
G1 X85.632 Y117.129 E21.90203
G1 X83.654 Y116.736 E22.00243
G1 X79.433 Y113.916 E22.25519
G1 X82.632 Y106.192 E22.67139
G1 X77.860 Y103.004 E22.95715
G1 X71.949 Y108.915 E23.37336
G1 X67.728 Y106.094 E23.62611
G1 X66.608 Y104.418 E23.72651
G1 X65.617 Y99.439 E23.97927
G1 X73.378 Y96.224 E24.39754
G1 X72.262 Y90.611 E24.68249
G1 X63.861 Y90.611 E25.10076
G1 X62.871 Y85.632 E25.35352
G1 X63.264 Y83.654 E25.45392
G1 X66.084 Y79.433 E25.70667
G1 X73.875 Y82.660 E26.12650
G1 X77.048 Y77.911 E26.41085
G1 X71.085 Y71.949 E26.83067
G1 X73.906 Y67.728 E27.08343
G1 X75.582 Y66.608 E27.18383
G1 X80.561 Y65.617 E27.43658
G1 X83.789 Y73.410 E27.85655
G1 X89.389 Y72.296 E28.14085
G1 X89.389 Y63.861 E28.56082
G1 X94.368 Y62.871 E28.81357
G1 X96.346 Y63.264 E28.91397
G1 X100.567 Y66.084 E29.16672
G1 X97.350 Y73.852 E29.58534
G1 X102.106 Y77.030 E29.87016
G1 X108.051 Y71.085 E30.28877
G1 X112.272 Y73.906 E30.54153
G1 X113.392 Y75.582 E30.64193
G1 X114.383 Y80.561 E30.89468
G1 X106.653 Y83.763 E31.31123
G1 X107.773 Y89.389 E31.59686
G1 X116.139 Y89.389 E32.01341
G1 X117.129 Y94.368 E32.26616
G1 X116.736 Y96.346 E32.36656
G1 X113.916 Y100.567 E32.61932
G1 X106.215 Y97.377 E33.03431
G1 X103.021 Y102.157 E33.32055
G1 X108.872 Y108.009 E33.73255
G1 E27.73255 F1800.00000
G92 E0
G1 X90.225 Y107.741 F9000.000
G1 E6.00000 F1800.00000
G1 X90.225 Y115.822 E6.40237 F600.000
G1 X85.632 Y116.736 E6.63555
G1 X83.804 Y116.373 E6.72831
G1 X79.910 Y113.771 E6.96149
G1 X83.008 Y106.292 E7.36453
G1 X83.422 Y106.463 E7.38684
G1 X89.846 Y107.741 E7.71292
G1 X90.165 Y107.741 E7.72883
G1 X90.625 Y107.741 F9000.000
G1 E1.72883 F1800.00000
G92 E0
G1 X77.637 Y102.681 F9000.000
G1 E6.00000 F1800.00000
G1 X71.900 Y108.418 E6.40397 F600.000
G1 X68.006 Y105.816 E6.63715
G1 X66.971 Y104.267 E6.72991
G1 X66.057 Y99.674 E6.96309
G1 X73.572 Y96.561 E7.36809
G1 X73.748 Y96.985 E7.39093
G1 X77.386 Y102.430 E7.71701
G1 X77.595 Y102.639 E7.73168
G1 X77.920 Y102.964 F9000.000
G1 E1.73168 F1800.00000
G92 E0
G1 X72.332 Y90.225 F9000.000
G1 E6.00000 F1800.00000
G1 X64.178 Y90.225 E6.40598 F600.000
G1 X63.264 Y85.632 E6.63916
G1 X63.627 Y83.804 E6.73192
G1 X66.229 Y79.910 E6.96510
G1 X73.777 Y83.037 E7.37186
G1 X73.609 Y83.442 E7.39369
G1 X72.332 Y89.865 E7.71978
G1 X72.332 Y90.165 E7.73470
G1 X72.332 Y90.625 F9000.000
G1 E1.73470 F1800.00000
G92 E0
G1 X77.365 Y77.683 F9000.000
G1 E6.00000 F1800.00000
G1 X71.582 Y71.900 E6.40722 F600.000
G1 X74.184 Y68.006 E6.64040
G1 X75.733 Y66.971 E6.73316
G1 X80.326 Y66.057 E6.96634
G1 X83.457 Y73.615 E7.37363
G1 X83.088 Y73.768 E7.39351
G1 X77.642 Y77.406 E7.71959
G1 X77.407 Y77.641 E7.73612
G1 X77.082 Y77.966 F9000.000
G1 X77.368 Y78.126 F9000.000
G1 X79.737 Y80.495 E7.90295 F600.000
G1 X80.475 Y79.757 E7.95489
G1 X78.106 Y77.388 E8.12172
G1 X82.893 Y74.189 E8.40840
G1 X84.176 Y77.285 E8.57523
G1 X85.140 Y76.885 E8.62718
G1 X83.857 Y73.790 E8.79401
G1 X89.505 Y72.666 E9.08069
G1 X89.505 Y76.017 E9.24752
G1 X90.548 Y76.017 E9.29947
G1 X90.548 Y72.666 E9.46629
G1 X96.195 Y73.790 E9.75298
G1 X94.913 Y76.885 E9.91981
G1 X95.877 Y77.285 E9.97175
G1 X97.159 Y74.189 E10.13858
G1 X101.947 Y77.388 E10.42527
G1 X99.578 Y79.757 E10.59209
G1 X100.315 Y80.495 E10.64404
G1 X102.685 Y78.126 E10.81087
G1 X105.884 Y82.913 E11.09755
G1 X102.788 Y84.195 E11.26438
G1 X103.187 Y85.159 E11.31633
G1 X106.283 Y83.877 E11.48316
G1 X107.406 Y89.524 E11.76984
G1 X104.056 Y89.524 E11.93667
G1 X104.056 Y90.568 E11.98862
G1 X107.406 Y90.568 E12.15544
G1 X106.283 Y96.215 E12.44213
G1 X103.187 Y94.933 E12.60896
G1 X102.788 Y95.897 E12.66090
G1 X105.884 Y97.179 E12.82773
G1 X102.685 Y101.967 E13.11441
G1 X100.315 Y99.597 E13.28124
G1 X99.578 Y100.335 E13.33319
G1 X101.947 Y102.704 E13.50002
G1 X97.159 Y105.903 E13.78670
G1 X95.877 Y102.808 E13.95353
G1 X94.913 Y103.207 E14.00548
G1 X96.195 Y106.303 E14.17230
G1 X90.548 Y107.426 E14.45899
G1 X90.548 Y104.075 E14.62582
G1 X89.505 Y104.075 E14.67776
G1 X89.505 Y107.426 E14.84459
G1 X83.857 Y106.303 E15.13128
G1 X85.140 Y103.207 E15.29810
G1 X84.176 Y102.808 E15.35005
G1 X82.894 Y105.903 E15.51688
G1 X78.106 Y102.704 E15.80356
G1 X80.475 Y100.335 E15.97039
G1 X79.737 Y99.597 E16.02234
G1 X77.368 Y101.967 E16.18917
G1 X74.169 Y97.179 E16.47585
G1 X77.265 Y95.897 E16.64268
G1 X76.866 Y94.933 E16.69462
G1 X73.770 Y96.215 E16.86145
G1 X72.647 Y90.568 E17.14814
G1 X75.997 Y90.568 E17.31496
G1 X75.997 Y89.524 E17.36691
G1 X72.647 Y89.524 E17.53374
G1 X73.770 Y83.877 E17.82042
G1 X76.866 Y85.159 E17.98725
G1 X77.265 Y84.195 E18.03920
G1 X74.169 Y82.913 E18.20603
G1 X77.335 Y78.176 E18.48972
G1 X77.632 Y77.825 F9000.000
G1 E12.48972 F1800.00000
G92 E0
G1 X89.775 Y72.351 F9000.000
G1 E6.00000 F1800.00000
G1 X89.775 Y64.178 E6.40696 F600.000
G1 X94.368 Y63.264 E6.64014
G1 X96.196 Y63.627 E6.73291
G1 X100.090 Y66.229 E6.96608
G1 X96.967 Y73.768 E7.37237
G1 X96.631 Y73.629 E7.39048
G1 X90.207 Y72.351 E7.71657
G1 X89.835 Y72.351 E7.73511
G1 X89.375 Y72.351 F9000.000
G1 E1.73511 F1800.00000
G92 E0
G1 X102.343 Y77.339 F9000.000
G1 E6.00000 F1800.00000
G1 X108.100 Y71.582 E6.40536 F600.000
G1 X111.994 Y74.184 E6.63854
G1 X113.029 Y75.733 E6.73130
G1 X113.943 Y80.326 E6.96448
G1 X106.440 Y83.434 E7.36881
G1 X106.305 Y83.108 E7.38639
G1 X102.666 Y77.662 E7.71248
G1 X102.386 Y77.381 E7.73225
G1 X102.060 Y77.056 F9000.000
G1 E1.73225 F1800.00000
G92 E0
G1 X107.721 Y89.775 F9000.000
G1 E6.00000 F1800.00000
G1 X115.822 Y89.775 E6.40335 F600.000
G1 X116.736 Y94.368 E6.63653
G1 X116.373 Y96.196 E6.72929
G1 X113.771 Y100.090 E6.96247
G1 X106.301 Y96.995 E7.36504
G1 X106.444 Y96.651 E7.38363
G1 X107.721 Y90.227 E7.70971
G1 X107.721 Y89.835 E7.72923
G1 X107.721 Y89.375 F9000.000
G1 E1.72923 F1800.00000
G92 E0
G1 X102.708 Y102.389 F9000.000
G1 E6.00000 F1800.00000
G1 X108.418 Y108.100 E6.40211 F600.000
G1 X105.816 Y111.994 E6.63529
G1 X104.267 Y113.029 E6.72805
G1 X99.674 Y113.943 E6.96123
G1 X96.584 Y106.483 E7.36327
G1 X96.965 Y106.325 E7.38381
G1 X102.411 Y102.686 E7.70990
G1 X102.665 Y102.432 E7.72781
G1 X102.990 Y102.106 F9000.000
G1 E1.72781 F1800.00000
G92 E0
G1 X115.718 Y111.083 F9000.000
G1 E6.00000 F1800.00000
G1 X112.376 Y116.085 E6.29953 F600.000
G1 X105.536 Y120.655 E6.70907
G1 X87.377 Y124.267 E7.63091
G1 X79.310 Y122.662 E8.04045
G1 X63.915 Y112.376 E8.96229
G1 X59.345 Y105.536 E9.37183
G1 X55.733 Y87.377 E10.29367
G1 X57.338 Y79.310 E10.70321
G1 X67.624 Y63.915 E11.62505
G1 X74.464 Y59.345 E12.03459
G1 X92.623 Y55.733 E12.95643
G1 X100.690 Y57.338 E13.36597
G1 X116.085 Y67.624 E14.28781 F600.000
G1 X120.655 Y74.464 E14.69735
G1 X124.267 Y92.623 E15.61919
G1 X122.662 Y100.690 E16.02873
G1 X115.751 Y111.033 E16.64805
G1 X116.039 Y111.297 F9000.000
G1 X112.654 Y116.363 E16.95140 F600.000
G1 X105.687 Y121.018 E17.36858
G1 X87.377 Y124.660 E18.29806
G1 X79.159 Y123.025 E18.71524
G1 X63.637 Y112.654 E19.64471
G1 X58.982 Y105.687 E20.06189
G1 X55.340 Y87.377 E20.99137
G1 X56.975 Y79.159 E21.40855
G1 X67.346 Y63.637 E22.33802
G1 X74.313 Y58.982 E22.75520
G1 X92.623 Y55.340 E23.68468
G1 X100.841 Y56.975 E24.10186
G1 X116.363 Y67.346 E25.03134 F600.000
G1 X121.018 Y74.313 E25.44852
G1 X124.660 Y92.623 E26.37799
G1 X123.025 Y100.841 E26.79517
G1 X116.072 Y111.247 E27.41831
G1 E21.41831 F1800.00000
G92 E0
G1 X95.668 Y76.781 F9000.000
G1 E6.00000 F1800.00000
G1 X95.417 Y76.677 E6.01355 F600.000
G1 X96.525 Y74.002 E6.15766
G1 X96.776 Y74.107 E6.17121
G1 X95.691 Y76.725 E6.31233
G1 E0.31233 F1800.00000
G92 E0
G1 X90.162 Y75.631 F9000.000
G1 E6.00000 F1800.00000
G1 X89.890 Y75.631 E6.01355 F600.000
G1 X89.890 Y72.737 E6.15766
G1 X90.162 Y72.737 E6.17121
G1 X90.162 Y75.571 E6.31233
G1 E0.31233 F1800.00000
G92 E0
G1 X84.636 Y76.677 F9000.000
G1 E6.00000 F1800.00000
G1 X84.384 Y76.781 E6.01355 F600.000
G1 X83.277 Y74.107 E6.15766
G1 X83.528 Y74.002 E6.17121
G1 X84.613 Y76.621 E6.31233
G1 E0.31233 F1800.00000
G92 E0
G1 X79.930 Y79.757 F9000.000
G1 E6.00000 F1800.00000
G1 X79.737 Y79.950 E6.01355 F600.000
G1 X77.691 Y77.903 E6.15766
G1 X77.883 Y77.711 E6.17121
G1 X79.887 Y79.715 E6.31233
G1 E0.31233 F1800.00000
G92 E0
G1 X76.761 Y84.404 F9000.000
G1 E6.00000 F1800.00000
G1 X76.657 Y84.656 E6.01355 F600.000
G1 X73.983 Y83.548 E6.15766
G1 X74.087 Y83.297 E6.17121
G1 X76.706 Y84.381 E6.31233
G1 E0.31233 F1800.00000
G92 E0
G1 X75.612 Y89.910 F9000.000
G1 E6.00000 F1800.00000
G1 X75.612 Y90.182 E6.01355 F600.000
G1 X72.717 Y90.182 E6.15766
G1 X72.717 Y89.910 E6.17121
G1 X75.552 Y89.910 E6.31233
G1 E0.31233 F1800.00000
G92 E0
G1 X76.657 Y95.437 F9000.000
G1 E6.00000 F1800.00000
G1 X76.761 Y95.688 E6.01355 F600.000
G1 X74.087 Y96.796 E6.15766
G1 X73.983 Y96.544 E6.17121
G1 X76.601 Y95.460 E6.31233
G1 E0.31233 F1800.00000
G92 E0
G1 X79.737 Y100.143 F9000.000
G1 E6.00000 F1800.00000
G1 X79.930 Y100.335 E6.01355 F600.000
G1 X77.883 Y102.382 E6.15766
G1 X77.691 Y102.189 E6.17121
G1 X79.695 Y100.185 E6.31233
G1 E0.31233 F1800.00000
G92 E0
G1 X84.384 Y103.312 F9000.000
G1 E6.00000 F1800.00000
G1 X84.636 Y103.416 E6.01355 F600.000
G1 X83.528 Y106.090 E6.15766
G1 X83.277 Y105.986 E6.17121
G1 X84.361 Y103.367 E6.31233
G1 E0.31233 F1800.00000
G92 E0
G1 X89.890 Y104.461 F9000.000
G1 E6.00000 F1800.00000
G1 X90.162 Y104.461 E6.01355 F600.000
G1 X90.162 Y107.355 E6.15766
G1 X89.890 Y107.355 E6.17121
G1 X89.890 Y104.521 E6.31233
G1 E0.31233 F1800.00000
G92 E0
G1 X95.417 Y103.416 F9000.000
G1 E6.00000 F1800.00000
G1 X95.668 Y103.312 E6.01355 F600.000
G1 X96.776 Y105.986 E6.15766
G1 X96.525 Y106.090 E6.17121
G1 X95.440 Y103.471 E6.31233
G1 E0.31233 F1800.00000
G92 E0
G1 X100.123 Y100.335 F9000.000
G1 E6.00000 F1800.00000
G1 X100.315 Y100.143 E6.01355 F600.000
G1 X102.362 Y102.189 E6.15766
G1 X102.170 Y102.382 E6.17121
G1 X100.165 Y100.378 E6.31233
G1 E0.31233 F1800.00000
G92 E0
G1 X103.292 Y95.688 F9000.000
G1 E6.00000 F1800.00000
G1 X103.396 Y95.437 E6.01355 F600.000
G1 X106.070 Y96.544 E6.15766
G1 X105.966 Y96.796 E6.17121
G1 X103.347 Y95.711 E6.31233
G1 E0.31233 F1800.00000
G92 E0
G1 X104.441 Y90.182 F9000.000
G1 E6.00000 F1800.00000
G1 X104.441 Y89.910 E6.01355 F600.000
G1 X107.336 Y89.910 E6.15766
G1 X107.336 Y90.182 E6.17121
G1 X104.501 Y90.182 E6.31233
G1 E0.31233 F1800.00000
G92 E0
G1 X103.396 Y84.656 F9000.000
G1 E6.00000 F1800.00000
G1 X103.292 Y84.404 E6.01355 F600.000
G1 X105.966 Y83.297 E6.15766
G1 X106.070 Y83.548 E6.17121
G1 X103.451 Y84.633 E6.31233
G1 E0.31233 F1800.00000
G92 E0
G1 X100.315 Y79.950 F9000.000
G1 E6.00000 F1800.00000
G1 X100.123 Y79.757 E6.01355 F600.000
G1 X102.170 Y77.711 E6.15766
G1 X102.362 Y77.903 E6.17121
G1 X100.358 Y79.907 E6.31233
G1 E0.31233 F1800.00000
G92 E0
G1 X111.305 Y63.503 F9000.000
G1 E6.00000 F1800.00000
G1 X116.641 Y67.068 E6.31953 F600.000
G1 X121.381 Y74.163 E6.74434
G1 X125.053 Y92.623 E7.68146
G1 X123.389 Y100.991 E8.10628
G1 X112.932 Y116.641 E9.04339
G1 X105.837 Y121.381 E9.46821
G1 X87.377 Y125.053 E10.40532
G1 X79.009 Y123.389 E10.83014
G1 X63.359 Y112.932 E11.76725
G1 X58.619 Y105.837 E12.19207
G1 X54.947 Y87.377 E13.12919
G1 X56.611 Y79.009 E13.55400
G1 X67.068 Y63.359 E14.49112
G1 X74.163 Y58.619 E14.91594
G1 X92.623 Y54.947 E15.85305
G1 X100.991 Y56.611 E16.27787
G1 X111.255 Y63.470 E16.89247 F600.000
G1 X111.279 Y63.902 F9000.000
G1 E10.89247 F1800.00000
G92 E0
G1 X94.679 Y76.863 F9000.000
