; generated by Slic3r 1.2.9 on 2018-07-13 at 17:39:24

; external perimeters extrusion width = 0.40mm
; perimeters extrusion width = 0.62mm
; infill extrusion width = 0.33mm
; solid infill extrusion width = 0.62mm
; top infill extrusion width = 0.20mm

M106 S256; Turn on fan to 100% power
M104 S140; turn on extruder temperature at S value
M140 S60; turn on bed temperature at S value
G28; home all axes
M84; disable motors
G1 Z15 F15000; have Z move to 20mm at 15000 mm/min
M190 S55; turn on bed temperature at S value and wait
M140 S55; turn on bed temperature at S value (printing temperature)
M109 S200; turn on extruder temperature at S value and wait (printing temperature)
M104 S200; turn on extruder temperature at S value
G1 Z0 F12000; move Z back to home
G21 ; set units to millimeters
G90 ; use absolute coordinates
M82 ; use absolute distances for extrusion
G92 E0
M106 S255
;Layer change
G1 E-6.00000 F1800.00000
G92 E0
G1 Z0.300 F9000.000
G1 X81.966 Y19.717 F9000.000
G1 E6.00000 F1800.00000
G1 X82.040 Y19.427 E6.01475 F600.000
G1 X82.221 Y18.895 E6.04236
G1 X88.060 Y4.750 E6.79552
G1 X88.922 Y3.689 E6.86279
G1 X90.265 Y3.274 E6.93198
G1 X131.765 Y3.274 E8.97441
G1 X133.075 Y3.666 E9.04168
G1 X134.056 Y4.995 E9.12297 F600.000
G1 X140.012 Y25.498 E10.17378
G1 X140.135 Y26.088 E10.20342
G1 X140.196 Y26.761 E10.23666
G1 X140.196 Y27.060 E10.25139
G1 X140.135 Y27.733 E10.28465
G1 X139.990 Y28.393 E10.31791
G1 X139.818 Y28.905 E10.34447
G1 X134.128 Y43.050 E11.09484
G1 X133.276 Y44.119 E11.16212
G1 X131.915 Y44.546 E11.23233
G1 X90.165 Y44.546 E13.28705
G1 X88.855 Y44.154 E13.35433
G1 X87.871 Y42.815 E13.43611
G1 X82.015 Y22.311 E14.48556
G1 X81.895 Y21.732 E14.51468
G1 X81.834 Y21.060 E14.54789
G1 X81.858 Y20.384 E14.58119
G1 X81.955 Y19.776 E14.61148
G1 E8.61148 F1800.00000
G92 E0
G1 X121.376 Y22.549 F9000.000
G1 E6.00000 F1800.00000
G1 X121.376 Y31.771 E6.45382 F600.000
G1 X105.154 Y31.771 E7.25215
G1 X105.154 Y22.549 E7.70598
G1 X121.316 Y22.549 E8.50135
G1 X120.990 Y22.935 F9000.000
G1 X120.990 Y31.385 E8.91722 F600.000
G1 X105.540 Y31.385 E9.67759
G1 X105.540 Y22.935 E10.09346
G1 X120.930 Y22.935 E10.85088
G1 X121.390 Y22.935 F9000.000
G1 X89.215 Y21.143 F9000.000
G1 X89.160 Y21.429 E10.86522 F600.000
G1 X88.981 Y21.881 E10.88912
G1 X88.684 Y22.290 E10.91399
G1 X88.310 Y22.599 E10.93790
G1 X88.055 Y22.740 E10.95223
G1 X87.611 Y22.884 E10.97519
G1 X87.322 Y22.920 E10.98952
G1 X86.857 Y22.891 E11.01247
G1 X86.575 Y22.819 E11.02680
G1 X86.153 Y22.620 E11.04976
G1 X85.933 Y22.460 E11.06314
G1 X85.734 Y22.274 E11.07652
G1 X85.449 Y21.881 E11.10043
G1 X85.270 Y21.429 E11.12434
G1 X85.219 Y21.162 E11.13772
G1 X85.202 Y20.891 E11.15111
G1 X85.263 Y20.409 E11.17502
G1 X85.449 Y19.939 E11.19988
G1 X85.746 Y19.530 E11.22475
G1 X86.120 Y19.221 E11.24866
G1 X86.375 Y19.080 E11.26299
G1 X86.819 Y18.936 E11.28595
G1 X87.108 Y18.900 E11.30028 F600.000
G1 X87.573 Y18.929 E11.32323
G1 X87.855 Y19.001 E11.33756
G1 X88.277 Y19.200 E11.36052
G1 X88.497 Y19.360 E11.37390
G1 X88.696 Y19.546 E11.38728
G1 X88.981 Y19.939 E11.41119
G1 X89.160 Y20.391 E11.43510
G1 X89.215 Y20.677 E11.44943
G1 X89.215 Y21.083 E11.46944
G1 X88.829 Y21.107 F9000.000
G1 X88.788 Y21.321 E11.48018 F600.000
G1 X88.641 Y21.694 E11.49990
G1 X88.401 Y22.024 E11.51997
G1 X88.092 Y22.279 E11.53969
G1 X87.901 Y22.384 E11.55043
G1 X87.527 Y22.506 E11.56980
G1 X87.310 Y22.533 E11.58054
G1 X86.917 Y22.508 E11.59991
G1 X86.706 Y22.454 E11.61065
G1 X86.350 Y22.287 E11.63002
G1 X86.179 Y22.162 E11.64042
G1 X86.025 Y22.018 E11.65081
G1 X85.789 Y21.694 E11.67053
G1 X85.642 Y21.321 E11.69024
G1 X85.602 Y21.114 E11.70064
G1 X85.589 Y20.903 E11.71104
G1 X85.639 Y20.505 E11.73076
G1 X85.789 Y20.126 E11.75083
G1 X86.029 Y19.796 E11.77089
G1 X86.338 Y19.541 E11.79061
G1 X86.529 Y19.436 E11.80136
G1 X86.903 Y19.314 E11.82072
G1 X87.120 Y19.287 E11.83147 F600.000
G1 X87.513 Y19.312 E11.85083
G1 X87.724 Y19.366 E11.86158
G1 X88.080 Y19.533 E11.88094
G1 X88.251 Y19.658 E11.89134
G1 X88.405 Y19.802 E11.90173
G1 X88.641 Y20.126 E11.92145
G1 X88.788 Y20.499 E11.94117
G1 X88.829 Y20.713 E11.95191
G1 X88.829 Y21.047 E11.96833
G1 X89.003 Y21.239 F9000.000
G1 E5.96833 F1800.00000
G92 E0
G1 X132.815 Y26.657 F9000.000
G1 E6.00000 F1800.00000
G1 X132.936 Y26.187 E6.02391 F600.000
G1 X133.060 Y25.923 E6.03824
G1 X133.346 Y25.530 E6.06215
G1 X133.720 Y25.221 E6.08606
G1 X133.975 Y25.080 E6.10040
G1 X134.419 Y24.936 E6.12335
G1 X134.708 Y24.900 E6.13768 F600.000
G1 X135.173 Y24.929 E6.16063
G1 X135.455 Y25.001 E6.17496
G1 X135.877 Y25.200 E6.19792
G1 X136.097 Y25.360 E6.21130
G1 X136.296 Y25.546 E6.22468
G1 X136.570 Y25.923 E6.24764
G1 X136.694 Y26.187 E6.26197
G1 X136.815 Y26.657 E6.28588
G1 X136.815 Y27.163 E6.31075
G1 X136.694 Y27.633 E6.33466
G1 X136.570 Y27.897 E6.34899
G1 X136.284 Y28.290 E6.37290
G1 X135.910 Y28.599 E6.39681
G1 X135.672 Y28.730 E6.41020
G1 X135.419 Y28.831 E6.42358
G1 X134.942 Y28.921 E6.44749
G1 X134.457 Y28.891 E6.47139
G1 X134.175 Y28.819 E6.48572
G1 X133.753 Y28.620 E6.50869
G1 X133.533 Y28.460 E6.52207
G1 X133.334 Y28.274 E6.53545
G1 X133.060 Y27.897 E6.55840
G1 X132.936 Y27.633 E6.57273
G1 X132.815 Y27.163 E6.59664
G1 X132.815 Y26.717 E6.61856
G1 X133.201 Y26.706 F9000.000
G1 X133.301 Y26.318 E6.63828 F600.000
G1 X133.394 Y26.120 E6.64902
G1 X133.629 Y25.796 E6.66874
G1 X133.938 Y25.541 E6.68846
G1 X134.129 Y25.436 E6.69920
G1 X134.503 Y25.314 E6.71857
G1 X134.720 Y25.287 E6.72931 F600.000
G1 X135.113 Y25.312 E6.74867
G1 X135.324 Y25.366 E6.75942
G1 X135.680 Y25.533 E6.77879
G1 X135.851 Y25.658 E6.78919
G1 X136.005 Y25.802 E6.79958
G1 X136.236 Y26.120 E6.81894
G1 X136.329 Y26.318 E6.82969
G1 X136.429 Y26.706 E6.84941
G1 X136.429 Y27.114 E6.86948
G1 X136.329 Y27.502 E6.88920
G1 X136.236 Y27.700 E6.89994
G1 X136.001 Y28.024 E6.91966
G1 X135.692 Y28.279 E6.93938
G1 X135.507 Y28.381 E6.94978
G1 X135.311 Y28.459 E6.96017
G1 X134.917 Y28.534 E6.97989
G1 X134.517 Y28.508 E6.99960
G1 X134.306 Y28.454 E7.01035
G1 X133.950 Y28.287 E7.02972
G1 X133.779 Y28.162 E7.04011
G1 X133.625 Y28.018 E7.05051
G1 X133.394 Y27.700 E7.06987
G1 X133.301 Y27.502 E7.08062
G1 X133.201 Y27.114 E7.10033
G1 X133.201 Y26.766 E7.11745
G1 X132.893 Y26.451 F9000.000
G1 E1.11745 F1800.00000
G92 E0
G1 X131.304 Y41.549 F9000.000
G1 E6.00000 F1800.00000
G1 X90.776 Y41.549 E7.99463 F600.000
G1 X90.776 Y39.771 E8.08217
G1 X90.876 Y39.771 E8.08709
G1 X90.876 Y25.217 E8.80335
G1 X90.678 Y25.229 E8.81309
G1 X90.528 Y24.851 E8.83312
G1 X90.307 Y24.448 E8.85576
G1 X90.036 Y24.076 E8.87838
G1 X89.718 Y23.737 E8.90128
G1 X89.170 Y23.299 E8.93577
G1 X87.244 Y23.299 E9.03059
G1 X86.758 Y23.254 E9.05460
G1 X86.477 Y23.181 E9.06888
G1 X86.198 Y23.071 E9.08364
G1 X85.935 Y22.926 E9.09840
G1 X85.693 Y22.750 E9.11316
G1 X85.474 Y22.545 E9.12793
G1 X85.285 Y22.316 E9.14256
G1 X85.122 Y22.060 E9.15746
G1 X84.995 Y21.789 E9.17220
G1 X84.902 Y21.504 E9.18696
G1 X84.846 Y21.209 E9.20172
G1 X84.827 Y20.910 E9.21648
G1 X84.846 Y20.611 E9.23124
G1 X84.902 Y20.316 E9.24601
G1 X84.995 Y20.031 E9.26077
G1 X85.121 Y19.762 E9.27540
G1 X85.283 Y19.506 E9.29030
G1 X85.474 Y19.275 E9.30504
G1 X85.693 Y19.070 E9.31980
G1 X85.935 Y18.894 E9.33457
G1 X86.198 Y18.749 E9.34932
G1 X86.477 Y18.639 E9.36408
G1 X86.767 Y18.564 E9.37884
G1 X87.067 Y18.526 E9.39370
G1 X88.045 Y18.520 E9.44182
G1 X88.347 Y18.443 E9.45716
G1 X88.774 Y18.273 E9.47979
G1 X89.177 Y18.052 E9.50242
G1 X89.549 Y17.782 E9.52505
G1 X89.884 Y17.467 E9.54769
G1 X90.178 Y17.112 E9.57032
G1 X90.424 Y16.724 E9.59295
G1 X90.620 Y16.308 E9.61558
G1 X90.676 Y16.135 E9.62453
G1 X90.876 Y16.154 E9.63440
G1 X90.876 Y6.271 E10.12081
G1 X131.154 Y6.271 E12.10313
G1 X131.154 Y22.603 E12.90693
G1 X131.352 Y22.591 E12.91666
G1 X131.502 Y22.969 E12.93670
G1 X131.723 Y23.372 E12.95933
G1 X131.993 Y23.744 E12.98196
G1 X132.312 Y24.083 E13.00486
G1 X132.860 Y24.521 E13.03935
G1 X134.786 Y24.521 E13.13417
G1 X135.272 Y24.566 E13.15818
G1 X135.553 Y24.639 E13.17247
G1 X135.832 Y24.749 E13.18722
G1 X136.095 Y24.894 E13.20198
G1 X136.337 Y25.070 E13.21674
G1 X136.556 Y25.275 E13.23151
G1 X136.747 Y25.506 E13.24627
G1 X136.908 Y25.759 E13.26102
G1 X137.035 Y26.031 E13.27578
G1 X137.128 Y26.316 E13.29054
G1 X137.184 Y26.611 E13.30531
G1 X137.203 Y26.910 E13.32006
G1 X137.184 Y27.209 E13.33482
G1 X137.128 Y27.504 E13.34959
G1 X137.035 Y27.789 E13.36435
G1 X136.909 Y28.058 E13.37898
G1 X136.747 Y28.314 E13.39388
G1 X136.556 Y28.545 E13.40862
G1 X136.337 Y28.750 E13.42337
G1 X136.092 Y28.928 E13.43827
G1 X135.832 Y29.071 E13.45291
G1 X135.553 Y29.181 E13.46766
G1 X135.262 Y29.256 E13.48242
G1 X134.963 Y29.294 E13.49728
G1 X133.985 Y29.300 E13.54540
G1 X133.683 Y29.377 E13.56074
G1 X133.256 Y29.547 E13.58337
G1 X132.853 Y29.768 E13.60600
G1 X132.481 Y30.038 E13.62863
G1 X132.146 Y30.353 E13.65127
G1 X131.852 Y30.708 E13.67390
G1 X131.606 Y31.096 E13.69653
G1 X131.410 Y31.512 E13.71916
G1 X131.354 Y31.685 E13.72810
G1 X131.154 Y31.666 E13.73798
G1 X131.154 Y39.771 E14.13685
G1 X131.304 Y39.771 E14.14424
G1 X131.304 Y41.489 E14.22883
G1 X131.690 Y41.935 F9000.000
G1 X90.390 Y41.935 E16.26141 F600.000
G1 X90.390 Y39.385 E16.38691
G1 X90.490 Y39.385 E16.39183
G1 X90.490 Y25.628 E17.06890
G1 X90.388 Y25.634 E17.07391
G1 X90.331 Y25.399 E17.08582
G1 X90.179 Y25.015 E17.10612
G1 X89.981 Y24.655 E17.12637
G1 X89.739 Y24.322 E17.14661
G1 X89.456 Y24.021 E17.16695
G1 X89.035 Y23.685 E17.19344
G1 X87.226 Y23.685 E17.28250
G1 X86.692 Y23.635 E17.30890
G1 X86.358 Y23.549 E17.32587
G1 X86.034 Y23.421 E17.34302
G1 X85.728 Y23.253 E17.36017
G1 X85.446 Y23.048 E17.37732
G1 X85.192 Y22.809 E17.39447
G1 X84.972 Y22.543 E17.41148
G1 X84.784 Y22.247 E17.42876
G1 X84.635 Y21.931 E17.44591
G1 X84.528 Y21.600 E17.46305
G1 X84.462 Y21.258 E17.48020
G1 X84.440 Y20.910 E17.49735
G1 X84.462 Y20.562 E17.51450
G1 X84.528 Y20.220 E17.53165
G1 X84.635 Y19.889 E17.54880
G1 X84.782 Y19.576 E17.56581
G1 X84.970 Y19.279 E17.58310
G1 X85.192 Y19.011 E17.60024
G1 X85.446 Y18.772 E17.61739
G1 X85.728 Y18.567 E17.63454
G1 X86.034 Y18.399 E17.65168
G1 X86.358 Y18.271 E17.66883
G1 X86.695 Y18.185 E17.68598
G1 X87.041 Y18.141 E17.70316
G1 X87.995 Y18.135 E17.75008
G1 X88.227 Y18.075 E17.76189
G1 X88.610 Y17.924 E17.78213
G1 X88.970 Y17.726 E17.80238
G1 X89.303 Y17.484 E17.82262
G1 X89.603 Y17.202 E17.84286
G1 X89.865 Y16.885 E17.86311
G1 X90.085 Y16.538 E17.88335
G1 X90.260 Y16.166 E17.90359
G1 X90.405 Y15.722 E17.92655
G1 X90.490 Y15.730 E17.93077
G1 X90.490 Y5.885 E18.41531
G1 X131.540 Y5.885 E20.43559
G1 X131.540 Y22.192 E21.23815
G1 X131.642 Y22.186 E21.24316
G1 X131.699 Y22.421 E21.25508
G1 X131.851 Y22.805 E21.27538
G1 X132.049 Y23.165 E21.29562
G1 X132.291 Y23.498 E21.31586
G1 X132.574 Y23.799 E21.33620
G1 X132.995 Y24.135 E21.36269
G1 X134.804 Y24.135 E21.45176
G1 X135.338 Y24.185 E21.47815
G1 X135.672 Y24.271 E21.49513
G1 X135.996 Y24.399 E21.51227
G1 X136.302 Y24.567 E21.52942
G1 X136.584 Y24.772 E21.54657
G1 X136.838 Y25.011 E21.56372
G1 X137.060 Y25.279 E21.58087
G1 X137.246 Y25.573 E21.59801
G1 X137.395 Y25.889 E21.61516
G1 X137.502 Y26.220 E21.63231
G1 X137.568 Y26.562 E21.64946
G1 X137.590 Y26.910 E21.66661
G1 X137.568 Y27.258 E21.68376
G1 X137.502 Y27.600 E21.70091
G1 X137.395 Y27.931 E21.71805
G1 X137.247 Y28.244 E21.73507
G1 X137.060 Y28.541 E21.75235
G1 X136.838 Y28.809 E21.76949
G1 X136.584 Y29.048 E21.78664
G1 X136.299 Y29.254 E21.80392
G1 X135.996 Y29.421 E21.82094
G1 X135.672 Y29.549 E21.83809
G1 X135.335 Y29.635 E21.85524
G1 X134.989 Y29.679 E21.87242
G1 X134.035 Y29.685 E21.91933
G1 X133.803 Y29.745 E21.93115
G1 X133.420 Y29.896 E21.95139
G1 X133.060 Y30.094 E21.97163
G1 X132.727 Y30.336 E21.99187
G1 X132.427 Y30.618 E22.01212
G1 X132.165 Y30.935 E22.03237
G1 X131.945 Y31.282 E22.05261
G1 X131.770 Y31.654 E22.07285
G1 X131.625 Y32.098 E22.09580
G1 X131.540 Y32.090 E22.10003
G1 X131.540 Y39.385 E22.45907
G1 X131.690 Y39.385 E22.46645
G1 X131.690 Y41.875 E22.58899
G1 X131.344 Y41.735 F9000.000
G1 X130.871 Y32.012 F9000.000
G1 X121.659 Y22.801 E23.23439 F600.000
G1 X121.659 Y23.350 E23.26159
G1 X130.871 Y32.561 E23.90699
G1 X130.871 Y33.110 E23.93419
G1 X121.659 Y23.899 E24.57959
G1 X121.659 Y24.448 E24.60679
G1 X130.871 Y33.659 E25.25218
G1 X130.871 Y34.208 E25.27938
G1 X121.659 Y24.997 E25.92478
G1 X121.659 Y25.546 E25.95198
G1 X130.871 Y34.757 E26.59738
G1 X130.871 Y35.306 E26.62458
G1 X121.659 Y26.095 E27.26997
G1 X121.659 Y26.644 E27.29717
G1 X130.871 Y35.855 E27.94257
G1 X130.871 Y36.404 E27.96977
G1 X121.659 Y27.193 E28.61517
G1 X121.659 Y27.742 E28.64237
G1 X130.871 Y36.953 E29.28777
G1 X130.871 Y37.502 E29.31497
G1 X121.659 Y28.291 E29.96036
G1 X121.659 Y28.840 E29.98756
G1 X130.871 Y38.051 E30.63296
G1 X130.871 Y38.600 E30.66016
G1 X121.659 Y29.389 E31.30556
G1 X121.659 Y29.938 E31.33276
G1 X130.871 Y39.149 E31.97815
G1 X130.871 Y39.698 E32.00535
G1 X121.659 Y30.487 E32.65075
G1 X121.659 Y31.036 E32.67795
G1 X131.021 Y40.397 E33.33386
G1 X131.021 Y40.946 E33.36106
G1 X121.659 Y31.585 E34.01697
G1 X121.580 Y32.054 E34.04056
G1 X130.791 Y41.266 E34.68595
G1 X130.242 Y41.266 E34.71315
G1 X121.031 Y32.054 E35.35855
G1 X120.482 Y32.054 E35.38575
G1 X129.693 Y41.266 E36.03115
G1 X129.144 Y41.266 E36.05835
G1 X119.933 Y32.054 E36.70375
G1 X119.384 Y32.054 E36.73095
G1 X128.595 Y41.266 E37.37635
G1 X128.046 Y41.266 E37.40355
G1 X118.835 Y32.054 E38.04894
G1 X118.286 Y32.054 E38.07614
G1 X127.497 Y41.266 E38.72154
G1 X126.948 Y41.266 E38.74874
G1 X117.737 Y32.054 E39.39414
G1 X117.188 Y32.054 E39.42134
G1 X126.399 Y41.266 E40.06674
G1 X125.850 Y41.266 E40.09394
G1 X116.639 Y32.054 E40.73934
G1 X116.090 Y32.054 E40.76654
G1 X125.301 Y41.266 E41.41193
G1 X124.752 Y41.266 E41.43913
G1 X115.541 Y32.054 E42.08453
G1 X114.992 Y32.054 E42.11173
G1 X124.203 Y41.266 E42.75713
G1 X123.654 Y41.266 E42.78433
G1 X114.443 Y32.054 E43.42973
G1 X113.894 Y32.054 E43.45693
G1 X123.105 Y41.266 E44.10232
G1 X122.556 Y41.266 E44.12952
G1 X113.345 Y32.054 E44.77492
G1 X112.796 Y32.054 E44.80212
G1 X122.007 Y41.266 E45.44752
G1 X121.458 Y41.266 E45.47472
G1 X112.247 Y32.054 E46.12012
G1 X111.698 Y32.054 E46.14732
G1 X120.909 Y41.266 E46.79272
G1 X120.360 Y41.266 E46.81992
G1 X111.149 Y32.054 E47.46531
G1 X110.600 Y32.054 E47.49251
G1 X119.811 Y41.266 E48.13791
G1 X119.262 Y41.266 E48.16511
G1 X110.051 Y32.054 E48.81051
G1 X109.502 Y32.054 E48.83771
G1 X118.713 Y41.266 E49.48311
G1 X118.164 Y41.266 E49.51031
G1 X108.953 Y32.054 E50.15571
G1 X108.404 Y32.054 E50.18291
G1 X117.615 Y41.266 E50.82830
G1 X117.066 Y41.266 E50.85550
G1 X107.855 Y32.054 E51.50090
G1 X107.306 Y32.054 E51.52810
G1 X116.517 Y41.266 E52.17350
G1 X115.968 Y41.266 E52.20070
G1 X106.757 Y32.054 E52.84610
G1 X106.208 Y32.054 E52.87330
G1 X115.419 Y41.266 E53.51869
G1 X114.870 Y41.266 E53.54589
G1 X105.659 Y32.054 E54.19129
G1 X105.110 Y32.054 E54.21849
G1 X114.321 Y41.266 E54.86389
G1 X113.772 Y41.266 E54.89109
G1 X90.102 Y17.596 E56.54954
G1 X90.351 Y17.296 E56.56886
G1 X104.871 Y31.815 E57.58621
G1 X104.871 Y31.266 E57.61341
G1 X90.570 Y16.966 E58.61541
G1 X90.762 Y16.609 E58.63549
G1 X104.871 Y30.717 E59.62404
G1 X104.871 Y30.168 E59.65124
G1 X91.159 Y16.457 E60.61194
G1 X91.159 Y15.908 E60.63914
G1 X104.871 Y29.619 E61.59984
G1 X104.871 Y29.070 E61.62704
G1 X91.159 Y15.359 E62.58773
G1 X91.159 Y14.810 E62.61493
G1 X104.871 Y28.521 E63.57563
G1 X104.871 Y27.972 E63.60283
G1 X91.159 Y14.261 E64.56353
G1 X91.159 Y13.712 E64.59073
G1 X104.871 Y27.423 E65.55143
G1 X104.871 Y26.874 E65.57863
G1 X91.159 Y13.163 E66.53933
G1 X91.159 Y12.614 E66.56653
G1 X104.871 Y26.325 E67.52723
G1 X104.871 Y25.776 E67.55443
G1 X91.159 Y12.065 E68.51513
G1 X91.159 Y11.516 E68.54233
G1 X104.871 Y25.227 E69.50303
G1 X104.871 Y24.678 E69.53023
G1 X91.159 Y10.967 E70.49092
G1 X91.159 Y10.418 E70.51812
G1 X104.871 Y24.129 E71.47882
G1 X104.871 Y23.580 E71.50602
G1 X91.159 Y9.869 E72.46672
G1 X91.159 Y9.320 E72.49392
G1 X104.871 Y23.031 E73.45462
G1 X104.871 Y22.482 E73.48182
G1 X91.159 Y8.771 E74.44252
G1 X91.159 Y8.222 E74.46972
G1 X105.203 Y22.266 E75.45371
