; generated by Slic3r 1.2.9 on 2018-07-15 at 14:49:35

; external perimeters extrusion width = 0.40mm
; perimeters extrusion width = 0.62mm
; infill extrusion width = 0.33mm
; solid infill extrusion width = 0.62mm
; top infill extrusion width = 0.20mm

M106 S256; Turn on fan to 100% power
M104 S140; turn on extruder temperature at S value
M140 S60; turn on bed temperature at S value
G28; home all axes
M84; disable motors
G1 Z15 F15000; have Z move to 20mm at 15000 mm/min
M190 S55; turn on bed temperature at S value and wait
M140 S55; turn on bed temperature at S value (printing temperature)
M109 S200; turn on extruder temperature at S value and wait (printing temperature)
M104 S200; turn on extruder temperature at S value
G1 Z0 F12000; move Z back to home
G21 ; set units to millimeters
G90 ; use absolute coordinates
M82 ; use absolute distances for extrusion
G92 E0
M106 S255
;Layer change
G1 E-6.00000 F1800.00000
G92 E0
G1 Z0.300 F9000.000
G1 X86.906 Y15.718 F9000.000
G1 E6.00000 F1800.00000
G1 X87.746 Y11.075 E6.23220 F600.000
G1 X87.829 Y10.725 E6.24994
G1 X87.922 Y10.439 E6.26472
G1 X88.119 Y9.993 E6.28870
G1 X88.370 Y9.575 E6.31270
G1 X88.671 Y9.192 E6.33670
G1 X89.164 Y8.729 E6.36998
G1 X89.565 Y8.452 E6.39395
G1 X89.998 Y8.228 E6.41796
G1 X90.457 Y8.059 E6.44199
G1 X90.931 Y7.949 E6.46597
G1 X91.566 Y7.895 E6.49735
G1 X135.843 Y7.897 E8.67640
G1 X136.346 Y7.941 E8.70128 F600.000
G1 X136.822 Y8.043 E8.72521
G1 X137.109 Y8.137 E8.74011
G1 X137.720 Y8.424 E8.77330
G1 X138.127 Y8.697 E8.79742
G1 X138.358 Y8.888 E8.81220
G1 X138.692 Y9.226 E8.83557
G1 X139.000 Y9.630 E8.86057
G1 X139.316 Y10.205 E8.89288
G1 X139.489 Y10.673 E8.91744
G1 X139.599 Y11.149 E8.94148
G1 X142.687 Y27.666 E9.76846
G1 X142.747 Y28.329 E9.80120
G1 X142.747 Y28.633 E9.81616
G1 X142.706 Y29.184 E9.84337
G1 X139.592 Y51.656 E10.95990
G1 X134.023 Y84.842 E12.61598
G1 X133.948 Y85.132 E12.63072
G1 X133.776 Y85.644 E12.65727
G1 X128.087 Y99.789 E13.40765
G1 X127.235 Y100.858 E13.47492
G1 X125.874 Y101.285 E13.54513
G1 X84.124 Y101.285 E15.59986
G1 X82.814 Y100.893 E15.66713
G1 X81.830 Y99.554 E15.74891
G1 X75.974 Y79.050 E16.79836
G1 X75.854 Y78.471 E16.82748
G1 X75.816 Y78.175 E16.84217
G1 X75.793 Y77.499 E16.87544
G1 X75.850 Y76.848 E16.90759
G1 X86.895 Y15.777 E19.96199
G1 E13.96199 F1800.00000
G92 E0
G1 X129.836 Y81.939 F9000.000
G1 E6.00000 F1800.00000
G1 X130.056 Y82.099 E6.01338 F600.000
G1 X130.254 Y82.285 E6.02676
G1 X130.528 Y82.662 E6.04971
G1 X130.652 Y82.926 E6.06404
G1 X130.773 Y83.396 E6.08796
G1 X130.773 Y83.902 E6.11283
G1 X130.652 Y84.372 E6.13674
G1 X130.528 Y84.636 E6.15107
G1 X130.243 Y85.029 E6.17497
G1 X129.868 Y85.338 E6.19888
G1 X129.630 Y85.469 E6.21227
G1 X129.377 Y85.570 E6.22566
G1 X128.900 Y85.660 E6.24956
G1 X128.415 Y85.630 E6.27346
G1 X128.133 Y85.558 E6.28780
G1 X127.711 Y85.359 E6.31076
G1 X127.491 Y85.199 E6.32414
G1 X127.293 Y85.013 E6.33752
G1 X127.019 Y84.636 E6.36047
G1 X126.895 Y84.372 E6.37481
G1 X126.774 Y83.902 E6.39872
G1 X126.774 Y83.396 E6.42359
G1 X126.895 Y82.926 E6.44750
G1 X127.019 Y82.662 E6.46183
G1 X127.304 Y82.269 E6.48573
G1 X127.679 Y81.960 E6.50964
G1 X127.917 Y81.829 E6.52303
G1 X128.170 Y81.728 E6.53642
G1 X128.647 Y81.638 E6.56033 F600.000
G1 X129.132 Y81.668 E6.58422
G1 X129.414 Y81.740 E6.59856
G1 X129.782 Y81.913 E6.61857
G1 X129.639 Y82.272 F9000.000
G1 X129.810 Y82.397 E6.62896 F600.000
G1 X129.964 Y82.541 E6.63936
G1 X130.195 Y82.859 E6.65872
G1 X130.288 Y83.057 E6.66947
G1 X130.388 Y83.445 E6.68919
G1 X130.388 Y83.853 E6.70926
G1 X130.288 Y84.241 E6.72898
G1 X130.195 Y84.439 E6.73972
G1 X129.959 Y84.763 E6.75944
G1 X129.651 Y85.018 E6.77916
G1 X129.466 Y85.120 E6.78955
G1 X129.269 Y85.198 E6.79995
G1 X128.876 Y85.273 E6.81967
G1 X128.476 Y85.247 E6.83938
G1 X128.264 Y85.193 E6.85012
G1 X127.908 Y85.026 E6.86950
G1 X127.737 Y84.901 E6.87989
G1 X127.583 Y84.757 E6.89028
G1 X127.352 Y84.439 E6.90965
G1 X127.259 Y84.241 E6.92039
G1 X127.160 Y83.853 E6.94011
G1 X127.160 Y83.445 E6.96019
G1 X127.259 Y83.057 E6.97990
G1 X127.352 Y82.859 E6.99065
G1 X127.588 Y82.535 E7.01036
G1 X127.896 Y82.280 E7.03008
G1 X128.081 Y82.178 E7.04048
G1 X128.278 Y82.100 E7.05088
G1 X128.671 Y82.025 E7.07059 F600.000
G1 X129.071 Y82.051 E7.09030
G1 X129.283 Y82.105 E7.10105
G1 X129.585 Y82.247 E7.11747
G1 X129.826 Y82.175 F9000.000
G1 X115.720 Y78.903 F9000.000
G1 X115.720 Y88.895 E7.60925 F600.000
G1 X98.727 Y88.895 E8.44554
G1 X98.727 Y78.903 E8.93732
G1 X115.660 Y78.903 E9.77065
G1 X115.334 Y79.288 F9000.000
G1 X115.334 Y88.510 E10.22447 F600.000
G1 X99.113 Y88.510 E11.02280
G1 X99.113 Y79.288 E11.47663
G1 X115.274 Y79.288 E12.27200
G1 X114.949 Y79.674 F9000.000
G1 X114.949 Y88.124 E12.68787 F600.000
G1 X99.499 Y88.124 E13.44824
G1 X99.499 Y79.674 E13.86411
G1 X114.889 Y79.674 E14.62153
G1 X115.349 Y79.674 F9000.000
G1 X124.727 Y79.752 F9000.000
G1 X125.055 Y79.732 E14.63769 F600.000
G1 X125.111 Y79.873 E14.64513
G1 X125.355 Y80.318 E14.67015
G1 X125.654 Y80.729 E14.69517
G1 X126.008 Y81.106 E14.72062
G1 X126.683 Y81.645 E14.76312
G1 X127.454 Y81.645 E14.80105
G1 X127.021 Y82.003 E14.82869
G1 X126.685 Y82.465 E14.85678
G1 X126.530 Y82.794 E14.87470
G1 X126.388 Y83.348 E14.90280
G1 X126.388 Y83.950 E14.93247
G1 X126.530 Y84.503 E14.96057
G1 X126.685 Y84.833 E14.97849
G1 X127.002 Y85.269 E15.00503
G1 X127.245 Y85.497 E15.02140
G1 X127.567 Y85.731 E15.04102
G1 X127.050 Y85.936 E15.06840
G1 X126.604 Y86.181 E15.09342
G1 X126.193 Y86.480 E15.11844
G1 X125.822 Y86.828 E15.14347
G1 X125.498 Y87.220 E15.16849
G1 X125.226 Y87.649 E15.19350
G1 X125.055 Y88.012 E15.21326
G1 X124.727 Y87.981 E15.22947
G1 X124.727 Y96.895 E15.66819
G1 X124.877 Y96.895 E15.67557
G1 X124.877 Y97.903 E15.72515
G1 X85.120 Y97.903 E17.68182
G1 X85.120 Y96.895 E17.73141
G1 X85.220 Y96.895 E17.73633
G1 X85.220 Y81.545 E18.49179
G1 X84.892 Y81.566 E18.50795
G1 X84.836 Y81.425 E18.51538
G1 X84.592 Y80.980 E18.54040
G1 X84.293 Y80.569 E18.56542
G1 X83.939 Y80.192 E18.59086
G1 X83.264 Y79.653 E18.63337
G1 X82.493 Y79.653 E18.67130
G1 X82.926 Y79.295 E18.69893
G1 X83.262 Y78.833 E18.72703
G1 X83.403 Y78.532 E18.74341
G1 X83.506 Y78.215 E18.75978
G1 X83.578 Y77.649 E18.78788
G1 X83.506 Y77.083 E18.81598
G1 X83.403 Y76.766 E18.83235
G1 X83.262 Y76.465 E18.84872
G1 X82.926 Y76.003 E18.87682
G1 X82.392 Y75.562 E18.91091
G1 X82.897 Y75.362 E18.93762
G1 X83.343 Y75.117 E18.96264
G1 X83.754 Y74.818 E18.98766
G1 X84.125 Y74.470 E19.01269
G1 X84.449 Y74.078 E19.03771
G1 X84.721 Y73.649 E19.06272
G1 X84.892 Y73.286 E19.08249
G1 X85.220 Y73.317 E19.09869
G1 X85.220 Y63.395 E19.58698
G1 X124.727 Y63.395 E21.53135
G1 X124.727 Y79.692 E22.33341
G1 X83.189 Y77.649 F9000.000
G1 X83.128 Y78.131 E22.35732 F600.000
G1 X83.044 Y78.390 E22.37071
G1 X82.928 Y78.636 E22.38409
G1 X82.643 Y79.029 E22.40800
G1 X82.268 Y79.338 E22.43191
G1 X82.030 Y79.469 E22.44529
G1 X81.777 Y79.570 E22.45868
G1 X81.300 Y79.660 E22.48259
G1 X80.815 Y79.630 E22.50649
G1 X80.533 Y79.558 E22.52082
G1 X80.111 Y79.359 E22.54378
G1 X79.891 Y79.199 E22.55717
G1 X79.693 Y79.013 E22.57054
G1 X79.407 Y78.620 E22.59446
G1 X79.229 Y78.168 E22.61837
G1 X79.178 Y77.901 E22.63175
G1 X79.160 Y77.630 E22.64513
G1 X79.221 Y77.148 E22.66904
G1 X79.407 Y76.678 E22.69391
G1 X79.704 Y76.269 E22.71877
G1 X80.079 Y75.960 E22.74268
G1 X80.317 Y75.829 E22.75607
G1 X80.570 Y75.728 E22.76945
G1 X81.047 Y75.638 E22.79336 F600.000
G1 X81.551 Y75.669 E22.81822
G1 X82.013 Y75.819 E22.84213
G1 X82.268 Y75.960 E22.85646
G1 X82.643 Y76.269 E22.88037
G1 X82.928 Y76.662 E22.90428
G1 X83.044 Y76.908 E22.91766
G1 X83.128 Y77.167 E22.93105
G1 X83.181 Y77.589 E22.95200
G1 X82.800 Y77.649 F9000.000
G1 X82.750 Y78.047 E22.97172 F600.000
G1 X82.685 Y78.247 E22.98212
G1 X82.595 Y78.439 E22.99252
G1 X82.359 Y78.763 E23.01223
G1 X82.051 Y79.018 E23.03195
G1 X81.866 Y79.120 E23.04235
G1 X81.669 Y79.198 E23.05274
G1 X81.276 Y79.273 E23.07246
G1 X80.876 Y79.247 E23.09217
G1 X80.664 Y79.193 E23.10292
G1 X80.308 Y79.026 E23.12229
G1 X80.137 Y78.901 E23.13268
G1 X79.983 Y78.757 E23.14307
G1 X79.748 Y78.433 E23.16279
G1 X79.600 Y78.060 E23.18251
G1 X79.561 Y77.853 E23.19291
G1 X79.548 Y77.642 E23.20330
G1 X79.598 Y77.244 E23.22302
G1 X79.748 Y76.865 E23.24309
G1 X79.988 Y76.535 E23.26316
G1 X80.296 Y76.280 E23.28288
G1 X80.481 Y76.178 E23.29327
G1 X80.678 Y76.100 E23.30367
G1 X81.071 Y76.025 E23.32339 F600.000
G1 X81.478 Y76.051 E23.34345
G1 X81.859 Y76.175 E23.36317
G1 X82.051 Y76.280 E23.37392
G1 X82.359 Y76.535 E23.39363
G1 X82.595 Y76.859 E23.41335
G1 X82.685 Y77.051 E23.42375
G1 X82.750 Y77.252 E23.43414
G1 X82.793 Y77.589 E23.45091
G1 X83.138 Y77.863 F9000.000
G1 E17.45091 F1800.00000
G92 E0
G1 X84.834 Y63.010 F9000.000
G1 E6.00000 F1800.00000
G1 X125.113 Y63.010 E7.98232 F600.000
G1 X125.113 Y79.342 E8.78612
G1 X125.310 Y79.330 E8.79585
G1 X125.460 Y79.708 E8.81589
G1 X125.682 Y80.111 E8.83852
G1 X125.952 Y80.483 E8.86115
G1 X126.270 Y80.822 E8.88405
G1 X126.818 Y81.260 E8.91854
G1 X128.745 Y81.260 E9.01336
G1 X129.230 Y81.305 E9.03737
G1 X129.512 Y81.378 E9.05165
G1 X129.790 Y81.488 E9.06641
G1 X130.053 Y81.633 E9.08117
G1 X130.296 Y81.809 E9.09593
G1 X130.514 Y82.014 E9.11070
G1 X130.704 Y82.243 E9.12533
G1 X130.866 Y82.499 E9.14022
G1 X130.994 Y82.770 E9.15497
G1 X131.087 Y83.055 E9.16973
G1 X131.143 Y83.350 E9.18449
G1 X131.162 Y83.649 E9.19925
G1 X131.143 Y83.948 E9.21401
G1 X131.087 Y84.243 E9.22878
G1 X130.994 Y84.528 E9.24354
G1 X130.866 Y84.800 E9.25830
G1 X130.706 Y85.053 E9.27305
G1 X130.514 Y85.284 E9.28781
G1 X130.296 Y85.489 E9.30257
G1 X130.053 Y85.665 E9.31733
G1 X129.790 Y85.810 E9.33210
G1 X129.512 Y85.920 E9.34685
G1 X129.221 Y85.995 E9.36161
G1 X128.922 Y86.033 E9.37647
G1 X127.944 Y86.039 E9.42459
G1 X127.642 Y86.116 E9.43993
G1 X127.214 Y86.286 E9.46256
G1 X126.811 Y86.507 E9.48519
G1 X126.439 Y86.777 E9.50782
G1 X126.104 Y87.092 E9.53046
G1 X125.811 Y87.447 E9.55309
G1 X125.565 Y87.835 E9.57572
G1 X125.369 Y88.251 E9.59835
G1 X125.313 Y88.424 E9.60729
G1 X125.113 Y88.405 E9.61717
G1 X125.113 Y96.510 E10.01605
G1 X125.263 Y96.510 E10.02343
G1 X125.263 Y98.288 E10.11097
G1 X84.734 Y98.288 E12.10560
G1 X84.734 Y96.510 E12.19314
G1 X84.834 Y96.510 E12.19806
G1 X84.834 Y81.956 E12.91433
G1 X84.637 Y81.968 E12.92407
G1 X84.487 Y81.590 E12.94409
G1 X84.265 Y81.187 E12.96673
G1 X83.995 Y80.815 E12.98935
G1 X83.677 Y80.476 E13.01225
G1 X83.129 Y80.038 E13.04674
G1 X81.202 Y80.038 E13.14156
G1 X80.717 Y79.993 E13.16557
G1 X80.436 Y79.920 E13.17986
G1 X80.157 Y79.810 E13.19462
G1 X79.894 Y79.665 E13.20937
G1 X79.651 Y79.489 E13.22414
G1 X79.433 Y79.284 E13.23890
G1 X79.243 Y79.055 E13.25353
G1 X79.081 Y78.799 E13.26843
G1 X78.953 Y78.528 E13.28317
G1 X78.860 Y78.243 E13.29793
G1 X78.804 Y77.948 E13.31270
G1 X78.785 Y77.649 E13.32746
G1 X78.804 Y77.350 E13.34222
G1 X78.860 Y77.055 E13.35698
G1 X78.953 Y76.770 E13.37174
G1 X79.080 Y76.501 E13.38637
G1 X79.242 Y76.245 E13.40127
G1 X79.433 Y76.014 E13.41601
G1 X79.651 Y75.809 E13.43078
G1 X79.894 Y75.633 E13.44554
G1 X80.157 Y75.488 E13.46030
G1 X80.436 Y75.378 E13.47506
G1 X80.726 Y75.303 E13.48982
G1 X81.025 Y75.265 E13.50467
G1 X82.003 Y75.259 E13.55279
G1 X82.305 Y75.182 E13.56813
G1 X82.733 Y75.012 E13.59076
G1 X83.136 Y74.791 E13.61339
G1 X83.508 Y74.521 E13.63602
G1 X83.843 Y74.206 E13.65866
G1 X84.136 Y73.851 E13.68129
G1 X84.382 Y73.463 E13.70392
G1 X84.578 Y73.047 E13.72655
G1 X84.634 Y72.874 E13.73550
G1 X84.834 Y72.893 E13.74537
G1 X84.834 Y63.070 E14.22883
G1 X84.449 Y62.624 F9000.000
G1 X125.499 Y62.624 E16.24911 F600.000
G1 X125.499 Y78.931 E17.05168
G1 X125.600 Y78.925 E17.05669
G1 X125.658 Y79.160 E17.06860
G1 X125.810 Y79.544 E17.08890
G1 X126.008 Y79.904 E17.10915
G1 X126.250 Y80.237 E17.12939
G1 X126.533 Y80.538 E17.14973
G1 X126.953 Y80.874 E17.17622
G1 X128.763 Y80.874 E17.26528
G1 X129.297 Y80.924 E17.29168
G1 X129.631 Y81.010 E17.30865
G1 X129.955 Y81.138 E17.32580
G1 X130.260 Y81.306 E17.34295
G1 X130.542 Y81.511 E17.36010
G1 X130.796 Y81.750 E17.37725
G1 X131.017 Y82.016 E17.39426
G1 X131.205 Y82.312 E17.41154
G1 X131.353 Y82.628 E17.42869
G1 X131.461 Y82.959 E17.44583
G1 X131.526 Y83.301 E17.46298
G1 X131.548 Y83.649 E17.48013
G1 X131.526 Y83.997 E17.49728
G1 X131.461 Y84.339 E17.51443
G1 X131.353 Y84.670 E17.53158
G1 X131.205 Y84.986 E17.54873
G1 X131.018 Y85.280 E17.56587
G1 X130.796 Y85.548 E17.58302
G1 X130.542 Y85.787 E17.60017
G1 X130.260 Y85.992 E17.61732
G1 X129.955 Y86.160 E17.63447
G1 X129.631 Y86.288 E17.65161
G1 X129.293 Y86.374 E17.66876
G1 X128.947 Y86.418 E17.68594
G1 X127.994 Y86.424 E17.73286
G1 X127.761 Y86.484 E17.74467
G1 X127.379 Y86.635 E17.76491
G1 X127.018 Y86.833 E17.78516
G1 X126.686 Y87.075 E17.80540
G1 X126.386 Y87.357 E17.82564
G1 X126.124 Y87.674 E17.84589
G1 X125.903 Y88.021 E17.86613
G1 X125.728 Y88.393 E17.88637
G1 X125.584 Y88.837 E17.90933
G1 X125.499 Y88.829 E17.91355
G1 X125.499 Y96.124 E18.27259
G1 X125.649 Y96.124 E18.27997
G1 X125.649 Y98.674 E18.40547
G1 X84.349 Y98.674 E20.43805
G1 X84.349 Y96.124 E20.56355
G1 X84.449 Y96.124 E20.56847
G1 X84.449 Y82.366 E21.24555
G1 X84.347 Y82.373 E21.25056
G1 X84.289 Y82.138 E21.26247
G1 X84.137 Y81.754 E21.28277
G1 X83.939 Y81.394 E21.30301
G1 X83.697 Y81.061 E21.32325
G1 X83.414 Y80.760 E21.34360
G1 X82.994 Y80.424 E21.37008
G1 X81.184 Y80.424 E21.45915
G1 X80.650 Y80.374 E21.48555
G1 X80.316 Y80.288 E21.50252
G1 X79.992 Y80.160 E21.51967
G1 X79.687 Y79.992 E21.53681
G1 X79.405 Y79.787 E21.55396
G1 X79.151 Y79.548 E21.57111
G1 X78.931 Y79.282 E21.58813
G1 X78.742 Y78.986 E21.60541
G1 X78.594 Y78.670 E21.62255
G1 X78.486 Y78.339 E21.63970
G1 X78.421 Y77.997 E21.65685
G1 X78.399 Y77.649 E21.67400
G1 X78.421 Y77.301 E21.69115
G1 X78.486 Y76.959 E21.70830
G1 X78.594 Y76.628 E21.72544
G1 X78.741 Y76.315 E21.74246
G1 X78.929 Y76.018 E21.75975
G1 X79.151 Y75.750 E21.77688
G1 X79.405 Y75.511 E21.79403
G1 X79.687 Y75.306 E21.81118
G1 X79.992 Y75.138 E21.82833
G1 X80.316 Y75.010 E21.84548
G1 X80.654 Y74.924 E21.86263
G1 X81.000 Y74.880 E21.87981
G1 X81.953 Y74.874 E21.92673
G1 X82.186 Y74.814 E21.93854
G1 X82.568 Y74.663 E21.95878
G1 X82.929 Y74.465 E21.97902
G1 X83.261 Y74.223 E21.99927
G1 X83.561 Y73.941 E22.01951
G1 X83.823 Y73.624 E22.03976
G1 X84.044 Y73.277 E22.06000
G1 X84.219 Y72.905 E22.08024
G1 X84.363 Y72.461 E22.10320
G1 X84.449 Y72.469 E22.10742
G1 X84.449 Y62.684 E22.58900
G1 X84.795 Y62.824 F9000.000
G1 X85.504 Y73.506 F9000.000
G1 X98.443 Y86.446 E23.49014 F600.000
G1 X98.443 Y85.901 E23.51701
G1 X85.504 Y72.961 E24.41816
G1 X85.504 Y72.415 E24.44503
G1 X98.443 Y85.355 E25.34617
G1 X98.443 Y84.809 E25.37304
G1 X85.504 Y71.869 E26.27418
G1 X85.504 Y71.324 E26.30105
G1 X98.443 Y84.264 E27.20219
G1 X98.443 Y83.718 E27.22906
G1 X85.504 Y70.778 E28.13020
G1 X85.504 Y70.232 E28.15707
G1 X98.443 Y83.172 E29.05821
G1 X98.443 Y82.627 E29.08508
G1 X85.504 Y69.687 E29.98622
G1 X85.504 Y69.141 E30.01309
G1 X98.443 Y82.081 E30.91423
G1 X98.443 Y81.535 E30.94110
G1 X85.504 Y68.595 E31.84225
G1 X85.504 Y68.050 E31.86912
G1 X98.443 Y80.990 E32.77026
G1 X98.443 Y80.444 E32.79713
G1 X85.504 Y67.504 E33.69827
G1 X85.504 Y66.959 E33.72514
G1 X98.443 Y79.898 E34.62628
G1 X98.443 Y79.353 E34.65315
G1 X85.504 Y66.413 E35.55429
G1 X85.504 Y65.867 E35.58116
G1 X98.443 Y78.807 E36.48230
G1 X98.801 Y78.619 F9000.000
G1 X85.504 Y65.322 E37.40834 F600.000
G1 X85.504 Y64.776 E37.43521
G1 X99.347 Y78.619 E38.39925
G1 X99.892 Y78.619 E38.42612
G1 X85.504 Y64.230 E39.42816
G1 X85.521 Y63.702 E39.45419
G1 X100.438 Y78.619 E40.49303
G1 X100.984 Y78.619 E40.51990
G1 X86.044 Y63.679 E41.56032
G1 X86.589 Y63.679 E41.58719
G1 X101.529 Y78.619 E42.62761
G1 X102.075 Y78.619 E42.65448
G1 X87.135 Y63.679 E43.69490
G1 X87.681 Y63.679 E43.72177
G1 X102.621 Y78.619 E44.76220
G1 X103.166 Y78.619 E44.78907
G1 X88.226 Y63.679 E45.82949
G1 X88.772 Y63.679 E45.85636
G1 X103.712 Y78.619 E46.89678
G1 X104.258 Y78.619 E46.92365
G1 X89.318 Y63.679 E47.96407
G1 X89.863 Y63.679 E47.99094
G1 X104.803 Y78.619 E49.03136
G1 X105.349 Y78.619 E49.05823
G1 X90.409 Y63.679 E50.09865
