; generated by Slic3r 1.2.9 on 2019-09-17 at 13:35:50

; external perimeters extrusion width = 0.40mm
; perimeters extrusion width = 0.62mm
; infill extrusion width = 0.33mm
; solid infill extrusion width = 0.62mm
; top infill extrusion width = 0.20mm
; support material extrusion width = 0.40mm

M106 S256; Turn on fan to 100% power
M104 S140; turn on extruder temperature at S value
M140 S60; turn on bed temperature at S value
G28; home all axes
M84; disable motors
G1 Z15 F15000; have Z move to 20mm at 15000 mm/min
M190 S55; turn on bed temperature at S value and wait
M140 S55; turn on bed temperature at S value (printing temperature)
M109 S200; turn on extruder temperature at S value and wait (printing temperature)
M104 S200; turn on extruder temperature at S value
G1 Z0 F12000; move Z back to home
G21 ; set units to millimeters
G90 ; use absolute coordinates
M82 ; use absolute distances for extrusion
G92 E0
M106 S255
;Layer change
G1 E-6.00000 F1800.00000
G92 E0
G1 Z0.300 F9000.000
G1 X40.228 Y29.198 F9000.000
G1 E6.00000 F1800.00000
G1 X40.423 Y28.960 E6.01479 F600.000
G1 X40.770 Y28.619 E6.03816
G1 X41.158 Y28.322 E6.06166
G1 X41.582 Y28.076 E6.08527
G1 X42.028 Y27.887 E6.10859
G1 X42.498 Y27.754 E6.13206
G1 X43.168 Y27.669 E6.16456
G1 X87.549 Y27.665 E8.29913
G1 X149.193 Y28.468 E11.26423 F600.000
G1 X150.497 Y28.877 E11.32998
G1 X151.453 Y30.188 E11.40801
G1 X157.408 Y50.692 E12.43494
G1 X157.532 Y51.282 E12.46392
G1 X157.593 Y51.954 E12.49639
G1 X157.593 Y52.254 E12.51079
G1 X157.531 Y52.927 E12.54329
G1 X157.386 Y53.587 E12.57580
G1 X157.214 Y54.098 E12.60175
G1 X151.525 Y68.244 E13.33507
G1 X150.673 Y69.313 E13.40082
G1 X149.500 Y69.732 E13.46071
G1 X87.668 Y74.631 E16.44398
G1 X43.318 Y74.636 E18.57703
G1 X42.738 Y74.590 E18.60501
G1 X42.263 Y74.488 E18.62839
G1 X41.975 Y74.394 E18.64297
G1 X41.530 Y74.198 E18.66635
G1 X41.110 Y73.945 E18.68995
G1 X40.727 Y73.643 E18.71339
G1 X40.393 Y73.305 E18.73626
G1 X40.272 Y73.160 E18.74535
G1 X39.984 Y72.742 E18.76976
G1 X39.768 Y72.326 E18.79227
G1 X39.595 Y71.857 E18.81630
G1 X39.485 Y71.377 E18.84003
G1 X36.397 Y54.865 E19.64797
G1 X36.337 Y54.202 E19.67998
G1 X36.337 Y53.898 E19.69458
G1 X36.379 Y53.347 E19.72117
G1 X39.482 Y30.942 E20.80907
G1 X39.578 Y30.503 E20.83065
G1 X39.746 Y30.026 E20.85500
G1 X39.963 Y29.595 E20.87821
G1 X40.193 Y29.246 E20.89828
G1 E14.89828 F1800.00000
G92 E0
G1 X43.539 Y54.497 F9000.000
G1 E6.00000 F1800.00000
G1 X43.466 Y54.722 E6.01138 F600.000
G1 X43.365 Y54.936 E6.02276
G1 X43.104 Y55.295 E6.04409
G1 X42.927 Y55.461 E6.05578
G1 X42.546 Y55.703 E6.07748
G1 X42.117 Y55.842 E6.09914
G1 X41.882 Y55.872 E6.11054
G1 X41.654 Y55.872 E6.12152
G1 X41.426 Y55.843 E6.13258
G1 X41.204 Y55.786 E6.14358
G1 X40.985 Y55.699 E6.15495
G1 X40.604 Y55.458 E6.17665
G1 X40.296 Y55.129 E6.19830
G1 X40.169 Y54.930 E6.20967
G1 X40.071 Y54.722 E6.22071
G1 X39.998 Y54.497 E6.23209
G1 X39.941 Y54.050 E6.25376
G1 X39.998 Y53.603 E6.27544
G1 X40.071 Y53.378 E6.28682
G1 X40.172 Y53.164 E6.29820
G1 X40.433 Y52.805 E6.31952
G1 X40.610 Y52.639 E6.33122
G1 X40.991 Y52.397 E6.35292
G1 X41.419 Y52.258 E6.37458
G1 X41.654 Y52.228 E6.38598
G1 X41.882 Y52.228 E6.39695 F600.000
G1 X42.110 Y52.257 E6.40801
G1 X42.332 Y52.314 E6.41901
G1 X42.552 Y52.401 E6.43038
G1 X42.933 Y52.642 E6.45208
G1 X43.241 Y52.971 E6.47374
G1 X43.368 Y53.170 E6.48510
G1 X43.466 Y53.378 E6.49615
G1 X43.539 Y53.603 E6.50753
G1 X43.595 Y54.050 E6.52920
G1 X43.546 Y54.438 E6.54799
G1 X43.708 Y54.663 F9000.000
G1 E0.54799 F1800.00000
G92 E0
G1 X39.557 Y54.017 F9000.000
G1 E6.00000 F1800.00000
G1 X39.333 Y53.996 E6.01079 F600.000
G1 X39.349 Y53.750 E6.02263
G1 X39.395 Y53.510 E6.03441
G1 X39.616 Y53.545 E6.04519
G1 X39.564 Y53.958 E6.06521
G1 X39.557 Y54.083 F9000.000
G1 X39.616 Y54.555 E6.08812 F600.000
G1 X39.395 Y54.590 E6.09890
G1 X39.349 Y54.350 E6.11068
G1 X39.333 Y54.104 E6.12252
G1 X39.497 Y54.088 E6.13042
G1 E0.13042 F1800.00000
G92 E0
G1 X87.357 Y48.279 F9000.000
G1 E6.00000 F1800.00000
G1 X87.343 Y48.050 E6.01102 F600.000
G1 X87.357 Y47.821 E6.02205
G1 X87.400 Y47.596 E6.03308
G1 X87.471 Y47.378 E6.04410
G1 X87.569 Y47.171 E6.05513
G1 X87.691 Y46.977 E6.06616
G1 X87.838 Y46.800 E6.07718
G1 X88.005 Y46.643 E6.08820
G1 X88.190 Y46.509 E6.09923
G1 X88.391 Y46.398 E6.11026
G1 X88.604 Y46.314 E6.12128
G1 X88.826 Y46.257 E6.13231
G1 X89.054 Y46.228 E6.14333
G1 X89.283 Y46.228 E6.15436 F600.000
G1 X89.510 Y46.257 E6.16538
G1 X89.732 Y46.314 E6.17641
G1 X89.945 Y46.398 E6.18743
G1 X90.146 Y46.509 E6.19846
G1 X90.332 Y46.643 E6.20949
G1 X90.499 Y46.800 E6.22051
G1 X90.645 Y46.977 E6.23153
G1 X90.768 Y47.171 E6.24256
G1 X90.865 Y47.378 E6.25359
G1 X90.936 Y47.596 E6.26461
G1 X90.979 Y47.821 E6.27564
G1 X90.994 Y48.050 E6.28667
G1 X90.979 Y48.279 E6.29769
G1 X90.936 Y48.504 E6.30872
G1 X90.865 Y48.722 E6.31974
G1 X90.768 Y48.929 E6.33077
G1 X90.645 Y49.123 E6.34180
G1 X90.499 Y49.300 E6.35282
G1 X90.332 Y49.457 E6.36384
G1 X90.146 Y49.591 E6.37487
G1 X89.945 Y49.702 E6.38590
G1 X89.732 Y49.786 E6.39692
G1 X89.510 Y49.843 E6.40795
G1 X89.283 Y49.872 E6.41897
G1 X89.054 Y49.872 E6.43000
G1 X88.826 Y49.843 E6.44102
G1 X88.604 Y49.786 E6.45205
G1 X88.391 Y49.702 E6.46308
G1 X88.190 Y49.591 E6.47410
G1 X88.005 Y49.457 E6.48513
G1 X87.838 Y49.300 E6.49615
G1 X87.691 Y49.123 E6.50718
G1 X87.569 Y48.929 E6.51821
G1 X87.471 Y48.722 E6.52923
G1 X87.368 Y48.338 E6.54836
G1 X87.146 Y48.190 F9000.000
G1 E0.54836 F1800.00000
G92 E0
G1 X90.101 Y50.303 F9000.000
G1 E6.00000 F1800.00000
G1 X90.009 Y50.107 E6.01045 F600.000
G1 X90.353 Y49.918 E6.02935
G1 X90.578 Y49.754 E6.04271
G1 X90.780 Y49.564 E6.05607
G1 X90.958 Y49.350 E6.06943
G1 X91.106 Y49.115 E6.08279
G1 X91.225 Y48.864 E6.09615
G1 X91.310 Y48.600 E6.10950
G1 X91.363 Y48.327 E6.12287
G1 X91.380 Y48.050 E6.13623
G1 X91.363 Y47.773 E6.14959
G1 X91.310 Y47.500 E6.16295
G1 X91.225 Y47.236 E6.17630
G1 X91.106 Y46.984 E6.18966
G1 X90.958 Y46.750 E6.20303
G1 X90.780 Y46.536 E6.21639
G1 X90.578 Y46.346 E6.22974
G1 X90.353 Y46.182 E6.24311
G1 X90.009 Y45.993 E6.26200
G1 X90.101 Y45.797 E6.27245
G1 X90.335 Y45.889 E6.28453
G1 X90.598 Y46.034 E6.29896
G1 X90.840 Y46.210 E6.31339
G1 X91.059 Y46.415 E6.32781
G1 X91.250 Y46.646 E6.34224
G1 X91.411 Y46.899 E6.35665
G1 X91.539 Y47.171 E6.37108
G1 X91.631 Y47.456 E6.38551
G1 X91.687 Y47.751 E6.39993
G1 X91.706 Y48.050 E6.41436
G1 X91.687 Y48.349 E6.42878
G1 X91.631 Y48.644 E6.44321
G1 X91.539 Y48.929 E6.45763
G1 X91.416 Y49.189 E6.47145
G1 X91.249 Y49.455 E6.48654
G1 X91.059 Y49.685 E6.50089
G1 X90.840 Y49.890 E6.51532
G1 X90.598 Y50.066 E6.52975
G1 X90.335 Y50.211 E6.54418
G1 X90.157 Y50.281 E6.55337
G1 X71.764 Y49.304 F9000.000
G1 X71.764 Y59.296 E7.03397 F600.000
G1 X54.772 Y59.296 E7.85125
G1 X54.772 Y49.304 E8.33186
G1 X71.704 Y49.304 E9.14625
G1 X71.379 Y49.689 F9000.000
G1 X71.379 Y58.911 E9.58976 F600.000
G1 X55.158 Y58.911 E10.36995
G1 X55.158 Y49.689 E10.81346
G1 X71.319 Y49.689 E11.59076
G1 X70.993 Y50.075 F9000.000
G1 X70.993 Y58.525 E11.99718 F600.000
G1 X55.543 Y58.525 E12.74027
G1 X55.543 Y50.075 E13.14668
G1 X70.933 Y50.075 E13.88689
G1 X71.393 Y50.075 F9000.000
G1 X87.883 Y71.093 F9000.000
G1 X87.731 Y71.203 E13.89592 F600.000
G1 X87.487 Y71.254 E13.90792
G1 X43.365 Y71.254 E16.03003
G1 X43.240 Y71.242 E16.03606
G1 X43.077 Y71.189 E16.04433
G1 X42.931 Y71.068 E16.05343
G1 X42.842 Y70.905 E16.06235
G1 X42.814 Y70.687 E16.07292
G1 X42.814 Y56.446 E16.75790
G1 X43.402 Y56.073 E16.79136
G1 X43.685 Y55.807 E16.81006
G1 X44.031 Y55.331 E16.83833
G1 X44.184 Y55.007 E16.85557
G1 X44.295 Y54.666 E16.87284
G1 X44.372 Y54.050 E16.90269
G1 X44.295 Y53.434 E16.93253
G1 X44.184 Y53.093 E16.94980
G1 X44.044 Y52.797 E16.96555
G1 X43.853 Y52.496 E16.98270
G1 X43.428 Y52.044 E17.01253
G1 X42.903 Y51.711 E17.04244
G1 X42.814 Y51.675 E17.04703
G1 X42.814 Y31.598 E18.01270
G1 X42.841 Y31.394 E18.02256
G1 X42.953 Y31.207 E18.03307
G1 X43.133 Y31.084 E18.04357
G1 X43.381 Y31.046 E18.05561
G1 X87.476 Y31.049 E20.17646
G1 X87.673 Y31.073 E20.18599
G1 X87.861 Y31.185 E20.19652
G1 X87.971 Y31.337 E20.20554
G1 X88.010 Y31.488 E20.21307
G1 X88.023 Y45.721 E20.89760
G1 X87.776 Y45.856 E20.91113
G1 X87.512 Y46.048 E20.92682
G1 X87.274 Y46.271 E20.94251
G1 X87.066 Y46.523 E20.95820
G1 X86.891 Y46.798 E20.97391
G1 X86.752 Y47.094 E20.98960
G1 X86.652 Y47.404 E21.00528
G1 X86.590 Y47.724 E21.02098
G1 X86.570 Y48.050 E21.03668
G1 X86.590 Y48.376 E21.05237
G1 X86.652 Y48.696 E21.06807
G1 X86.752 Y49.006 E21.08375
G1 X86.891 Y49.302 E21.09944
G1 X87.066 Y49.577 E21.11515
G1 X87.274 Y49.829 E21.13084
G1 X87.512 Y50.052 E21.14653
G1 X87.776 Y50.244 E21.16223
G1 X88.022 Y50.379 E21.17572
G1 X88.022 Y70.703 E22.15324
G1 X88.010 Y70.828 E22.15927
G1 X87.967 Y70.961 E22.16601
G1 X87.915 Y71.042 E22.17063
G1 X88.408 Y50.447 F9000.000
G1 X88.408 Y70.721 E23.14576 F600.000
G1 X88.390 Y70.906 E23.15471
G1 X88.318 Y71.127 E23.16585
G1 X88.189 Y71.330 E23.17744
G1 X88.139 Y71.383 E23.18095
G1 X87.863 Y71.568 E23.19694
G1 X87.610 Y71.632 E23.20947
G1 X87.499 Y71.639 E23.21483
G1 X43.347 Y71.639 E25.33840
G1 X43.162 Y71.622 E25.34735
G1 X42.859 Y71.509 E25.36287
G1 X42.611 Y71.286 E25.37893
G1 X42.486 Y71.059 E25.39139
G1 X42.429 Y70.712 E25.40832
G1 X42.429 Y56.452 E26.09417
G1 X42.132 Y56.446 E26.10843
G1 X42.104 Y56.252 E26.11784
G1 X42.711 Y56.055 E26.14857
G1 X43.164 Y55.767 E26.17437
G1 X43.394 Y55.551 E26.18957
G1 X43.698 Y55.134 E26.21437
G1 X43.825 Y54.865 E26.22868
G1 X43.917 Y54.581 E26.24300
G1 X43.984 Y54.050 E26.26876
G1 X43.917 Y53.519 E26.29452
G1 X43.825 Y53.235 E26.30885
G1 X43.706 Y52.984 E26.32224
G1 X43.547 Y52.734 E26.33650
G1 X43.181 Y52.343 E26.36224
G1 X42.727 Y52.056 E26.38805
G1 X42.451 Y51.947 E26.40232
G1 X42.096 Y51.855 E26.41996
G1 X42.120 Y51.655 E26.42966
G1 X42.429 Y51.648 E26.44453
G1 X42.429 Y31.579 E27.40978
G1 X42.473 Y31.275 E27.42456
G1 X42.647 Y30.970 E27.44147
G1 X42.907 Y30.764 E27.45742
G1 X42.991 Y30.724 E27.46188
G1 X43.079 Y30.696 E27.46633
G1 X43.357 Y30.661 E27.47979
G1 X87.493 Y30.664 E29.60258
G1 X87.697 Y30.681 E29.61245
G1 X87.878 Y30.739 E29.62161
G1 X88.152 Y30.929 E29.63761
G1 X88.305 Y31.140 E29.65014
G1 X88.396 Y31.439 E29.66521
G1 X88.408 Y45.653 E30.34885
G1 X88.800 Y45.658 E30.36768
G1 X88.824 Y45.859 E30.37743
G1 X88.485 Y45.946 E30.39427
G1 X88.226 Y46.049 E30.40763
G1 X87.983 Y46.182 E30.42098
G1 X87.758 Y46.346 E30.43435
G1 X87.556 Y46.536 E30.44770
G1 X87.379 Y46.750 E30.46106
G1 X87.230 Y46.984 E30.47443
G1 X87.112 Y47.236 E30.48779
G1 X87.026 Y47.500 E30.50114
G1 X86.974 Y47.773 E30.51450
G1 X86.956 Y48.050 E30.52786
G1 X86.974 Y48.327 E30.54122
G1 X87.026 Y48.600 E30.55459
G1 X87.112 Y48.864 E30.56794
G1 X87.230 Y49.115 E30.58130
G1 X87.379 Y49.350 E30.59467
G1 X87.556 Y49.564 E30.60802
G1 X87.758 Y49.754 E30.62138
G1 X87.983 Y49.918 E30.63474
G1 X88.226 Y50.051 E30.64810
G1 X88.485 Y50.154 E30.66145
G1 X88.824 Y50.241 E30.67830
G1 X88.800 Y50.442 E30.68805
G1 X88.468 Y50.446 E30.70402
G1 X88.793 Y50.828 F9000.000
G1 X88.793 Y70.739 E31.66170 F600.000
G1 X88.770 Y70.985 E31.67358
G1 X88.670 Y71.292 E31.68910
G1 X88.495 Y71.568 E31.70479
G1 X88.396 Y71.674 E31.71181
G1 X88.126 Y71.870 E31.72785
G1 X87.994 Y71.932 E31.73486
G1 X87.671 Y72.015 E31.75090
G1 X87.511 Y72.025 E31.75860
G1 X43.329 Y72.025 E33.88361
G1 X43.083 Y72.002 E33.89549
G1 X42.769 Y71.900 E33.91137
G1 X42.641 Y71.830 E33.91837
G1 X42.385 Y71.617 E33.93441
G1 X42.291 Y71.504 E33.94145
G1 X42.131 Y71.213 E33.95746
G1 X42.086 Y71.074 E33.96448
G1 X42.043 Y70.736 E33.98086
G1 X42.043 Y56.830 E34.64971
G1 X41.547 Y56.819 E34.67359
G1 X41.198 Y56.775 E34.69047
G1 X40.861 Y56.689 E34.70724
G1 X40.537 Y56.561 E34.72398
G1 X40.232 Y56.393 E34.74073
G1 X39.950 Y56.188 E34.75751
G1 X39.695 Y55.949 E34.77428
G1 X39.474 Y55.681 E34.79103
G1 X39.287 Y55.387 E34.80778
G1 X39.139 Y55.071 E34.82454
G1 X39.031 Y54.740 E34.84130
G1 X38.966 Y54.398 E34.85805
G1 X38.944 Y54.050 E34.87482
G1 X38.966 Y53.702 E34.89158
G1 X39.031 Y53.360 E34.90833
G1 X39.139 Y53.029 E34.92510
G1 X39.287 Y52.713 E34.94185
G1 X39.474 Y52.419 E34.95861
G1 X39.695 Y52.151 E34.97536
G1 X39.950 Y51.912 E34.99213
G1 X40.232 Y51.707 E35.00890
G1 X40.537 Y51.539 E35.02566
G1 X40.861 Y51.411 E35.04240
G1 X41.198 Y51.325 E35.05916
G1 X41.547 Y51.281 E35.07604
G1 X42.043 Y51.270 E35.09993
G1 X42.043 Y31.561 E36.04790
G1 X42.068 Y31.307 E36.06014
G1 X42.106 Y31.156 E36.06765
G1 X42.162 Y31.014 E36.07500
G1 X42.341 Y30.732 E36.09104
G1 X42.441 Y30.626 E36.09805
G1 X42.710 Y30.430 E36.11408
G1 X42.849 Y30.365 E36.12146
G1 X42.995 Y30.318 E36.12881
G1 X43.332 Y30.275 E36.14519
G1 X87.509 Y30.278 E38.26993
G1 X87.762 Y30.299 E38.28213
G1 X88.054 Y30.394 E38.29693
G1 X88.336 Y30.573 E38.31297
G1 X88.442 Y30.673 E38.31998
G1 X88.638 Y30.942 E38.33602
G1 X88.700 Y31.074 E38.34303
G1 X88.781 Y31.391 E38.35873
G1 X88.793 Y45.272 E39.02640
G1 X89.491 Y45.281 E39.05996
G1 X89.838 Y45.325 E39.07678
G1 X90.176 Y45.411 E39.09354
G1 X90.499 Y45.539 E39.11030
G1 X90.805 Y45.707 E39.12706
G1 X91.087 Y45.912 E39.14382
G1 X91.341 Y46.151 E39.16058
G1 X91.563 Y46.419 E39.17733
G1 X91.750 Y46.713 E39.19409
G1 X91.898 Y47.029 E39.21085
G1 X92.006 Y47.360 E39.22760
G1 X92.071 Y47.702 E39.24436
G1 X92.093 Y48.050 E39.26112
G1 X92.071 Y48.398 E39.27788
G1 X92.006 Y48.740 E39.29464
G1 X91.898 Y49.071 E39.31140
G1 X91.755 Y49.374 E39.32750
G1 X91.563 Y49.681 E39.34493
G1 X91.341 Y49.949 E39.36166
G1 X91.087 Y50.188 E39.37842
G1 X90.805 Y50.393 E39.39518
G1 X90.499 Y50.561 E39.41194
G1 X90.176 Y50.689 E39.42870
G1 X89.838 Y50.775 E39.44546
G1 X89.491 Y50.819 E39.46228
G1 X88.853 Y50.827 E39.49296
G1 X88.393 Y50.829 F9000.000
G1 X89.005 Y50.348 F9000.000
G1 X89.458 Y50.337 E39.54016 F600.000
G1 X89.879 Y50.283 E39.58441
G1 E33.58441 F1800.00000
G92 E0
G1 X89.879 Y45.817 F9000.000
G1 E6.00000 F1800.00000
G1 X89.458 Y45.763 E6.04425 F600.000
G1 X89.005 Y45.752 E6.09145
G1 X87.723 Y31.603 F9000.000
G1 X87.464 Y31.344 E6.10913 F600.000
G1 X86.906 Y31.333 E6.13606
G1 X87.727 Y32.154 E6.19209
G1 X87.727 Y32.702 E6.21851
G1 X86.359 Y31.333 E6.31190
G1 X85.812 Y31.333 E6.33830
G1 X87.728 Y33.249 E6.46905
G1 X87.728 Y33.797 E6.49547
G1 X85.265 Y31.333 E6.66359
G1 X84.717 Y31.333 E6.68999
G1 X87.729 Y34.344 E6.89548
G1 X87.729 Y34.892 E6.92190
G1 X84.170 Y31.333 E7.16476
G1 X83.623 Y31.333 E7.19115
G1 X87.730 Y35.439 E7.47137
G1 X87.730 Y35.987 E7.49779
G1 X83.076 Y31.333 E7.81538
G1 X82.529 Y31.333 E7.84178
G1 X87.731 Y36.534 E8.19673
G1 X87.731 Y37.082 E8.22315
G1 X81.982 Y31.333 E8.61547
G1 X81.435 Y31.333 E8.64186
G1 X87.732 Y37.630 E9.07155
G1 X87.732 Y38.177 E9.09797
G1 X80.888 Y31.333 E9.56501
G1 X80.340 Y31.333 E9.59141
G1 X87.733 Y38.725 E10.09583
G1 X87.733 Y39.272 E10.12225
G1 X79.793 Y31.332 E10.66403
G1 X79.246 Y31.332 E10.69042
G1 X87.734 Y39.820 E11.26957
G1 X87.734 Y40.367 E11.29599
G1 X78.699 Y31.332 E11.91250
G1 X78.152 Y31.332 E11.93890
G1 X87.735 Y40.915 E12.59278
G1 X87.735 Y41.463 E12.61919
G1 X77.605 Y31.332 E13.31044
G1 X77.058 Y31.332 E13.33684
G1 X87.735 Y42.010 E14.06544
G1 X87.736 Y42.558 E14.09186
G1 X76.511 Y31.332 E14.85784
G1 X75.963 Y31.332 E14.88423
G1 X87.736 Y43.105 E15.68757
G1 X87.737 Y43.653 E15.71399
G1 X75.416 Y31.332 E16.55470
G1 X74.869 Y31.332 E16.58110
G1 X87.737 Y44.200 E17.45917
G1 X87.738 Y44.748 E17.48559
G1 X74.322 Y31.332 E18.40102
G1 X73.775 Y31.332 E18.42742
G1 X87.738 Y45.295 E19.38022
G1 X87.582 Y45.686 E19.40054
G1 X73.228 Y31.332 E20.38002
G1 X72.681 Y31.332 E20.40642
G1 X87.276 Y45.927 E21.40232
G1 X87.005 Y46.204 E21.42099
G1 X72.134 Y31.332 E22.43577
G1 X71.586 Y31.332 E22.46217
G1 X86.771 Y46.516 E23.49829
G1 X86.575 Y46.868 E23.51770
G1 X71.039 Y31.332 E24.57779
G1 X70.492 Y31.332 E24.60419
G1 X86.422 Y47.262 E25.69116
G1 X86.319 Y47.706 E25.71317
G1 X69.945 Y31.332 E26.83047
G1 X69.398 Y31.332 E26.85687
G1 X86.291 Y48.225 E28.00960
G1 X86.376 Y48.857 E28.04038
G1 X68.851 Y31.332 E29.23625
G1 X68.304 Y31.332 E29.26265
G1 X87.738 Y50.766 E30.58878
G1 X87.738 Y51.313 E30.61517
G1 X67.757 Y31.332 E31.97863
