; generated by Slic3r 1.2.9 on 2020-04-25 at 20:08:15

; external perimeters extrusion width = 0.40mm
; perimeters extrusion width = 0.62mm
; infill extrusion width = 0.33mm
; solid infill extrusion width = 0.62mm
; top infill extrusion width = 0.20mm

M106 S256; Turn on fan to 100% power
M104 S140; turn on extruder temperature at S value
M140 S60; turn on bed temperature at S value
G28; home all axes
M84; disable motors
G1 Z15 F15000; have Z move to 20mm at 15000 mm/min
M190 S55; turn on bed temperature at S value and wait
M140 S55; turn on bed temperature at S value (printing temperature)
M109 S200; turn on extruder temperature at S value and wait (printing temperature)
M104 S200; turn on extruder temperature at S value
G1 Z0 F12000; move Z back to home
G21 ; set units to millimeters
G90 ; use absolute coordinates
M82 ; use absolute distances for extrusion
G92 E0
M106 S255
;Layer change
G1 E-6.00000 F1800.00000
G92 E0
G1 Z0.300 F9000.000
G1 X39.517 Y30.519 F9000.000
G1 E6.00000 F1800.00000
G1 X39.924 Y30.042 E6.03089 F600.000
G1 X40.232 Y29.734 E6.05228
G1 X40.709 Y29.327 E6.08317
G1 X41.061 Y29.071 E6.10458
G1 X41.596 Y28.743 E6.13547
G1 X41.983 Y28.546 E6.15687
G1 X42.563 Y28.306 E6.18776
G1 X42.977 Y28.171 E6.20915
G1 X43.587 Y28.025 E6.24005
G1 X44.017 Y27.956 E6.26146
G1 X44.860 Y27.899 E6.30305
G1 X153.477 Y27.907 E11.64865
G1 X154.103 Y27.956 E11.67955 F600.000
G1 X154.533 Y28.025 E11.70095
G1 X155.143 Y28.171 E11.73186
G1 X155.557 Y28.306 E11.75325
G1 X156.137 Y28.546 E11.78414
G1 X156.524 Y28.743 E11.80554
G1 X157.059 Y29.071 E11.83643
G1 X157.423 Y29.337 E11.85861
G1 X157.888 Y29.734 E11.88873
G1 X158.196 Y30.042 E11.91012
G1 X158.603 Y30.519 E11.94102
G1 X158.859 Y30.871 E11.96242
G1 X159.187 Y31.406 E11.99331
G1 X159.384 Y31.793 E12.01471
G1 X159.624 Y32.373 E12.04560
G1 X159.759 Y32.787 E12.06699
G1 X159.905 Y33.397 E12.09789
G1 X159.974 Y33.827 E12.11931
G1 X160.031 Y34.670 E12.16089
G1 X160.031 Y68.670 E13.83420
G1 X159.973 Y69.513 E13.87579
G1 X159.905 Y69.943 E13.89721
G1 X159.759 Y70.553 E13.92810
G1 X159.625 Y70.967 E13.94949
G1 X159.384 Y71.547 E13.98041
G1 X159.187 Y71.934 E14.00177
G1 X158.867 Y72.456 E14.03189
G1 X158.603 Y72.821 E14.05408
G1 X158.196 Y73.298 E14.08498
G1 X157.888 Y73.606 E14.10637
G1 X157.411 Y74.013 E14.13726
G1 X157.059 Y74.269 E14.15864
G1 X156.524 Y74.597 E14.18954
G1 X156.137 Y74.794 E14.21095
G1 X155.557 Y75.035 E14.24184
G1 X155.143 Y75.169 E14.26325
G1 X154.532 Y75.315 E14.29414
G1 X154.103 Y75.383 E14.31553
G1 X153.260 Y75.441 E14.35713
G1 X44.860 Y75.441 E19.69204
G1 X44.017 Y75.383 E19.73364
G1 X43.587 Y75.315 E19.75503
G1 X42.977 Y75.169 E19.78593
G1 X42.564 Y75.035 E19.80732
G1 X41.983 Y74.794 E19.83823
G1 X41.596 Y74.597 E19.85963
G1 X41.061 Y74.269 E19.89052
G1 X40.709 Y74.013 E19.91191
G1 X40.232 Y73.606 E19.94281
G1 X39.924 Y73.298 E19.96420
G1 X39.517 Y72.821 E19.99509
G1 X39.261 Y72.469 E20.01651
G1 X38.933 Y71.934 E20.04741
G1 X38.736 Y71.546 E20.06879
G1 X38.495 Y70.967 E20.09969
G1 X38.361 Y70.553 E20.12107
G1 X38.215 Y69.943 E20.15197
G1 X38.146 Y69.513 E20.17339
G1 X38.097 Y68.887 E20.20430
G1 X38.089 Y34.670 E21.88828
G1 X38.146 Y33.827 E21.92987
G1 X38.215 Y33.397 E21.95129
G1 X38.361 Y32.787 E21.98218
G1 X38.495 Y32.373 E22.00357
G1 X38.736 Y31.793 E22.03447
G1 X38.933 Y31.406 E22.05586
G1 X39.261 Y30.871 E22.08675
G1 X39.481 Y30.568 E22.10521
G1 X39.810 Y30.769 F9000.000
G1 X40.218 Y30.292 E22.13610 F600.000
G1 X40.482 Y30.028 E22.15451
G1 X40.959 Y29.620 E22.18541
G1 X41.262 Y29.400 E22.20384
G1 X41.798 Y29.072 E22.23472
G1 X42.131 Y28.902 E22.25315
G1 X42.711 Y28.662 E22.28404
G1 X43.067 Y28.546 E22.30245
G1 X43.677 Y28.400 E22.33335
G1 X44.047 Y28.341 E22.35178
G1 X44.860 Y28.284 E22.39188
G1 X153.447 Y28.292 E27.73599
G1 X154.073 Y28.341 E27.76689 F600.000
G1 X154.443 Y28.399 E27.78532
G1 X155.053 Y28.546 E27.81623
G1 X155.424 Y28.668 E27.83541
G1 X155.989 Y28.902 E27.86553
G1 X156.322 Y29.072 E27.88395
G1 X156.858 Y29.400 E27.91484
G1 X157.160 Y29.620 E27.93325
G1 X157.638 Y30.028 E27.96416
G1 X157.902 Y30.292 E27.98257
G1 X158.310 Y30.770 E28.01348
G1 X158.530 Y31.072 E28.03190
G1 X158.858 Y31.608 E28.06278
G1 X159.028 Y31.941 E28.08120
G1 X159.268 Y32.521 E28.11210
G1 X159.384 Y32.877 E28.13051
G1 X159.530 Y33.487 E28.16141
G1 X159.589 Y33.857 E28.17984
G1 X159.646 Y34.670 E28.21994
G1 X159.646 Y68.670 E29.89325
G1 X159.589 Y69.483 E29.93336
G1 X159.530 Y69.853 E29.95179
G1 X159.384 Y70.463 E29.98268
G1 X159.268 Y70.819 E30.00109
G1 X159.028 Y71.399 E30.03201
G1 X158.858 Y71.732 E30.05040
G1 X158.538 Y72.254 E30.08052
G1 X158.310 Y72.571 E30.09973
G1 X157.902 Y73.048 E30.13062
G1 X157.638 Y73.313 E30.14904
G1 X157.160 Y73.720 E30.17993
G1 X156.858 Y73.940 E30.19833
G1 X156.323 Y74.268 E30.22923
G1 X155.989 Y74.438 E30.24766
G1 X155.409 Y74.678 E30.27855
G1 X155.053 Y74.794 E30.29698
G1 X154.442 Y74.940 E30.32788
G1 X154.073 Y74.999 E30.34629
G1 X153.260 Y75.056 E30.38640
G1 X44.860 Y75.056 E35.72131
G1 X44.047 Y74.999 E35.76142
G1 X43.677 Y74.940 E35.77983
G1 X43.067 Y74.794 E35.81073
G1 X42.711 Y74.678 E35.82915
G1 X42.131 Y74.438 E35.86005
G1 X41.797 Y74.268 E35.87848
G1 X41.262 Y73.940 E35.90937
G1 X40.960 Y73.720 E35.92778
G1 X40.482 Y73.312 E35.95867
G1 X40.218 Y73.048 E35.97709
G1 X39.810 Y72.571 E36.00798
G1 X39.590 Y72.267 E36.02642
G1 X39.262 Y71.732 E36.05732
G1 X39.092 Y71.399 E36.07573
G1 X38.852 Y70.819 E36.10662
G1 X38.736 Y70.463 E36.12503
G1 X38.590 Y69.853 E36.15593
G1 X38.531 Y69.483 E36.17437
G1 X38.482 Y68.857 E36.20527
G1 X38.474 Y34.670 E37.88777
G1 X38.531 Y33.857 E37.92787
G1 X38.590 Y33.487 E37.94631
G1 X38.736 Y32.877 E37.97720
G1 X38.852 Y32.521 E37.99562
G1 X39.092 Y31.941 E38.02651
G1 X39.262 Y31.608 E38.04493
G1 X39.590 Y31.072 E38.07582
G1 X39.775 Y30.818 E38.09129
G1 E32.09129 F1800.00000
G92 E0
G1 X47.193 Y68.300 F9000.000
G1 E6.00000 F1800.00000
G1 X47.222 Y68.670 E6.01825 F600.000
G1 X47.193 Y69.040 E6.03649
G1 X47.107 Y69.400 E6.05474
G1 X46.965 Y69.742 E6.07298
G1 X46.771 Y70.059 E6.09123
G1 X46.530 Y70.341 E6.10948
G1 X46.249 Y70.581 E6.12772
G1 X45.933 Y70.775 E6.14596
G1 X45.590 Y70.917 E6.16421
G1 X45.230 Y71.003 E6.18245
G1 X44.860 Y71.033 E6.20070
G1 X44.490 Y71.003 E6.21895
G1 X44.130 Y70.917 E6.23719
G1 X43.787 Y70.775 E6.25544
G1 X43.471 Y70.581 E6.27368
G1 X43.190 Y70.341 E6.29192
G1 X42.949 Y70.059 E6.31017
G1 X42.755 Y69.742 E6.32842
G1 X42.613 Y69.400 E6.34666
G1 X42.527 Y69.040 E6.36490
G1 X42.497 Y68.670 E6.38315
G1 X42.527 Y68.300 E6.40140
G1 X42.613 Y67.940 E6.41964
G1 X42.755 Y67.597 E6.43788
G1 X42.949 Y67.281 E6.45613
G1 X43.190 Y66.999 E6.47438
G1 X43.471 Y66.759 E6.49262
G1 X43.787 Y66.565 E6.51086
G1 X44.130 Y66.423 E6.52911
G1 X44.490 Y66.337 E6.54735
G1 X44.852 Y66.308 E6.56520 F600.000
G1 X45.228 Y66.336 E6.58378
G1 X45.590 Y66.423 E6.60209
G1 X45.933 Y66.565 E6.62033
G1 X46.249 Y66.759 E6.63858
G1 X46.530 Y66.999 E6.65682
G1 X46.771 Y67.281 E6.67506
G1 X46.965 Y67.597 E6.69331
G1 X47.107 Y67.940 E6.71155
G1 X47.179 Y68.242 E6.72685
G1 X46.811 Y68.361 F9000.000
G1 X46.836 Y68.670 E6.74210 F600.000
G1 X46.811 Y68.979 E6.75736
G1 X46.739 Y69.281 E6.77262
G1 X46.620 Y69.567 E6.78787
G1 X46.458 Y69.831 E6.80314
G1 X46.257 Y70.067 E6.81840
G1 X46.021 Y70.268 E6.83365
G1 X45.757 Y70.430 E6.84891
G1 X45.471 Y70.549 E6.86416
G1 X45.169 Y70.621 E6.87942
G1 X44.860 Y70.646 E6.89468
G1 X44.551 Y70.621 E6.90994
G1 X44.249 Y70.549 E6.92520
G1 X43.963 Y70.430 E6.94046
G1 X43.699 Y70.268 E6.95571
G1 X43.463 Y70.067 E6.97097
G1 X43.262 Y69.831 E6.98623
G1 X43.100 Y69.567 E7.00149
G1 X42.981 Y69.281 E7.01674
G1 X42.909 Y68.979 E7.03200
G1 X42.884 Y68.670 E7.04726
G1 X42.909 Y68.361 E7.06252
G1 X42.981 Y68.059 E7.07778
G1 X43.100 Y67.773 E7.09303
G1 X43.262 Y67.509 E7.10829
G1 X43.463 Y67.273 E7.12355
G1 X43.699 Y67.072 E7.13881
G1 X43.963 Y66.910 E7.15406
G1 X44.249 Y66.791 E7.16932
G1 X44.551 Y66.719 E7.18458
G1 X44.853 Y66.695 E7.19948 F600.000
G1 X45.169 Y66.719 E7.21507
G1 X45.471 Y66.791 E7.23035
G1 X45.757 Y66.910 E7.24561
G1 X46.021 Y67.072 E7.26086
G1 X46.257 Y67.273 E7.27612
G1 X46.458 Y67.509 E7.29138
G1 X46.620 Y67.773 E7.30664
G1 X46.739 Y68.059 E7.32190
G1 X46.797 Y68.303 E7.33420
G1 X47.098 Y68.480 F9000.000
G1 E1.33420 F1800.00000
G92 E0
G1 X44.860 Y37.032 F9000.000
G1 E6.00000 F1800.00000
G1 X44.490 Y37.003 E6.01825 F600.000
G1 X44.130 Y36.917 E6.03649
G1 X43.787 Y36.775 E6.05473
G1 X43.471 Y36.581 E6.07298
G1 X43.189 Y36.340 E6.09123
G1 X42.949 Y36.059 E6.10947
G1 X42.755 Y35.743 E6.12772
G1 X42.613 Y35.400 E6.14596
G1 X42.527 Y35.040 E6.16420
G1 X42.497 Y34.670 E6.18245
G1 X42.527 Y34.300 E6.20070
G1 X42.613 Y33.940 E6.21894
G1 X42.755 Y33.597 E6.23718
G1 X42.949 Y33.281 E6.25543
G1 X43.189 Y32.999 E6.27368
G1 X43.471 Y32.759 E6.29192
G1 X43.787 Y32.565 E6.31017
G1 X44.130 Y32.423 E6.32841
G1 X44.558 Y32.320 E6.35006
G1 X44.865 Y32.309 E6.36518 F600.000
G1 X45.229 Y32.336 E6.38314
G1 X45.590 Y32.423 E6.40144
G1 X45.933 Y32.565 E6.41968
G1 X46.249 Y32.759 E6.43793
G1 X46.530 Y32.999 E6.45617
G1 X46.771 Y33.281 E6.47441
G1 X46.965 Y33.597 E6.49266
G1 X47.107 Y33.940 E6.51090
G1 X47.193 Y34.300 E6.52915
G1 X47.222 Y34.670 E6.54740
G1 X47.193 Y35.040 E6.56565
G1 X47.107 Y35.400 E6.58389
G1 X46.965 Y35.743 E6.60213
G1 X46.771 Y36.059 E6.62038
G1 X46.530 Y36.340 E6.63862
G1 X46.249 Y36.581 E6.65686
G1 X45.933 Y36.775 E6.67511
G1 X45.590 Y36.917 E6.69335
G1 X45.230 Y37.003 E6.71160
G1 X44.920 Y37.028 E6.72689
G1 X44.860 Y36.646 F9000.000
G1 X44.551 Y36.621 E6.74216 F600.000
G1 X44.249 Y36.549 E6.75741
G1 X43.963 Y36.430 E6.77267
G1 X43.699 Y36.268 E6.78793
G1 X43.463 Y36.067 E6.80318
G1 X43.262 Y35.831 E6.81844
G1 X43.100 Y35.567 E6.83370
G1 X42.981 Y35.281 E6.84895
G1 X42.909 Y34.979 E6.86421
G1 X42.884 Y34.670 E6.87947
G1 X42.909 Y34.361 E6.89473
G1 X42.981 Y34.059 E6.90999
G1 X43.100 Y33.773 E6.92525
G1 X43.262 Y33.509 E6.94050
G1 X43.463 Y33.273 E6.95576
G1 X43.699 Y33.072 E6.97102
G1 X43.963 Y32.910 E6.98628
G1 X44.249 Y32.791 E7.00153
G1 X44.610 Y32.704 E7.01980
G1 X44.857 Y32.695 E7.03197 F600.000
G1 X45.169 Y32.718 E7.04733
G1 X45.471 Y32.791 E7.06261
G1 X45.757 Y32.910 E7.07786
G1 X46.021 Y33.072 E7.09312
G1 X46.257 Y33.273 E7.10838
G1 X46.458 Y33.509 E7.12364
G1 X46.620 Y33.773 E7.13890
G1 X46.739 Y34.059 E7.15415
G1 X46.811 Y34.361 E7.16941
G1 X46.836 Y34.670 E7.18467
G1 X46.811 Y34.979 E7.19993
G1 X46.739 Y35.281 E7.21519
G1 X46.620 Y35.567 E7.23044
G1 X46.458 Y35.831 E7.24570
G1 X46.257 Y36.067 E7.26096
G1 X46.021 Y36.268 E7.27622
G1 X45.757 Y36.430 E7.29148
G1 X45.471 Y36.549 E7.30673
G1 X45.169 Y36.621 E7.32199
G1 X44.920 Y36.641 E7.33430
G1 X44.698 Y36.910 F9000.000
G1 X67.449 Y38.959 F9000.000
G1 X139.871 Y38.959 E10.89851 F600.000
G1 X139.871 Y64.281 E12.14470
G1 X67.449 Y64.281 E15.70892
G1 X67.449 Y39.019 E16.95215
G1 X67.835 Y39.345 F9000.000
G1 X139.485 Y39.345 E20.47841 F600.000
G1 X139.485 Y63.895 E21.68664
G1 X67.835 Y63.895 E25.21290
G1 X67.835 Y39.405 E26.41818
G1 X67.835 Y38.945 F9000.000
G1 X150.898 Y34.670 F9000.000
G1 X150.927 Y34.299 E26.43648 F600.000
G1 X151.016 Y33.932 E26.45506
G1 X151.155 Y33.597 E26.47291
G1 X151.349 Y33.281 E26.49116
G1 X151.589 Y32.999 E26.50940
G1 X151.871 Y32.759 E26.52764
G1 X152.187 Y32.565 E26.54589
G1 X152.530 Y32.423 E26.56413
G1 X152.890 Y32.337 E26.58238
G1 X153.252 Y32.308 E26.60023 F600.000
G1 X153.629 Y32.336 E26.61881
G1 X153.990 Y32.423 E26.63711
G1 X154.333 Y32.565 E26.65535
G1 X154.649 Y32.759 E26.67360
G1 X154.931 Y33.000 E26.69185
G1 X155.171 Y33.281 E26.71009
G1 X155.365 Y33.597 E26.72834
G1 X155.507 Y33.940 E26.74658
G1 X155.593 Y34.300 E26.76482
G1 X155.623 Y34.670 E26.78307
G1 X155.593 Y35.040 E26.80132
G1 X155.507 Y35.400 E26.81956
G1 X155.365 Y35.743 E26.83780
G1 X155.171 Y36.059 E26.85606
G1 X154.931 Y36.340 E26.87430
G1 X154.649 Y36.581 E26.89254
G1 X154.333 Y36.775 E26.91079
G1 X153.990 Y36.917 E26.92903
G1 X153.630 Y37.003 E26.94727
G1 X153.260 Y37.032 E26.96552
G1 X152.890 Y37.003 E26.98377
G1 X152.530 Y36.917 E27.00201
G1 X152.187 Y36.775 E27.02026
G1 X151.871 Y36.581 E27.03851
G1 X151.589 Y36.340 E27.05675
G1 X151.349 Y36.059 E27.07499
G1 X151.155 Y35.743 E27.09323
G1 X151.013 Y35.400 E27.11148
G1 X150.927 Y35.040 E27.12973
G1 X150.902 Y34.730 E27.14502
G1 X151.284 Y34.670 F9000.000
G1 X151.309 Y34.360 E27.16030 F600.000
G1 X151.384 Y34.053 E27.17589
G1 X151.500 Y33.773 E27.19079
G1 X151.662 Y33.509 E27.20605
G1 X151.863 Y33.273 E27.22131
G1 X152.099 Y33.072 E27.23656
G1 X152.363 Y32.910 E27.25182
G1 X152.649 Y32.791 E27.26708
G1 X152.951 Y32.719 E27.28234
G1 X153.253 Y32.695 E27.29724 F600.000
G1 X153.569 Y32.718 E27.31283
G1 X153.871 Y32.791 E27.32811
G1 X154.157 Y32.910 E27.34336
G1 X154.421 Y33.072 E27.35862
G1 X154.657 Y33.273 E27.37388
G1 X154.858 Y33.509 E27.38914
G1 X155.020 Y33.773 E27.40440
G1 X155.139 Y34.059 E27.41965
G1 X155.211 Y34.361 E27.43491
G1 X155.236 Y34.670 E27.45017
G1 X155.211 Y34.979 E27.46543
G1 X155.139 Y35.281 E27.48069
G1 X155.020 Y35.567 E27.49594
G1 X154.858 Y35.831 E27.51120
G1 X154.657 Y36.067 E27.52646
G1 X154.421 Y36.268 E27.54172
G1 X154.157 Y36.430 E27.55698
G1 X153.871 Y36.549 E27.57223
G1 X153.569 Y36.621 E27.58749
G1 X153.260 Y36.646 E27.60275
G1 X152.951 Y36.621 E27.61801
G1 X152.649 Y36.549 E27.63327
G1 X152.363 Y36.430 E27.64852
G1 X152.099 Y36.268 E27.66378
G1 X151.863 Y36.067 E27.67904
G1 X151.662 Y35.831 E27.69429
G1 X151.500 Y35.567 E27.70955
G1 X151.381 Y35.281 E27.72481
G1 X151.309 Y34.979 E27.74007
G1 X151.289 Y34.730 E27.75237
G1 X151.020 Y34.508 F9000.000
G1 E21.75237 F1800.00000
G92 E0
G1 X153.252 Y66.308 F9000.000
G1 E6.00000 F1800.00000
G1 X153.628 Y66.336 E6.01858 F600.000
G1 X153.990 Y66.423 E6.03688
G1 X154.333 Y66.565 E6.05513
G1 X154.649 Y66.759 E6.07337
G1 X154.930 Y66.999 E6.09161
G1 X155.171 Y67.281 E6.10986
G1 X155.365 Y67.597 E6.12811
G1 X155.507 Y67.940 E6.14635
G1 X155.593 Y68.300 E6.16459
G1 X155.623 Y68.670 E6.18284
G1 X155.593 Y69.040 E6.20109
G1 X155.507 Y69.400 E6.21933
G1 X155.365 Y69.743 E6.23757
G1 X155.171 Y70.059 E6.25583
G1 X154.930 Y70.341 E6.27407
G1 X154.649 Y70.581 E6.29231
G1 X154.333 Y70.775 E6.31056
G1 X153.990 Y70.917 E6.32880
G1 X153.630 Y71.003 E6.34705
G1 X153.260 Y71.033 E6.36529
G1 X152.890 Y71.003 E6.38354
G1 X152.530 Y70.917 E6.40178
G1 X152.195 Y70.778 E6.41963
G1 X151.872 Y70.582 E6.43821
G1 X151.590 Y70.341 E6.45651
G1 X151.349 Y70.059 E6.47476
G1 X151.155 Y69.743 E6.49300
G1 X151.013 Y69.400 E6.51125
G1 X150.927 Y69.040 E6.52950
G1 X150.898 Y68.670 E6.54774
G1 X150.927 Y68.299 E6.56604
G1 X151.016 Y67.933 E6.58462
G1 X151.155 Y67.597 E6.60247
G1 X151.349 Y67.281 E6.62072
G1 X151.590 Y66.999 E6.63896
G1 X151.871 Y66.759 E6.65721
G1 X152.187 Y66.565 E6.67545
G1 X152.530 Y66.423 E6.69370
G1 X152.890 Y66.337 E6.71194
G1 X153.192 Y66.313 E6.72684 F600.000
G1 X153.253 Y66.695 F9000.000
G1 X153.569 Y66.719 E6.74243 F600.000
G1 X153.871 Y66.791 E6.75771
G1 X154.157 Y66.910 E6.77297
G1 X154.421 Y67.072 E6.78822
G1 X154.657 Y67.273 E6.80348
G1 X154.858 Y67.509 E6.81874
G1 X155.020 Y67.773 E6.83400
G1 X155.139 Y68.059 E6.84925
G1 X155.211 Y68.361 E6.86451
G1 X155.236 Y68.670 E6.87977
G1 X155.211 Y68.979 E6.89503
G1 X155.139 Y69.281 E6.91029
G1 X155.020 Y69.567 E6.92554
G1 X154.858 Y69.831 E6.94080
G1 X154.657 Y70.067 E6.95606
G1 X154.421 Y70.268 E6.97132
G1 X154.157 Y70.430 E6.98658
G1 X153.871 Y70.549 E7.00183
G1 X153.569 Y70.621 E7.01709
G1 X153.260 Y70.646 E7.03235
G1 X152.951 Y70.621 E7.04761
G1 X152.649 Y70.549 E7.06287
G1 X152.370 Y70.433 E7.07777
G1 X152.099 Y70.269 E7.09336
G1 X151.863 Y70.067 E7.10863
G1 X151.662 Y69.831 E7.12389
G1 X151.500 Y69.567 E7.13915
G1 X151.381 Y69.281 E7.15441
G1 X151.309 Y68.979 E7.16967
G1 X151.284 Y68.670 E7.18492
G1 X151.309 Y68.361 E7.20020
G1 X151.384 Y68.053 E7.21580
G1 X151.500 Y67.773 E7.23070
G1 X151.662 Y67.509 E7.24595
G1 X151.863 Y67.273 E7.26121
G1 X152.099 Y67.072 E7.27647
G1 X152.363 Y66.910 E7.29172
G1 X152.649 Y66.791 E7.30698
G1 X152.951 Y66.719 E7.32224
G1 X153.193 Y66.700 E7.33419 F600.000
G1 X153.418 Y66.424 F9000.000
