; generated by Slic3r 1.2.9 on 2020-04-24 at 21:28:57

; external perimeters extrusion width = 0.40mm
; perimeters extrusion width = 0.62mm
; infill extrusion width = 0.33mm
; solid infill extrusion width = 0.62mm
; top infill extrusion width = 0.20mm

M106 S256; Turn on fan to 100% power
M104 S140; turn on extruder temperature at S value
M140 S60; turn on bed temperature at S value
G28; home all axes
M84; disable motors
G1 Z15 F15000; have Z move to 20mm at 15000 mm/min
M190 S55; turn on bed temperature at S value and wait
M140 S55; turn on bed temperature at S value (printing temperature)
M109 S200; turn on extruder temperature at S value and wait (printing temperature)
M104 S200; turn on extruder temperature at S value
G1 Z0 F12000; move Z back to home
G21 ; set units to millimeters
G90 ; use absolute coordinates
M82 ; use absolute distances for extrusion
G92 E0
M106 S255
;Layer change
G1 E-6.00000 F1800.00000
G92 E0
G1 Z0.300 F9000.000
G1 X31.534 Y29.482 F9000.000
G1 E6.00000 F1800.00000
G1 X31.842 Y29.174 E6.02139 F600.000
G1 X32.319 Y28.767 E6.05229
G1 X32.671 Y28.511 E6.07367
G1 X33.206 Y28.183 E6.10456
G1 X33.594 Y27.986 E6.12598
G1 X34.173 Y27.745 E6.15687
G1 X34.587 Y27.611 E6.17827
G1 X35.197 Y27.465 E6.20917
G1 X35.627 Y27.397 E6.23055
G1 X36.470 Y27.339 E6.27216
G1 X162.887 Y27.347 E12.49378
G1 X163.513 Y27.397 E12.52470 F600.000
G1 X163.943 Y27.465 E12.54612
G1 X164.553 Y27.611 E12.57699
G1 X164.966 Y27.745 E12.59837
G1 X165.546 Y27.986 E12.62927
G1 X165.934 Y28.183 E12.65069
G1 X166.469 Y28.511 E12.68158
G1 X166.821 Y28.767 E12.70300
G1 X167.298 Y29.175 E12.73388
G1 X167.605 Y29.481 E12.75519
G1 X168.013 Y29.958 E12.78609
G1 X168.269 Y30.311 E12.80754
G1 X168.597 Y30.846 E12.83843
G1 X168.795 Y31.234 E12.85988
G1 X169.035 Y31.814 E12.89077
G1 X169.168 Y32.225 E12.91203
G1 X169.315 Y32.835 E12.94293
G1 X169.384 Y33.268 E12.96448
G1 X169.441 Y34.110 E13.00602
G1 X169.441 Y92.110 E15.86050
G1 X169.384 Y92.952 E15.90204
G1 X169.315 Y93.384 E15.92358
G1 X169.168 Y93.996 E15.95453
G1 X169.035 Y94.406 E15.97575
G1 X168.795 Y94.986 E16.00664
G1 X168.597 Y95.374 E16.02809
G1 X168.269 Y95.909 E16.05898
G1 X168.013 Y96.262 E16.08043
G1 X167.604 Y96.739 E16.11134
G1 X167.299 Y97.045 E16.13261
G1 X166.822 Y97.453 E16.16351
G1 X166.469 Y97.709 E16.18495
G1 X165.934 Y98.037 E16.21583
G1 X165.546 Y98.234 E16.23725
G1 X164.966 Y98.475 E16.26815
G1 X164.554 Y98.609 E16.28951
G1 X163.944 Y98.755 E16.32038
G1 X163.513 Y98.823 E16.34182
G1 X162.670 Y98.881 E16.38342
G1 X36.470 Y98.881 E22.59436
G1 X35.627 Y98.824 E22.63595
G1 X35.198 Y98.756 E22.65733
G1 X34.587 Y98.609 E22.68826
G1 X34.174 Y98.475 E22.70961
G1 X33.594 Y98.234 E22.74054
G1 X33.206 Y98.037 E22.76195
G1 X32.671 Y97.709 E22.79283
G1 X32.319 Y97.454 E22.81422
G1 X31.842 Y97.046 E22.84514
G1 X31.534 Y96.738 E22.86652
G1 X31.127 Y96.261 E22.89741
G1 X30.871 Y95.909 E22.91883
G1 X30.543 Y95.374 E22.94973
G1 X30.346 Y94.987 E22.97111
G1 X30.106 Y94.407 E23.00200
G1 X29.971 Y93.993 E23.02339
G1 X29.825 Y93.383 E23.05430
G1 X29.756 Y92.953 E23.07571
G1 X29.699 Y92.110 E23.11729
G1 X29.699 Y34.110 E25.97177
G1 X29.756 Y33.267 E26.01335
G1 X29.825 Y32.837 E26.03478
G1 X29.971 Y32.226 E26.06569
G1 X30.106 Y31.813 E26.08706
G1 X30.346 Y31.234 E26.11795
G1 X30.543 Y30.846 E26.13934
G1 X30.871 Y30.311 E26.17023
G1 X31.127 Y29.959 E26.19165
G1 X31.495 Y29.527 E26.21959
G1 X31.828 Y29.732 F9000.000
G1 X32.092 Y29.468 E26.23801 F600.000
G1 X32.570 Y29.060 E26.26890
G1 X32.872 Y28.840 E26.28731
G1 X33.407 Y28.512 E26.31820
G1 X33.741 Y28.342 E26.33663
G1 X34.321 Y28.102 E26.36752
G1 X34.677 Y27.986 E26.38595
G1 X35.287 Y27.840 E26.41684
G1 X35.657 Y27.781 E26.43525
G1 X36.470 Y27.724 E26.47537
G1 X162.857 Y27.732 E32.69550
G1 X163.483 Y27.781 E32.72642 F600.000
G1 X163.853 Y27.840 E32.74486
G1 X164.463 Y27.986 E32.77574
G1 X164.819 Y28.102 E32.79414
G1 X165.399 Y28.342 E32.82503
G1 X165.733 Y28.512 E32.84348
G1 X166.268 Y28.840 E32.87437
G1 X166.571 Y29.060 E32.89281
G1 X167.048 Y29.468 E32.92369
G1 X167.311 Y29.731 E32.94203
G1 X167.719 Y30.209 E32.97293
G1 X167.940 Y30.512 E32.99139
G1 X168.268 Y31.047 E33.02229
G1 X168.438 Y31.382 E33.04075
G1 X168.678 Y31.962 E33.07164
G1 X168.793 Y32.315 E33.08994
G1 X168.940 Y32.926 E33.12084
G1 X168.999 Y33.298 E33.13939
G1 X169.056 Y34.110 E33.17945
G1 X169.056 Y92.110 E36.03393
G1 X168.999 Y92.922 E36.07398
G1 X168.940 Y93.294 E36.09253
G1 X168.793 Y93.905 E36.12347
G1 X168.678 Y94.258 E36.14174
G1 X168.438 Y94.838 E36.17263
G1 X168.268 Y95.173 E36.19110
G1 X167.940 Y95.708 E36.22199
G1 X167.719 Y96.011 E36.24045
G1 X167.311 Y96.489 E36.27136
G1 X167.048 Y96.752 E36.28967
G1 X166.571 Y97.160 E36.32056
G1 X166.268 Y97.380 E36.33902
G1 X165.733 Y97.708 E36.36990
G1 X165.399 Y97.878 E36.38834
G1 X164.819 Y98.118 E36.41924
G1 X164.463 Y98.234 E36.43763
G1 X163.853 Y98.380 E36.46850
G1 X163.483 Y98.439 E36.48695
G1 X162.670 Y98.496 E36.52707
G1 X36.470 Y98.496 E42.73801
G1 X35.657 Y98.439 E42.77811
G1 X35.288 Y98.381 E42.79651
G1 X34.677 Y98.234 E42.82744
G1 X34.322 Y98.118 E42.84582
G1 X33.741 Y97.878 E42.87675
G1 X33.408 Y97.708 E42.89517
G1 X32.872 Y97.380 E42.92606
G1 X32.570 Y97.160 E42.94447
G1 X32.092 Y96.752 E42.97538
G1 X31.828 Y96.488 E42.99379
G1 X31.420 Y96.011 E43.02468
G1 X31.200 Y95.708 E43.04312
G1 X30.872 Y95.172 E43.07402
G1 X30.702 Y94.839 E43.09243
G1 X30.462 Y94.259 E43.12332
G1 X30.346 Y93.903 E43.14173
G1 X30.199 Y93.293 E43.17264
G1 X30.141 Y92.923 E43.19107
G1 X30.084 Y92.110 E43.23116
G1 X30.084 Y34.110 E46.08563
G1 X30.141 Y33.297 E46.12573
G1 X30.200 Y32.927 E46.14418
G1 X30.346 Y32.316 E46.17509
G1 X30.462 Y31.961 E46.19348
G1 X30.702 Y31.381 E46.22437
G1 X30.872 Y31.048 E46.24278
G1 X31.200 Y30.513 E46.27367
G1 X31.420 Y30.209 E46.29211
G1 X31.789 Y29.778 E46.32005
G1 E40.32005 F1800.00000
G92 E0
G1 X160.757 Y91.487 F9000.000
G1 E6.00000 F1800.00000
G1 X160.877 Y91.197 E6.01545 F600.000
G1 X161.041 Y90.927 E6.03099
G1 X161.247 Y90.687 E6.04659
G1 X161.487 Y90.482 E6.06210
G1 X161.756 Y90.317 E6.07763
G1 X162.048 Y90.196 E6.09319
G1 X162.355 Y90.122 E6.10875
G1 X162.670 Y90.097 E6.12429 F600.000
G1 X162.985 Y90.122 E6.13982
G1 X163.292 Y90.196 E6.15539
G1 X163.584 Y90.317 E6.17095
G1 X163.853 Y90.482 E6.18648
G1 X164.093 Y90.687 E6.20199
G1 X164.299 Y90.927 E6.21758
G1 X164.463 Y91.197 E6.23313
G1 X164.583 Y91.487 E6.24858
G1 X164.658 Y91.795 E6.26414
G1 X164.682 Y92.110 E6.27971
G1 X164.658 Y92.425 E6.29528
G1 X164.583 Y92.733 E6.31084
G1 X164.463 Y93.023 E6.32629
G1 X164.299 Y93.293 E6.34184
G1 X164.093 Y93.533 E6.35743
G1 X163.853 Y93.738 E6.37294
G1 X163.584 Y93.903 E6.38847
G1 X163.292 Y94.024 E6.40403
G1 X162.985 Y94.098 E6.41960
G1 X162.670 Y94.122 E6.43513
G1 X162.355 Y94.098 E6.45067
G1 X162.048 Y94.024 E6.46623
G1 X161.756 Y93.903 E6.48179
G1 X161.487 Y93.738 E6.49732
G1 X161.247 Y93.533 E6.51283
G1 X161.041 Y93.293 E6.52843
G1 X160.877 Y93.023 E6.54397
G1 X160.757 Y92.733 E6.55942
G1 X160.682 Y92.425 E6.57498
G1 X160.658 Y92.110 E6.59055
G1 X160.682 Y91.795 E6.60613
G1 X160.743 Y91.546 E6.61873
G1 X161.124 Y91.607 F9000.000
G1 X161.222 Y91.372 E6.63125 F600.000
G1 X161.354 Y91.155 E6.64380
G1 X161.520 Y90.960 E6.65638
G1 X161.714 Y90.795 E6.66892
G1 X161.931 Y90.662 E6.68146
G1 X162.167 Y90.564 E6.69402
G1 X162.416 Y90.504 E6.70660
G1 X162.670 Y90.484 E6.71915 F600.000
G1 X162.924 Y90.504 E6.73170
G1 X163.173 Y90.564 E6.74428
G1 X163.409 Y90.662 E6.75684
G1 X163.626 Y90.795 E6.76938
G1 X163.820 Y90.960 E6.78193
G1 X163.986 Y91.155 E6.79450
G1 X164.118 Y91.372 E6.80705
G1 X164.216 Y91.607 E6.81957
G1 X164.276 Y91.855 E6.83213
G1 X164.296 Y92.110 E6.84470
G1 X164.276 Y92.365 E6.85727
G1 X164.216 Y92.613 E6.86983
G1 X164.118 Y92.848 E6.88235
G1 X163.986 Y93.065 E6.89489
G1 X163.819 Y93.260 E6.90747
G1 X163.626 Y93.425 E6.92002
G1 X163.409 Y93.558 E6.93256
G1 X163.173 Y93.656 E6.94512
G1 X162.924 Y93.716 E6.95770
G1 X162.670 Y93.736 E6.97025
G1 X162.416 Y93.716 E6.98280
G1 X162.167 Y93.656 E6.99538
G1 X161.931 Y93.558 E7.00794
G1 X161.714 Y93.425 E7.02048
G1 X161.520 Y93.260 E7.03303
G1 X161.354 Y93.065 E7.04560
G1 X161.222 Y92.848 E7.05815
G1 X161.124 Y92.613 E7.07067
G1 X161.064 Y92.365 E7.08323
G1 X161.044 Y92.110 E7.09580
G1 X161.064 Y91.855 E7.10836
G1 X161.110 Y91.666 E7.11798
G1 X160.959 Y91.414 F9000.000
G1 E1.11798 F1800.00000
G92 E0
G1 X162.670 Y36.123 F9000.000
G1 E6.00000 F1800.00000
G1 X162.355 Y36.098 E6.01554 F600.000
G1 X162.048 Y36.024 E6.03109
G1 X161.756 Y35.903 E6.04666
G1 X161.487 Y35.738 E6.06219
G1 X161.247 Y35.533 E6.07770
G1 X161.041 Y35.292 E6.09330
G1 X160.877 Y35.023 E6.10884
G1 X160.757 Y34.733 E6.12429
G1 X160.682 Y34.425 E6.13985
G1 X160.658 Y34.110 E6.15542
G1 X160.682 Y33.795 E6.17100
G1 X160.757 Y33.487 E6.18656
G1 X160.877 Y33.197 E6.20200
G1 X161.041 Y32.928 E6.21755
G1 X161.247 Y32.687 E6.23314
G1 X161.487 Y32.482 E6.24866
G1 X161.756 Y32.317 E6.26419
G1 X162.048 Y32.196 E6.27975
G1 X162.355 Y32.122 E6.29531
G1 X162.670 Y32.097 E6.31084 F600.000
G1 X162.985 Y32.122 E6.32638
G1 X163.292 Y32.196 E6.34194
G1 X163.584 Y32.317 E6.35750
G1 X163.853 Y32.482 E6.37303
G1 X164.093 Y32.687 E6.38855
G1 X164.299 Y32.927 E6.40414
G1 X164.463 Y33.197 E6.41968
G1 X164.583 Y33.487 E6.43513
G1 X164.658 Y33.795 E6.45069
G1 X164.682 Y34.110 E6.46627
G1 X164.658 Y34.425 E6.48184
G1 X164.583 Y34.733 E6.49740
G1 X164.463 Y35.023 E6.51285
G1 X164.299 Y35.292 E6.52839
G1 X164.093 Y35.533 E6.54399
G1 X163.853 Y35.738 E6.55950
G1 X163.584 Y35.903 E6.57503
G1 X163.292 Y36.024 E6.59059
G1 X162.985 Y36.098 E6.60615
G1 X162.730 Y36.118 E6.61873
G1 X162.670 Y35.736 F9000.000
G1 X162.416 Y35.716 E6.63129 F600.000
G1 X162.167 Y35.656 E6.64386
G1 X161.931 Y35.558 E6.65642
G1 X161.714 Y35.425 E6.66897
G1 X161.520 Y35.260 E6.68151
G1 X161.354 Y35.065 E6.69409
G1 X161.222 Y34.848 E6.70663
G1 X161.124 Y34.613 E6.71915
G1 X161.064 Y34.365 E6.73172
G1 X161.044 Y34.110 E6.74428
G1 X161.064 Y33.855 E6.75685
G1 X161.124 Y33.607 E6.76942
G1 X161.222 Y33.372 E6.78193
G1 X161.354 Y33.155 E6.79448
G1 X161.520 Y32.960 E6.80706
G1 X161.714 Y32.795 E6.81960
G1 X161.931 Y32.662 E6.83214
G1 X162.167 Y32.564 E6.84471
G1 X162.416 Y32.504 E6.85728
G1 X162.670 Y32.484 E6.86983 F600.000
G1 X162.924 Y32.504 E6.88238
G1 X163.173 Y32.564 E6.89496
G1 X163.409 Y32.662 E6.90752
G1 X163.626 Y32.795 E6.92006
G1 X163.820 Y32.960 E6.93261
G1 X163.986 Y33.155 E6.94519
G1 X164.118 Y33.372 E6.95773
G1 X164.216 Y33.607 E6.97025
G1 X164.276 Y33.855 E6.98282
G1 X164.296 Y34.110 E6.99538
G1 X164.276 Y34.365 E7.00795
G1 X164.216 Y34.613 E7.02051
G1 X164.118 Y34.848 E7.03303
G1 X163.986 Y35.065 E7.04558
G1 X163.820 Y35.260 E7.05816
G1 X163.626 Y35.425 E7.07070
G1 X163.409 Y35.558 E7.08324
G1 X163.173 Y35.656 E7.09581
G1 X162.924 Y35.716 E7.10838
G1 X162.730 Y35.731 E7.11798
G1 X162.537 Y35.953 F9000.000
G1 X38.482 Y34.110 F9000.000
G1 X38.458 Y34.425 E7.13352 F600.000
G1 X38.384 Y34.732 E7.14906
G1 X38.263 Y35.024 E7.16461
G1 X38.098 Y35.293 E7.18015
G1 X37.893 Y35.533 E7.19569
G1 X37.653 Y35.738 E7.21123
G1 X37.384 Y35.903 E7.22677
G1 X37.092 Y36.024 E7.24232
G1 X36.785 Y36.098 E7.25786
G1 X36.470 Y36.123 E7.27340
G1 X36.155 Y36.098 E7.28894
G1 X35.848 Y36.024 E7.30448
G1 X35.556 Y35.903 E7.32003
G1 X35.287 Y35.738 E7.33557
G1 X35.047 Y35.533 E7.35111
G1 X34.842 Y35.293 E7.36665
G1 X34.677 Y35.024 E7.38219
G1 X34.556 Y34.732 E7.39773
G1 X34.482 Y34.425 E7.41328
G1 X34.458 Y34.110 E7.42882
G1 X34.482 Y33.795 E7.44436
G1 X34.556 Y33.488 E7.45991
G1 X34.677 Y33.196 E7.47545
G1 X34.842 Y32.927 E7.49099
G1 X35.047 Y32.687 E7.50653
G1 X35.287 Y32.482 E7.52207
G1 X35.556 Y32.317 E7.53761
G1 X35.848 Y32.196 E7.55316
G1 X36.155 Y32.122 E7.56870
G1 X36.470 Y32.097 E7.58424 F600.000
G1 X36.785 Y32.122 E7.59978
G1 X37.092 Y32.196 E7.61532
G1 X37.384 Y32.317 E7.63087
G1 X37.653 Y32.482 E7.64641
G1 X37.893 Y32.687 E7.66195
G1 X38.098 Y32.927 E7.67749
G1 X38.263 Y33.196 E7.69303
G1 X38.384 Y33.488 E7.70857
G1 X38.458 Y33.795 E7.72412
G1 X38.478 Y34.050 E7.73671
G1 X38.096 Y34.110 F9000.000
G1 X38.076 Y34.364 E7.74926 F600.000
G1 X38.016 Y34.612 E7.76182
G1 X37.918 Y34.848 E7.77437
G1 X37.785 Y35.066 E7.78693
G1 X37.619 Y35.260 E7.79948
G1 X37.426 Y35.425 E7.81204
G1 X37.208 Y35.559 E7.82459
G1 X36.972 Y35.656 E7.83715
G1 X36.724 Y35.716 E7.84970
G1 X36.470 Y35.736 E7.86226
G1 X36.216 Y35.716 E7.87481
G1 X35.968 Y35.656 E7.88736
G1 X35.732 Y35.559 E7.89992
G1 X35.514 Y35.425 E7.91248
G1 X35.321 Y35.260 E7.92503
G1 X35.155 Y35.066 E7.93758
G1 X35.022 Y34.848 E7.95014
G1 X34.924 Y34.612 E7.96269
G1 X34.864 Y34.364 E7.97525
G1 X34.844 Y34.110 E7.98780
G1 X34.864 Y33.856 E8.00036
G1 X34.924 Y33.608 E8.01291
G1 X35.022 Y33.372 E8.02547
G1 X35.155 Y33.154 E8.03803
G1 X35.321 Y32.960 E8.05058
G1 X35.514 Y32.795 E8.06313
G1 X35.732 Y32.661 E8.07569
G1 X35.968 Y32.564 E8.08824
G1 X36.216 Y32.504 E8.10080
G1 X36.470 Y32.484 E8.11335 F600.000
G1 X36.724 Y32.504 E8.12591
G1 X36.972 Y32.564 E8.13846
G1 X37.208 Y32.661 E8.15102
G1 X37.426 Y32.795 E8.16357
G1 X37.619 Y32.960 E8.17612
G1 X37.785 Y33.154 E8.18868
G1 X37.918 Y33.372 E8.20123
G1 X38.016 Y33.608 E8.21379
G1 X38.076 Y33.856 E8.22635
G1 X38.091 Y34.050 E8.23595
G1 X38.313 Y34.243 F9000.000
G1 E2.23595 F1800.00000
G92 E0
G1 X36.470 Y90.097 F9000.000
G1 E6.00000 F1800.00000
G1 X36.785 Y90.122 E6.01554 F600.000
G1 X37.092 Y90.196 E6.03109
G1 X37.384 Y90.317 E6.04663
G1 X37.653 Y90.482 E6.06217
G1 X37.893 Y90.687 E6.07771
G1 X38.098 Y90.927 E6.09325
G1 X38.263 Y91.196 E6.10879
G1 X38.384 Y91.488 E6.12434
G1 X38.458 Y91.795 E6.13988
G1 X38.482 Y92.110 E6.15542
G1 X38.458 Y92.425 E6.17096
G1 X38.384 Y92.732 E6.18651
G1 X38.263 Y93.024 E6.20205
G1 X38.098 Y93.293 E6.21759
G1 X37.893 Y93.533 E6.23313
G1 X37.653 Y93.738 E6.24867
G1 X37.384 Y93.903 E6.26421
G1 X37.092 Y94.024 E6.27976
G1 X36.785 Y94.098 E6.29530
G1 X36.470 Y94.122 E6.31084
G1 X36.155 Y94.098 E6.32638
G1 X35.848 Y94.024 E6.34193
G1 X35.556 Y93.903 E6.35747
G1 X35.287 Y93.738 E6.37302
G1 X35.047 Y93.533 E6.38855
G1 X34.842 Y93.293 E6.40409
G1 X34.677 Y93.024 E6.41963
G1 X34.556 Y92.732 E6.43518
G1 X34.482 Y92.425 E6.45072
G1 X34.458 Y92.110 E6.46626
G1 X34.482 Y91.795 E6.48180
G1 X34.556 Y91.488 E6.49735
G1 X34.677 Y91.196 E6.51289
G1 X34.842 Y90.927 E6.52844
G1 X35.047 Y90.687 E6.54397
G1 X35.287 Y90.482 E6.55951
G1 X35.556 Y90.317 E6.57505
G1 X35.848 Y90.196 E6.59060
G1 X36.155 Y90.122 E6.60614
G1 X36.410 Y90.102 E6.61873 F600.000
G1 X36.470 Y90.484 F9000.000
G1 X36.724 Y90.504 E6.63128 F600.000
G1 X36.972 Y90.564 E6.64384
G1 X37.208 Y90.662 E6.65640
G1 X37.426 Y90.795 E6.66895
G1 X37.619 Y90.961 E6.68150
G1 X37.785 Y91.154 E6.69406
G1 X37.918 Y91.372 E6.70661
G1 X38.016 Y91.608 E6.71917
G1 X38.076 Y91.856 E6.73172
G1 X38.096 Y92.110 E6.74428
G1 X38.076 Y92.364 E6.75683
G1 X38.016 Y92.612 E6.76939
G1 X37.918 Y92.848 E6.78194
G1 X37.785 Y93.066 E6.79450
G1 X37.619 Y93.259 E6.80705
G1 X37.426 Y93.425 E6.81960
G1 X37.208 Y93.558 E6.83216
G1 X36.972 Y93.656 E6.84472
G1 X36.724 Y93.716 E6.85727
G1 X36.470 Y93.736 E6.86983
G1 X36.216 Y93.716 E6.88238
G1 X35.968 Y93.656 E6.89494
G1 X35.732 Y93.558 E6.90749
G1 X35.514 Y93.425 E6.92005
G1 X35.321 Y93.259 E6.93260
G1 X35.155 Y93.066 E6.94515
G1 X35.022 Y92.848 E6.95771
G1 X34.924 Y92.612 E6.97026
G1 X34.864 Y92.364 E6.98282
G1 X34.844 Y92.110 E6.99537
G1 X34.864 Y91.856 E7.00793
G1 X34.924 Y91.608 E7.02048
G1 X35.022 Y91.372 E7.03304
G1 X35.155 Y91.154 E7.04560
G1 X35.321 Y90.961 E7.05815
G1 X35.514 Y90.795 E7.07070
G1 X35.732 Y90.662 E7.08326
G1 X35.968 Y90.564 E7.09581
G1 X36.216 Y90.504 E7.10837
G1 X36.410 Y90.489 E7.11797 F600.000
G1 X36.603 Y90.267 F9000.000
G1 X36.332 Y88.733 F9000.000
G1 X37.192 Y88.666 E7.16039 F600.000
G1 X37.895 Y88.497 E7.19601
G1 X38.564 Y88.220 E7.23163
G1 X39.181 Y87.842 E7.26725
G1 X39.732 Y87.372 E7.30287
G1 X40.081 Y86.963 E7.32933
G1 X40.081 Y39.257 E9.67716
G1 X39.731 Y38.848 E9.70362
G1 X39.181 Y38.378 E9.73924
G1 X38.564 Y38.000 E9.77485
G1 X37.895 Y37.723 E9.81048
G1 X37.192 Y37.554 E9.84610
G1 X35.940 Y37.456 E9.90788
G1 X35.423 Y37.332 E9.93404
