; generated by Slic3r 1.2.9 on 2017-08-30 at 08:59:05

; external perimeters extrusion width = 0.40mm
; perimeters extrusion width = 0.62mm
; infill extrusion width = 0.33mm
; solid infill extrusion width = 0.62mm
; top infill extrusion width = 0.20mm

M106 S256; Turn on fan to 100% power
M104 S140; turn on extruder temperature at S value
M140 S60; turn on bed temperature at S value
G28; home all axes
M84; disable motors
G1 Z15 F15000; have Z move to 20mm at 15000 mm/min
M190 S55; turn on bed temperature at S value and wait
M140 S55; turn on bed temperature at S value (printing temperature)
M109 S200; turn on extruder temperature at S value and wait (printing temperature)
M104 S200; turn on extruder temperature at S value
G1 Z0 F12000; move Z back to home
G21 ; set units to millimeters
G90 ; use absolute coordinates
M82 ; use absolute distances for extrusion
G92 E0
M106 S255
;Layer change
G1 E-6.00000 F1800.00000
G92 E0
G1 Z0.300 F9000.000
G1 X9.297 Y8.948 F9000.000
G1 E6.00000 F1800.00000
G1 X10.800 Y8.414 E6.07942 F600.000
G1 X169.200 Y8.414 E13.96600
G1 X170.510 Y8.806 E14.03406
G1 X171.473 Y10.077 E14.11347 F600.000
G1 X180.285 Y37.785 E15.56110
G1 X180.496 Y38.801 E15.61277
G1 X180.534 Y39.098 E15.62769
G1 X180.586 Y40.000 E15.67266
G1 X180.586 Y140.000 E20.65156
G1 X180.534 Y140.902 E20.69654
G1 X180.496 Y141.199 E20.71145
G1 X180.285 Y142.215 E20.76312
G1 X171.473 Y169.923 E22.21075
G1 X170.703 Y171.052 E22.27881
G1 X169.200 Y171.586 E22.35823
G1 X10.800 Y171.586 E30.24480
G1 X9.490 Y171.194 E30.31286
G1 X8.527 Y169.923 E30.39228
G1 X-0.285 Y142.215 E31.83991
G1 X-0.496 Y141.199 E31.89158
G1 X-0.534 Y140.902 E31.90650
G1 X-0.586 Y140.000 E31.95147
G1 X-0.586 Y40.000 E36.93037
G1 X-0.534 Y39.098 E36.97535
G1 X-0.496 Y38.801 E36.99026
G1 X-0.285 Y37.785 E37.04193
G1 X8.527 Y10.077 E38.48956
G1 X9.263 Y8.997 E38.55463
G1 E32.55463 F1800.00000
G92 E0
G1 X17.816 Y17.816 F9000.000
G1 E6.00000 F1800.00000
G1 X162.184 Y17.816 E13.18791 F600.000
G1 X162.184 Y162.184 E20.37581
G1 X17.816 Y162.184 E27.56372
G1 X17.816 Y17.876 E34.74864
G1 X18.202 Y18.202 F9000.000
G1 X161.798 Y18.202 E41.89815 F600.000
G1 X161.798 Y161.798 E49.04766
G1 X18.202 Y161.798 E56.19717
G1 X18.202 Y18.262 E63.34369
G1 X18.202 Y17.802 F9000.000
G1 E57.34369 F1800.00000
G92 E0
G1 X8.763 Y37.953 F9000.000
G1 E6.00000 F1800.00000
G1 X9.012 Y38.090 E6.01415 F600.000
G1 X9.242 Y38.257 E6.02828
G1 X9.449 Y38.452 E6.04242
G1 X9.630 Y38.671 E6.05657
G1 X9.782 Y38.910 E6.07071
G1 X9.903 Y39.167 E6.08485
G1 X9.991 Y39.437 E6.09900
G1 X10.044 Y39.717 E6.11314
G1 X10.062 Y40.000 E6.12728
G1 X10.044 Y40.283 E6.14142
G1 X9.991 Y40.563 E6.15557
G1 X9.903 Y40.833 E6.16971
G1 X9.782 Y41.090 E6.18385
G1 X9.630 Y41.329 E6.19799
G1 X9.449 Y41.548 E6.21214
G1 X9.242 Y41.743 E6.22628
G1 X9.012 Y41.910 E6.24041
G1 X8.763 Y42.047 E6.25456
G1 X8.499 Y42.151 E6.26870
G1 X8.224 Y42.222 E6.28284
G1 X7.942 Y42.257 E6.29699
G1 X7.658 Y42.257 E6.31112
G1 X7.376 Y42.222 E6.32527
G1 X7.101 Y42.151 E6.33942
G1 X6.837 Y42.047 E6.35355
G1 X6.588 Y41.910 E6.36770
G1 X6.357 Y41.742 E6.38189
G1 X6.147 Y41.543 E6.39633
G1 X5.970 Y41.329 E6.41012
G1 X5.818 Y41.090 E6.42426
G1 X5.697 Y40.833 E6.43840
G1 X5.609 Y40.561 E6.45260
G1 X5.556 Y40.276 E6.46704
G1 X5.538 Y40.000 E6.48083
G1 X5.556 Y39.717 E6.49497
G1 X5.609 Y39.437 E6.50911
G1 X5.697 Y39.166 E6.52331
G1 X5.822 Y38.904 E6.53775
G1 X5.970 Y38.671 E6.55154
G1 X6.151 Y38.452 E6.56568
G1 X6.358 Y38.257 E6.57983
G1 X6.588 Y38.090 E6.59396
G1 X6.837 Y37.953 E6.60811
G1 X7.101 Y37.849 E6.62225
G1 X7.376 Y37.778 E6.63639
G1 X7.658 Y37.743 E6.65054
G1 X7.942 Y37.743 E6.66467 F600.000
G1 X8.224 Y37.778 E6.67882
G1 X8.499 Y37.849 E6.69296
G1 X8.707 Y37.931 E6.70411
G1 X8.598 Y38.303 F9000.000
G1 X8.805 Y38.417 E6.71584 F600.000
G1 X8.995 Y38.555 E6.72756
G1 X9.167 Y38.716 E6.73929
G1 X9.317 Y38.898 E6.75102
G1 X9.443 Y39.097 E6.76275
G1 X9.544 Y39.310 E6.77447
G1 X9.617 Y39.534 E6.78620
G1 X9.661 Y39.765 E6.79793
G1 X9.675 Y40.000 E6.80965
G1 X9.661 Y40.235 E6.82138
G1 X9.617 Y40.466 E6.83310
G1 X9.544 Y40.690 E6.84483
G1 X9.443 Y40.903 E6.85656
G1 X9.317 Y41.102 E6.86828
G1 X9.167 Y41.284 E6.88001
G1 X8.995 Y41.445 E6.89174
G1 X8.805 Y41.583 E6.90346
G1 X8.598 Y41.697 E6.91519
G1 X8.380 Y41.784 E6.92691
G1 X8.151 Y41.842 E6.93864
G1 X7.918 Y41.872 E6.95037
G1 X7.682 Y41.872 E6.96209
G1 X7.449 Y41.842 E6.97382
G1 X7.220 Y41.784 E6.98555
G1 X7.002 Y41.697 E6.99727
G1 X6.795 Y41.583 E7.00900
G1 X6.604 Y41.445 E7.02074
G1 X6.429 Y41.279 E7.03276
G1 X6.283 Y41.102 E7.04418
G1 X6.157 Y40.903 E7.05590
G1 X6.056 Y40.690 E7.06762
G1 X5.983 Y40.466 E7.07937
G1 X5.939 Y40.229 E7.09139
G1 X5.925 Y40.000 E7.10280
G1 X5.939 Y39.765 E7.11453
G1 X5.983 Y39.534 E7.12625
G1 X6.056 Y39.309 E7.13800
G1 X6.160 Y39.091 E7.15002
G1 X6.283 Y38.898 E7.16143
G1 X6.433 Y38.716 E7.17316
G1 X6.605 Y38.555 E7.18489
G1 X6.795 Y38.417 E7.19661
G1 X7.002 Y38.303 E7.20834
G1 X7.220 Y38.216 E7.22006
G1 X7.449 Y38.158 E7.23179
G1 X7.682 Y38.128 E7.24352
G1 X7.918 Y38.128 E7.25524 F600.000
G1 X8.151 Y38.158 E7.26697
G1 X8.380 Y38.216 E7.27870
G1 X8.543 Y38.281 E7.28743
G1 X8.795 Y38.173 F9000.000
G1 E1.28743 F1800.00000
G92 E0
G1 X7.942 Y87.743 F9000.000
G1 E6.00000 F1800.00000
G1 X8.217 Y87.777 E6.01379 F600.000
G1 X8.498 Y87.848 E6.02823
G1 X8.763 Y87.953 E6.04242
G1 X9.012 Y88.090 E6.05657
G1 X9.242 Y88.257 E6.07071
G1 X9.449 Y88.452 E6.08485
G1 X9.630 Y88.671 E6.09899
G1 X9.782 Y88.910 E6.11314
G1 X9.903 Y89.167 E6.12727
G1 X9.991 Y89.438 E6.14147
G1 X10.044 Y89.724 E6.15591
G1 X10.062 Y90.000 E6.16970
G1 X10.044 Y90.283 E6.18384
G1 X9.991 Y90.563 E6.19799
G1 X9.903 Y90.833 E6.21213
G1 X9.782 Y91.090 E6.22627
G1 X9.630 Y91.329 E6.24041
G1 X9.449 Y91.548 E6.25456
G1 X9.242 Y91.743 E6.26870
G1 X9.012 Y91.910 E6.28284
G1 X8.763 Y92.047 E6.29698
G1 X8.499 Y92.151 E6.31112
G1 X8.224 Y92.222 E6.32526
G1 X7.942 Y92.257 E6.33941
G1 X7.658 Y92.257 E6.35355
G1 X7.383 Y92.223 E6.36734
G1 X7.102 Y92.151 E6.38178
G1 X6.837 Y92.047 E6.39597
G1 X6.588 Y91.910 E6.41012
G1 X6.358 Y91.743 E6.42426
G1 X6.151 Y91.548 E6.43840
G1 X5.970 Y91.329 E6.45254
G1 X5.818 Y91.090 E6.46669
G1 X5.697 Y90.833 E6.48082
G1 X5.609 Y90.562 E6.49502
G1 X5.556 Y90.276 E6.50946
G1 X5.538 Y90.000 E6.52325
G1 X5.556 Y89.717 E6.53739
G1 X5.609 Y89.437 E6.55154
G1 X5.697 Y89.167 E6.56568
G1 X5.818 Y88.910 E6.57982
G1 X5.970 Y88.671 E6.59396
G1 X6.151 Y88.452 E6.60811
G1 X6.358 Y88.257 E6.62225
G1 X6.582 Y88.094 E6.63604
G1 X6.836 Y87.954 E6.65048
G1 X7.101 Y87.849 E6.66467
G1 X7.376 Y87.778 E6.67881
G1 X7.658 Y87.743 E6.69296
G1 X7.882 Y87.743 E6.70411 F600.000
G1 X7.918 Y88.128 F9000.000
G1 X8.145 Y88.157 E6.71552 F600.000
G1 X8.379 Y88.216 E6.72754
G1 X8.598 Y88.303 E6.73929
G1 X8.805 Y88.417 E6.75101
G1 X8.995 Y88.555 E6.76274
G1 X9.167 Y88.716 E6.77446
G1 X9.317 Y88.898 E6.78619
G1 X9.443 Y89.097 E6.79792
G1 X9.544 Y89.310 E6.80964
G1 X9.617 Y89.534 E6.82139
G1 X9.661 Y89.771 E6.83341
G1 X9.675 Y90.000 E6.84482
G1 X9.661 Y90.235 E6.85655
G1 X9.617 Y90.466 E6.86828
G1 X9.544 Y90.690 E6.88000
G1 X9.443 Y90.903 E6.89173
G1 X9.317 Y91.102 E6.90345
G1 X9.167 Y91.284 E6.91518
G1 X8.995 Y91.445 E6.92691
G1 X8.805 Y91.583 E6.93863
G1 X8.598 Y91.697 E6.95036
G1 X8.380 Y91.784 E6.96208
G1 X8.151 Y91.842 E6.97381
G1 X7.918 Y91.872 E6.98554
G1 X7.682 Y91.872 E6.99726
G1 X7.455 Y91.843 E7.00867
G1 X7.221 Y91.784 E7.02070
G1 X7.002 Y91.697 E7.03244
G1 X6.795 Y91.583 E7.04417
G1 X6.605 Y91.445 E7.05589
G1 X6.433 Y91.284 E7.06762
G1 X6.283 Y91.102 E7.07935
G1 X6.157 Y90.903 E7.09107
G1 X6.056 Y90.690 E7.10280
G1 X5.983 Y90.466 E7.11454
G1 X5.939 Y90.229 E7.12657
G1 X5.925 Y90.000 E7.13797
G1 X5.939 Y89.765 E7.14970
G1 X5.983 Y89.534 E7.16143
G1 X6.056 Y89.310 E7.17316
G1 X6.157 Y89.097 E7.18488
G1 X6.283 Y88.898 E7.19661
G1 X6.433 Y88.716 E7.20833
G1 X6.605 Y88.555 E7.22006
G1 X6.790 Y88.420 E7.23147
G1 X7.001 Y88.303 E7.24349
G1 X7.220 Y88.216 E7.25523
G1 X7.449 Y88.158 E7.26696
G1 X7.682 Y88.128 E7.27869
G1 X7.858 Y88.128 E7.28743 F600.000
G1 X8.049 Y87.940 F9000.000
G1 E1.28743 F1800.00000
G92 E0
G1 X7.918 Y137.743 F9000.000
G1 E6.00000 F1800.00000
G1 X8.224 Y137.778 E6.01534 F600.000
G1 X8.499 Y137.849 E6.02949
G1 X8.763 Y137.953 E6.04362
G1 X9.012 Y138.090 E6.05777
G1 X9.242 Y138.257 E6.07191
G1 X9.449 Y138.452 E6.08605
G1 X9.630 Y138.671 E6.10020
G1 X9.782 Y138.910 E6.11434
G1 X9.903 Y139.167 E6.12848
G1 X9.991 Y139.439 E6.14267
G1 X10.044 Y139.724 E6.15711
G1 X10.062 Y140.000 E6.17090
G1 X10.044 Y140.283 E6.18504
G1 X9.991 Y140.562 E6.19919
G1 X9.903 Y140.834 E6.21339
G1 X9.778 Y141.096 E6.22782
G1 X9.630 Y141.329 E6.24161
G1 X9.449 Y141.548 E6.25576
G1 X9.242 Y141.743 E6.26990
G1 X9.012 Y141.910 E6.28403
G1 X8.763 Y142.047 E6.29818
G1 X8.499 Y142.151 E6.31232
G1 X8.224 Y142.222 E6.32646
G1 X7.942 Y142.257 E6.34061
G1 X7.658 Y142.257 E6.35474
G1 X7.376 Y142.222 E6.36889
G1 X7.101 Y142.151 E6.38304
G1 X6.837 Y142.047 E6.39717
G1 X6.588 Y141.910 E6.41132
G1 X6.358 Y141.743 E6.42545
G1 X6.151 Y141.548 E6.43960
G1 X5.970 Y141.329 E6.45375
G1 X5.818 Y141.090 E6.46789
G1 X5.697 Y140.833 E6.48202
G1 X5.609 Y140.562 E6.49617
G1 X5.556 Y140.283 E6.51031
G1 X5.538 Y140.000 E6.52445
G1 X5.556 Y139.715 E6.53865
G1 X5.611 Y139.431 E6.55309
G1 X5.697 Y139.167 E6.56688
G1 X5.818 Y138.910 E6.58102
G1 X5.970 Y138.671 E6.59516
G1 X6.151 Y138.452 E6.60931
G1 X6.358 Y138.257 E6.62345
G1 X6.582 Y138.095 E6.63723
G1 X6.836 Y137.954 E6.65168
G1 X7.101 Y137.849 E6.66587
G1 X7.376 Y137.778 E6.68001
G1 X7.658 Y137.743 E6.69416
G1 X7.858 Y137.743 E6.70410 F600.000
G1 X7.918 Y138.128 F9000.000
G1 X8.151 Y138.158 E6.71583 F600.000
G1 X8.380 Y138.216 E6.72756
G1 X8.598 Y138.303 E6.73928
G1 X8.805 Y138.417 E6.75101
G1 X8.995 Y138.555 E6.76273
G1 X9.167 Y138.716 E6.77446
G1 X9.317 Y138.898 E6.78619
G1 X9.443 Y139.096 E6.79791
G1 X9.544 Y139.310 E6.80964
G1 X9.617 Y139.534 E6.82139
G1 X9.661 Y139.771 E6.83341
G1 X9.675 Y140.000 E6.84482
G1 X9.661 Y140.235 E6.85654
G1 X9.617 Y140.466 E6.86827
G1 X9.544 Y140.691 E6.88002
G1 X9.440 Y140.909 E6.89204
G1 X9.317 Y141.102 E6.90344
G1 X9.167 Y141.284 E6.91517
G1 X8.995 Y141.445 E6.92690
G1 X8.805 Y141.583 E6.93862
G1 X8.598 Y141.697 E6.95035
G1 X8.380 Y141.784 E6.96207
G1 X8.151 Y141.842 E6.97380
G1 X7.918 Y141.872 E6.98553
G1 X7.682 Y141.872 E6.99725
G1 X7.449 Y141.842 E7.00898
G1 X7.220 Y141.784 E7.02071
G1 X7.002 Y141.697 E7.03243
G1 X6.795 Y141.583 E7.04416
G1 X6.605 Y141.445 E7.05588
G1 X6.433 Y141.284 E7.06761
G1 X6.283 Y141.102 E7.07934
G1 X6.157 Y140.904 E7.09106
G1 X6.056 Y140.690 E7.10279
G1 X5.983 Y140.466 E7.11452
G1 X5.939 Y140.235 E7.12624
G1 X5.925 Y140.000 E7.13797
G1 X5.939 Y139.765 E7.14972
G1 X5.985 Y139.528 E7.16174
G1 X6.056 Y139.310 E7.17315
G1 X6.157 Y139.096 E7.18487
G1 X6.283 Y138.898 E7.19660
G1 X6.433 Y138.716 E7.20833
G1 X6.605 Y138.555 E7.22005
G1 X6.790 Y138.420 E7.23146
G1 X7.001 Y138.303 E7.24348
G1 X7.220 Y138.216 E7.25523
G1 X7.449 Y138.158 E7.26695
G1 X7.682 Y138.128 E7.27868
G1 X7.858 Y138.128 E7.28742 F600.000
G1 X8.052 Y137.935 F9000.000
G1 E1.28742 F1800.00000
G92 E0
G1 X169.939 Y139.993 F9000.000
G1 E6.00000 F1800.00000
G1 X169.956 Y139.717 E6.01379 F600.000
G1 X170.009 Y139.438 E6.02793
G1 X170.097 Y139.167 E6.04208
G1 X170.218 Y138.910 E6.05622
G1 X170.370 Y138.671 E6.07036
G1 X170.551 Y138.452 E6.08451
G1 X170.758 Y138.257 E6.09865
G1 X170.988 Y138.090 E6.11278
G1 X171.237 Y137.953 E6.12693
G1 X171.501 Y137.849 E6.14107
G1 X171.776 Y137.778 E6.15521
G1 X172.058 Y137.743 E6.16936
G1 X172.342 Y137.743 E6.18349 F600.000
G1 X172.624 Y137.778 E6.19764
G1 X172.899 Y137.849 E6.21178
G1 X173.163 Y137.953 E6.22592
G1 X173.412 Y138.090 E6.24007
G1 X173.642 Y138.257 E6.25420
G1 X173.849 Y138.452 E6.26834
G1 X174.030 Y138.671 E6.28249
G1 X174.182 Y138.910 E6.29663
G1 X174.303 Y139.167 E6.31077
G1 X174.391 Y139.437 E6.32492
G1 X174.444 Y139.717 E6.33906
G1 X174.462 Y140.000 E6.35320
G1 X174.444 Y140.283 E6.36734
G1 X174.391 Y140.563 E6.38149
G1 X174.303 Y140.833 E6.39563
G1 X174.182 Y141.090 E6.40977
G1 X174.030 Y141.329 E6.42391
G1 X173.849 Y141.548 E6.43806
G1 X173.642 Y141.743 E6.45220
G1 X173.412 Y141.910 E6.46633
G1 X173.163 Y142.047 E6.48048
G1 X172.899 Y142.151 E6.49462
G1 X172.624 Y142.222 E6.50876
G1 X172.342 Y142.257 E6.52291
G1 X172.058 Y142.257 E6.53704
G1 X171.776 Y142.222 E6.55119
G1 X171.501 Y142.151 E6.56534
G1 X171.237 Y142.047 E6.57947
G1 X170.988 Y141.910 E6.59362
G1 X170.758 Y141.743 E6.60776
G1 X170.551 Y141.548 E6.62190
G1 X170.370 Y141.329 E6.63605
G1 X170.218 Y141.090 E6.65019
G1 X170.097 Y140.833 E6.66433
G1 X170.009 Y140.562 E6.67847
G1 X169.956 Y140.282 E6.69267
G1 X169.942 Y140.053 E6.70412
G1 X170.325 Y139.994 F9000.000
G1 X170.339 Y139.765 E6.71553 F600.000
G1 X170.383 Y139.534 E6.72725
G1 X170.456 Y139.310 E6.73898
G1 X170.557 Y139.096 E6.75070
G1 X170.683 Y138.898 E6.76243
G1 X170.833 Y138.716 E6.77416
G1 X171.005 Y138.555 E6.78589
G1 X171.195 Y138.417 E6.79761
G1 X171.401 Y138.303 E6.80934
G1 X171.620 Y138.216 E6.82106
G1 X171.849 Y138.158 E6.83279
G1 X172.082 Y138.128 E6.84452
G1 X172.318 Y138.128 E6.85624 F600.000
G1 X172.551 Y138.158 E6.86797
G1 X172.780 Y138.216 E6.87970
G1 X172.998 Y138.303 E6.89142
G1 X173.205 Y138.417 E6.90315
G1 X173.395 Y138.555 E6.91487
G1 X173.567 Y138.716 E6.92660
G1 X173.717 Y138.898 E6.93833
G1 X173.843 Y139.096 E6.95005
G1 X173.944 Y139.310 E6.96178
G1 X174.017 Y139.534 E6.97350
G1 X174.061 Y139.765 E6.98523
G1 X174.075 Y140.000 E6.99696
G1 X174.061 Y140.235 E7.00868
G1 X174.017 Y140.466 E7.02041
G1 X173.944 Y140.690 E7.03214
G1 X173.843 Y140.904 E7.04386
G1 X173.717 Y141.102 E7.05559
G1 X173.567 Y141.284 E7.06732
G1 X173.395 Y141.445 E7.07904
G1 X173.205 Y141.583 E7.09076
G1 X172.998 Y141.697 E7.10249
G1 X172.780 Y141.784 E7.11422
G1 X172.551 Y141.842 E7.12594
G1 X172.318 Y141.872 E7.13767
G1 X172.082 Y141.872 E7.14939
G1 X171.849 Y141.842 E7.16112
G1 X171.620 Y141.784 E7.17285
G1 X171.401 Y141.697 E7.18457
G1 X171.195 Y141.583 E7.19630
G1 X171.005 Y141.445 E7.20803
G1 X170.833 Y141.284 E7.21975
G1 X170.683 Y141.102 E7.23148
G1 X170.557 Y140.904 E7.24321
G1 X170.456 Y140.690 E7.25493
G1 X170.383 Y140.466 E7.26666
G1 X170.339 Y140.235 E7.27841
G1 X170.329 Y140.054 E7.28744
G1 X170.129 Y139.875 F9000.000
G1 E1.28744 F1800.00000
G92 E0
G1 X172.058 Y92.257 F9000.000
G1 E6.00000 F1800.00000
G1 X171.783 Y92.223 E6.01379 F600.000
G1 X171.502 Y92.151 E6.02823
G1 X171.237 Y92.047 E6.04242
G1 X170.994 Y91.913 E6.05622
G1 X170.759 Y91.744 E6.07065
G1 X170.551 Y91.548 E6.08484
G1 X170.370 Y91.329 E6.09899
G1 X170.218 Y91.090 E6.11314
G1 X170.097 Y90.833 E6.12727
G1 X170.009 Y90.563 E6.14142
G1 X169.956 Y90.282 E6.15561
G1 X169.939 Y89.993 E6.17005
G1 X169.956 Y89.717 E6.18384
G1 X170.009 Y89.437 E6.19799
G1 X170.097 Y89.167 E6.21213
G1 X170.218 Y88.909 E6.22632
G1 X170.375 Y88.665 E6.24076
G1 X170.551 Y88.452 E6.25456
G1 X170.758 Y88.257 E6.26870
G1 X170.988 Y88.090 E6.28284
G1 X171.237 Y87.953 E6.29698
G1 X171.501 Y87.849 E6.31112
G1 X171.776 Y87.778 E6.32526
G1 X172.058 Y87.743 E6.33940
G1 X172.342 Y87.743 E6.35355 F600.000
G1 X172.617 Y87.777 E6.36734
G1 X172.898 Y87.848 E6.38178
G1 X173.163 Y87.953 E6.39597
G1 X173.406 Y88.087 E6.40976
G1 X173.641 Y88.256 E6.42420
G1 X173.849 Y88.452 E6.43839
G1 X174.030 Y88.671 E6.45254
G1 X174.182 Y88.910 E6.46668
G1 X174.303 Y89.167 E6.48082
G1 X174.391 Y89.437 E6.49496
G1 X174.444 Y89.717 E6.50911
G1 X174.462 Y90.000 E6.52325
G1 X174.444 Y90.283 E6.53739
G1 X174.391 Y90.563 E6.55154
G1 X174.303 Y90.833 E6.56568
G1 X174.182 Y91.091 E6.57987
G1 X174.025 Y91.335 E6.59431
G1 X173.849 Y91.548 E6.60810
G1 X173.642 Y91.743 E6.62224
G1 X173.412 Y91.910 E6.63638
G1 X173.163 Y92.047 E6.65053
G1 X172.899 Y92.151 E6.66466
G1 X172.624 Y92.222 E6.67881
G1 X172.342 Y92.257 E6.69295
G1 X172.118 Y92.257 E6.70411
G1 X172.082 Y91.872 F9000.000
G1 X171.855 Y91.843 E6.71552 F600.000
G1 X171.621 Y91.784 E6.72754
G1 X171.401 Y91.697 E6.73928
G1 X171.201 Y91.587 E6.75069
G1 X171.005 Y91.445 E6.76271
G1 X170.833 Y91.284 E6.77446
G1 X170.683 Y91.102 E6.78619
