; generated by Slic3r 1.2.9 on 2020-04-15 at 14:58:33

; external perimeters extrusion width = 0.40mm
; perimeters extrusion width = 0.62mm
; infill extrusion width = 0.33mm
; solid infill extrusion width = 0.62mm
; top infill extrusion width = 0.20mm

M106 S256; Turn on fan to 100% power
M104 S140; turn on extruder temperature at S value
M140 S60; turn on bed temperature at S value
G28; home all axes
M84; disable motors
G1 Z15 F15000; have Z move to 20mm at 15000 mm/min
M190 S55; turn on bed temperature at S value and wait
M140 S55; turn on bed temperature at S value (printing temperature)
M109 S200; turn on extruder temperature at S value and wait (printing temperature)
M104 S200; turn on extruder temperature at S value
G1 Z0 F12000; move Z back to home
G21 ; set units to millimeters
G90 ; use absolute coordinates
M82 ; use absolute distances for extrusion
G92 E0
M106 S255
;Layer change
G1 E-6.00000 F1800.00000
G92 E0
G1 Z0.300 F9000.000
G1 X57.112 Y41.878 F9000.000
G1 E6.00000 F1800.00000
G1 X57.672 Y41.196 E6.04342 F600.000
G1 X58.056 Y40.812 E6.07015
G1 X58.738 Y40.252 E6.11356
G1 X59.189 Y39.950 E6.14030
G1 X59.968 Y39.534 E6.18372
G1 X60.469 Y39.327 E6.21046
G1 X61.314 Y39.071 E6.25387
G1 X61.846 Y38.965 E6.28061
G1 X62.996 Y38.865 E6.33740
G1 X124.542 Y38.865 E9.36641
G1 X127.370 Y38.987 E9.50572 F600.000
G1 X128.109 Y39.058 E9.54226
G1 X130.603 Y39.432 E9.66637
G1 X131.298 Y39.584 E9.70136
G1 X133.392 Y40.158 E9.80821
G1 X134.356 Y40.497 E9.85850
G1 X136.214 Y41.301 E9.95815
G1 X137.043 Y41.731 E10.00410
G1 X138.856 Y42.876 E10.10965
G1 X139.860 Y43.647 E10.17193
G1 X141.403 Y45.077 E10.27549
G1 X142.150 Y45.926 E10.33113
G1 X143.204 Y47.351 E10.41838
G1 X143.785 Y48.298 E10.47303
G1 X143.944 Y48.593 E10.48954
G1 X144.697 Y50.202 E10.57697
G1 X144.798 Y50.446 E10.58998
G1 X145.162 Y51.507 E10.64518
G1 X145.662 Y53.531 E10.74780
G1 X145.814 Y54.524 E10.79722
G1 X145.964 Y56.501 E10.89477
G1 X145.975 Y57.340 E10.93610
G1 X145.853 Y59.200 E11.02784
G1 X143.651 Y76.516 E11.88691
G1 X143.093 Y79.983 E12.05975
G1 X142.811 Y81.102 E12.11654
G1 X142.618 Y81.617 E12.14359
G1 X142.221 Y82.426 E12.18796
G1 X142.086 Y82.669 E12.20162
G1 X140.450 Y85.294 E12.35383
G1 X139.758 Y86.217 E12.41062
G1 X139.367 Y86.630 E12.43861
G1 X138.635 Y87.258 E12.48607
G1 X138.400 Y87.440 E12.50070
G1 X135.674 Y89.315 E12.66353
G1 X134.670 Y89.884 E12.72032
G1 X134.273 Y90.064 E12.74180
G1 X133.609 Y90.299 E12.77643
G1 X129.793 Y91.424 E12.97223
G1 X128.580 Y91.662 E13.03307
G1 X128.291 Y91.699 E13.04741
G1 X123.279 Y92.080 E13.29480
G1 X122.830 Y92.095 E13.31688
G1 X62.996 Y92.095 E16.26164
G1 X61.846 Y91.995 E16.31844
G1 X61.314 Y91.889 E16.34516
G1 X60.469 Y91.633 E16.38858
G1 X59.968 Y91.426 E16.41531
G1 X59.190 Y91.010 E16.45872
G1 X58.738 Y90.708 E16.48547
G1 X58.056 Y90.148 E16.52889
G1 X57.672 Y89.764 E16.55562
G1 X57.112 Y89.082 E16.59904
G1 X56.810 Y88.630 E16.62579
G1 X56.394 Y87.852 E16.66921
G1 X56.186 Y87.350 E16.69593
G1 X55.930 Y86.506 E16.73934
G1 X55.824 Y85.973 E16.76608
G1 X55.725 Y84.824 E16.82286
G1 X55.725 Y46.136 E18.72690
G1 X55.824 Y44.987 E18.78367
G1 X55.930 Y44.454 E18.81041
G1 X56.186 Y43.610 E18.85383
G1 X56.394 Y43.108 E18.88056
G1 X56.810 Y42.330 E18.92398
G1 X57.079 Y41.928 E18.94777
G1 X57.410 Y42.122 F9000.000
G1 X57.970 Y41.441 E18.99119 F600.000
G1 X58.300 Y41.110 E19.01420
G1 X58.982 Y40.550 E19.05761
G1 X59.371 Y40.290 E19.08064
G1 X60.149 Y39.875 E19.12406
G1 X60.581 Y39.696 E19.14707
G1 X61.426 Y39.440 E19.19049
G1 X61.884 Y39.348 E19.21350
G1 X62.996 Y39.250 E19.26843
G1 X124.534 Y39.251 E22.29702
G1 X127.353 Y39.372 E22.43590 F600.000
G1 X128.053 Y39.439 E22.47050
G1 X130.524 Y39.810 E22.59346
G1 X131.196 Y39.955 E22.62731
G1 X133.290 Y40.530 E22.73416
G1 X134.202 Y40.851 E22.78178
G1 X136.061 Y41.655 E22.88144
G1 X136.862 Y42.072 E22.92588
G1 X138.649 Y43.201 E23.02992
G1 X139.600 Y43.931 E23.08890
G1 X141.117 Y45.335 E23.19063
G1 X141.840 Y46.155 E23.24446
G1 X142.894 Y47.580 E23.33170
G1 X143.595 Y48.756 E23.39907
G1 X144.348 Y50.365 E23.48650
G1 X144.788 Y51.601 E23.55107
G1 X145.282 Y53.593 E23.65207
G1 X145.429 Y54.553 E23.69988
G1 X145.580 Y56.530 E23.79743
G1 X145.590 Y57.342 E23.83740
G1 X145.470 Y59.152 E23.92665
G1 X143.268 Y76.468 E24.78572
G1 X142.712 Y79.922 E24.95793
G1 X142.438 Y81.004 E25.01285
G1 X142.272 Y81.447 E25.03614
G1 X141.875 Y82.256 E25.08051
G1 X140.123 Y85.090 E25.24447
G1 X139.452 Y85.982 E25.29939
G1 X139.115 Y86.337 E25.32349
G1 X138.384 Y86.966 E25.37095
G1 X138.181 Y87.122 E25.38355
G1 X135.455 Y88.997 E25.54637
G1 X134.484 Y89.546 E25.60130
G1 X134.142 Y89.702 E25.61980
G1 X133.500 Y89.929 E25.65328
G1 X129.684 Y91.054 E25.84909
G1 X128.510 Y91.282 E25.90793
G1 X128.262 Y91.315 E25.92028
G1 X123.264 Y91.695 E26.16694
G1 X122.830 Y91.710 E26.18830
G1 X62.996 Y91.710 E29.13306
G1 X61.884 Y91.612 E29.18800
G1 X61.426 Y91.520 E29.21100
G1 X60.581 Y91.264 E29.25442
G1 X60.149 Y91.085 E29.27743
G1 X59.371 Y90.670 E29.32084
G1 X58.982 Y90.410 E29.34387
G1 X58.300 Y89.850 E29.38729
G1 X57.970 Y89.519 E29.41030
G1 X57.410 Y88.838 E29.45371
G1 X57.150 Y88.448 E29.47674
G1 X56.734 Y87.670 E29.52016
G1 X56.555 Y87.239 E29.54316
G1 X56.299 Y86.394 E29.58657
G1 X56.208 Y85.936 E29.60960
G1 X56.110 Y84.824 E29.66452
G1 X56.110 Y46.136 E31.56855
G1 X56.208 Y45.024 E31.62347
G1 X56.299 Y44.566 E31.64649
G1 X56.555 Y43.721 E31.68991
G1 X56.734 Y43.289 E31.71292
G1 X57.150 Y42.511 E31.75633
G1 X57.377 Y42.172 E31.77641
G1 E25.77641 F1800.00000
G92 E0
G1 X117.897 Y76.732 F9000.000
G1 E6.00000 F1800.00000
G1 X117.897 Y72.297 E6.21823 F600.000
G1 X122.754 Y72.297 E6.45728
G1 X124.095 Y72.350 E6.52330
G1 X125.123 Y72.486 E6.57436
G1 X125.899 Y72.681 E6.61374
G1 X126.427 Y72.895 E6.64177
G1 X126.760 Y73.102 E6.66107
G1 X127.007 Y73.378 E6.67930
G1 X127.139 Y73.684 E6.69572
G1 X127.242 Y74.142 E6.71882
G1 X127.287 Y74.805 E6.75151
G1 X127.245 Y75.379 E6.77982
G1 X127.116 Y75.896 E6.80604
G1 X126.571 Y76.178 E6.83623
G1 X125.970 Y76.385 E6.86755
G1 X125.142 Y76.564 E6.90925
G1 X124.090 Y76.686 E6.96135
G1 X122.763 Y76.732 E7.02668
G1 X117.957 Y76.732 E7.26323
G1 X118.282 Y76.346 F9000.000
G1 X118.282 Y72.683 E7.44351 F600.000
G1 X122.747 Y72.683 E7.66321
G1 X124.062 Y72.735 E7.72798
G1 X125.051 Y72.866 E7.77708
G1 X125.779 Y73.048 E7.81404
G1 X126.252 Y73.240 E7.83914
G1 X126.510 Y73.400 E7.85409
G1 X126.677 Y73.588 E7.86647
G1 X126.770 Y73.804 E7.87805
G1 X126.859 Y74.198 E7.89794
G1 X126.900 Y74.804 E7.92782
G1 X126.863 Y75.318 E7.95317
G1 X126.784 Y75.633 E7.96918
G1 X126.419 Y75.822 E7.98941
G1 X125.866 Y76.013 E8.01822
G1 X125.079 Y76.183 E8.05785
G1 X124.061 Y76.301 E8.10826
G1 X122.757 Y76.346 E8.17250
G1 X118.342 Y76.346 E8.38975
G1 X117.882 Y76.346 F9000.000
G1 X117.897 Y60.425 F9000.000
G1 X117.897 Y54.228 E8.69472 F600.000
G1 X124.128 Y54.228 E9.00140
G1 X125.690 Y54.290 E9.07833
G1 X126.895 Y54.450 E9.13815
G1 X127.797 Y54.680 E9.18396
G1 X128.398 Y54.932 E9.21603
G1 X128.755 Y55.166 E9.23701
G1 X128.985 Y55.395 E9.25300
G1 X129.171 Y55.674 E9.26949
G1 X129.335 Y56.071 E9.29065
G1 X129.463 Y56.659 E9.32028
G1 X129.504 Y57.289 E9.35130
G1 X129.303 Y58.577 E9.41550
G1 X128.959 Y59.149 E9.44836
G1 X128.209 Y59.683 E9.49365
G1 X126.526 Y60.197 E9.58024
G1 X123.638 Y60.425 E9.72281
G1 X117.957 Y60.425 E10.00242
G1 X118.282 Y60.039 F9000.000
G1 X118.282 Y54.614 E10.26944 F600.000
G1 X124.121 Y54.614 E10.55677
G1 X125.657 Y54.674 E10.63244
G1 X126.822 Y54.829 E10.69026
G1 X127.674 Y55.047 E10.73356
G1 X128.216 Y55.274 E10.76249
G1 X128.511 Y55.467 E10.77981
G1 X128.686 Y55.641 E10.79194
G1 X128.829 Y55.856 E10.80465
G1 X128.965 Y56.187 E10.82227
G1 X129.080 Y56.713 E10.84880
G1 X129.116 Y57.271 E10.87630
G1 X128.933 Y58.443 E10.93469
G1 X128.670 Y58.882 E10.95988
G1 X128.036 Y59.333 E10.99813
G1 X126.454 Y59.816 E11.07957
G1 X123.623 Y60.039 E11.21931
G1 X118.342 Y60.039 E11.47920
G1 X117.882 Y60.039 F9000.000
G1 X104.689 Y45.551 F9000.000
G1 X105.531 Y43.977 E11.56707 F600.000
G1 X106.014 Y43.388 E11.60457
G1 X106.603 Y42.905 E11.64206
G1 X107.275 Y42.545 E11.67956
G1 X108.004 Y42.324 E11.71706
G1 X108.792 Y42.247 E11.75604
G1 X124.467 Y42.247 E12.52750
G1 X127.204 Y42.365 E12.66230
G1 X127.630 Y42.406 E12.68336
G1 X129.925 Y42.745 E12.79755
G1 X130.421 Y42.850 E12.82249
G1 X132.476 Y43.414 E12.92737
G1 X133.032 Y43.609 E12.95638
G1 X134.848 Y44.395 E13.05379
G1 X135.436 Y44.707 E13.08654
G1 X137.016 Y45.714 E13.17875
G1 X137.596 Y46.158 E13.21467
G1 X138.910 Y47.362 E13.30238
G1 X139.449 Y47.961 E13.34202
G1 X140.467 Y49.338 E13.42632
G1 X140.894 Y50.054 E13.46736
G1 X141.622 Y51.609 E13.55185
G1 X141.890 Y52.362 E13.59119
G1 X142.329 Y54.101 E13.67945
G1 X142.444 Y54.807 E13.71467
G1 X142.591 Y56.736 E13.80986
G1 X142.593 Y57.334 E13.83930
G1 X142.496 Y58.788 E13.91101
G1 X142.411 Y59.393 E13.94110
G1 X142.121 Y60.738 E14.00883
G1 X141.929 Y61.376 E14.04162
G1 X141.446 Y62.614 E14.10700
G1 X141.143 Y63.236 E14.14106
G1 X140.468 Y64.370 E14.20602
G1 X140.073 Y64.926 E14.23956
G1 X139.204 Y65.959 E14.30599
G1 X138.737 Y66.431 E14.33867
G1 X137.654 Y67.367 E14.40911
G1 X138.387 Y68.399 E14.47136
G1 X138.708 Y68.931 E14.50196
G1 X139.226 Y69.955 E14.55843
G1 X139.463 Y70.520 E14.58860
G1 X139.834 Y71.630 E14.64621
G1 X139.979 Y72.192 E14.67474
G1 X140.203 Y73.391 E14.73478
G1 X140.267 Y73.916 E14.76084
G1 X140.340 Y75.190 E14.82364
G1 X140.294 Y76.102 E14.86857
G1 X139.759 Y79.415 E15.03371
G1 X139.557 Y80.180 E15.07265
G1 X139.199 Y80.907 E15.11252
G1 X137.596 Y83.480 E15.26175
G1 X137.115 Y84.106 E15.30059
G1 X136.456 Y84.672 E15.34334
G1 X133.782 Y86.511 E15.50307
G1 X133.078 Y86.900 E15.54264
G1 X132.635 Y87.060 E15.56581
G1 X128.868 Y88.171 E15.75913
G1 X128.002 Y88.329 E15.80244
G1 X122.808 Y88.713 E16.05877
G1 X108.792 Y88.713 E16.74856
G1 X108.004 Y88.636 E16.78754
G1 X107.275 Y88.415 E16.82504
G1 X106.603 Y88.055 E16.86253
G1 X106.014 Y87.572 E16.90003
G1 X105.531 Y86.983 E16.93752
G1 X104.689 Y85.409 E17.02539
G1 X103.847 Y86.983 E17.11325
G1 X103.364 Y87.572 E17.15075
G1 X102.775 Y88.055 E17.18825
G1 X102.103 Y88.415 E17.22574
G1 X101.374 Y88.636 E17.26324
G1 X100.586 Y88.713 E17.30222
G1 X93.915 Y88.713 E17.63050
G1 X93.127 Y88.636 E17.66948
G1 X92.398 Y88.415 E17.70698
G1 X91.726 Y88.055 E17.74447
G1 X91.137 Y87.572 E17.78197
G1 X90.657 Y86.987 E17.81922
G1 X90.233 Y86.162 E17.86485
G1 X81.966 Y64.215 E19.01908
G1 X73.532 Y86.190 E20.17751
G1 X73.177 Y86.898 E20.21649
G1 X72.709 Y87.499 E20.25398
G1 X72.133 Y87.998 E20.29148
G1 X71.471 Y88.374 E20.32897
G1 X70.751 Y88.613 E20.36628
G1 X69.856 Y88.713 E20.41063
G1 X63.026 Y88.713 E20.74676
G1 X62.238 Y88.636 E20.78575
G1 X61.509 Y88.415 E20.82324
G1 X60.837 Y88.055 E20.86074
G1 X60.248 Y87.572 E20.89824
G1 X59.764 Y86.983 E20.93573
G1 X59.405 Y86.311 E20.97323
G1 X59.184 Y85.582 E21.01072
G1 X59.107 Y84.794 E21.04970
G1 X59.107 Y46.166 E22.95078
G1 X59.184 Y45.378 E22.98976
G1 X59.405 Y44.649 E23.02725
G1 X59.764 Y43.977 E23.06475
G1 X60.248 Y43.388 E23.10224
G1 X60.837 Y42.905 E23.13974
G1 X61.509 Y42.545 E23.17724
G1 X62.238 Y42.324 E23.21473
G1 X63.026 Y42.247 E23.25372
G1 X67.635 Y42.247 E23.48057
G1 X68.424 Y42.324 E23.51955
G1 X69.153 Y42.545 E23.55704
G1 X69.825 Y42.905 E23.59454
G1 X70.414 Y43.388 E23.63204
G1 X70.897 Y43.977 E23.66953
G1 X71.256 Y44.649 E23.70703
G1 X71.477 Y45.378 E23.74452
G1 X71.555 Y46.166 E23.78350
G1 X71.555 Y54.382 E24.18786
G1 X72.635 Y54.583 E24.24192
G1 X76.407 Y44.769 E24.75935
G1 X76.762 Y44.061 E24.79833
G1 X77.230 Y43.460 E24.83583
G1 X77.806 Y42.961 E24.87332
G1 X78.469 Y42.585 E24.91082
G1 X79.188 Y42.346 E24.94812
G1 X80.082 Y42.247 E24.99239
G1 X83.697 Y42.247 E25.17033
G1 X84.486 Y42.324 E25.20930
G1 X85.215 Y42.545 E25.24680
G1 X85.887 Y42.905 E25.28429
G1 X86.475 Y43.388 E25.32179
G1 X86.956 Y43.973 E25.35905
G1 X87.376 Y44.789 E25.40424
G1 X90.919 Y54.132 E25.89595
G1 X92.001 Y53.933 E25.95014
G1 X92.001 Y46.166 E26.33240
G1 X92.079 Y45.378 E26.37138
G1 X92.300 Y44.649 E26.40888
G1 X92.659 Y43.977 E26.44637
G1 X93.143 Y43.388 E26.48387
G1 X93.732 Y42.905 E26.52136
G1 X94.404 Y42.545 E26.55886
G1 X95.133 Y42.324 E26.59635
G1 X95.921 Y42.247 E26.63533
G1 X100.586 Y42.247 E26.86492
G1 X101.374 Y42.324 E26.90390
G1 X102.103 Y42.545 E26.94139
G1 X102.775 Y42.905 E26.97889
G1 X103.364 Y43.388 E27.01638
G1 X103.847 Y43.977 E27.05388
G1 X104.661 Y45.499 E27.13880
G1 X104.689 Y44.733 F9000.000
G1 X105.208 Y43.762 E27.19303 F600.000
G1 X105.740 Y43.114 E27.23427
G1 X106.388 Y42.582 E27.27550
G1 X107.126 Y42.187 E27.31674
G1 X107.928 Y41.944 E27.35797
G1 X108.773 Y41.861 E27.39975
G1 X124.476 Y41.861 E28.17255
G1 X127.231 Y41.980 E28.30827
G1 X127.676 Y42.023 E28.33031
G1 X129.993 Y42.366 E28.44556
G1 X130.512 Y42.475 E28.47164
G1 X132.591 Y43.045 E28.57777
G1 X133.173 Y43.250 E28.60811
G1 X135.016 Y44.048 E28.70694
G1 X135.631 Y44.374 E28.74120
G1 X137.238 Y45.398 E28.83499
G1 X137.844 Y45.863 E28.87257
G1 X139.184 Y47.090 E28.96202
G1 X139.748 Y47.716 E29.00349
G1 X140.789 Y49.124 E29.08965
G1 X141.235 Y49.873 E29.13258
G1 X141.979 Y51.462 E29.21892
G1 X142.260 Y52.250 E29.26007
G1 X142.707 Y54.023 E29.35005
G1 X142.827 Y54.761 E29.38689
G1 X142.976 Y56.720 E29.48357
G1 X142.979 Y57.346 E29.51437
G1 X142.880 Y58.827 E29.58744
G1 X142.791 Y59.461 E29.61892
G1 X142.494 Y60.835 E29.68810
G1 X142.294 Y61.502 E29.72239
G1 X141.800 Y62.769 E29.78932
G1 X141.482 Y63.420 E29.82494
G1 X140.791 Y64.581 E29.89146
G1 X140.378 Y65.162 E29.92654
G1 X139.489 Y66.219 E29.99451
G1 X139.001 Y66.713 E30.02868
G1 X138.172 Y67.430 E30.08264
G1 X138.709 Y68.187 E30.12834
G1 X139.045 Y68.744 E30.16035
G1 X139.577 Y69.793 E30.21822
G1 X139.824 Y70.384 E30.24977
G1 X140.204 Y71.521 E30.30873
G1 X140.356 Y72.108 E30.33858
G1 X140.584 Y73.332 E30.39987
G1 X140.651 Y73.882 E30.42713
G1 X140.727 Y75.189 E30.49157
G1 X140.678 Y76.143 E30.53857
G1 X140.136 Y79.495 E30.70568
G1 X139.920 Y80.315 E30.74745
G1 X139.537 Y81.094 E30.79016
G1 X137.913 Y83.700 E30.94127
G1 X137.396 Y84.373 E30.98300
G1 X136.692 Y84.978 E31.02873
G1 X133.985 Y86.840 E31.19041
G1 X133.238 Y87.252 E31.23241
G1 X132.755 Y87.426 E31.25765
G1 X128.957 Y88.546 E31.45254
G1 X128.051 Y88.712 E31.49787
G1 X122.822 Y89.099 E31.75592
G1 X108.773 Y89.099 E32.44735
G1 X107.928 Y89.016 E32.48913
G1 X107.126 Y88.773 E32.53036
G1 X106.388 Y88.378 E32.57160
G1 X105.740 Y87.846 E32.61283
G1 X105.208 Y87.198 E32.65407
G1 X104.689 Y86.227 E32.70830
G1 X104.169 Y87.198 E32.76253
G1 X103.638 Y87.846 E32.80376
G1 X102.990 Y88.378 E32.84499
G1 X102.251 Y88.773 E32.88623
G1 X101.450 Y89.016 E32.92746
G1 X100.605 Y89.099 E32.96924
G1 X93.896 Y89.099 E33.29939
G1 X93.052 Y89.016 E33.34117
G1 X92.250 Y88.773 E33.38241
G1 X91.511 Y88.378 E33.42364
G1 X90.863 Y87.846 E33.46488
G1 X90.333 Y87.200 E33.50602
G1 X89.880 Y86.319 E33.55477
G1 X81.963 Y65.300 E34.66017
G1 X73.885 Y86.346 E35.76962
G1 X73.505 Y87.105 E35.81140
G1 X72.990 Y87.766 E35.85263
G1 X72.357 Y88.314 E35.89387
G1 X71.628 Y88.728 E35.93510
G1 X70.835 Y88.992 E35.97627
G1 X69.877 Y89.099 E36.02367
G1 X63.007 Y89.099 E36.36180
G1 X62.162 Y89.016 E36.40358
G1 X61.360 Y88.773 E36.44482
G1 X60.621 Y88.378 E36.48605
G1 X59.974 Y87.846 E36.52729
G1 X59.442 Y87.198 E36.56852
G1 X59.047 Y86.459 E36.60976
G1 X58.804 Y85.658 E36.65098
G1 X58.721 Y84.813 E36.69277
G1 X58.721 Y46.147 E38.59571
G1 X58.804 Y45.302 E38.63749
G1 X59.047 Y44.500 E38.67873
G1 X59.442 Y43.762 E38.71996
G1 X59.974 Y43.114 E38.76119
G1 X60.621 Y42.582 E38.80243
G1 X61.360 Y42.187 E38.84366
G1 X62.162 Y41.944 E38.88490
G1 X63.007 Y41.861 E38.92668
G1 X67.654 Y41.861 E39.15540
G1 X68.499 Y41.944 E39.19718
G1 X69.301 Y42.187 E39.23841
G1 X70.040 Y42.582 E39.27965
G1 X70.688 Y43.114 E39.32088
G1 X71.219 Y43.762 E39.36212
G1 X71.614 Y44.500 E39.40335
G1 X71.857 Y45.302 E39.44459
G1 X71.940 Y46.147 E39.48637
G1 X71.940 Y54.061 E39.87587
G1 X72.390 Y54.145 E39.89837
G1 X76.054 Y44.613 E40.40096
G1 X76.434 Y43.854 E40.44274
G1 X76.949 Y43.193 E40.48397
G1 X77.583 Y42.645 E40.52520
G1 X78.311 Y42.231 E40.56644
