; generated by Slic3r 1.2.9 on 2018-05-19 at 15:06:45

; external perimeters extrusion width = 0.40mm
; perimeters extrusion width = 0.62mm
; infill extrusion width = 0.33mm
; solid infill extrusion width = 0.62mm
; top infill extrusion width = 0.20mm

M106 S256; Turn on fan to 100% power
M104 S140; turn on extruder temperature at S value
M140 S60; turn on bed temperature at S value
G28; home all axes
M84; disable motors
G1 Z15 F15000; have Z move to 20mm at 15000 mm/min
M190 S55; turn on bed temperature at S value and wait
M140 S55; turn on bed temperature at S value (printing temperature)
M109 S200; turn on extruder temperature at S value and wait (printing temperature)
M104 S200; turn on extruder temperature at S value
G1 Z0 F12000; move Z back to home
G21 ; set units to millimeters
G90 ; use absolute coordinates
M82 ; use absolute distances for extrusion
G92 E0
M106 S255
;Layer change
G1 E-6.00000 F1800.00000
G92 E0
G1 Z0.300 F9000.000
G1 X74.484 Y5.450 F9000.000
G1 E6.00000 F1800.00000
G1 X74.876 Y4.140 E6.06650 F600.000
G1 X75.922 Y3.261 E6.13300
G1 X76.870 Y3.064 E6.18009
G1 X94.467 Y3.066 E7.03622
G1 X143.467 Y5.066 E9.42210 F600.000
G1 X144.760 Y5.511 E9.48860
G1 X145.596 Y6.592 E9.55511
G1 X145.756 Y7.450 E9.59755
G1 X145.756 Y29.350 E10.66300
G1 X145.364 Y30.660 E10.72951
G1 X144.318 Y31.539 E10.79601
G1 X143.467 Y31.734 E10.83845
G1 X94.467 Y33.734 E13.22434
G1 X76.870 Y33.736 E14.08046
G1 X75.560 Y33.344 E14.14696
G1 X74.681 Y32.298 E14.21347
G1 X74.484 Y31.350 E14.26055
G1 X74.484 Y5.510 E15.51770
G1 E9.51770 F1800.00000
G92 E0
G1 X90.957 Y25.261 F9000.000
G1 E6.00000 F1800.00000
G1 X91.007 Y26.047 E6.03833 F600.000
G1 X90.859 Y26.821 E6.07665
G1 X90.524 Y27.534 E6.11498
G1 X90.021 Y28.141 E6.15331
G1 X89.384 Y28.604 E6.19164
G1 X88.652 Y28.894 E6.22997
G1 X87.870 Y28.993 E6.26829
G1 X87.088 Y28.894 E6.30662
G1 X86.356 Y28.604 E6.34495
G1 X85.719 Y28.141 E6.38328
G1 X85.216 Y27.534 E6.42161
G1 X84.881 Y26.821 E6.45993
G1 X84.733 Y26.047 E6.49825
G1 X84.783 Y25.261 E6.53658
G1 X85.026 Y24.512 E6.57491
G1 X85.448 Y23.847 E6.61324
G1 X86.023 Y23.307 E6.65157
G1 X86.713 Y22.928 E6.68989
G1 X87.476 Y22.732 E6.72822
G1 X88.264 Y22.732 E6.76655 F600.000
G1 X89.002 Y22.921 E6.80363
G1 X89.712 Y23.303 E6.84283
G1 X90.292 Y23.847 E6.88151
G1 X90.714 Y24.512 E6.91983
G1 X90.939 Y25.204 E6.95524
G1 X90.575 Y25.334 F9000.000
G1 X90.619 Y26.023 E6.98883 F600.000
G1 X90.489 Y26.701 E7.02241
G1 X90.195 Y27.326 E7.05600
G1 X89.755 Y27.858 E7.08959
G1 X89.197 Y28.263 E7.12318
G1 X88.555 Y28.518 E7.15677
G1 X87.870 Y28.604 E7.19035
G1 X87.185 Y28.518 E7.22394
G1 X86.543 Y28.263 E7.25753
G1 X85.985 Y27.858 E7.29112
G1 X85.545 Y27.326 E7.32471
G1 X85.251 Y26.701 E7.35829
G1 X85.121 Y26.023 E7.39187
G1 X85.165 Y25.334 E7.42546
G1 X85.378 Y24.677 E7.45905
G1 X85.748 Y24.094 E7.49264
G1 X86.251 Y23.622 E7.52623
G1 X86.856 Y23.289 E7.55981
G1 X87.525 Y23.118 E7.59340
G1 X88.215 Y23.118 E7.62698 F600.000
G1 X88.861 Y23.283 E7.65942
G1 X89.485 Y23.618 E7.69388
G1 X89.992 Y24.094 E7.72772
G1 X90.362 Y24.677 E7.76131
G1 X90.557 Y25.277 E7.79198
G1 X90.194 Y25.407 F9000.000
G1 X90.231 Y25.999 E7.82083 F600.000
G1 X90.120 Y26.581 E7.84967
G1 X89.867 Y27.117 E7.87851
G1 X89.489 Y27.574 E7.90736
G1 X89.010 Y27.923 E7.93621
G1 X88.458 Y28.141 E7.96506
G1 X87.870 Y28.215 E7.99391
G1 X87.282 Y28.141 E8.02275
G1 X86.730 Y27.923 E8.05160
G1 X86.251 Y27.574 E8.08045
G1 X85.873 Y27.117 E8.10930
G1 X85.620 Y26.581 E8.13815
G1 X85.509 Y25.999 E8.16699
G1 X85.546 Y25.407 E8.19584
G1 X85.730 Y24.843 E8.22469
G1 X86.047 Y24.342 E8.25353
G1 X86.480 Y23.936 E8.28238
G1 X86.999 Y23.651 E8.31123
G1 X87.574 Y23.503 E8.34008
G1 X88.166 Y23.503 E8.36892 F600.000
G1 X88.720 Y23.645 E8.39671
G1 X89.258 Y23.934 E8.42644
G1 X89.693 Y24.342 E8.45544
G1 X90.010 Y24.843 E8.48428
G1 X90.175 Y25.350 E8.51021
G1 X89.812 Y25.480 F9000.000
G1 X89.843 Y25.974 E8.53432 F600.000
G1 X89.750 Y26.461 E8.55843
G1 X89.539 Y26.909 E8.58253
G1 X89.223 Y27.291 E8.60664
G1 X88.822 Y27.582 E8.63075
G1 X88.362 Y27.765 E8.65486
G1 X87.870 Y27.827 E8.67896
G1 X87.378 Y27.765 E8.70307
G1 X86.918 Y27.582 E8.72718
G1 X86.517 Y27.291 E8.75129
G1 X86.201 Y26.909 E8.77539
G1 X85.990 Y26.461 E8.79950
G1 X85.897 Y25.974 E8.82361
G1 X85.928 Y25.480 E8.84771
G1 X86.081 Y25.008 E8.87182
G1 X86.347 Y24.590 E8.89593
G1 X86.708 Y24.251 E8.92004
G1 X87.142 Y24.012 E8.94414
G1 X87.622 Y23.889 E8.96825
G1 X88.118 Y23.889 E8.99235 F600.000
G1 X88.579 Y24.007 E9.01551
G1 X89.031 Y24.250 E9.04049
G1 X89.393 Y24.590 E9.06465
G1 X89.659 Y25.008 E9.08876
G1 X89.793 Y25.423 E9.10995
G1 X90.184 Y25.627 F9000.000
G1 X92.988 Y29.968 F9000.000
G1 X78.252 Y29.968 E9.82688 F600.000
G1 X78.252 Y6.832 E10.95248
G1 X92.988 Y6.832 E11.66942
G1 X92.988 Y29.908 E12.79210
G1 X93.374 Y30.354 F9000.000
G1 X77.866 Y30.354 E13.54656 F600.000
G1 X77.866 Y6.446 E14.70969
G1 X93.374 Y6.446 E15.46414
G1 X93.374 Y30.294 E16.62435
G1 X93.759 Y30.739 F9000.000
G1 X77.481 Y30.739 E17.41633 F600.000
G1 X77.481 Y6.061 E18.61697
G1 X93.759 Y6.061 E19.40895
G1 X93.759 Y30.679 E20.60668
G1 X94.145 Y31.125 F9000.000
G1 X77.095 Y31.125 E21.43618 F600.000
G1 X77.095 Y5.675 E22.67435
G1 X94.145 Y5.675 E23.50385
G1 X94.145 Y31.065 E24.73909
G1 X93.799 Y30.925 F9000.000
G1 X89.459 Y22.790 F9000.000
G1 X78.536 Y11.866 E25.49772 F600.000
G1 X78.536 Y12.417 E25.52475
G1 X88.628 Y22.509 E26.22563
G1 X88.017 Y22.448 E26.25578
G1 X78.536 Y12.967 E26.91422
G1 X78.536 Y13.518 E26.94125
G1 X87.476 Y22.457 E27.56211
G1 X87.038 Y22.570 E27.58431
G1 X78.536 Y14.068 E28.17475
G1 X78.536 Y14.618 E28.20178
G1 X86.611 Y22.694 E28.76258
G1 X86.256 Y22.889 E28.78249
G1 X78.536 Y15.169 E29.31862
G1 X78.536 Y15.719 E29.34565
G1 X85.900 Y23.084 E29.85712
G1 X85.614 Y23.348 E29.87625
G1 X78.536 Y16.270 E30.36783
G1 X78.536 Y16.820 E30.39486
G1 X85.330 Y23.615 E30.86672
G1 X85.096 Y23.931 E30.88605
G1 X78.536 Y17.371 E31.34163
G1 X78.536 Y17.921 E31.36866
G1 X84.882 Y24.268 E31.80940
G1 X84.708 Y24.643 E31.82975
G1 X78.536 Y18.472 E32.25838
G1 X78.536 Y19.022 E32.28541
G1 X84.572 Y25.059 E32.70465
G1 X84.487 Y25.524 E32.72786
G1 X78.536 Y19.573 E33.14116
G1 X78.536 Y20.123 E33.16820
G1 X84.454 Y26.042 E33.57924
G1 X84.549 Y26.687 E33.61128
G1 X78.536 Y20.673 E34.02893
G1 X78.536 Y21.224 E34.05596
G1 X84.864 Y27.553 E34.49548
G1 X78.536 Y29.481 F9000.000
G1 X78.739 Y29.684 E34.50961 F600.000
G1 X79.290 Y29.684 E34.53665
G1 X78.536 Y28.930 E34.58901
G1 X78.536 Y28.380 E34.61604
G1 X79.840 Y29.684 E34.70663
G1 X80.391 Y29.684 E34.73367
G1 X78.536 Y27.829 E34.86249
G1 X78.536 Y27.279 E34.88952
G1 X80.941 Y29.684 E35.05657
G1 X81.492 Y29.684 E35.08360
G1 X78.536 Y26.728 E35.28887
G1 X78.536 Y26.178 E35.31591
G1 X82.042 Y29.684 E35.55941
G1 X82.592 Y29.684 E35.58644
G1 X78.536 Y25.628 E35.86817
G1 X78.536 Y25.077 E35.89520
G1 X83.143 Y29.684 E36.21517
G1 X83.693 Y29.684 E36.24220
G1 X78.536 Y24.527 E36.60038
G1 X78.536 Y23.976 E36.62742
G1 X84.244 Y29.684 E37.02383
G1 X84.794 Y29.684 E37.05086
G1 X78.536 Y23.426 E37.48551
G1 X78.536 Y22.875 E37.51254
G1 X85.345 Y29.684 E37.98541
G1 X85.895 Y29.684 E38.01244
G1 X78.536 Y22.325 E38.52354
G1 X78.536 Y21.774 E38.55057
G1 X86.446 Y29.684 E39.09990
G1 X86.197 Y28.885 E39.14103
G1 X86.996 Y29.684 E39.19655
G1 X87.048 Y29.186 E39.22115
G1 X87.547 Y29.684 E39.25576
G1 X87.678 Y29.266 E39.27731
G1 X88.097 Y29.684 E39.30639
G1 X88.192 Y29.229 E39.32925
G1 X88.647 Y29.684 E39.36090
G1 X89.198 Y29.684 E39.38793
G1 X88.677 Y29.163 E39.42413
G1 X89.071 Y29.007 E39.44496
G1 X89.748 Y29.684 E39.49199
G1 X90.299 Y29.684 E39.51902
G1 X89.465 Y28.851 E39.57690
G1 X89.787 Y28.622 E39.59629
G1 X90.849 Y29.684 E39.67006
G1 X91.400 Y29.684 E39.69709
G1 X90.106 Y28.390 E39.78695
G1 X90.374 Y28.108 E39.80607
G1 X91.950 Y29.684 E39.91555
G1 X92.501 Y29.684 E39.94258
G1 X90.623 Y27.807 E40.07298
G1 X90.837 Y27.470 E40.09255
G1 X92.704 Y29.338 E40.22222
G1 X92.704 Y28.787 E40.24925
G1 X91.013 Y27.096 E40.36668
G1 X91.159 Y26.691 E40.38782
G1 X92.704 Y28.237 E40.49517
G1 X92.704 Y27.686 E40.52220
G1 X91.247 Y26.229 E40.62343
G1 X91.275 Y25.706 E40.64912
G1 X92.704 Y27.136 E40.74840
G1 X92.704 Y26.585 E40.77543
G1 X91.238 Y25.119 E40.87727
G1 X90.976 Y24.307 E40.91917
G1 X92.704 Y26.035 E41.03919
G1 X92.704 Y25.484 E41.06622
G1 X78.536 Y11.316 E42.05020
G1 X78.536 Y10.765 E42.07723
G1 X92.704 Y24.934 E43.06121
G1 X92.704 Y24.383 E43.08825
G1 X78.536 Y10.215 E44.07223
G1 X78.536 Y9.664 E44.09926
G1 X92.704 Y23.833 E45.08324
G1 X92.704 Y23.283 E45.11027
G1 X78.536 Y9.114 E46.09425
G1 X78.536 Y8.563 E46.12128
G1 X92.704 Y22.732 E47.10526
G1 X92.704 Y22.182 E47.13230
G1 X78.536 Y8.013 E48.11628
G1 X78.536 Y7.462 E48.14331
G1 X92.704 Y21.631 E49.12729
G1 X92.704 Y21.081 E49.15432
G1 X78.739 Y7.116 E50.12416
G1 X79.290 Y7.116 E50.15119
G1 X92.704 Y20.530 E51.08280
G1 X92.704 Y19.980 E51.10983
G1 X79.840 Y7.116 E52.00321
G1 X80.391 Y7.116 E52.03025
G1 X92.704 Y19.429 E52.88540
G1 X92.704 Y18.879 E52.91243
G1 X80.941 Y7.116 E53.72936
G1 X81.492 Y7.116 E53.75639
G1 X92.704 Y18.328 E54.53509
G1 X92.704 Y17.778 E54.56212
G1 X82.042 Y7.116 E55.30259
G1 X82.592 Y7.116 E55.32962
G1 X92.704 Y17.227 E56.03187
G1 X92.704 Y16.677 E56.05890
G1 X83.143 Y7.116 E56.72291
G1 X83.693 Y7.116 E56.74994
G1 X92.704 Y16.127 E57.37573
G1 X92.704 Y15.576 E57.40276
G1 X84.244 Y7.116 E57.99032
G1 X84.794 Y7.116 E58.01735
G1 X92.704 Y15.026 E58.56668
G1 X92.704 Y14.475 E58.59372
G1 X85.345 Y7.116 E59.10482
G1 X85.895 Y7.116 E59.13185
G1 X92.704 Y13.925 E59.60473
G1 X92.704 Y13.374 E59.63176
G1 X86.446 Y7.116 E60.06640
G1 X86.996 Y7.116 E60.09344
G1 X92.704 Y12.824 E60.48985
G1 X92.704 Y12.273 E60.51689
G1 X87.547 Y7.116 E60.87508
G1 X88.097 Y7.116 E60.90211
G1 X92.704 Y11.723 E61.22207
G1 X92.704 Y11.172 E61.24910
G1 X88.648 Y7.116 E61.53084
G1 X89.198 Y7.116 E61.55787
G1 X92.704 Y10.622 E61.80138
G1 X92.704 Y10.072 E61.82841
G1 X89.748 Y7.116 E62.03369
G1 X90.299 Y7.116 E62.06072
G1 X92.704 Y9.521 E62.22777
G1 X92.704 Y8.971 E62.25480
G1 X90.849 Y7.116 E62.38363
G1 X91.400 Y7.116 E62.41066
G1 X92.704 Y8.420 E62.50125
G1 X92.704 Y7.870 E62.52828
G1 X91.950 Y7.116 E62.58065
G1 X92.501 Y7.116 E62.60768
G1 X92.704 Y7.319 E62.62182
G1 E56.62182 F1800.00000
G92 E0
G1 X131.309 Y25.980 F9000.000
G1 E6.00000 F1800.00000
G1 X131.341 Y25.463 E6.02519 F600.000
G1 X131.501 Y24.971 E6.05038
G1 X131.779 Y24.533 E6.07557
G1 X132.156 Y24.179 E6.10076
G1 X132.610 Y23.930 E6.12594
G1 X133.111 Y23.801 E6.15113
G1 X133.629 Y23.801 E6.17632 F600.000
G1 X134.130 Y23.930 E6.20151
G1 X134.584 Y24.179 E6.22670
G1 X134.961 Y24.533 E6.25189
G1 X135.239 Y24.971 E6.27708
G1 X135.399 Y25.463 E6.30227
G1 X135.431 Y25.980 E6.32746
G1 X135.334 Y26.488 E6.35264
G1 X135.114 Y26.957 E6.37783
G1 X134.784 Y27.356 E6.40302
G1 X134.365 Y27.660 E6.42821
G1 X133.884 Y27.851 E6.45340
G1 X133.370 Y27.915 E6.47859
G1 X132.856 Y27.851 E6.50378
G1 X132.375 Y27.660 E6.52897
G1 X131.956 Y27.356 E6.55415
G1 X131.626 Y26.957 E6.57934
G1 X131.406 Y26.488 E6.60453
G1 X131.320 Y26.039 E6.62680
G1 X131.697 Y25.955 F9000.000
G1 X131.723 Y25.536 E6.64725 F600.000
G1 X131.853 Y25.136 E6.66770
G1 X132.078 Y24.781 E6.68815
G1 X132.384 Y24.493 E6.70860
G1 X132.753 Y24.291 E6.72905
G1 X133.160 Y24.186 E6.74949
G1 X133.580 Y24.186 E6.76994 F600.000
G1 X133.987 Y24.291 E6.79039
G1 X134.356 Y24.493 E6.81084
G1 X134.662 Y24.781 E6.83129
G1 X134.887 Y25.136 E6.85174
G1 X135.017 Y25.536 E6.87219
G1 X135.043 Y25.955 E6.89264
G1 X134.965 Y26.368 E6.91308
G1 X134.786 Y26.748 E6.93353
G1 X134.518 Y27.072 E6.95398
G1 X134.178 Y27.319 E6.97443
G1 X133.787 Y27.474 E6.99488
G1 X133.370 Y27.527 E7.01533
G1 X132.953 Y27.474 E7.03578
G1 X132.562 Y27.319 E7.05623
G1 X132.222 Y27.072 E7.07667
G1 X131.954 Y26.748 E7.09712
G1 X131.775 Y26.368 E7.11757
G1 X131.708 Y26.014 E7.13510
G1 X131.346 Y25.763 F9000.000
G1 X131.670 Y16.594 F9000.000
G1 X131.112 Y16.524 E7.16247 F600.000
G1 X130.589 Y16.317 E7.18984
G1 X130.134 Y15.986 E7.21720
G1 X129.775 Y15.552 E7.24457
G1 X129.536 Y15.043 E7.27194
G1 X129.430 Y14.491 E7.29931
G1 X129.466 Y13.930 E7.32667
G1 X129.639 Y13.394 E7.35404
G1 X129.941 Y12.919 E7.38141
G1 X130.351 Y12.534 E7.40878
G1 X130.844 Y12.263 E7.43615
G1 X131.393 Y12.122 E7.46374 F600.000
G1 X131.967 Y12.128 E7.49165
G1 X132.496 Y12.263 E7.51823
G1 X132.989 Y12.534 E7.54560
G1 X133.399 Y12.920 E7.57297
G1 X133.701 Y13.394 E7.60034
G1 X133.874 Y13.929 E7.62771
G1 X133.909 Y14.475 E7.65428
G1 X133.806 Y15.039 E7.68220
G1 X133.565 Y15.552 E7.70979
G1 X133.203 Y15.989 E7.73738
G1 X132.736 Y16.323 E7.76530
G1 X132.228 Y16.524 E7.79188
G1 X131.730 Y16.587 E7.81633
G1 X131.670 Y16.205 F9000.000
G1 X131.209 Y16.147 E7.83896 F600.000
G1 X130.776 Y15.976 E7.86158
G1 X130.400 Y15.703 E7.88421
G1 X130.103 Y15.344 E7.90684
G1 X129.905 Y14.923 E7.92947
G1 X129.818 Y14.467 E7.95209
G1 X129.847 Y14.002 E7.97472
G1 X129.991 Y13.560 E7.99735
G1 X130.240 Y13.167 E8.01998
G1 X130.579 Y12.849 E8.04261
G1 X130.987 Y12.625 E8.06523
G1 X131.440 Y12.508 E8.08800 F600.000
G1 X131.917 Y12.513 E8.11118
G1 X132.353 Y12.625 E8.13310
G1 X132.761 Y12.849 E8.15573
G1 X133.100 Y13.167 E8.17836
G1 X133.349 Y13.560 E8.20098
G1 X133.493 Y14.002 E8.22361
G1 X133.521 Y14.452 E8.24554
G1 X133.436 Y14.921 E8.26871
G1 X133.237 Y15.344 E8.29148
G1 X132.938 Y15.705 E8.31424
G1 X132.550 Y15.981 E8.33742
G1 X132.131 Y16.147 E8.35934
G1 X131.730 Y16.198 E8.37905
G1 X131.670 Y15.817 F9000.000
G1 X131.305 Y15.771 E8.39694 F600.000
G1 X130.963 Y15.635 E8.41483
G1 X130.666 Y15.419 E8.43272
G1 X130.432 Y15.136 E8.45060
G1 X130.275 Y14.803 E8.46849
G1 X130.206 Y14.442 E8.48638
G1 X130.229 Y14.075 E8.50427
G1 X130.343 Y13.725 E8.52216
G1 X130.540 Y13.415 E8.54004
G1 X130.808 Y13.163 E8.55793
G1 X131.130 Y12.986 E8.57582
G1 X131.487 Y12.895 E8.59376 F600.000
G1 X131.866 Y12.898 E8.61219
G1 X132.210 Y12.986 E8.62946
G1 X132.532 Y13.163 E8.64735
G1 X132.800 Y13.415 E8.66524
G1 X132.997 Y13.725 E8.68313
G1 X133.111 Y14.075 E8.70102
G1 X133.133 Y14.429 E8.71829
G1 X133.065 Y14.802 E8.73672
G1 X132.908 Y15.136 E8.75466
G1 X132.673 Y15.420 E8.77260
G1 X132.365 Y15.640 E8.79104
G1 X132.035 Y15.771 E8.80831
G1 X131.730 Y15.809 E8.82328
G1 X131.473 Y16.127 F9000.000
G1 X129.252 Y15.525 F9000.000
G1 X129.868 Y16.269 E8.87028 F600.000
G1 X130.402 Y16.657 E8.90239
G1 X131.015 Y16.900 E8.93450
G1 X131.670 Y16.983 E8.96661
G1 X132.325 Y16.900 E8.99871
G1 X132.922 Y16.664 E9.02995
G1 X133.468 Y16.274 E9.06261
G1 X133.893 Y15.761 E9.09502
G1 X134.177 Y15.158 E9.12744
G1 X134.297 Y14.497 E9.16009
G1 X134.256 Y13.857 E9.19133
G1 X134.052 Y13.229 E9.22344
G1 X133.699 Y12.672 E9.25554
G1 X133.218 Y12.220 E9.28765
G1 X132.639 Y11.902 E9.31976
G1 X132.017 Y11.742 E9.35099
G1 X131.346 Y11.736 E9.38365
G1 X130.701 Y11.902 E9.41607
G1 X130.122 Y12.220 E9.44817
G1 X129.641 Y12.672 E9.48028
G1 X129.419 Y13.023 E9.50050
G1 X129.252 Y12.974 E9.50895
G1 X129.252 Y8.832 E9.71048
G1 X141.988 Y8.832 E10.33011
G1 X141.988 Y15.338 E10.64664
G1 X141.240 Y15.338 E10.68304
G1 X140.601 Y15.502 E10.71514
G1 X140.038 Y15.811 E10.74638
G1 X139.545 Y16.266 E10.77904
G1 X139.188 Y16.829 E10.81145
G1 X138.984 Y17.457 E10.84356
G1 X138.942 Y18.115 E10.87567
G1 X139.066 Y18.764 E10.90778
G1 X139.347 Y19.361 E10.93988
G1 X139.768 Y19.869 E10.97199
G1 X140.302 Y20.257 E11.00410
G1 X140.915 Y20.500 E11.03621
G1 X141.570 Y20.583 E11.06832
G1 X141.988 Y20.530 E11.08882
G1 X141.988 Y27.968 E11.45069
G1 X135.278 Y27.968 E11.77714
G1 X135.770 Y27.373 E11.81470
G1 X136.074 Y26.728 E11.84937
G1 X136.207 Y26.029 E11.88404
G1 X136.162 Y25.317 E11.91871
G1 X135.942 Y24.640 E11.95338
G1 X135.560 Y24.038 E11.98805
G1 X135.041 Y23.550 E12.02271
G1 X134.417 Y23.207 E12.05738
G1 X133.726 Y23.030 E12.09205
G1 X133.014 Y23.030 E12.12672
G1 X132.323 Y23.207 E12.16139
G1 X131.699 Y23.550 E12.19606
G1 X131.180 Y24.038 E12.23073
G1 X130.798 Y24.640 E12.26540
G1 X130.578 Y25.317 E12.30007
G1 X130.533 Y26.029 E12.33474
G1 X130.666 Y26.728 E12.36941
G1 X130.970 Y27.373 E12.40408
G1 X131.462 Y27.968 E12.44164
G1 X129.252 Y27.968 E12.54915
