; generated by Slic3r 1.2.9 on 2018-05-28 at 21:48:23

; external perimeters extrusion width = 0.40mm
; perimeters extrusion width = 0.62mm
; infill extrusion width = 0.33mm
; solid infill extrusion width = 0.62mm
; top infill extrusion width = 0.20mm

M106 S256; Turn on fan to 100% power
M104 S140; turn on extruder temperature at S value
M140 S60; turn on bed temperature at S value
G28; home all axes
M84; disable motors
G1 Z15 F15000; have Z move to 20mm at 15000 mm/min
M190 S55; turn on bed temperature at S value and wait
M140 S55; turn on bed temperature at S value (printing temperature)
M109 S200; turn on extruder temperature at S value and wait (printing temperature)
M104 S200; turn on extruder temperature at S value
G1 Z0 F12000; move Z back to home
G21 ; set units to millimeters
G90 ; use absolute coordinates
M82 ; use absolute distances for extrusion
G92 E0
M106 S255
;Layer change
G1 E-6.00000 F1800.00000
G92 E0
G1 Z0.300 F9000.000
G1 X139.184 Y10.490 F9000.000
G1 E6.00000 F1800.00000
G1 X139.576 Y9.180 E6.06650 F600.000
G1 X140.622 Y8.301 E6.13300
G1 X141.570 Y8.104 E6.18009
G1 X167.632 Y8.105 E7.44803
G1 X190.782 Y8.705 E8.57467 F600.000
G1 X191.246 Y8.733 E8.59730
G1 X191.913 Y8.841 E8.63018
G1 X192.561 Y9.032 E8.66306
G1 X193.181 Y9.302 E8.69595
G1 X193.761 Y9.648 E8.72882
G1 X194.005 Y9.825 E8.74345
G1 X199.139 Y14.293 E9.07456
G1 X199.956 Y16.090 E9.17060
G1 X199.956 Y34.890 E10.08524
G1 X199.139 Y36.687 E10.18129
G1 X194.342 Y40.874 E10.49103
G1 X193.761 Y41.331 E10.52701
G1 X193.181 Y41.677 E10.55988
G1 X192.562 Y41.948 E10.59277
G1 X191.913 Y42.139 E10.62566
G1 X191.246 Y42.247 E10.65853
G1 X190.782 Y42.275 E10.68116
G1 X167.570 Y42.876 E11.81082
G1 X141.570 Y42.876 E13.07574
G1 X140.260 Y42.484 E13.14224
G1 X139.381 Y41.438 E13.20875
G1 X139.184 Y40.490 E13.25583
G1 X139.184 Y10.550 E14.71244
G1 E8.71244 F1800.00000
G92 E0
G1 X162.720 Y36.657 F9000.000
G1 E6.00000 F1800.00000
G1 X162.720 Y37.123 E6.02269 F600.000
G1 X162.665 Y37.409 E6.03686
G1 X162.486 Y37.861 E6.06048
G1 X162.205 Y38.249 E6.08383
G1 X161.989 Y38.453 E6.09825
G1 X161.578 Y38.714 E6.12193
G1 X161.116 Y38.864 E6.14557
G1 X160.825 Y38.900 E6.15983
G1 X160.295 Y38.864 E6.18571
G1 X159.874 Y38.716 E6.20739
G1 X159.625 Y38.579 E6.22121
G1 X159.251 Y38.270 E6.24485
G1 X158.965 Y37.877 E6.26848
G1 X158.849 Y37.630 E6.28177
G1 X158.764 Y37.366 E6.29525
G1 X158.707 Y36.908 E6.31770
G1 X158.726 Y36.612 E6.33211
G1 X158.841 Y36.167 E6.35451
G1 X158.965 Y35.903 E6.36866
G1 X159.251 Y35.510 E6.39230
G1 X159.625 Y35.201 E6.41593
G1 X159.880 Y35.060 E6.43010
G1 X160.324 Y34.916 E6.45279
G1 X160.613 Y34.880 E6.46696 F600.000
G1 X161.078 Y34.909 E6.48965
G1 X161.360 Y34.981 E6.50382
G1 X161.782 Y35.180 E6.52651
G1 X162.002 Y35.340 E6.53974
G1 X162.201 Y35.526 E6.55297
G1 X162.486 Y35.919 E6.57660
G1 X162.665 Y36.371 E6.60024
G1 X162.708 Y36.598 E6.61149
G1 X162.334 Y36.693 F9000.000
G1 X162.334 Y37.087 E6.63063 F600.000
G1 X162.293 Y37.301 E6.64126
G1 X162.146 Y37.674 E6.66075
G1 X161.914 Y37.994 E6.67998
G1 X161.751 Y38.147 E6.69084
G1 X161.413 Y38.362 E6.71035
G1 X161.032 Y38.486 E6.72984
G1 X160.814 Y38.513 E6.74050
G1 X160.373 Y38.483 E6.76202
G1 X160.032 Y38.363 E6.77961
G1 X159.843 Y38.259 E6.79010
G1 X159.534 Y38.004 E6.80960
G1 X159.299 Y37.680 E6.82909
G1 X159.209 Y37.488 E6.83938
G1 X159.142 Y37.282 E6.84990
G1 X159.094 Y36.897 E6.86881
G1 X159.109 Y36.674 E6.87967
G1 X159.206 Y36.298 E6.89856
G1 X159.299 Y36.100 E6.90917
G1 X159.534 Y35.776 E6.92866
G1 X159.843 Y35.521 E6.94816
G1 X160.034 Y35.416 E6.95878
G1 X160.408 Y35.294 E6.97792
G1 X160.625 Y35.267 E6.98854 F600.000
G1 X161.018 Y35.292 E7.00769
G1 X161.229 Y35.346 E7.01831
G1 X161.585 Y35.513 E7.03745
G1 X161.756 Y35.638 E7.04773
G1 X161.910 Y35.782 E7.05800
G1 X162.146 Y36.106 E7.07749
G1 X162.293 Y36.479 E7.09699
G1 X162.323 Y36.634 E7.10469
G1 X162.686 Y36.868 F9000.000
G1 E1.10469 F1800.00000
G92 E0
G1 X160.827 Y16.100 F9000.000
G1 E6.00000 F1800.00000
G1 X160.342 Y16.070 E6.02363 F600.000
G1 X159.880 Y15.920 E6.04727
G1 X159.625 Y15.779 E6.06144
G1 X159.251 Y15.470 E6.08507
G1 X158.965 Y15.077 E6.10871
G1 X158.849 Y14.830 E6.12199
G1 X158.764 Y14.566 E6.13547
G1 X158.707 Y14.108 E6.15792
G1 X158.726 Y13.812 E6.17233
G1 X158.842 Y13.366 E6.19478
G1 X158.969 Y13.098 E6.20919
G1 X159.251 Y12.710 E6.23252
G1 X159.620 Y12.404 E6.25585
G1 X159.879 Y12.261 E6.27027
G1 X160.324 Y12.116 E6.29301
G1 X160.613 Y12.080 E6.30718 F600.000
G1 X161.078 Y12.109 E6.32987
G1 X161.360 Y12.181 E6.34404
G1 X161.782 Y12.380 E6.36673
G1 X162.002 Y12.540 E6.37996
G1 X162.201 Y12.726 E6.39319
G1 X162.486 Y13.119 E6.41682
G1 X162.665 Y13.571 E6.44046
G1 X162.720 Y13.857 E6.45463
G1 X162.720 Y14.323 E6.47732
G1 X162.665 Y14.609 E6.49149
G1 X162.486 Y15.061 E6.51513
G1 X162.189 Y15.469 E6.53969
G1 X161.820 Y15.776 E6.56303
G1 X161.561 Y15.919 E6.57746
G1 X161.116 Y16.064 E6.60020
G1 X160.887 Y16.093 E6.61145
G1 X160.815 Y15.713 F9000.000
G1 X160.415 Y15.688 E6.63094 F600.000
G1 X160.034 Y15.564 E6.65043
G1 X159.843 Y15.459 E6.66105
G1 X159.534 Y15.204 E6.68054
G1 X159.299 Y14.880 E6.70003
G1 X159.209 Y14.688 E6.71033
G1 X159.142 Y14.482 E6.72085
G1 X159.094 Y14.097 E6.73975
G1 X159.109 Y13.874 E6.75062
G1 X159.206 Y13.498 E6.76952
G1 X159.302 Y13.296 E6.78038
G1 X159.534 Y12.976 E6.79961
G1 X159.838 Y12.724 E6.81884
G1 X160.034 Y12.616 E6.82970
G1 X160.408 Y12.494 E6.84886
G1 X160.625 Y12.467 E6.85949 F600.000
G1 X161.018 Y12.492 E6.87863
G1 X161.229 Y12.546 E6.88925
G1 X161.585 Y12.713 E6.90840
G1 X161.756 Y12.838 E6.91867
G1 X161.910 Y12.982 E6.92895
G1 X162.146 Y13.306 E6.94844
G1 X162.293 Y13.679 E6.96793
G1 X162.334 Y13.893 E6.97855
G1 X162.334 Y14.287 E6.99770
G1 X162.293 Y14.501 E7.00832
G1 X162.146 Y14.874 E7.02781
G1 X161.906 Y15.204 E7.04765
G1 X161.602 Y15.456 E7.06688
G1 X161.406 Y15.564 E7.07775
G1 X161.032 Y15.686 E7.09691
G1 X160.875 Y15.706 E7.10461
G1 X160.615 Y16.059 F9000.000
G1 X165.766 Y19.794 F9000.000
G1 X152.874 Y19.794 E7.73184 F600.000
G1 X152.874 Y20.944 E7.78779
G1 X142.566 Y20.944 E8.28926
G1 X142.566 Y11.486 E8.74938
G1 X160.504 Y11.486 E9.62207
G1 X160.518 Y11.703 E9.63264
G1 X160.239 Y11.738 E9.64628
G1 X159.725 Y11.905 E9.67261
G1 X159.402 Y12.084 E9.69059
G1 X158.968 Y12.444 E9.71802
G1 X158.636 Y12.900 E9.74545
G1 X158.477 Y13.234 E9.76341
G1 X158.344 Y13.751 E9.78940
G1 X158.320 Y14.119 E9.80736
G1 X158.386 Y14.649 E9.83336
G1 X158.489 Y14.971 E9.84980
G1 X158.632 Y15.274 E9.86607
G1 X158.967 Y15.736 E9.89385
G1 X159.407 Y16.100 E9.92162
G1 X159.727 Y16.275 E9.93934
G1 X160.270 Y16.452 E9.96712
G1 X160.839 Y16.487 E9.99489
G1 X161.201 Y16.442 E10.01261
G1 X161.715 Y16.275 E10.03893
G1 X162.038 Y16.096 E10.05691
G1 X162.473 Y15.735 E10.08436
G1 X162.827 Y15.248 E10.11366
G1 X163.037 Y14.717 E10.14144
G1 X163.105 Y14.360 E10.15916
G1 X163.105 Y13.820 E10.18539
G1 X163.037 Y13.463 E10.20311
G1 X162.827 Y12.932 E10.23089
G1 X162.491 Y12.470 E10.25867
G1 X162.249 Y12.242 E10.27485
G1 X161.980 Y12.047 E10.29103
G1 X161.492 Y11.817 E10.31728
G1 X161.139 Y11.726 E10.33499
G1 X160.883 Y11.710 E10.34747
G1 X160.890 Y11.486 E10.35837
G1 X166.574 Y11.486 E10.63490
G1 X166.574 Y39.494 E11.99749
G1 X160.936 Y39.494 E12.27178
G1 X160.922 Y39.277 E12.28235
G1 X161.201 Y39.242 E12.29599
G1 X161.744 Y39.065 E12.32377
G1 X162.227 Y38.758 E12.35163
G1 X162.496 Y38.505 E12.36960
G1 X162.827 Y38.048 E12.39706
G1 X163.037 Y37.517 E12.42482
G1 X163.105 Y37.160 E12.44253
G1 X163.105 Y36.620 E12.46877
G1 X163.037 Y36.263 E12.48649
G1 X162.827 Y35.732 E12.51427
G1 X162.491 Y35.270 E12.54205
G1 X162.249 Y35.042 E12.55823
G1 X161.980 Y34.847 E12.57441
G1 X161.492 Y34.617 E12.60065
G1 X161.139 Y34.526 E12.61837
G1 X160.601 Y34.493 E12.64460
G1 X160.239 Y34.538 E12.66231
G1 X159.727 Y34.705 E12.68855
G1 X159.407 Y34.880 E12.70627
G1 X158.967 Y35.244 E12.73405
G1 X158.632 Y35.706 E12.76183
G1 X158.477 Y36.035 E12.77952
G1 X158.344 Y36.551 E12.80544
G1 X158.320 Y36.919 E12.82339
G1 X158.386 Y37.449 E12.84939
G1 X158.489 Y37.771 E12.86583
G1 X158.632 Y38.074 E12.88210
G1 X158.967 Y38.536 E12.90988
G1 X159.407 Y38.900 E12.93766
G1 X159.716 Y39.070 E12.95481
G1 X160.216 Y39.245 E12.98057
G1 X160.584 Y39.270 E12.99854
G1 X160.577 Y39.494 E13.00942
G1 X142.566 Y39.494 E13.88565
G1 X142.566 Y30.036 E14.34577
G1 X152.874 Y30.036 E14.84724
G1 X152.874 Y31.186 E14.90319
G1 X165.766 Y31.186 E15.53042
G1 X165.766 Y19.854 E16.08176
G1 X165.381 Y20.179 F9000.000
G1 X153.259 Y20.179 E16.67147 F600.000
G1 X153.259 Y21.329 E16.72742
G1 X142.181 Y21.329 E17.26641
G1 X142.181 Y11.101 E17.76405
G1 X166.959 Y11.101 E18.96956
G1 X166.959 Y39.879 E20.36968
G1 X142.181 Y39.879 E21.57519
G1 X142.181 Y29.651 E22.07283
G1 X153.259 Y29.651 E22.61182
G1 X153.259 Y30.801 E22.66777
G1 X165.381 Y30.801 E23.25748
G1 X165.381 Y20.239 E23.77129
G1 X164.995 Y20.565 F9000.000
G1 X153.645 Y20.565 E24.32348 F600.000
G1 X153.645 Y21.715 E24.37943
G1 X141.795 Y21.715 E24.95595
G1 X141.795 Y10.715 E25.49111
G1 X167.345 Y10.715 E26.73414
G1 X167.345 Y40.265 E28.17178
G1 X141.795 Y40.265 E29.41481
G1 X141.795 Y29.265 E29.94997
G1 X153.645 Y29.265 E30.52649
G1 X153.645 Y30.415 E30.58243
G1 X164.995 Y30.415 E31.13462
G1 X164.995 Y20.625 E31.61092
G1 X164.995 Y20.165 F9000.000
G1 X166.170 Y19.601 F9000.000
G1 X166.170 Y31.379 E32.85261 F600.000
G1 X166.290 Y31.866 F9000.000
G1 X166.086 Y31.663 E32.86664 F600.000
G1 X165.540 Y31.663 E32.89324
G1 X166.290 Y32.413 E32.94489
G1 X166.290 Y32.959 E32.97149
G1 X164.801 Y31.470 E33.07405
G1 X164.255 Y31.470 E33.10065
G1 X166.290 Y33.505 E33.24082
G1 X166.290 Y34.051 E33.26742
G1 X163.709 Y31.470 E33.44522
G1 X163.163 Y31.470 E33.47182
G1 X166.290 Y34.597 E33.68723
G1 X166.290 Y35.143 E33.71383
G1 X162.617 Y31.470 E33.96687
G1 X162.071 Y31.470 E33.99347
G1 X166.290 Y35.689 E34.28413
G1 X166.290 Y36.235 E34.31073
G1 X161.525 Y31.470 E34.63900
G1 X160.979 Y31.470 E34.66561
G1 X166.290 Y36.781 E35.03150
G1 X166.290 Y37.327 E35.05811
G1 X160.433 Y31.470 E35.46162
G1 X159.887 Y31.470 E35.48823
G1 X166.290 Y37.873 E35.92937
G1 X166.290 Y38.419 E35.95597
G1 X159.341 Y31.470 E36.43473
G1 X158.795 Y31.470 E36.46133
G1 X161.671 Y34.346 E36.65949
G1 X161.007 Y34.228 E36.69234
G1 X158.249 Y31.470 E36.88238
G1 X157.703 Y31.470 E36.90898
G1 X160.466 Y34.233 E37.09936
G1 X160.020 Y34.333 E37.12162
G1 X157.156 Y31.470 E37.31889
G1 X156.610 Y31.470 E37.34549
G1 X159.616 Y34.475 E37.55254
G1 X159.266 Y34.672 E37.57207
G1 X156.064 Y31.470 E37.79267
G1 X155.518 Y31.470 E37.81927
G1 X158.967 Y34.919 E38.05690
G1 X158.694 Y35.192 E38.07571
G1 X154.972 Y31.470 E38.33215
G1 X154.426 Y31.470 E38.35875
G1 X158.465 Y35.509 E38.63698
G1 X158.274 Y35.864 E38.65663
G1 X153.880 Y31.470 E38.95934
G1 X153.334 Y31.470 E38.98594
G1 X158.140 Y36.276 E39.31706
G1 X158.053 Y36.735 E39.33980
G1 X152.788 Y31.470 E39.70251
G1 X152.590 Y31.272 F9000.000
G1 X151.638 Y30.320 E39.76811 F600.000
G1 X151.092 Y30.320 E39.79471
G1 X158.070 Y37.298 E40.27548
G1 X158.246 Y38.020 E40.31166
G1 X150.546 Y30.320 E40.84214
G1 X150.000 Y30.320 E40.86874
G1 X158.890 Y39.210 E41.48120
G1 X158.344 Y39.210 E41.50781
G1 X149.454 Y30.320 E42.12027
G1 X148.908 Y30.320 E42.14687
G1 X157.797 Y39.210 E42.75933
G1 X157.251 Y39.210 E42.78593
G1 X148.361 Y30.320 E43.39840
G1 X147.815 Y30.320 E43.42500
G1 X156.705 Y39.210 E44.03746
G1 X156.159 Y39.210 E44.06406
G1 X147.269 Y30.320 E44.67652
G1 X146.723 Y30.320 E44.70312
G1 X155.613 Y39.210 E45.31559
G1 X155.067 Y39.210 E45.34219
G1 X146.177 Y30.320 E45.95465
G1 X145.631 Y30.320 E45.98125
G1 X154.521 Y39.210 E46.59371
G1 X153.975 Y39.210 E46.62032
G1 X145.085 Y30.320 E47.23278
G1 X144.539 Y30.320 E47.25938
G1 X153.429 Y39.210 E47.87184
G1 X152.883 Y39.210 E47.89844
G1 X143.993 Y30.320 E48.51090
G1 X143.447 Y30.320 E48.53751
G1 X152.337 Y39.210 E49.14997
G1 X151.791 Y39.210 E49.17657
G1 X142.901 Y30.320 E49.78903
G1 X142.850 Y30.815 E49.81329
G1 X151.245 Y39.210 E50.39163
G1 X150.699 Y39.210 E50.41823
G1 X142.850 Y31.361 E50.95894
G1 X142.850 Y31.907 E50.98555
G1 X150.153 Y39.210 E51.48864
G1 X149.606 Y39.210 E51.51524
G1 X142.850 Y32.454 E51.98072
G1 X142.850 Y33.000 E52.00732
G1 X149.060 Y39.210 E52.43517
G1 X148.514 Y39.210 E52.46178
G1 X142.850 Y33.546 E52.85201
G1 X142.850 Y34.092 E52.87861
G1 X147.968 Y39.210 E53.23122
G1 X147.422 Y39.210 E53.25783
G1 X142.850 Y34.638 E53.57282
G1 X142.850 Y35.184 E53.59942
G1 X146.876 Y39.210 E53.87679
G1 X146.330 Y39.210 E53.90339
G1 X142.850 Y35.730 E54.14314
G1 X142.850 Y36.276 E54.16974
G1 X145.784 Y39.210 E54.37187
G1 X145.238 Y39.210 E54.39847
G1 X142.850 Y36.822 E54.56298
G1 X142.850 Y37.368 E54.58958
G1 X144.692 Y39.210 E54.71647
G1 X144.146 Y39.210 E54.74307
G1 X142.850 Y37.914 E54.83234
G1 X142.850 Y38.460 E54.85894
G1 X143.600 Y39.210 E54.91059
G1 X143.054 Y39.210 E54.93719
G1 X142.850 Y39.006 E54.95121
G1 X152.184 Y30.320 F9000.000
G1 X152.590 Y30.726 E54.97918 F600.000
G1 X163.245 Y35.921 F9000.000
G1 X166.290 Y38.965 E55.18893 F600.000
G1 X165.989 Y39.210 E55.20784
G1 X163.389 Y36.610 E55.38694
G1 X163.382 Y37.149 E55.41320
G1 X165.442 Y39.210 E55.55515
G1 X164.896 Y39.210 E55.58175
G1 X163.284 Y37.598 E55.69282
G1 X163.129 Y37.989 E55.71332
G1 X164.350 Y39.210 E55.79744
G1 X163.804 Y39.210 E55.82404
G1 X162.929 Y38.335 E55.88433
G1 X162.700 Y38.651 E55.90337
G1 X163.258 Y39.210 E55.94185
G1 X162.712 Y39.210 E55.96845
G1 X162.421 Y38.919 E55.98850
G1 E49.98850 F1800.00000
G92 E0
G1 X160.003 Y16.694 F9000.000
G1 E6.00000 F1800.00000
G1 X162.818 Y19.510 E6.19554 F600.000
G1 X163.369 Y19.510 E6.22256
G1 X160.622 Y16.763 E6.41328
G1 X161.136 Y16.726 E6.43855
G1 X163.919 Y19.510 E6.63184
G1 X164.470 Y19.510 E6.65887
G1 X161.561 Y16.601 E6.86087
G1 X161.947 Y16.437 E6.88149
G1 X165.020 Y19.510 E7.09487
G1 X165.436 Y19.376 E7.11634
G1 X162.281 Y16.220 E7.33547
G1 X162.581 Y15.971 E7.35466
G1 X165.928 Y19.317 E7.58704
G1 X166.290 Y19.129 E7.60708
G1 X162.831 Y15.670 E7.84726
G1 X163.063 Y15.351 E7.86661
G1 X166.290 Y18.578 E8.09070
G1 X166.290 Y18.028 E8.11773
G1 X163.221 Y14.959 E8.33087
G1 X163.347 Y14.534 E8.35260
G1 X166.290 Y17.478 E8.55698
G1 X166.290 Y16.927 E8.58400
G1 X163.389 Y14.026 E8.78544
G1 X163.335 Y13.422 E8.81523
G1 X166.290 Y16.377 E9.02040
G1 X166.290 Y15.826 E9.04743
G1 X162.887 Y12.423 E9.28373
G1 X162.784 Y11.770 E9.31620
G1 X166.290 Y15.276 E9.55965
G1 X166.290 Y14.726 E9.58668
G1 X163.334 Y11.770 E9.79191
G1 X163.885 Y11.770 E9.81893
G1 X166.290 Y14.175 E9.98595
G1 X166.290 Y13.625 E10.01297
G1 X164.435 Y11.770 E10.14177
G1 X164.986 Y11.770 E10.16879
G1 X166.290 Y13.074 E10.25937
G1 X166.290 Y12.524 E10.28639
G1 X165.536 Y11.770 E10.33875
G1 X166.086 Y11.770 E10.36577
G1 X166.290 Y11.974 E10.37991
G1 X159.139 Y11.977 F9000.000
G1 X158.931 Y11.770 E10.39430 F600.000
G1 X158.381 Y11.770 E10.42133
G1 X158.838 Y12.227 E10.45304
G1 X158.593 Y12.532 E10.47226
G1 X157.830 Y11.770 E10.52519
G1 X157.280 Y11.770 E10.55221
G1 X158.370 Y12.860 E10.62793
G1 X158.201 Y13.241 E10.64839
G1 X156.730 Y11.770 E10.75055
G1 X156.179 Y11.770 E10.77757
G1 X158.088 Y13.679 E10.91011
G1 X158.037 Y14.178 E10.93474
G1 X155.629 Y11.770 E11.10192
G1 X155.079 Y11.770 E11.12895
G1 X158.108 Y14.800 E11.33931
G1 X158.655 Y15.897 F9000.000
G1 X154.528 Y11.770 E11.62586 F600.000
G1 X158.891 Y16.133 F9000.000
G1 X162.268 Y19.510 E11.86035 F600.000
G1 X161.718 Y19.510 E11.88738
G1 X153.978 Y11.770 E12.42483
G1 X153.427 Y11.770 E12.45186
G1 X161.167 Y19.510 E12.98931
G1 X160.617 Y19.510 E13.01634
G1 X152.877 Y11.770 E13.55379
G1 X152.327 Y11.770 E13.58081
G1 X160.067 Y19.510 E14.11827
G1 X159.516 Y19.510 E14.14529
G1 X151.776 Y11.770 E14.68275
G1 X151.226 Y11.770 E14.70977
G1 X158.966 Y19.510 E15.24723
G1 X158.415 Y19.510 E15.27425
G1 X150.675 Y11.770 E15.81170
G1 X150.125 Y11.770 E15.83873
G1 X157.865 Y19.510 E16.37618
G1 X157.315 Y19.510 E16.40321
G1 X149.575 Y11.770 E16.94066
G1 X149.024 Y11.770 E16.96769
G1 X156.764 Y19.510 E17.50514
G1 X156.214 Y19.510 E17.53216
G1 X148.474 Y11.770 E18.06962
G1 X147.923 Y11.770 E18.09664
G1 X155.663 Y19.510 E18.63410
