; generated by Slic3r 1.2.9 on 2018-04-08 at 16:47:22

; external perimeters extrusion width = 0.40mm
; perimeters extrusion width = 0.62mm
; infill extrusion width = 0.33mm
; solid infill extrusion width = 0.62mm
; top infill extrusion width = 0.20mm

M106 S256; Turn on fan to 100% power
M104 S140; turn on extruder temperature at S value
M140 S60; turn on bed temperature at S value
G28; home all axes
M84; disable motors
G1 Z15 F15000; have Z move to 20mm at 15000 mm/min
M190 S55; turn on bed temperature at S value and wait
M140 S55; turn on bed temperature at S value (printing temperature)
M109 S200; turn on extruder temperature at S value and wait (printing temperature)
M104 S200; turn on extruder temperature at S value
G1 Z0 F12000; move Z back to home
G21 ; set units to millimeters
G90 ; use absolute coordinates
M82 ; use absolute distances for extrusion
G92 E0
M106 S255
;Layer change
G1 E-6.00000 F1800.00000
G92 E0
G1 Z0.300 F9000.000
G1 X56.288 Y56.288 F9000.000
G1 E6.00000 F1800.00000
G1 X65.897 Y46.679 E6.66878 F600.000
G1 X66.355 Y46.321 E6.69738
G1 X66.792 Y46.060 E6.72248
G1 X68.518 Y45.105 E6.81951
G1 X70.275 Y44.211 E6.91655
G1 X72.062 Y43.379 E7.01358
G1 X73.801 Y42.642 E7.10652
G1 X75.641 Y41.934 E7.20356
G1 X77.505 Y41.290 E7.30060
G1 X79.390 Y40.712 E7.39764
G1 X80.794 Y40.335 E7.46917
G1 X81.411 Y40.254 E7.49982
G1 X108.589 Y40.254 E8.83738
G1 X109.206 Y40.335 E8.86803
G1 X110.610 Y40.712 E8.93956 F600.000
G1 X112.495 Y41.290 E9.03660
G1 X114.359 Y41.934 E9.13364
G1 X116.199 Y42.642 E9.23068
G1 X118.014 Y43.413 E9.32771
G1 X119.800 Y44.248 E9.42475
G1 X121.556 Y45.144 E9.52178
G1 X123.208 Y46.060 E9.61472
G1 X123.645 Y46.321 E9.63981
G1 X124.103 Y46.679 E9.66842
G1 X143.321 Y65.897 E11.00598
G1 X143.679 Y66.355 E11.03459
G1 X143.898 Y66.720 E11.05557
G1 X144.895 Y68.518 E11.15671
G1 X145.752 Y70.200 E11.24965
G1 X146.549 Y71.906 E11.34229
G1 X147.358 Y73.801 E11.44372
G1 X148.066 Y75.641 E11.54076
G1 X148.735 Y77.584 E11.64190
G1 X149.288 Y79.390 E11.73484
G1 X149.665 Y80.794 E11.80637
G1 X149.746 Y81.411 E11.83701
G1 X149.746 Y108.589 E13.17458
G1 X149.665 Y109.206 E13.20523
G1 X149.288 Y110.610 E13.27676
G1 X148.710 Y112.495 E13.37380
G1 X148.066 Y114.359 E13.47083
G1 X147.358 Y116.199 E13.56788
G1 X146.621 Y117.938 E13.66082
G1 X145.789 Y119.725 E13.75785
G1 X144.895 Y121.482 E13.85489
G1 X143.940 Y123.208 E13.95192
G1 X143.679 Y123.645 E13.97701
G1 X143.321 Y124.103 E14.00562
G1 X124.103 Y143.321 E15.34318
G1 X123.645 Y143.679 E15.37178
G1 X123.208 Y143.940 E15.39688
G1 X121.556 Y144.856 E15.48982
G1 X119.725 Y145.789 E15.59094
G1 X117.938 Y146.621 E15.68798
G1 X116.199 Y147.358 E15.78092
G1 X114.359 Y148.066 E15.87796
G1 X112.495 Y148.710 E15.97499
G1 X110.610 Y149.288 E16.07203
G1 X109.206 Y149.665 E16.14357
G1 X108.589 Y149.746 E16.17421
G1 X81.411 Y149.746 E17.51178
G1 X80.794 Y149.665 E17.54243
G1 X79.390 Y149.288 E17.61395
G1 X77.584 Y148.735 E17.70690
G1 X75.719 Y148.095 E17.80394
G1 X73.878 Y147.390 E17.90097
G1 X71.987 Y146.587 E18.00211
G1 X70.275 Y145.789 E18.09505
G1 X68.518 Y144.895 E18.19208
G1 X66.720 Y143.898 E18.29323
G1 X66.355 Y143.679 E18.31421
G1 X65.897 Y143.321 E18.34281
G1 X46.679 Y124.103 E19.68038
G1 X46.321 Y123.645 E19.70898
G1 X46.101 Y123.280 E19.72997
G1 X45.144 Y121.556 E19.82702
G1 X44.248 Y119.800 E19.92404
G1 X43.413 Y118.014 E20.02108
G1 X42.642 Y116.199 E20.11812
G1 X41.934 Y114.359 E20.21516
G1 X41.290 Y112.495 E20.31219
G1 X40.712 Y110.610 E20.40923
G1 X40.335 Y109.206 E20.48077
G1 X40.254 Y108.589 E20.51141
G1 X40.254 Y81.411 E21.84898
G1 X40.335 Y80.794 E21.87963
G1 X40.712 Y79.390 E21.95116
G1 X41.290 Y77.505 E22.04820
G1 X41.934 Y75.641 E22.14523
G1 X42.642 Y73.801 E22.24227
G1 X43.413 Y71.986 E22.33931
G1 X44.248 Y70.200 E22.43635
G1 X45.144 Y68.444 E22.53338
G1 X46.060 Y66.792 E22.62632
G1 X46.321 Y66.355 E22.65141
G1 X46.679 Y65.897 E22.68001
G1 X56.245 Y56.330 E23.34584
G1 E17.34584 F1800.00000
G92 E0
G1 X122.666 Y109.585 F9000.000
G1 E6.00000 F1800.00000
G1 X67.334 Y109.585 E8.72319 F600.000
G1 X67.334 Y80.415 E10.15882
G1 X122.666 Y80.415 E12.88201
G1 X122.666 Y109.525 E14.31468
G1 X122.281 Y109.200 F9000.000
G1 X67.719 Y109.200 E16.99992 F600.000
G1 X67.719 Y80.800 E18.39759
G1 X122.281 Y80.800 E21.08282
G1 X122.281 Y109.140 E22.47754
G1 X121.895 Y108.814 F9000.000
G1 X68.105 Y108.814 E25.12482 F600.000
G1 X68.105 Y81.186 E26.48453
G1 X121.895 Y81.186 E29.13181
G1 X121.895 Y108.754 E30.48857
G1 X121.895 Y109.214 F9000.000
G1 X136.219 Y115.593 F9000.000
G1 X115.593 Y136.219 E31.92421 F600.000
G1 X120.788 Y141.415 E32.28580
G1 X119.932 Y141.889 E32.33400
G1 X118.280 Y142.731 E32.42522
G1 X116.600 Y143.514 E32.51645
G1 X114.894 Y144.239 E32.60768
G1 X113.163 Y144.903 E32.69891
G1 X111.410 Y145.506 E32.79014
G1 X109.585 Y146.064 E32.88407
G1 X109.585 Y138.708 E33.24613
G1 X80.415 Y138.708 E34.68176
G1 X80.415 Y146.064 E35.04382
G1 X78.590 Y145.506 E35.13776
G1 X76.837 Y144.903 E35.22899
G1 X75.106 Y144.239 E35.32022
G1 X73.400 Y143.514 E35.41144
G1 X71.720 Y142.731 E35.50267
G1 X70.071 Y141.891 E35.59374
G1 X69.217 Y141.410 E35.64200
G1 X74.407 Y136.219 E36.00327
G1 X53.781 Y115.593 E37.43890
G1 X48.585 Y120.788 E37.80050
G1 X48.111 Y119.932 E37.84869
G1 X47.269 Y118.280 E37.93992
G1 X46.486 Y116.600 E38.03115
G1 X45.761 Y114.894 E38.12237
G1 X45.097 Y113.163 E38.21360
G1 X44.494 Y111.410 E38.30483
G1 X43.936 Y109.585 E38.39877
G1 X51.292 Y109.585 E38.76083
G1 X51.292 Y80.415 E40.19646
G1 X43.936 Y80.415 E40.55852
G1 X44.494 Y78.590 E40.65245
G1 X45.097 Y76.837 E40.74368
G1 X45.761 Y75.106 E40.83491
G1 X46.486 Y73.400 E40.92614
G1 X47.269 Y71.720 E41.01737
G1 X48.109 Y70.071 E41.10843
G1 X48.590 Y69.217 E41.15670
G1 X53.781 Y74.407 E41.51796
G1 X74.407 Y53.781 E42.95359
G1 X69.212 Y48.585 E43.31519
G1 X70.068 Y48.111 E43.36339
G1 X71.720 Y47.269 E43.45461
G1 X73.400 Y46.486 E43.54584
G1 X75.106 Y45.761 E43.63707
G1 X76.837 Y45.097 E43.72829
G1 X78.590 Y44.494 E43.81953
G1 X80.415 Y43.936 E43.91346
G1 X80.415 Y51.292 E44.27552
G1 X109.585 Y51.292 E45.71115
G1 X109.585 Y43.936 E46.07321
G1 X111.410 Y44.494 E46.16715
G1 X113.163 Y45.097 E46.25838
G1 X114.894 Y45.761 E46.34960
G1 X116.600 Y46.486 E46.44083
G1 X118.280 Y47.269 E46.53206
G1 X119.929 Y48.109 E46.62312
G1 X120.783 Y48.590 E46.67139
G1 X115.593 Y53.781 E47.03266
G1 X136.219 Y74.407 E48.46829
G1 X141.415 Y69.212 E48.82989
G1 X141.889 Y70.068 E48.87808
G1 X142.731 Y71.720 E48.96931
G1 X143.514 Y73.400 E49.06053
G1 X144.239 Y75.106 E49.15176
G1 X144.903 Y76.837 E49.24299
G1 X145.506 Y78.590 E49.33422
G1 X146.064 Y80.415 E49.42815
G1 X138.708 Y80.415 E49.79022
G1 X138.708 Y109.585 E51.22584
G1 X146.064 Y109.585 E51.58791
G1 X145.506 Y111.410 E51.68184
G1 X144.903 Y113.163 E51.77307
G1 X144.239 Y114.894 E51.86430
G1 X143.514 Y116.600 E51.95553
G1 X142.731 Y118.280 E52.04675
G1 X141.891 Y119.929 E52.13782
G1 X141.410 Y120.783 E52.18608
G1 X136.262 Y115.635 E52.54440
G1 X136.219 Y116.138 F9000.000
G1 X116.138 Y136.219 E53.94207 F600.000
G1 X121.423 Y141.504 E54.30988
G1 X120.113 Y142.230 E54.38359
G1 X118.449 Y143.078 E54.47548
G1 X116.757 Y143.867 E54.56737
G1 X115.038 Y144.596 E54.65926
G1 X113.295 Y145.265 E54.75115
G1 X111.530 Y145.873 E54.84304
G1 X109.744 Y146.419 E54.93493
G1 X109.200 Y146.565 E54.96268
G1 X109.200 Y139.093 E55.33039
G1 X80.800 Y139.093 E56.72806
G1 X80.800 Y146.565 E57.09578
G1 X80.256 Y146.419 E57.12353
G1 X78.470 Y145.873 E57.21542
G1 X76.705 Y145.265 E57.30731
G1 X74.962 Y144.596 E57.39920
G1 X73.243 Y143.867 E57.49109
G1 X71.551 Y143.078 E57.58298
G1 X69.889 Y142.231 E57.67477
G1 X68.585 Y141.497 E57.74844
G1 X73.862 Y136.219 E58.11575
G1 X53.781 Y116.138 E59.51343
G1 X48.496 Y121.423 E59.88123
G1 X47.770 Y120.113 E59.95494
G1 X46.922 Y118.449 E60.04683
G1 X46.133 Y116.757 E60.13872
G1 X45.404 Y115.038 E60.23061
G1 X44.735 Y113.295 E60.32250
G1 X44.127 Y111.530 E60.41439
G1 X43.581 Y109.744 E60.50628
G1 X43.435 Y109.200 E60.53403
G1 X50.907 Y109.200 E60.90175
G1 X50.907 Y80.800 E62.29942
G1 X43.435 Y80.800 E62.66713
G1 X43.581 Y80.256 E62.69488
G1 X44.127 Y78.470 E62.78677
G1 X44.735 Y76.705 E62.87866
G1 X45.404 Y74.962 E62.97055
G1 X46.133 Y73.243 E63.06244
G1 X46.922 Y71.551 E63.15433
G1 X47.769 Y69.889 E63.24612
G1 X48.503 Y68.585 E63.31980
G1 X53.781 Y73.862 E63.68710
G1 X73.862 Y53.781 E65.08478
G1 X68.577 Y48.496 E65.45258
G1 X69.887 Y47.770 E65.52630
G1 X71.551 Y46.922 E65.61818
G1 X73.243 Y46.133 E65.71007
G1 X74.962 Y45.404 E65.80196
G1 X76.705 Y44.735 E65.89385
G1 X78.470 Y44.127 E65.98575
G1 X80.256 Y43.581 E66.07763
G1 X80.800 Y43.435 E66.10538
G1 X80.800 Y50.907 E66.47310
G1 X109.200 Y50.907 E67.87077
G1 X109.200 Y43.435 E68.23849
G1 X109.744 Y43.581 E68.26623
G1 X111.530 Y44.127 E68.35812
G1 X113.295 Y44.735 E68.45001
G1 X115.038 Y45.404 E68.54190
G1 X116.757 Y46.133 E68.63379
G1 X118.449 Y46.922 E68.72568
G1 X120.111 Y47.769 E68.81747
G1 X121.415 Y48.503 E68.89115
G1 X116.138 Y53.781 E69.25846
G1 X136.219 Y73.862 E70.65613
G1 X141.504 Y68.577 E71.02393
G1 X142.230 Y69.887 E71.09765
G1 X143.078 Y71.551 E71.18953
G1 X143.867 Y73.243 E71.28142
G1 X144.596 Y74.962 E71.37331
G1 X145.265 Y76.705 E71.46520
G1 X145.873 Y78.470 E71.55710
G1 X146.419 Y80.256 E71.64899
G1 X146.565 Y80.800 E71.67673
G1 X139.093 Y80.800 E72.04445
G1 X139.093 Y109.200 E73.44212
G1 X146.565 Y109.200 E73.80984
G1 X146.419 Y109.744 E73.83758
G1 X145.873 Y111.530 E73.92947
G1 X145.265 Y113.295 E74.02137
G1 X144.596 Y115.038 E74.11326
G1 X143.867 Y116.757 E74.20515
G1 X143.078 Y118.449 E74.29704
G1 X142.231 Y120.111 E74.38882
G1 X141.497 Y121.415 E74.46250
G1 X136.262 Y116.180 E74.82685
G1 X136.219 Y116.683 F9000.000
G1 X116.683 Y136.219 E76.18657 F600.000
G1 X122.057 Y141.593 E76.56058
G1 X120.294 Y142.571 E76.65982
G1 X118.618 Y143.424 E76.75236
G1 X116.914 Y144.219 E76.84492
G1 X115.183 Y144.954 E76.93747
G1 X113.427 Y145.628 E77.03002
G1 X111.649 Y146.240 E77.12258
G1 X109.850 Y146.790 E77.21513
G1 X108.814 Y147.068 E77.26794
G1 X108.814 Y139.479 E77.64141
G1 X81.186 Y139.479 E79.00112
G1 X81.186 Y147.068 E79.37460
G1 X80.150 Y146.790 E79.42741
G1 X78.351 Y146.240 E79.51996
G1 X76.573 Y145.628 E79.61251
G1 X74.817 Y144.954 E79.70506
G1 X73.086 Y144.219 E79.79762
G1 X71.382 Y143.424 E79.89017
G1 X69.707 Y142.571 E79.98268
G1 X67.952 Y141.583 E80.08177
G1 X73.317 Y136.219 E80.45511
G1 X53.781 Y116.683 E81.81483
G1 X48.407 Y122.057 E82.18884
G1 X47.429 Y120.294 E82.28807
G1 X46.576 Y118.618 E82.38062
G1 X45.781 Y116.914 E82.47317
G1 X45.046 Y115.183 E82.56573
G1 X44.372 Y113.427 E82.65828
G1 X43.760 Y111.649 E82.75084
G1 X43.210 Y109.850 E82.84339
G1 X42.932 Y108.814 E82.89620
G1 X50.521 Y108.814 E83.26967
G1 X50.521 Y81.186 E84.62938
G1 X42.932 Y81.186 E85.00286
G1 X43.210 Y80.150 E85.05567
G1 X43.760 Y78.351 E85.14822
G1 X44.372 Y76.573 E85.24077
G1 X45.046 Y74.817 E85.33332
G1 X45.781 Y73.086 E85.42588
G1 X46.576 Y71.382 E85.51843
G1 X47.429 Y69.707 E85.61094
G1 X48.417 Y67.952 E85.71003
G1 X53.781 Y73.317 E86.08337
G1 X73.317 Y53.781 E87.44309
G1 X67.943 Y48.407 E87.81710
G1 X69.706 Y47.429 E87.91633
G1 X71.382 Y46.576 E88.00888
G1 X73.086 Y45.781 E88.10143
G1 X74.817 Y45.046 E88.19399
G1 X76.573 Y44.372 E88.28654
G1 X78.351 Y43.760 E88.37910
G1 X80.150 Y43.210 E88.47165
G1 X81.186 Y42.932 E88.52446
G1 X81.186 Y50.521 E88.89793
G1 X108.814 Y50.521 E90.25764
G1 X108.814 Y42.932 E90.63112
G1 X109.850 Y43.210 E90.68393
G1 X111.649 Y43.760 E90.77648
G1 X113.427 Y44.372 E90.86903
G1 X115.183 Y45.046 E90.96158
G1 X116.914 Y45.781 E91.05414
G1 X118.618 Y46.576 E91.14669
G1 X120.293 Y47.429 E91.23920
G1 X122.048 Y48.417 E91.33829
G1 X116.683 Y53.781 E91.71163
G1 X136.219 Y73.317 E93.07135
G1 X141.593 Y67.943 E93.44536
G1 X142.571 Y69.706 E93.54459
G1 X143.424 Y71.382 E93.63714
G1 X144.219 Y73.086 E93.72969
G1 X144.954 Y74.817 E93.82225
G1 X145.628 Y76.573 E93.91480
G1 X146.240 Y78.351 E94.00736
G1 X146.790 Y80.150 E94.09991
G1 X147.068 Y81.186 E94.15272
G1 X139.479 Y81.186 E94.52619
G1 X139.479 Y108.814 E95.88590
G1 X147.068 Y108.814 E96.25937
G1 X146.790 Y109.850 E96.31218
G1 X146.240 Y111.649 E96.40474
G1 X145.628 Y113.427 E96.49729
G1 X144.954 Y115.183 E96.58984
G1 X144.219 Y116.914 E96.68240
G1 X143.424 Y118.618 E96.77495
G1 X142.571 Y120.293 E96.86746
G1 X141.583 Y122.048 E96.96655
G1 X136.262 Y116.726 E97.33694
G1 X135.937 Y116.401 F9000.000
G1 X136.096 Y115.362 F9000.000
G1 X122.950 Y102.216 E98.25243 F600.000
G1 X122.950 Y102.761 E98.27930
G1 X135.824 Y115.635 E99.17580
G1 X135.551 Y115.908 E99.19480
G1 X122.950 Y103.307 E100.07230
G1 X122.950 Y103.853 E100.09917
G1 X135.278 Y116.181 E100.95766
G1 X135.005 Y116.453 E100.97666
G1 X122.950 Y104.398 E101.81616
G1 X122.950 Y104.944 E101.84303
G1 X134.732 Y116.726 E102.66353
G1 X134.460 Y116.999 E102.68253
G1 X122.950 Y105.490 E103.48404
G1 X122.950 Y106.035 E103.51090
G1 X134.187 Y117.272 E104.29341
G1 X133.914 Y117.545 E104.31241
G1 X122.950 Y106.581 E105.07591
G1 X122.950 Y107.126 E105.10278
G1 X133.641 Y117.818 E105.84729
G1 X133.368 Y118.090 E105.86629
G1 X122.950 Y107.672 E106.59179
G1 X122.950 Y108.218 E106.61866
G1 X133.095 Y118.363 E107.32517
G1 X132.823 Y118.636 E107.34417
G1 X122.950 Y108.763 E108.03168
G1 X122.950 Y109.309 E108.05855
G1 X132.550 Y118.909 E108.72706
G1 X132.277 Y119.182 E108.74606
G1 X122.950 Y109.855 E109.39557
G1 X122.419 Y109.869 E109.42174
G1 X132.004 Y119.454 E110.08926
G1 X131.731 Y119.727 E110.10826
G1 X121.873 Y109.869 E110.79477
G1 X121.327 Y109.869 E110.82164
G1 X131.459 Y120.000 E111.52715
G1 X131.186 Y120.273 E111.54615
G1 X120.782 Y109.869 E112.27066
G1 X120.236 Y109.869 E112.29753
G1 X130.913 Y120.546 E113.04104
G1 X130.640 Y120.819 E113.06003
G1 X119.691 Y109.869 E113.82254
G1 X119.145 Y109.869 E113.84941
G1 X130.367 Y121.091 E114.63092
G1 X130.094 Y121.364 E114.64992
G1 X118.599 Y109.869 E115.45042
G1 X118.054 Y109.869 E115.47729
G1 X129.822 Y121.637 E116.29679
G1 X129.549 Y121.910 E116.31579
G1 X117.508 Y109.869 E117.15429
G1 X116.962 Y109.869 E117.18116
G1 X129.276 Y122.183 E118.03866
G1 X129.003 Y122.456 E118.05766
G1 X116.417 Y109.869 E118.93416
G1 X115.871 Y109.869 E118.96103
G1 X128.730 Y122.728 E119.85653
G1 X128.458 Y123.001 E119.87553
G1 X115.325 Y109.869 E120.79003
G1 X114.780 Y109.869 E120.81690
G1 X128.185 Y123.274 E121.75039
G1 X127.912 Y123.547 E121.76939
G1 X114.234 Y109.869 E122.72189
G1 X113.688 Y109.869 E122.74875
G1 X127.639 Y123.820 E123.72025
G1 X127.366 Y124.092 E123.73925
G1 X113.143 Y109.869 E124.72974
G1 X112.597 Y109.869 E124.75661
G1 X127.093 Y124.365 E125.76610
G1 X126.821 Y124.638 E125.78510
G1 X112.052 Y109.869 E126.81359
G1 X111.506 Y109.869 E126.84046
G1 X126.548 Y124.911 E127.88795
G1 X126.275 Y125.184 E127.90694
G1 X110.960 Y109.869 E128.97343
G1 X110.415 Y109.869 E129.00030
G1 X126.002 Y125.457 E130.08579
G1 X125.729 Y125.729 E130.10479
G1 X109.869 Y109.869 E131.20927
G1 X109.323 Y109.869 E131.23614
G1 X125.456 Y126.002 E132.35962
G1 X125.184 Y126.275 E132.37862
G1 X108.778 Y109.869 E133.52111
G1 X108.232 Y109.869 E133.54797
G1 X124.911 Y126.548 E134.70946
G1 X124.638 Y126.821 E134.72845
G1 X107.686 Y109.869 E135.90893
G1 X107.141 Y109.869 E135.93580
G1 X124.365 Y127.093 E137.13528
G1 X124.092 Y127.366 E137.15428
G1 X106.595 Y109.869 E138.37276
G1 X106.049 Y109.869 E138.39963
G1 X123.820 Y127.639 E139.63710
G1 X123.547 Y127.912 E139.65610
G1 X105.504 Y109.869 E140.91258
G1 X104.958 Y109.869 E140.93945
G1 X123.274 Y128.185 E142.21492
G1 X123.001 Y128.458 E142.23392
G1 X104.413 Y109.869 E143.52839
G1 X103.867 Y109.869 E143.55526
G1 X122.728 Y128.730 E144.86873
G1 X122.455 Y129.003 E144.88773
G1 X103.321 Y109.869 E146.22020
G1 X102.776 Y109.869 E146.24707
G1 X122.183 Y129.276 E147.59854
G1 X121.910 Y129.549 E147.61754
G1 X102.230 Y109.869 E148.98801
G1 X101.684 Y109.869 E149.01487
G1 X121.637 Y129.822 E150.40434
G1 X121.364 Y130.095 E150.42334
G1 X101.139 Y109.869 E151.83181
G1 X100.593 Y109.869 E151.85867
G1 X121.091 Y130.367 E153.28614
G1 X120.819 Y130.640 E153.30514
G1 X100.047 Y109.869 E154.75160
G1 X99.502 Y109.869 E154.77847
