; generated by Slic3r 1.2.9 on 2021-02-08 at 23:03:41

; external perimeters extrusion width = 0.40mm
; perimeters extrusion width = 0.62mm
; infill extrusion width = 0.33mm
; solid infill extrusion width = 0.62mm
; top infill extrusion width = 0.20mm
; support material extrusion width = 0.40mm

M106 S256; Turn on fan to 100% power
M104 S140; turn on extruder temperature at S value
M140 S60; turn on bed temperature at S value
G28; home all axes
M84; disable motors
G1 Z15 F15000; have Z move to 20mm at 15000 mm/min
M190 S55; turn on bed temperature at S value and wait
M140 S55; turn on bed temperature at S value (printing temperature)
M109 S200; turn on extruder temperature at S value and wait (printing temperature)
M104 S200; turn on extruder temperature at S value
G1 Z0 F12000; move Z back to home
G21 ; set units to millimeters
G90 ; use absolute coordinates
M82 ; use absolute distances for extrusion
G92 E0
M106 S255
;Layer change
G1 E-6.00000 F1800.00000
G92 E0
G1 Z0.300 F9000.000
G1 X82.590 Y50.434 F9000.000
G1 E6.00000 F1800.00000
G1 X82.941 Y49.874 E6.03254 F600.000
G1 X84.317 Y47.978 E6.14784
G1 X85.878 Y46.146 E6.26629
G1 X87.474 Y44.572 E6.37658
G1 X89.078 Y43.289 E6.47767
G1 X89.362 Y43.097 E6.49453
G1 X90.688 Y42.330 E6.56992
G1 X91.170 Y42.118 E6.59584
G1 X92.356 Y41.747 E6.65700
G1 X92.959 Y41.641 E6.68714
G1 X93.483 Y41.617 E6.71296
G1 X94.050 Y41.659 E6.74095
G1 X94.520 Y41.751 E6.76453 F600.000
G1 X95.278 Y42.040 E6.80444
G1 X96.034 Y42.488 E6.84770
G1 X96.427 Y42.779 E6.87177
G1 X154.980 Y96.286 E10.77545
G1 X155.170 Y96.480 E10.78878
G1 X156.070 Y97.513 E10.85622
G1 X156.369 Y97.945 E10.88209
G1 X156.686 Y98.531 E10.91488
G1 X156.832 Y98.855 E10.93237
G1 X157.060 Y99.486 E10.96539
G1 X157.181 Y99.984 E10.99062
G1 X157.365 Y101.375 E11.05968
G1 X157.381 Y101.832 E11.08218
G1 X156.173 Y121.776 E12.06552
G1 X156.005 Y123.213 E12.13673
G1 X155.853 Y123.809 E12.16700
G1 X155.368 Y125.029 E12.23161
G1 X155.049 Y125.593 E12.26346
G1 X154.237 Y126.660 E12.32945
G1 X153.885 Y127.032 E12.35467
G1 X153.355 Y127.483 E12.38893
G1 X153.077 Y127.687 E12.40590
G1 X152.281 Y128.175 E12.45183
G1 X76.914 Y166.640 E16.61618
G1 X75.489 Y167.234 E16.69219
G1 X75.230 Y167.324 E16.70567
G1 X73.571 Y167.783 E16.79038
G1 X71.800 Y168.112 E16.87902
G1 X69.967 Y168.315 E16.96981
G1 X68.124 Y168.384 E17.06059
G1 X66.534 Y168.329 E17.13889
G1 X64.864 Y168.126 E17.22166
G1 X64.568 Y168.069 E17.23651
G1 X63.329 Y167.748 E17.29950
G1 X62.989 Y167.632 E17.31718
G1 X61.556 Y167.019 E17.39389
G1 X61.233 Y166.851 E17.41180
G1 X59.921 Y166.034 E17.48787
G1 X59.632 Y165.822 E17.50550
G1 X58.448 Y164.810 E17.58215
G1 X58.203 Y164.568 E17.59913
G1 X57.154 Y163.369 E17.67754
G1 X56.957 Y163.111 E17.69352
G1 X56.049 Y161.733 E17.77473
G1 X55.900 Y161.471 E17.78954
G1 X55.140 Y159.923 E17.87442
G1 X55.031 Y159.666 E17.88815
G1 X54.356 Y157.712 E17.98989
G1 X53.913 Y155.847 E18.08423
G1 X53.862 Y155.548 E18.09918
G1 X53.721 Y154.150 E18.16831
G1 X52.635 Y111.140 E20.28576
G1 X52.621 Y109.146 E20.38389
G1 X52.752 Y107.326 E20.47369
G1 X53.201 Y104.275 E20.62545
G1 X53.839 Y101.447 E20.76814
G1 X54.697 Y98.772 E20.90639
G1 X55.905 Y96.009 E21.05479
G1 X57.178 Y93.748 E21.18250
G1 X81.552 Y52.134 E23.55599
G1 X82.559 Y50.485 E23.65106
G1 E17.65106 F1800.00000
G92 E0
G1 X79.548 Y99.953 F9000.000
G1 E6.00000 F1800.00000
G1 X77.902 Y100.421 E6.08420 F600.000
G1 X76.117 Y101.051 E6.17737
G1 X74.420 Y101.966 E6.27226
G1 X72.818 Y103.137 E6.36992
G1 X71.353 Y104.525 E6.46923
G1 X70.066 Y106.090 E6.56895
G1 X68.992 Y107.787 E6.66781
G1 X68.170 Y109.573 E6.76457
G1 X67.631 Y111.417 E6.85912
G1 X67.404 Y112.848 E6.93039
G1 X67.344 Y114.211 E6.99754
G1 X67.454 Y115.509 E7.06167
G1 X67.733 Y116.753 E7.12442
G1 X68.185 Y117.958 E7.18778
G1 X68.816 Y119.134 E7.25341
G1 X69.631 Y120.290 E7.32307
G1 X70.636 Y121.434 E7.39800
G1 X71.894 Y122.604 E7.48253
G1 X73.269 Y123.652 E7.56761
G1 X74.265 Y124.258 E7.62500
G1 X74.394 Y124.128 E7.63400
G1 X74.326 Y124.020 E7.64024
G1 X72.515 Y121.933 E7.77626
G1 X71.746 Y120.857 E7.84132
G1 X71.133 Y119.767 E7.90287
G1 X70.681 Y118.661 E7.96170
G1 X70.391 Y117.534 E8.01894
G1 X70.264 Y116.392 E8.07553
G1 X70.303 Y115.233 E8.13256
G1 X70.502 Y114.065 E8.19088
G1 X70.911 Y112.641 E8.26381
G1 X71.425 Y111.406 E8.32966
G1 X72.071 Y110.342 E8.39092
G1 X72.872 Y109.448 E8.44997
G1 X73.830 Y108.723 E8.50912
G1 X74.952 Y108.161 E8.57089
G1 X76.245 Y107.740 E8.63776
G1 X79.399 Y107.148 E8.79572
G1 X79.634 Y109.806 E8.92705
G1 X79.838 Y121.277 E9.49168
G1 X79.838 Y131.351 E9.98747
G1 X76.970 Y131.313 E10.12860
G1 X75.091 Y131.204 E10.22127
G1 X73.261 Y130.842 E10.31305
G1 X71.357 Y130.184 E10.41218
G1 X69.226 Y129.197 E10.52776
G1 X67.552 Y128.286 E10.62156
G1 X66.046 Y127.332 E10.70932
G1 X64.692 Y126.315 E10.79267
G1 X63.476 Y125.220 E10.87319
G1 X62.384 Y124.029 E10.95271
G1 X61.404 Y122.730 E11.03280
G1 X60.521 Y121.309 E11.11515
G1 X59.715 Y119.748 E11.20158
G1 X59.096 Y118.268 E11.28056
G1 X58.655 Y116.789 E11.35652
G1 X58.398 Y115.293 E11.43118
G1 X58.326 Y113.768 E11.50635
G1 X58.437 Y112.197 E11.58387
G1 X58.730 Y110.560 E11.66567
G1 X59.200 Y108.841 E11.75337
G1 X59.848 Y107.010 E11.84897
G1 X60.820 Y104.836 E11.96620
G1 X62.027 Y102.766 E12.08411
G1 X63.501 Y100.777 E12.20594
G1 X65.273 Y98.836 E12.33530
G1 X67.378 Y96.907 E12.47581
G1 X69.848 Y94.953 E12.63081
G1 X72.721 Y92.937 E12.80356
G1 X76.127 Y90.768 E13.00227
G1 X79.245 Y88.990 E13.17892
G1 X79.489 Y91.345 E13.29547
G1 X79.545 Y94.620 E13.45667
G1 X79.548 Y99.893 E13.71618
G1 X79.162 Y99.662 F9000.000
G1 X77.785 Y100.054 E13.78663 F600.000
G1 X75.960 Y100.697 E13.88187
G1 X74.213 Y101.639 E13.97953
G1 X72.570 Y102.840 E14.07970
G1 X71.071 Y104.262 E14.18139
G1 X69.753 Y105.863 E14.28348
G1 X68.652 Y107.603 E14.38478
G1 X67.808 Y109.438 E14.48420
G1 X67.254 Y111.332 E14.58134
G1 X67.019 Y112.809 E14.65491
G1 X66.957 Y114.218 E14.72435
G1 X67.072 Y115.568 E14.79100
G1 X67.362 Y116.864 E14.85635
G1 X67.833 Y118.118 E14.92230
G1 X68.487 Y119.337 E14.99035
G1 X69.328 Y120.529 E15.06219
G1 X70.360 Y121.703 E15.13908
G1 X71.645 Y122.899 E15.22550
G1 X73.051 Y123.971 E15.31251
G1 X74.308 Y124.735 E15.38488
G1 X75.215 Y125.041 E15.43203
G1 X75.130 Y124.580 E15.45510
G1 X74.637 Y123.790 E15.50092
G1 X72.818 Y121.693 E15.63754
G1 X72.072 Y120.650 E15.70068
G1 X71.481 Y119.599 E15.76001
G1 X71.048 Y118.539 E15.81637
G1 X70.771 Y117.465 E15.87097
G1 X70.651 Y116.377 E15.92484
G1 X70.688 Y115.272 E15.97922
G1 X70.878 Y114.151 E16.03520
G1 X71.275 Y112.768 E16.10599
G1 X71.770 Y111.581 E16.16931
G1 X72.382 Y110.572 E16.22737
G1 X73.134 Y109.733 E16.28283
G1 X74.035 Y109.052 E16.33840
G1 X75.099 Y108.518 E16.39701
G1 X76.340 Y108.115 E16.46123
G1 X79.052 Y107.605 E16.59704
G1 X79.249 Y109.826 E16.70677
G1 X79.452 Y121.280 E17.27057
G1 X79.452 Y130.960 E17.74697
G1 X76.984 Y130.928 E17.86844
G1 X75.139 Y130.821 E17.95937
G1 X73.362 Y130.469 E18.04854
G1 X71.502 Y129.826 E18.14541
G1 X69.400 Y128.852 E18.25942
G1 X67.748 Y127.953 E18.35198
G1 X66.265 Y127.014 E18.43835
G1 X64.937 Y126.017 E18.52010
G1 X63.747 Y124.946 E18.59887
G1 X62.681 Y123.782 E18.67656
G1 X61.722 Y122.511 E18.75490
G1 X60.856 Y121.118 E18.83564
G1 X60.065 Y119.585 E18.92054
G1 X59.460 Y118.138 E18.99775
G1 X59.032 Y116.700 E19.07156
G1 X58.782 Y115.251 E19.14392
G1 X58.713 Y113.772 E19.21680
G1 X58.820 Y112.244 E19.29219
G1 X59.106 Y110.645 E19.37212
G1 X59.568 Y108.957 E19.45829
G1 X60.206 Y107.153 E19.55242
G1 X61.164 Y105.012 E19.66787
G1 X62.350 Y102.979 E19.78372
G1 X63.799 Y101.023 E19.90353
G1 X65.547 Y99.109 E20.03108
G1 X67.628 Y97.201 E20.17005
G1 X70.078 Y95.263 E20.32381
G1 X72.936 Y93.258 E20.49560
G1 X76.326 Y91.098 E20.69342
G1 X78.922 Y89.618 E20.84051
G1 X79.104 Y91.368 E20.92714
G1 X79.160 Y94.624 E21.08737
G1 X79.162 Y99.602 E21.33237
G1 X79.236 Y100.055 F9000.000
G1 X79.973 Y100.517 F9000.000
G1 X82.026 Y100.517 E21.43343 F600.000
G1 X83.329 Y100.638 E21.49782
G1 X84.891 Y100.970 E21.57644
G1 X86.472 Y101.456 E21.65782
G1 X87.801 Y102.028 E21.72902
G1 X89.133 Y102.827 E21.80548
G1 X90.390 Y103.855 E21.88537
G1 X91.533 Y105.079 E21.96779
G1 X92.537 Y106.489 E22.05299
G1 X94.554 Y109.725 E22.24066
G1 X95.790 Y106.973 E22.38912
G1 X96.454 Y105.850 E22.45330
G1 X97.330 Y104.894 E22.51715
G1 X98.422 Y104.073 E22.58437
G1 X99.696 Y103.414 E22.65497
G1 X101.112 Y102.938 E22.72851
G1 X102.630 Y102.668 E22.80437
G1 X104.205 Y102.620 E22.88192
G1 X105.810 Y102.814 E22.96149
G1 X107.415 Y103.225 E23.04303
G1 X108.780 Y103.817 E23.11626
G1 X109.976 Y104.608 E23.18684
G1 X111.067 Y105.631 E23.26044
G1 X111.681 Y106.403 E23.30897
G1 X112.160 Y107.184 E23.35406
G1 X112.495 Y107.959 E23.39564
G1 X112.696 Y108.731 E23.43487
G1 X112.766 Y109.505 E23.47313
G1 X112.707 Y110.294 E23.51209
G1 X112.514 Y111.107 E23.55322
G1 X112.178 Y111.947 E23.59774
G1 X111.563 Y113.026 E23.65886
G1 X110.845 Y113.862 E23.71311
G1 X109.894 Y114.587 E23.77192
G1 X108.556 Y115.295 E23.84644
G1 X107.645 Y115.683 E23.89517
G1 X106.880 Y115.888 E23.93413
G1 X105.929 Y115.985 E23.98118
G1 X104.502 Y116.008 E24.05144
G1 X102.237 Y115.894 E24.16307
G1 X98.966 Y115.253 E24.32708
G1 X98.162 Y115.562 E24.36946
G1 X97.599 Y116.204 E24.41148
G1 X97.221 Y117.282 E24.46771
G1 X97.222 Y118.581 E24.53164
G1 X97.505 Y119.947 E24.60031
G1 X98.051 Y121.309 E24.67252
G1 X98.831 Y122.510 E24.74300
G1 X99.592 Y123.356 E24.79903
G1 X99.434 Y123.512 E24.80994
G1 X98.444 Y122.586 E24.87666
G1 X97.743 Y121.777 E24.92933
G1 X95.029 Y117.785 E25.16688
G1 X94.375 Y120.826 E25.31993
G1 X93.664 Y123.110 E25.43766
G1 X93.211 Y124.162 E25.49405
G1 X92.757 Y124.991 E25.54054
G1 X92.061 Y125.925 E25.59790
G1 X91.143 Y126.872 E25.66280
G1 X90.030 Y127.807 E25.73435
G1 X88.763 Y128.699 E25.81059
G1 X87.382 Y129.518 E25.88963
G1 X85.926 Y130.241 E25.96960
G1 X84.439 Y130.841 E26.04854
G1 X80.306 Y132.107 E26.26127
G1 X80.307 Y132.047 E26.26421
G1 X77.833 Y132.249 E26.38640
G1 X76.271 Y132.217 E26.46329
G1 X74.411 Y131.853 E26.55653
G1 X73.083 Y131.422 E26.62526
G1 X73.138 Y131.211 E26.63599
G1 X75.042 Y131.588 E26.73150
G1 X76.957 Y131.699 E26.82590
G1 X80.223 Y131.741 E26.98668
G1 X80.223 Y131.450 E27.00102
G1 X82.365 Y130.994 E27.10879
G1 X84.870 Y129.978 E27.24181
G1 X86.476 Y129.017 E27.33393
G1 X87.885 Y127.765 E27.42670
G1 X89.109 Y126.210 E27.52410
G1 X90.198 Y124.323 E27.63132
G1 X90.897 Y122.613 E27.72221
G1 X91.324 Y120.863 E27.81089
G1 X91.477 Y119.091 E27.89840
G1 X91.357 Y117.318 E27.98588
G1 X90.968 Y115.559 E28.07451
G1 X90.315 Y113.835 E28.16525
G1 X89.406 Y112.158 E28.25914
G1 X88.223 Y110.504 E28.35924
G1 X86.928 Y109.310 E28.44591
G1 X85.274 Y108.265 E28.54220
G1 X83.564 Y107.514 E28.63412
G1 X82.704 Y107.279 E28.67799
G1 X81.954 Y107.194 E28.71512
G1 X79.790 Y107.194 E28.82163
G1 X79.746 Y106.690 E28.84652
G1 X76.149 Y107.366 E29.02662
G1 X74.805 Y107.803 E29.09615
G1 X73.626 Y108.394 E29.16108
G1 X72.609 Y109.163 E29.22381
G1 X71.760 Y110.111 E29.28646
G1 X71.080 Y111.230 E29.35090
G1 X70.546 Y112.513 E29.41928
G1 X70.125 Y113.979 E29.49437
G1 X69.919 Y115.194 E29.55502
G1 X69.878 Y116.406 E29.61471
G1 X70.011 Y117.604 E29.67401
G1 X70.314 Y118.782 E29.73388
G1 X70.785 Y119.935 E29.79519
G1 X71.420 Y121.064 E29.85895
G1 X72.034 Y121.923 E29.91088
G1 X71.877 Y122.061 E29.92118
G1 X70.913 Y121.165 E29.98595
G1 X69.934 Y120.051 E30.05890
G1 X69.144 Y118.931 E30.12639
G1 X68.537 Y117.799 E30.18960
G1 X68.103 Y116.643 E30.25038
G1 X67.836 Y115.450 E30.31051
G1 X67.730 Y114.203 E30.37213
G1 X67.788 Y112.886 E30.43698
G1 X68.008 Y111.502 E30.50596
G1 X68.533 Y109.709 E30.59792
G1 X69.331 Y107.972 E30.69202
G1 X70.379 Y106.316 E30.78843
G1 X71.636 Y104.789 E30.88580
G1 X73.065 Y103.434 E30.98272
G1 X74.626 Y102.293 E31.07787
G1 X76.273 Y101.405 E31.16998
G1 X78.019 Y100.789 E31.26109
G1 X79.973 Y100.233 E31.36104
G1 X79.973 Y100.457 E31.37207
G1 X80.290 Y107.579 F9000.000
G1 X81.933 Y107.579 E31.45293 F600.000
G1 X82.631 Y107.659 E31.48752
G1 X83.434 Y107.879 E31.52853
G1 X85.092 Y108.606 E31.61763
G1 X86.692 Y109.617 E31.71077
G1 X87.932 Y110.761 E31.79377
G1 X89.079 Y112.363 E31.89073
G1 X89.963 Y113.996 E31.98217
G1 X90.598 Y115.670 E32.07025
G1 X90.974 Y117.373 E32.15609
G1 X91.090 Y119.088 E32.24067
G1 X90.942 Y120.800 E32.32527
G1 X90.529 Y122.494 E32.41107
G1 X89.851 Y124.152 E32.49926
G1 X88.789 Y125.993 E32.60384
G1 X87.603 Y127.499 E32.69819
G1 X86.247 Y128.704 E32.78748
G1 X84.697 Y129.632 E32.87636
G1 X82.252 Y130.624 E33.00624
G1 X80.648 Y130.965 E33.08692
G1 X80.648 Y127.962 E33.23470
G1 X80.291 Y107.639 E34.23506
G1 X80.682 Y107.965 F9000.000
G1 X81.911 Y107.965 E34.29553 F600.000
G1 X82.558 Y108.038 E34.32757
G1 X83.305 Y108.243 E34.36573
G1 X84.911 Y108.948 E34.45201
G1 X86.456 Y109.925 E34.54200
G1 X87.642 Y111.017 E34.62133
G1 X88.751 Y112.567 E34.71515
G1 X89.612 Y114.157 E34.80412
G1 X90.227 Y115.781 E34.88956
G1 X90.591 Y117.428 E34.97260
G1 X90.704 Y119.084 E35.05429
G1 X90.561 Y120.738 E35.13597
G1 X90.162 Y122.375 E35.21890
G1 X89.503 Y123.982 E35.30439
G1 X88.469 Y125.776 E35.40632
G1 X87.321 Y127.234 E35.49761
G1 X86.018 Y128.392 E35.58344
G1 X84.525 Y129.286 E35.66908
G1 X82.138 Y130.254 E35.79582
G1 X81.034 Y130.489 E35.85138
G1 X81.034 Y127.959 E35.97590
G1 X80.683 Y108.025 E36.95710
G1 X80.680 Y107.565 F9000.000
G1 E30.95710 F1800.00000
G92 E0
G1 X72.712 Y131.060 F9000.000
G1 E6.00000 F1800.00000
G1 X72.640 Y131.278 E6.01128 F600.000
G1 X72.101 Y131.085 E6.03941
G1 X72.182 Y130.877 E6.05038
G1 X72.656 Y131.041 E6.07504
G1 E0.07504 F1800.00000
G92 E0
G1 X79.258 Y157.252 F9000.000
G1 E6.00000 F1800.00000
G1 X79.473 Y157.284 E6.01069 F600.000
G1 X79.433 Y157.743 E6.03335
G1 X79.039 Y159.871 E6.13985
G1 X78.801 Y160.610 E6.17810
G1 X78.523 Y161.209 E6.21058
G1 X78.207 Y161.691 E6.23893
G1 X77.858 Y162.079 E6.26464
G1 X76.826 Y162.848 E6.32800
G1 X75.404 Y163.613 E6.40747
G1 X74.256 Y164.085 E6.46852
G1 X72.897 Y164.468 E6.53801
G1 X71.382 Y164.756 E6.61394
G1 X69.791 Y164.937 E6.69273
G1 X68.203 Y165.003 E6.77097
G1 X66.696 Y164.951 E6.84514
G1 X65.355 Y164.780 E6.91170
G1 X64.250 Y164.493 E6.96789
G1 X62.956 Y163.940 E7.03714
G1 X61.772 Y163.203 E7.10576
G1 X60.700 Y162.287 E7.17517
G1 X59.744 Y161.193 E7.24668
G1 X58.908 Y159.924 E7.32145
G1 X58.201 Y158.485 E7.40035
G1 X57.634 Y156.879 E7.48418
G1 X57.218 Y155.128 E7.57278
G1 X57.106 Y154.069 E7.62519
G1 X57.167 Y153.099 E7.67300
G1 X57.382 Y152.201 E7.71845
G1 X57.733 Y151.375 E7.76261
G1 X58.208 Y150.628 E7.80621
G1 X58.792 Y149.966 E7.84964
G1 X59.506 Y149.376 E7.89521
G1 X60.235 Y148.929 E7.93730
G1 X61.056 Y148.578 E7.98127
G1 X61.921 Y148.349 E8.02529
G1 X62.812 Y148.251 E8.06943
G1 X63.713 Y148.290 E8.11380
G1 X64.608 Y148.474 E8.15876
G1 X65.485 Y148.812 E8.20504
G1 X66.335 Y149.314 E8.25360
G1 X67.149 Y149.999 E8.30597
G1 X67.742 Y150.673 E8.35015
G1 X68.205 Y151.385 E8.39195
G1 X68.542 Y152.126 E8.43198
G1 X68.761 Y152.888 E8.47099
G1 X68.865 Y153.661 E8.50939
G1 X68.861 Y154.435 E8.54749
G1 X68.751 Y155.199 E8.58550
G1 X68.537 Y155.942 E8.62355
G1 X68.225 Y156.652 E8.66170
G1 X67.819 Y157.315 E8.69997
G1 X67.325 Y157.921 E8.73846
G1 X66.744 Y158.458 E8.77738
G1 X66.082 Y158.916 E8.81698
G1 X65.342 Y159.283 E8.85766
G1 X64.532 Y159.547 E8.89960
G1 X62.453 Y159.864 E9.00310
G1 X61.495 Y160.218 E9.05335
G1 X61.083 Y161.063 E9.09963
G1 X61.326 Y161.816 E9.13857
G1 X61.951 Y162.481 E9.18350
G1 X62.682 Y163.042 E9.22886
G1 X63.522 Y163.514 E9.27630
G1 X65.322 Y164.152 E9.37024
G1 X67.331 Y164.479 E9.47043
G1 X69.432 Y164.507 E9.57386
G1 X71.538 Y164.249 E9.67828
G1 X73.557 Y163.705 E9.78120
G1 X75.375 Y162.878 E9.87946
G1 X76.218 Y162.329 E9.92897
G1 X76.956 Y161.711 E9.97634
G1 X77.812 Y160.779 E10.03864
G1 X78.507 Y159.679 E10.10266
G1 X79.028 Y158.318 E10.17441
G1 X79.245 Y157.310 E10.22514
G1 E4.22514 F1800.00000
G92 E0
G1 X94.499 Y108.907 F9000.000
G1 E6.00000 F1800.00000
G1 X92.858 Y106.275 E6.15266 F600.000
G1 X91.832 Y104.834 E6.23969
G1 X90.654 Y103.573 E6.32465
G1 X89.356 Y102.511 E6.40719
G1 X87.977 Y101.684 E6.48631
