; generated by Slic3r 1.2.9 on 2017-03-15 at 14:53:32

; external perimeters extrusion width = 0.40mm
; perimeters extrusion width = 0.56mm
; infill extrusion width = 0.38mm
; solid infill extrusion width = 0.56mm
; top infill extrusion width = 0.22mm

M106 S256; Turn on fan to 100% power
M104 S140; turn on extruder temperature at S value
M140 S60; turn on bed temperature at S value
G28; home all axes
M84; disable motors
G1 Z15 F15000; have Z move to 20mm at 15000 mm/min
M190 S55; turn on bed temperature at S value and wait
M140 S55; turn on bed temperature at S value (printing temperature)
M109 S200; turn on extruder temperature at S value and wait (printing temperature)
M104 S200; turn on extruder temperature at S value
G1 Z0 F12000; move Z back to home
G21 ; set units to millimeters
G90 ; use absolute coordinates
M82 ; use absolute distances for extrusion
G92 E0
M106 S255
;Layer change
G1 E-6.00000 F1800.00000
G92 E0
G1 Z0.300 F9000.000
G1 X73.021 Y82.686 F9000.000
G1 E6.00000 F1800.00000
G1 X73.656 Y82.170 E6.04074 F600.000
G1 X74.331 Y81.709 E6.08147
G1 X75.043 Y81.305 E6.12221
G1 X75.787 Y80.962 E6.16298
G1 X76.556 Y80.683 E6.20374
G1 X77.346 Y80.470 E6.24446
G1 X78.151 Y80.323 E6.28521
G1 X78.966 Y80.244 E6.32597
G1 X79.500 Y80.229 E6.35258
G1 X106.500 Y80.229 E7.69689
G1 X108.180 Y80.623 E7.78279
G1 X109.508 Y81.725 E7.86870 F600.000
G1 X110.271 Y84.000 E7.98818
G1 X110.271 Y96.000 E8.58565
G1 X109.877 Y97.680 E8.67155
G1 X108.775 Y99.008 E8.75746
G1 X106.500 Y99.771 E8.87694
G1 X79.217 Y99.767 E10.23535
G1 X78.807 Y99.746 E10.25577
G1 X78.151 Y99.677 E10.28862
G1 X77.192 Y99.494 E10.33724
G1 X76.556 Y99.317 E10.37008
G1 X76.168 Y99.185 E10.39051
G1 X75.641 Y98.977 E10.41870
G1 X75.043 Y98.695 E10.45163
G1 X74.546 Y98.422 E10.47985
G1 X73.989 Y98.068 E10.51273
G1 X73.211 Y97.478 E10.56133
G1 X72.720 Y97.036 E10.59421
G1 X72.323 Y96.631 E10.62246
G1 X71.892 Y96.131 E10.65533
G1 X71.549 Y95.679 E10.68358
G1 X71.184 Y95.129 E10.71645
G1 X70.900 Y94.638 E10.74468
G1 X70.606 Y94.046 E10.77759
G1 X70.387 Y93.524 E10.80580
G1 X70.247 Y93.138 E10.82620
G1 X70.056 Y92.506 E10.85908
G1 X69.927 Y91.954 E10.88731
G1 X69.817 Y91.303 E10.92020
G1 X69.757 Y90.739 E10.94843
G1 X69.730 Y90.079 E10.98132
G1 X69.741 Y89.512 E11.00956
G1 X69.797 Y88.854 E11.04244
G1 X69.880 Y88.293 E11.07068
G1 X70.015 Y87.657 E11.10304
G1 X70.299 Y86.712 E11.15218
G1 X70.542 Y86.098 E11.18503
G1 X70.784 Y85.585 E11.21330
G1 X71.102 Y85.006 E11.24616
G1 X71.406 Y84.528 E11.27439
G1 X71.794 Y83.993 E11.30730
G1 X72.155 Y83.556 E11.33551
G1 X72.608 Y83.074 E11.36843
G1 X72.976 Y82.727 E11.39365
G1 X73.273 Y82.978 F9000.000
G1 X73.882 Y82.482 E11.43279 F600.000
G1 X74.531 Y82.038 E11.47191
G1 X75.214 Y81.650 E11.51104
G1 X75.928 Y81.321 E11.55020
G1 X76.668 Y81.052 E11.58935
G1 X77.426 Y80.847 E11.62847
G1 X78.199 Y80.705 E11.66761
G1 X78.982 Y80.629 E11.70676
G1 X79.500 Y80.614 E11.73257
G1 X106.500 Y80.614 E13.07687
G1 X108.085 Y81.008 E13.15821
G1 X109.302 Y82.099 E13.23954 F600.000
G1 X109.886 Y84.000 E13.33855
G1 X109.886 Y96.000 E13.93602
G1 X109.492 Y97.585 E14.01735
G1 X108.401 Y98.802 E14.09869
G1 X106.500 Y99.386 E14.19770
G1 X79.233 Y99.381 E15.55530
G1 X78.839 Y99.362 E15.57492
G1 X78.199 Y99.295 E15.60697
G1 X77.288 Y99.121 E15.65317
G1 X76.668 Y98.948 E15.68522
G1 X76.295 Y98.821 E15.70483
G1 X75.440 Y98.461 E15.75102
G1 X74.869 Y98.163 E15.78305
G1 X74.411 Y97.886 E15.80971
G1 X73.882 Y97.518 E15.84180
G1 X73.463 Y97.186 E15.86843
G1 X72.984 Y96.755 E15.90050
G1 X72.610 Y96.373 E15.92714
G1 X72.189 Y95.885 E15.95920
G1 X71.866 Y95.459 E15.98585
G1 X71.509 Y94.922 E16.01792
G1 X71.242 Y94.459 E16.04453
G1 X70.955 Y93.882 E16.07664
G1 X70.748 Y93.389 E16.10325
G1 X70.614 Y93.019 E16.12284
G1 X70.428 Y92.402 E16.15492
G1 X70.305 Y91.882 E16.18154
G1 X70.198 Y91.247 E16.21362
G1 X70.142 Y90.715 E16.24025
G1 X70.115 Y90.071 E16.27234
G1 X70.126 Y89.536 E16.29896
G1 X70.180 Y88.894 E16.33104
G1 X70.258 Y88.365 E16.35767
G1 X70.390 Y87.745 E16.38923
G1 X70.661 Y86.846 E16.43595
G1 X70.898 Y86.248 E16.46801
G1 X71.126 Y85.763 E16.49466
G1 X71.436 Y85.199 E16.52672
G1 X71.722 Y84.748 E16.55334
G1 X72.101 Y84.226 E16.58545
G1 X72.442 Y83.814 E16.61205
G1 X72.883 Y83.344 E16.64417
G1 X73.228 Y83.018 E16.66778
G1 E10.66778 F1800.00000
G92 E0
G1 X104.050 Y93.718 F9000.000
G1 E6.00000 F1800.00000
G1 X101.281 Y93.718 E6.13789 F600.000
G1 X101.281 Y91.299 E6.25834
G1 X100.164 Y91.299 E6.31394
G1 X100.164 Y93.718 E6.43439
G1 X95.508 Y93.718 E6.66623
G1 X94.423 Y90.849 E6.81895
G1 X93.317 Y93.718 E6.97205
G1 X90.616 Y93.718 E7.10654
G1 X90.616 Y93.224 E7.13112
G1 X90.142 Y93.499 E7.15840
G1 X89.750 Y93.649 E7.17932
G1 X89.332 Y93.751 E7.20070
G1 X88.790 Y93.819 E7.22794
G1 X88.064 Y93.829 E7.26409
G1 X87.353 Y93.749 E7.29970
G1 X86.986 Y93.658 E7.31854
G1 X86.632 Y93.530 E7.33727
G1 X86.151 Y93.265 E7.36458
G1 X85.858 Y93.025 E7.38348
G1 X85.617 Y92.756 E7.40143
G1 X85.422 Y92.451 E7.41947
G1 X85.279 Y92.119 E7.43747
G1 X85.190 Y91.772 E7.45531
G1 X85.150 Y91.393 E7.47428
G1 X85.193 Y90.789 E7.50445
G1 X85.359 Y90.275 E7.53135
G1 X85.675 Y89.778 E7.56066
G1 X86.044 Y89.429 E7.58597
G1 X84.601 Y89.140 E7.65924
G1 X85.048 Y87.696 E7.73448
G1 X85.360 Y87.133 E7.76655
G1 X85.681 Y86.774 E7.79053
G1 X86.042 Y86.492 E7.81334
G1 X86.458 Y86.265 E7.83694
G1 X87.084 Y86.056 E7.86979
G1 X87.576 Y85.968 E7.89470
G1 X88.294 Y85.926 E7.93050
G1 X88.863 Y85.949 E7.95883
G1 X89.490 Y86.047 E7.99044
G1 X89.988 Y86.198 E8.01636
G1 X90.616 Y86.510 E8.05126
G1 X90.616 Y86.004 E8.07648
G1 X100.164 Y86.004 E8.55187
G1 X100.164 Y88.655 E8.68388
G1 X101.281 Y88.655 E8.73948
G1 X101.281 Y86.004 E8.87149
G1 X104.050 Y86.004 E9.00938
G1 X104.050 Y93.658 E9.39047
G1 X103.665 Y93.332 F9000.000
G1 X101.666 Y93.332 E9.48996 F600.000
G1 X101.666 Y90.913 E9.61041
G1 X99.778 Y90.913 E9.70441
G1 X99.778 Y93.332 E9.82486
G1 X95.774 Y93.332 E10.02423
G1 X94.427 Y89.767 E10.21398
G1 X93.052 Y93.332 E10.40420
G1 X91.002 Y93.332 E10.50631
G1 X91.002 Y92.424 E10.55155
G1 X90.845 Y92.370 E10.55977
G1 X90.565 Y92.730 E10.58250
G1 X90.285 Y92.970 E10.60086
G1 X89.975 Y93.150 E10.61869
G1 X89.634 Y93.281 E10.63685
G1 X89.263 Y93.371 E10.65590
G1 X88.763 Y93.434 E10.68099
G1 X88.083 Y93.443 E10.71485
G1 X87.421 Y93.368 E10.74799
G1 X87.097 Y93.288 E10.76461
G1 X86.791 Y93.178 E10.78082
G1 X86.369 Y92.945 E10.80484
G1 X86.125 Y92.745 E10.82051
G1 X85.925 Y92.522 E10.83544
G1 X85.763 Y92.270 E10.85035
G1 X85.645 Y91.995 E10.86527
G1 X85.571 Y91.703 E10.88024
G1 X85.537 Y91.387 E10.89611
G1 X85.574 Y90.863 E10.92224
G1 X85.710 Y90.440 E10.94437
G1 X85.974 Y90.025 E10.96883
G1 X86.287 Y89.731 E10.99022
G1 X86.662 Y89.499 E11.01220
G1 X86.932 Y89.377 E11.02693
G1 X86.913 Y89.210 E11.03534
G1 X85.096 Y88.846 E11.12761
G1 X85.404 Y87.849 E11.17960
G1 X85.677 Y87.358 E11.20752
G1 X85.946 Y87.057 E11.22764
G1 X86.255 Y86.815 E11.24718
G1 X86.613 Y86.619 E11.26748
G1 X87.179 Y86.431 E11.29720
G1 X87.622 Y86.352 E11.31959
G1 X88.298 Y86.312 E11.35331
G1 X88.825 Y86.334 E11.37958
G1 X89.404 Y86.424 E11.40876
G1 X89.846 Y86.558 E11.43173
G1 X90.329 Y86.798 E11.45859
G1 X90.737 Y87.130 E11.48478
G1 X90.845 Y87.269 E11.49357
G1 X91.002 Y87.216 E11.50181
G1 X91.002 Y86.389 E11.54295
G1 X92.915 Y86.389 E11.63820
G1 X92.915 Y87.959 E11.71636
G1 X93.104 Y87.994 E11.72594
G1 X93.723 Y86.389 E11.81159
G1 X95.109 Y86.389 E11.88059
G1 X95.693 Y87.925 E11.96239
G1 X95.883 Y87.890 E11.97198
G1 X95.883 Y86.389 E12.04670
G1 X99.778 Y86.389 E12.24068
G1 X99.778 Y89.041 E12.37269
G1 X101.666 Y89.041 E12.46669
G1 X101.666 Y86.389 E12.59870
G1 X103.665 Y86.389 E12.69819
G1 X103.665 Y93.272 E13.04088
G1 E7.04088 F1800.00000
G92 E0
G1 X90.851 Y91.343 F9000.000
G1 E6.00000 F1800.00000
G1 X90.656 Y91.893 E6.02907 F600.000
G1 X90.511 Y92.172 E6.04473
G1 X90.285 Y92.463 E6.06306
G1 X90.061 Y92.654 E6.07771
G1 X89.808 Y92.801 E6.09227
G1 X89.519 Y92.912 E6.10768
G1 X89.193 Y92.991 E6.12439
G1 X88.736 Y93.048 E6.14732
G1 X88.102 Y93.058 E6.17890
G1 X87.490 Y92.988 E6.20957
G1 X87.209 Y92.919 E6.22396
G1 X86.950 Y92.825 E6.23765
G1 X86.586 Y92.624 E6.25839
G1 X86.392 Y92.466 E6.27084
G1 X86.233 Y92.288 E6.28274
G1 X86.105 Y92.088 E6.29453
G1 X86.011 Y91.870 E6.30637
G1 X85.951 Y91.635 E6.31845
G1 X85.924 Y91.380 E6.33123
G1 X85.955 Y90.937 E6.35333
G1 X86.062 Y90.605 E6.37068
G1 X86.274 Y90.273 E6.39029
G1 X86.523 Y90.038 E6.40733
G1 X86.843 Y89.840 E6.42609
G1 X87.120 Y89.716 E6.44122
G1 X87.524 Y89.582 E6.46237
G1 X89.086 Y89.192 E6.54251
G1 X89.345 Y89.085 E6.55648
G1 X89.493 Y88.988 E6.56527
G1 X89.631 Y88.829 E6.57578
G1 X89.684 Y88.647 E6.58522
G1 X89.674 Y88.388 E6.59814
G1 X89.590 Y88.177 E6.60942
G1 X89.501 Y88.069 E6.61640
G1 X89.270 Y87.917 E6.63015
G1 X89.090 Y87.848 E6.63976
G1 X88.875 Y87.797 E6.65077
G1 X88.629 Y87.766 E6.66311
G1 X88.060 Y87.765 E6.69141
G1 X87.820 Y87.794 E6.70347
G1 X87.552 Y87.858 E6.71717
G1 X87.377 Y87.926 E6.72656
G1 X87.229 Y88.011 E6.73502
G1 X87.107 Y88.112 E6.74291
G1 X87.007 Y88.232 E6.75070
G1 X86.925 Y88.373 E6.75883
G1 X86.779 Y88.790 E6.78080
G1 X85.591 Y88.552 E6.84115
G1 X85.761 Y88.001 E6.86987
G1 X85.993 Y87.583 E6.89365
G1 X86.211 Y87.339 E6.90992
G1 X86.468 Y87.138 E6.92617
G1 X86.767 Y86.974 E6.94318
G1 X87.274 Y86.805 E6.96978
G1 X87.667 Y86.736 E6.98964
G1 X88.301 Y86.698 E7.02127
G1 X88.787 Y86.718 E7.04549
G1 X89.318 Y86.801 E7.07225
G1 X89.703 Y86.917 E7.09227
G1 X90.119 Y87.124 E7.11538
G1 X90.459 Y87.401 E7.13723
G1 X90.669 Y87.673 E7.15432
G1 X90.815 Y87.982 E7.17137
G1 X90.903 Y88.405 E7.19288
G1 X90.901 Y88.799 E7.21247
G1 X90.870 Y89.004 E7.22282
G1 X90.798 Y89.242 E7.23516
G1 X90.719 Y89.413 E7.24457
G1 X90.575 Y89.631 E7.25756
G1 X90.273 Y89.917 E7.27827
G1 X89.977 Y90.093 E7.29539
G1 X89.481 Y90.296 E7.32209
G1 X88.056 Y90.651 E7.39522
G1 X87.596 Y90.791 E7.41915
G1 X87.412 Y90.882 E7.42939
G1 X87.313 Y90.952 E7.43542
G1 X87.212 Y91.056 E7.44263
G1 X87.171 Y91.127 E7.44672
G1 X87.137 Y91.260 E7.45353
G1 X87.139 Y91.446 E7.46281
G1 X87.178 Y91.592 E7.47034
G1 X87.252 Y91.713 E7.47740
G1 X87.333 Y91.792 E7.48302
G1 X87.487 Y91.884 E7.49196
G1 X87.691 Y91.956 E7.50269
G1 X87.946 Y92.004 E7.51564
G1 X88.252 Y92.025 E7.53093
G1 X88.611 Y92.012 E7.54878
G1 X88.854 Y91.974 E7.56104
G1 X89.093 Y91.898 E7.57351
G1 X89.273 Y91.793 E7.58392
G1 X89.388 Y91.682 E7.59185
G1 X89.482 Y91.542 E7.60023
G1 X89.643 Y91.131 E7.62224
G1 X90.792 Y91.333 E7.68035
G1 X91.235 Y91.456 F9000.000
G1 X91.387 Y92.947 F9000.000
G1 X91.387 Y86.775 E7.98763 F600.000
G1 X92.529 Y86.775 E8.04448
G1 X92.529 Y90.030 E8.20654
G1 X92.718 Y90.065 E8.21611
G1 X93.987 Y86.775 E8.39169
G1 X94.843 Y86.775 E8.43428
G1 X96.079 Y90.023 E8.60729
G1 X96.268 Y89.988 E8.61689
G1 X96.268 Y86.775 E8.77686
G1 X97.418 Y86.775 E8.83412
G1 X97.418 Y92.947 E9.14140
G1 X96.041 Y92.947 E9.20999
G1 X94.430 Y88.686 E9.43677
G1 X92.788 Y92.947 E9.66411
G1 X91.447 Y92.947 E9.73086
G1 X90.987 Y92.947 F9000.000
G1 X98.166 Y92.947 F9000.000
G1 X98.166 Y86.775 E10.03814 F600.000
G1 X99.393 Y86.775 E10.09923
G1 X99.393 Y89.426 E10.23124
G1 X102.052 Y89.426 E10.36364
G1 X102.052 Y86.775 E10.49565
G1 X103.279 Y86.775 E10.55674
G1 X103.279 Y92.947 E10.86402
G1 X102.052 Y92.947 E10.92511
G1 X102.052 Y90.527 E11.04556
G1 X99.393 Y90.527 E11.17796
G1 X99.393 Y92.947 E11.29841
G1 X98.226 Y92.947 E11.35651
G1 X97.766 Y92.947 F9000.000
G1 E5.35651 F1800.00000
G92 E0
G1 X82.850 Y90.582 F9000.000
G1 E6.00000 F1800.00000
G1 X82.668 Y91.232 E6.03360 F600.000
G1 X82.482 Y91.628 E6.05535
G1 X82.318 Y91.898 E6.07111
G1 X81.981 Y92.323 E6.09809
G1 X81.673 Y92.611 E6.11911
G1 X81.439 Y92.790 E6.13378
G1 X81.190 Y92.948 E6.14846
G1 X80.807 Y93.137 E6.16971
G1 X80.286 Y93.307 E6.19699
G1 X79.866 Y93.378 E6.21824
G1 X79.550 Y93.398 E6.23397
G1 X79.024 Y93.365 E6.26021
G1 X78.714 Y93.305 E6.27594
G1 X78.305 Y93.182 E6.29718
G1 X77.819 Y92.953 E6.32394
G1 X77.552 Y92.784 E6.33967
G1 X77.218 Y92.519 E6.36092
G1 X76.850 Y92.127 E6.38768
G1 X76.664 Y91.871 E6.40341
G1 X76.461 Y91.519 E6.42365
G1 X76.335 Y91.236 E6.43908
G1 X76.212 Y90.854 E6.45907
G1 X76.148 Y90.551 E6.47449
G1 X76.106 Y90.152 E6.49449
G1 X76.106 Y89.842 E6.50990
G1 X76.151 Y89.422 E6.53094
G1 X76.294 Y88.867 E6.55948
G1 X76.582 Y88.257 E6.59308
G1 X76.831 Y87.898 E6.61483
G1 X77.030 Y87.667 E6.63003
G1 X77.326 Y87.389 E6.65024
G1 X77.810 Y87.052 E6.67958
G1 X78.193 Y86.863 E6.70084
G1 X78.713 Y86.693 E6.72810
G1 X79.129 Y86.623 E6.74911
G1 X79.439 Y86.603 E6.76454 F600.000
G1 X79.845 Y86.620 E6.78478
G1 X80.424 Y86.730 E6.81412
G1 X80.817 Y86.867 E6.83485
G1 X81.190 Y87.052 E6.85558
G1 X81.456 Y87.222 E6.87131
G1 X81.863 Y87.558 E6.89758
G1 X82.082 Y87.792 E6.91353
G1 X82.324 Y88.111 E6.93349
G1 X82.482 Y88.372 E6.94869
G1 X82.660 Y88.749 E6.96941
G1 X82.788 Y89.145 E6.99014
G1 X82.854 Y89.454 E7.00586
G1 X82.900 Y90.001 E7.03318
G1 X82.855 Y90.523 E7.05927
G1 X82.469 Y90.514 F9000.000
G1 X82.306 Y91.097 E7.08945 F600.000
G1 X82.142 Y91.445 E7.10859
G1 X82.001 Y91.678 E7.12212
G1 X81.697 Y92.061 E7.14648
G1 X81.424 Y92.316 E7.16509
G1 X81.218 Y92.473 E7.17796
G1 X81.000 Y92.611 E7.19083
G1 X80.661 Y92.779 E7.20966
G1 X80.194 Y92.931 E7.23412
G1 X79.821 Y92.994 E7.25296
G1 X79.550 Y93.011 E7.26647
G1 X79.073 Y92.981 E7.29029
G1 X78.806 Y92.930 E7.30381
G1 X78.444 Y92.821 E7.32264
G1 X78.005 Y92.615 E7.34678
G1 X77.776 Y92.469 E7.36030
G1 X77.480 Y92.234 E7.37913
G1 X77.148 Y91.881 E7.40327
G1 X76.988 Y91.661 E7.41678
G1 X76.805 Y91.344 E7.43500
G1 X76.696 Y91.098 E7.44841
G1 X76.585 Y90.755 E7.46639
G1 X76.529 Y90.491 E7.47980
G1 X76.491 Y90.132 E7.49778
G1 X76.492 Y89.863 E7.51118
G1 X76.531 Y89.491 E7.52980
G1 X76.658 Y88.999 E7.55512
G1 X76.917 Y88.450 E7.58530
G1 X77.136 Y88.134 E7.60444
G1 X77.309 Y87.934 E7.61764
G1 X77.576 Y87.684 E7.63583
G1 X78.000 Y87.389 E7.66156
G1 X78.339 Y87.221 E7.68039
G1 X78.806 Y87.069 E7.70484
G1 X79.174 Y87.006 E7.72345
G1 X79.443 Y86.989 E7.73686 F600.000
G1 X79.808 Y87.004 E7.75507
G1 X80.316 Y87.101 E7.78080
G1 X80.667 Y87.223 E7.79931
G1 X81.000 Y87.389 E7.81783
G1 X81.229 Y87.534 E7.83134
G1 X81.598 Y87.840 E7.85518
G1 X81.787 Y88.041 E7.86891
G1 X82.005 Y88.328 E7.88688
G1 X82.142 Y88.555 E7.90006
G1 X82.300 Y88.891 E7.91857
G1 X82.415 Y89.245 E7.93709
G1 X82.472 Y89.510 E7.95060
G1 X82.513 Y90.000 E7.97508
G1 X82.474 Y90.454 E7.99774
G1 X82.088 Y90.445 F9000.000
G1 X81.943 Y90.962 E8.02450 F600.000
G1 X81.802 Y91.263 E8.04103
G1 X81.684 Y91.457 E8.05234
G1 X81.413 Y91.799 E8.07408
G1 X81.175 Y92.021 E8.09028
G1 X80.998 Y92.156 E8.10134
G1 X80.811 Y92.275 E8.11240
G1 X80.515 Y92.421 E8.12882
G1 X80.102 Y92.556 E8.15046
G1 X79.777 Y92.611 E8.16688
G1 X79.550 Y92.625 E8.17818
G1 X79.121 Y92.598 E8.19958
G1 X78.898 Y92.555 E8.21088
G1 X78.583 Y92.460 E8.22730
G1 X78.191 Y92.276 E8.24882
G1 X78.000 Y92.154 E8.26012
G1 X77.741 Y91.950 E8.27654
G1 X77.445 Y91.634 E8.29807
G1 X77.312 Y91.451 E8.30936
G1 X77.149 Y91.169 E8.32555
G1 X77.057 Y90.960 E8.33695
G1 X76.958 Y90.655 E8.35292
G1 X76.910 Y90.431 E8.36431
G1 X76.877 Y90.112 E8.38028
G1 X76.877 Y89.883 E8.39167
G1 X76.912 Y89.560 E8.40788
G1 X77.022 Y89.130 E8.42997
G1 X77.252 Y88.644 E8.45673
G1 X77.441 Y88.371 E8.47326
G1 X77.588 Y88.201 E8.48444
G1 X77.825 Y87.979 E8.50063
G1 X78.189 Y87.725 E8.52273
G1 X78.485 Y87.579 E8.53915
G1 X78.898 Y87.444 E8.56079
G1 X79.219 Y87.390 E8.57699
G1 X79.447 Y87.375 E8.58838 F600.000
G1 X79.772 Y87.389 E8.60457
G1 X80.208 Y87.472 E8.62668
G1 X80.517 Y87.580 E8.64298
G1 X80.811 Y87.725 E8.65928
G1 X81.002 Y87.847 E8.67058
G1 X81.334 Y88.121 E8.69199
G1 X81.492 Y88.290 E8.70350
G1 X81.685 Y88.545 E8.71947
G1 X81.802 Y88.737 E8.73065
G1 X81.941 Y89.034 E8.74694
G1 X82.042 Y89.345 E8.76324
G1 X82.089 Y89.567 E8.77454
G1 X82.126 Y90.000 E8.79619
G1 X82.093 Y90.385 E8.81541
G1 X82.385 Y90.712 F9000.000
G1 E2.81541 F1800.00000
G92 E0
G1 X105.504 Y95.004 F9000.000
G1 E6.00000 F1800.00000
G1 X79.526 Y95.004 E7.29340 F600.000
G1 X78.982 Y94.975 E7.32051
G1 X78.347 Y94.868 E7.35257
G1 X77.964 Y94.761 E7.37239
G1 X77.361 Y94.522 E7.40471
