; generated by Slic3r 1.2.9 on 2017-03-05 at 13:34:00

; external perimeters extrusion width = 0.40mm
; perimeters extrusion width = 0.56mm
; infill extrusion width = 0.38mm
; solid infill extrusion width = 0.56mm
; top infill extrusion width = 0.22mm

M106 S256; Turn on fan to 100% power
M104 S140; turn on extruder temperature at S value
M140 S60; turn on bed temperature at S value
G28; home all axes
M84; disable motors
G1 Z15 F15000; have Z move to 20mm at 15000 mm/min
M190 S55; turn on bed temperature at S value and wait
M140 S55; turn on bed temperature at S value (printing temperature)
M109 S200; turn on extruder temperature at S value and wait (printing temperature)
M104 S200; turn on extruder temperature at S value
G1 Z0 F12000; move Z back to home
G21 ; set units to millimeters
G90 ; use absolute coordinates
M82 ; use absolute distances for extrusion
G92 E0
M106 S255
;Layer change
G1 E-6.00000 F1800.00000
G92 E0
G1 Z0.300 F9000.000
G1 X35.966 Y66.185 F9000.000
G1 E6.00000 F1800.00000
G1 X37.398 Y65.547 E6.07807 F600.000
G1 X38.148 Y65.303 E6.11732
G1 X39.682 Y64.977 E6.19539
G1 X40.269 Y64.900 E6.22485
G1 X41.250 Y64.854 E6.27377
G1 X146.250 Y64.854 E11.50161
G1 X147.930 Y65.248 E11.58752
G1 X149.258 Y66.350 E11.67342 F600.000
G1 X150.021 Y68.625 E11.79290
G1 X150.021 Y83.625 E12.53974
G1 X149.627 Y85.305 E12.62565
G1 X148.525 Y86.633 E12.71155
G1 X147.559 Y87.162 E12.76641
G1 X72.559 Y114.912 E16.74799
G1 X71.250 Y115.146 E16.81419
G1 X41.250 Y115.146 E18.30786
G1 X40.269 Y115.100 E18.35677
G1 X39.682 Y115.023 E18.38623
G1 X38.148 Y114.697 E18.46429
G1 X37.398 Y114.453 E18.50355
G1 X35.966 Y113.815 E18.58162
G1 X35.283 Y113.421 E18.62088
G1 X34.015 Y112.499 E18.69895
G1 X33.429 Y111.972 E18.73819
G1 X32.380 Y110.807 E18.81625
G1 X31.916 Y110.169 E18.85551
G1 X31.132 Y108.811 E18.93358
G1 X30.812 Y108.091 E18.97283
G1 X30.360 Y106.699 E19.04569
G1 X30.163 Y105.829 E19.09013
G1 X29.999 Y104.269 E19.16819
G1 X29.979 Y103.875 E19.18784
G1 X29.979 Y76.125 E20.56949
G1 X29.999 Y75.731 E20.58914
G1 X30.163 Y74.171 E20.66721
G1 X30.327 Y73.400 E20.70646
G1 X30.812 Y71.909 E20.78453
G1 X31.132 Y71.189 E20.82378
G1 X31.916 Y69.831 E20.90185
G1 X32.380 Y69.193 E20.94110
G1 X33.429 Y68.028 E21.01917
G1 X34.015 Y67.500 E21.05842
G1 X35.283 Y66.579 E21.13649
G1 X35.914 Y66.215 E21.17275
G1 X36.123 Y66.537 F9000.000
G1 X37.555 Y65.899 E21.25082 F600.000
G1 X38.228 Y65.680 E21.28606
G1 X39.762 Y65.354 E21.36412
G1 X40.289 Y65.285 E21.39058
G1 X41.250 Y65.239 E21.43848
G1 X146.250 Y65.239 E26.66633
G1 X147.835 Y65.633 E26.74766
G1 X149.052 Y66.724 E26.82900 F600.000
G1 X149.636 Y68.625 E26.92801
G1 X149.636 Y83.625 E27.67485
G1 X149.242 Y85.210 E27.75618
G1 X147.425 Y86.800 E27.87638
G1 X72.425 Y114.550 E31.85796
G1 X71.250 Y114.761 E31.91739
G1 X41.250 Y114.761 E33.41106
G1 X40.289 Y114.715 E33.45897
G1 X39.762 Y114.646 E33.48541
G1 X38.229 Y114.320 E33.56348
G1 X37.555 Y114.101 E33.59872
G1 X36.123 Y113.463 E33.67679
G1 X35.510 Y113.109 E33.71203
G1 X34.241 Y112.188 E33.79010
G1 X33.716 Y111.714 E33.82533
G1 X32.666 Y110.549 E33.90339
G1 X32.250 Y109.976 E33.93864
G1 X31.466 Y108.618 E34.01670
G1 X31.178 Y107.972 E34.05194
G1 X30.694 Y106.481 E34.13001
G1 X30.547 Y105.788 E34.16525
G1 X30.383 Y104.229 E34.24332
G1 X30.364 Y103.875 E34.26096
G1 X30.364 Y76.125 E35.64260
G1 X30.383 Y75.771 E35.66025
G1 X30.547 Y74.212 E35.73831
G1 X30.694 Y73.519 E35.77356
G1 X31.179 Y72.028 E35.85162
G1 X31.466 Y71.382 E35.88686
G1 X32.250 Y70.024 E35.96493
G1 X32.666 Y69.451 E36.00016
G1 X33.716 Y68.286 E36.07823
G1 X34.242 Y67.812 E36.11347
G1 X35.510 Y66.891 E36.19154
G1 X36.071 Y66.567 E36.22379
G1 E30.22379 F1800.00000
G92 E0
G1 X43.086 Y106.535 F9000.000
G1 E6.00000 F1800.00000
G1 X41.640 Y107.083 E6.07701 F600.000
G1 X40.104 Y106.897 E6.15403
G1 X38.831 Y106.018 E6.23104
G1 X38.112 Y104.648 E6.30806
G1 X38.112 Y103.102 E6.38507
G1 X38.831 Y101.732 E6.46209
G1 X40.104 Y100.853 E6.53910 F600.000
G1 X41.640 Y100.667 E6.61611
G1 X43.086 Y101.215 E6.69313
G1 X44.112 Y102.373 E6.77014
G1 X44.482 Y103.875 E6.84716
G1 X44.112 Y105.377 E6.92417
G1 X43.126 Y106.490 E6.99819
G1 X71.025 Y111.150 F9000.000
G1 X41.475 Y111.150 E8.46946 F600.000
G1 X41.475 Y111.109 E8.47151
G1 X40.490 Y111.109 E8.52056
G1 X39.002 Y110.793 E8.59627
G1 X37.613 Y110.174 E8.67198
G1 X36.383 Y109.280 E8.74770
G1 X35.365 Y108.150 E8.82341
G1 X34.605 Y106.834 E8.89912
G1 X34.135 Y105.387 E8.97483
G1 X33.976 Y103.875 E9.05054
G1 X34.135 Y102.363 E9.12625
G1 X34.605 Y100.916 E9.20196
G1 X35.325 Y99.670 E9.27365
G1 X35.365 Y99.600 E9.27767
G1 X36.383 Y98.470 E9.35338
G1 X37.613 Y97.576 E9.42909
G1 X39.002 Y96.957 E9.50480
G1 X40.490 Y96.641 E9.58051
G1 X41.475 Y96.641 E9.62957
G1 X41.475 Y96.600 E9.63162
G1 X71.025 Y96.600 E11.10288
G1 X71.025 Y111.090 E11.82433
G1 X70.741 Y97.087 F9000.000
G1 X70.538 Y96.884 E11.83872 F600.000
G1 X69.990 Y96.884 E11.86611
G1 X70.741 Y97.635 E11.91923
G1 X70.741 Y98.183 E11.94661
G1 X69.442 Y96.884 E12.03846
G1 X68.895 Y96.884 E12.06585
G1 X70.741 Y98.730 E12.19642
G1 X70.741 Y99.278 E12.22381
G1 X68.347 Y96.884 E12.39311
G1 X67.799 Y96.884 E12.42049
G1 X70.741 Y99.826 E12.62852
G1 X70.741 Y100.373 E12.65590
G1 X67.252 Y96.884 E12.90265
G1 X66.704 Y96.884 E12.93004
G1 X70.741 Y100.921 E13.21552
G1 X70.741 Y101.469 E13.24290
G1 X66.156 Y96.884 E13.56711
G1 X65.609 Y96.884 E13.59449
G1 X70.741 Y102.016 E13.95742
G1 X70.741 Y102.564 E13.98481
G1 X65.061 Y96.884 E14.38646
G1 X64.513 Y96.884 E14.41385
G1 X70.741 Y103.112 E14.85423
G1 X70.741 Y103.659 E14.88161
G1 X63.966 Y96.884 E15.36072
G1 X63.418 Y96.884 E15.38811
G1 X70.741 Y104.207 E15.90594
G1 X70.741 Y104.755 E15.93333
G1 X62.870 Y96.884 E16.48989
G1 X62.323 Y96.884 E16.51727
G1 X70.741 Y105.302 E17.11256
G1 X70.741 Y105.850 E17.13995
G1 X61.775 Y96.884 E17.77396
G1 X61.227 Y96.884 E17.80134
G1 X70.741 Y106.398 E18.47408
G1 X70.741 Y106.945 E18.50147
G1 X60.680 Y96.884 E19.21293
G1 X60.132 Y96.884 E19.24032
G1 X70.741 Y107.493 E19.99051
G1 X70.741 Y108.041 E20.01789
G1 X59.584 Y96.884 E20.80681
G1 X59.037 Y96.884 E20.83419
G1 X70.741 Y108.588 E21.66184
G1 X70.741 Y109.136 E21.68922
G1 X58.489 Y96.884 E22.55559
G1 X57.941 Y96.884 E22.58298
G1 X70.741 Y109.684 E23.48807
G1 X70.741 Y110.231 E23.51546
G1 X57.394 Y96.884 E24.45928
G1 X56.846 Y96.884 E24.48666
G1 X70.741 Y110.779 E25.46921
G1 X70.281 Y110.866 E25.49265
G1 X56.298 Y96.884 E26.48136
G1 X55.751 Y96.884 E26.50874
G1 X69.733 Y110.866 E27.49746
G1 X69.185 Y110.866 E27.52484
G1 X55.203 Y96.884 E28.51356
G1 X54.655 Y96.884 E28.54094
G1 X68.638 Y110.866 E29.52965
G1 X68.090 Y110.866 E29.55704
G1 X54.108 Y96.884 E30.54575
G1 X53.560 Y96.884 E30.57314
G1 X67.542 Y110.866 E31.56185
G1 X66.995 Y110.866 E31.58923
G1 X53.012 Y96.884 E32.57795
G1 X52.465 Y96.884 E32.60533
G1 X66.447 Y110.866 E33.59405
G1 X65.899 Y110.866 E33.62143
G1 X51.917 Y96.884 E34.61014
G1 X51.369 Y96.884 E34.63753
G1 X65.352 Y110.866 E35.62624
G1 X64.804 Y110.866 E35.65363
G1 X50.822 Y96.884 E36.64234
G1 X50.274 Y96.884 E36.66972
G1 X64.256 Y110.866 E37.65844
G1 X63.709 Y110.866 E37.68582
G1 X49.726 Y96.884 E38.67454
G1 X49.179 Y96.884 E38.70192
G1 X63.161 Y110.866 E39.69063
G1 X62.613 Y110.866 E39.71802
G1 X48.631 Y96.884 E40.70673
G1 X48.083 Y96.884 E40.73412
G1 X62.066 Y110.866 E41.72283
G1 X61.518 Y110.866 E41.75021
G1 X47.536 Y96.884 E42.73893
G1 X46.988 Y96.884 E42.76631
G1 X60.970 Y110.866 E43.75503
G1 X60.423 Y110.866 E43.78241
G1 X46.440 Y96.884 E44.77112
G1 X45.893 Y96.884 E44.79851
G1 X59.875 Y110.866 E45.78722
G1 X59.327 Y110.866 E45.81460
G1 X45.345 Y96.884 E46.80332
G1 X44.797 Y96.884 E46.83070
G1 X58.780 Y110.866 E47.81942
G1 X58.232 Y110.866 E47.84680
G1 X44.250 Y96.884 E48.83551
G1 X43.702 Y96.884 E48.86290
G1 X57.684 Y110.866 E49.85161
G1 X57.137 Y110.866 E49.87900
G1 X43.154 Y96.884 E50.86771
G1 X42.607 Y96.884 E50.89509
G1 X56.589 Y110.866 E51.88381
G1 X56.041 Y110.866 E51.91119
G1 X42.059 Y96.884 E52.89991
G1 X41.552 Y96.925 E52.92532
G1 X55.494 Y110.866 E53.91113
G1 X54.946 Y110.866 E53.93851
G1 X41.005 Y96.925 E54.92432
G1 X40.457 Y96.925 E54.95170
G1 X54.398 Y110.866 E55.93751
G1 X53.851 Y110.866 E55.96489
G1 X40.004 Y97.019 E56.94405
G1 X39.552 Y97.115 E56.96714
G1 X53.303 Y110.866 E57.93950
G1 X52.755 Y110.866 E57.96689
G1 X44.480 Y102.591 E58.55205
G1 X44.659 Y103.318 E58.58948
G1 X52.208 Y110.866 E59.12324
G1 X51.660 Y110.866 E59.15063
G1 X44.739 Y103.945 E59.64003
G1 X44.631 Y104.384 E59.66265
G1 X51.112 Y110.866 E60.12099
G1 X50.565 Y110.866 E60.14837
G1 X44.522 Y104.824 E60.57563
G1 X44.414 Y105.263 E60.59826
G1 X50.017 Y110.866 E60.99446
G1 X49.469 Y110.866 E61.02184
G1 X44.227 Y105.624 E61.39254
G1 X43.970 Y105.914 E61.41194
G1 X48.922 Y110.866 E61.76211
G1 X48.374 Y110.866 E61.78949
G1 X43.712 Y106.205 E62.11913
G1 X43.455 Y106.495 E62.13852
G1 X47.826 Y110.866 E62.44762
G1 X47.279 Y110.866 E62.47501
G1 X43.187 Y106.774 E62.76434
G1 X42.790 Y106.925 E62.78558
G1 X46.731 Y110.866 E63.06426
G1 X46.183 Y110.866 E63.09165
G1 X42.393 Y107.076 E63.35968
G1 X41.996 Y107.226 E63.38092
G1 X45.636 Y110.866 E63.63831
G1 X45.088 Y110.866 E63.66569
G1 X41.596 Y107.374 E63.91261
G1 X40.973 Y107.299 E63.94400
G1 X44.541 Y110.866 E64.19627
G1 X43.993 Y110.866 E64.22365
G1 X40.350 Y107.223 E64.48127
G1 X39.428 Y106.849 F9000.000
G1 X43.445 Y110.866 E64.76533 F600.000
G1 X42.898 Y110.866 E64.79271
G1 X34.411 Y102.379 E65.39283
G1 X34.541 Y101.962 E65.41468
G1 X38.302 Y105.723 E65.68063
G1 X37.828 Y104.702 F9000.000
G1 X34.676 Y101.549 E65.90356 F600.000
G1 X34.810 Y101.136 E65.92529
G1 X37.828 Y104.154 E66.13873
G1 X37.828 Y103.606 E66.16612
G1 X34.986 Y100.764 E66.36709
G1 X35.187 Y100.417 E66.38714
G1 X37.840 Y103.071 E66.57478
G1 X38.029 Y102.711 E66.59507
G1 X35.387 Y100.070 E66.78186
G1 X35.589 Y99.724 E66.80188
G1 X38.217 Y102.352 E66.98769
G1 X38.406 Y101.993 E67.00797
G1 X35.849 Y99.436 E67.18877
G1 X36.108 Y99.148 E67.20816
G1 X38.594 Y101.634 E67.38394
G1 X38.892 Y101.384 E67.40338
G1 X36.372 Y98.864 E67.58155
G1 X36.646 Y98.590 E67.60091
G1 X39.216 Y101.160 E67.78263
G1 X39.540 Y100.937 E67.80232
G1 X36.962 Y98.359 E67.98457
G1 X37.280 Y98.129 E68.00418
G1 X39.864 Y100.713 E68.18692
G1 X40.257 Y100.558 E68.20803
G1 X37.597 Y97.898 E68.39612
G1 X37.953 Y97.706 E68.41633
G1 X40.745 Y100.499 E68.61379
G1 X41.234 Y100.440 E68.63838
G1 X38.332 Y97.538 E68.84358
G1 X38.711 Y97.369 E68.86432
G1 X41.722 Y100.380 E69.07725
G1 X42.568 Y100.679 F9000.000
G1 X39.100 Y97.211 E69.32246 F600.000
G1 X34.359 Y102.875 F9000.000
G1 X42.350 Y110.866 E69.88753 F600.000
G1 X41.761 Y110.825 E69.91704
G1 X34.306 Y103.370 E70.44417
G1 X34.272 Y103.883 E70.46986
G1 X41.213 Y110.825 E70.96073
G1 X40.666 Y110.825 E70.98812
G1 X34.336 Y104.495 E71.43572
G1 X34.400 Y105.107 E71.46648
G1 X39.985 Y110.692 E71.86142
G1 X39.290 Y110.545 E71.89697
G1 X34.624 Y105.879 E72.22690
G1 X34.940 Y106.742 F9000.000
G1 X38.341 Y110.144 E72.46741 F600.000
G1 X36.814 Y109.164 F9000.000
G1 X36.291 Y108.641 E72.50444 F600.000
G1 E66.50444 F1800.00000
G92 E0
G1 X43.086 Y78.785 F9000.000
G1 E6.00000 F1800.00000
G1 X41.640 Y79.333 E6.07701 F600.000
G1 X40.104 Y79.147 E6.15403
G1 X38.831 Y78.268 E6.23104
G1 X38.112 Y76.898 E6.30806
G1 X38.112 Y75.352 E6.38507
G1 X38.831 Y73.982 E6.46208
G1 X40.104 Y73.103 E6.53910
G1 X41.489 Y72.935 E6.60859
G1 X41.640 Y72.917 E6.61611 F600.000
G1 X43.086 Y73.465 E6.69313
G1 X44.112 Y74.623 E6.77014
G1 X44.482 Y76.125 E6.84715
G1 X44.112 Y77.627 E6.92417
G1 X43.126 Y78.740 E6.99819
G1 X146.025 Y83.400 F9000.000
G1 X41.475 Y83.400 E12.20363 F600.000
G1 X41.475 Y83.359 E12.20568
G1 X40.490 Y83.359 E12.25474
G1 X39.002 Y83.043 E12.33045
G1 X37.613 Y82.424 E12.40616
G1 X36.383 Y81.530 E12.48187
G1 X35.365 Y80.400 E12.55758
G1 X34.605 Y79.084 E12.63329
G1 X34.135 Y77.637 E12.70900
G1 X33.976 Y76.125 E12.78471
G1 X34.135 Y74.613 E12.86042
G1 X34.605 Y73.166 E12.93614
G1 X35.365 Y71.850 E13.01185
G1 X36.329 Y70.780 E13.08353
G1 X36.383 Y70.720 E13.08756
G1 X37.613 Y69.826 E13.16327
G1 X39.002 Y69.207 E13.23898
G1 X40.490 Y68.891 E13.31469
G1 X41.475 Y68.891 E13.36375
G1 X41.475 Y68.850 E13.36579
G1 X146.025 Y68.850 E18.57123
G1 X146.025 Y83.340 E19.29267
G1 X145.741 Y69.337 F9000.000
G1 X145.538 Y69.134 E19.30707 F600.000
G1 X144.990 Y69.134 E19.33444
G1 X145.741 Y69.885 E19.38754
G1 X145.741 Y70.432 E19.41491
G1 X144.443 Y69.134 E19.50672
G1 X143.895 Y69.134 E19.53409
G1 X145.741 Y70.980 E19.66460
G1 X145.741 Y71.528 E19.69197
G1 X143.347 Y69.134 E19.86119
G1 X142.800 Y69.134 E19.88856
G1 X145.741 Y72.075 E20.09649
G1 X145.741 Y72.623 E20.12386
G1 X142.252 Y69.134 E20.37050
G1 X141.705 Y69.134 E20.39787
G1 X145.741 Y73.170 E20.68321
G1 X145.741 Y73.718 E20.71058
G1 X141.157 Y69.134 E21.03463
G1 X140.610 Y69.134 E21.06200
G1 X145.741 Y74.265 E21.42475
G1 X145.741 Y74.813 E21.45212
G1 X140.062 Y69.134 E21.85358
G1 X139.515 Y69.134 E21.88095
G1 X145.741 Y75.360 E22.32112
G1 X145.741 Y75.908 E22.34849
G1 X138.967 Y69.134 E22.82737
G1 X138.420 Y69.134 E22.85474
G1 X145.741 Y76.455 E23.37232
G1 X145.741 Y77.003 E23.39969
G1 X137.872 Y69.134 E23.95599
G1 X137.325 Y69.134 E23.98336
G1 X145.741 Y77.550 E24.57835
G1 X145.741 Y78.098 E24.60572
G1 X136.777 Y69.134 E25.23943
G1 X136.230 Y69.134 E25.26680
G1 X145.741 Y78.645 E25.93921
G1 X145.741 Y79.193 E25.96658
G1 X135.682 Y69.134 E26.67770
G1 X135.135 Y69.134 E26.70507
G1 X145.741 Y79.740 E27.45489
G1 X145.741 Y80.288 E27.48226
G1 X134.587 Y69.134 E28.27079
G1 X134.039 Y69.134 E28.29816
G1 X145.741 Y80.836 E29.12540
G1 X145.741 Y81.383 E29.15277
G1 X133.492 Y69.134 E30.01872
G1 X132.944 Y69.134 E30.04609
G1 X145.741 Y81.931 E30.95074
G1 X145.741 Y82.478 E30.97811
G1 X132.397 Y69.134 E31.92147
G1 X131.849 Y69.134 E31.94884
G1 X145.741 Y83.026 E32.93091
G1 X145.284 Y83.116 E32.95419
G1 X131.302 Y69.134 E33.94266
G1 X130.754 Y69.134 E33.97003
G1 X144.737 Y83.116 E34.95850
G1 X144.189 Y83.116 E34.98587
G1 X130.207 Y69.134 E35.97434
G1 X129.659 Y69.134 E36.00171
G1 X143.642 Y83.116 E36.99018
G1 X143.094 Y83.116 E37.01755
G1 X129.112 Y69.134 E38.00602
G1 X128.564 Y69.134 E38.03339
G1 X142.547 Y83.116 E39.02186
G1 X141.999 Y83.116 E39.04923
G1 X128.017 Y69.134 E40.03770
G1 X127.469 Y69.134 E40.06507
G1 X141.452 Y83.116 E41.05354
G1 X140.904 Y83.116 E41.08091
G1 X126.922 Y69.134 E42.06938
G1 X126.374 Y69.134 E42.09675
G1 X140.356 Y83.116 E43.08522
G1 X139.809 Y83.116 E43.11259
G1 X125.827 Y69.134 E44.10106
G1 X125.279 Y69.134 E44.12843
G1 X139.261 Y83.116 E45.11690
G1 X138.714 Y83.116 E45.14427
G1 X124.731 Y69.134 E46.13274
G1 X124.184 Y69.134 E46.16011
G1 X138.166 Y83.116 E47.14858
G1 X137.619 Y83.116 E47.17595
G1 X123.636 Y69.134 E48.16442
G1 X123.089 Y69.134 E48.19179
G1 X137.071 Y83.116 E49.18026
G1 X136.524 Y83.116 E49.20763
G1 X122.541 Y69.134 E50.19610
G1 X121.994 Y69.134 E50.22347
G1 X135.976 Y83.116 E51.21194
G1 X135.429 Y83.116 E51.23931
G1 X121.446 Y69.134 E52.22778
G1 X120.899 Y69.134 E52.25515
G1 X134.881 Y83.116 E53.24362
G1 X134.334 Y83.116 E53.27099
G1 X120.351 Y69.134 E54.25946
G1 X119.804 Y69.134 E54.28683
G1 X133.786 Y83.116 E55.27530
G1 X133.239 Y83.116 E55.30267
G1 X119.256 Y69.134 E56.29114
G1 X118.709 Y69.134 E56.31851
G1 X132.691 Y83.116 E57.30698
G1 X132.144 Y83.116 E57.33435
G1 X118.161 Y69.134 E58.32282
G1 X117.614 Y69.134 E58.35019
G1 X131.596 Y83.116 E59.33866
G1 X131.048 Y83.116 E59.36603
G1 X117.066 Y69.134 E60.35450
G1 X116.519 Y69.134 E60.38187
G1 X130.501 Y83.116 E61.37034
G1 X129.953 Y83.116 E61.39771
G1 X115.971 Y69.134 E62.38618
G1 X115.424 Y69.134 E62.41355
G1 X129.406 Y83.116 E63.40202
G1 X128.858 Y83.116 E63.42939
G1 X114.876 Y69.134 E64.41786
G1 X114.328 Y69.134 E64.44523
G1 X128.311 Y83.116 E65.43370
G1 X127.763 Y83.116 E65.46107
G1 X113.781 Y69.134 E66.44954
G1 X113.233 Y69.134 E66.47691
G1 X127.216 Y83.116 E67.46538
G1 X126.668 Y83.116 E67.49275
G1 X112.686 Y69.134 E68.48122
G1 X112.138 Y69.134 E68.50859
G1 X126.121 Y83.116 E69.49706
G1 X125.573 Y83.116 E69.52443
G1 X111.591 Y69.134 E70.51290
G1 X111.043 Y69.134 E70.54027
G1 X125.026 Y83.116 E71.52874
