; generated by Slic3r 1.2.9 on 2017-05-28 at 11:43:42

; external perimeters extrusion width = 0.40mm
; perimeters extrusion width = 0.62mm
; infill extrusion width = 0.33mm
; solid infill extrusion width = 0.62mm
; top infill extrusion width = 0.20mm

M106 S256; Turn on fan to 100% power
M104 S140; turn on extruder temperature at S value
M140 S60; turn on bed temperature at S value
G28; home all axes
M84; disable motors
G1 Z15 F15000; have Z move to 20mm at 15000 mm/min
M190 S55; turn on bed temperature at S value and wait
M140 S55; turn on bed temperature at S value (printing temperature)
M109 S200; turn on extruder temperature at S value and wait (printing temperature)
M104 S200; turn on extruder temperature at S value
G1 Z0 F12000; move Z back to home
G21 ; set units to millimeters
G90 ; use absolute coordinates
M82 ; use absolute distances for extrusion
G92 E0
M106 S255
;Layer change
G1 E-6.00000 F1800.00000
G92 E0
G1 Z0.300 F9000.000
G1 X53.244 Y74.714 F9000.000
G1 E6.00000 F1800.00000
G1 X53.585 Y74.488 E6.02062 F600.000
G1 X54.123 Y74.182 E6.05176
G1 X54.684 Y73.923 E6.08291
G1 X55.170 Y73.742 E6.10906
G1 X55.562 Y73.624 E6.12967
G1 X56.165 Y73.486 E6.16083
G1 X56.778 Y73.400 E6.19198
G1 X57.370 Y73.366 E6.22188
G1 X127.500 Y73.364 E9.75453
G1 X128.810 Y73.756 E9.82339
G1 X129.689 Y74.802 E9.89224 F600.000
G1 X129.886 Y75.750 E9.94100
G1 X129.886 Y85.750 E10.44473
G1 X129.494 Y87.060 E10.51358
G1 X128.328 Y87.987 E10.58865
G1 X78.328 Y106.487 E13.27417
G1 X77.500 Y106.636 E13.31654
G1 X57.500 Y106.636 E14.32400
G1 X56.678 Y106.589 E14.36546
G1 X55.862 Y106.451 E14.40715
G1 X55.170 Y106.258 E14.44333
G1 X54.401 Y105.954 E14.48501
G1 X53.851 Y105.671 E14.51616
G1 X53.326 Y105.343 E14.54734
G1 X52.754 Y104.908 E14.58352
G1 X52.151 Y104.342 E14.62521
G1 X51.681 Y103.798 E14.66140
G1 X51.376 Y103.378 E14.68754
G1 X51.052 Y102.851 E14.71870
G1 X50.863 Y102.489 E14.73930
G1 X50.615 Y101.922 E14.77045
G1 X50.444 Y101.432 E14.79659
G1 X50.287 Y100.834 E14.82774
G1 X50.210 Y100.432 E14.84836
G1 X50.137 Y99.818 E14.87951
G1 X50.114 Y99.250 E14.90816
G1 X50.123 Y80.391 E15.85815
G1 X50.210 Y79.568 E15.89984
G1 X50.359 Y78.865 E15.93603
G1 X50.615 Y78.078 E15.97773
G1 X50.774 Y77.701 E15.99834
G1 X51.004 Y77.236 E16.02446
G1 X51.209 Y76.882 E16.04508
G1 X51.490 Y76.458 E16.07068
G1 X51.942 Y75.887 E16.10739
G1 X52.521 Y75.295 E16.14908
G1 X52.831 Y75.028 E16.16969
G1 X53.196 Y74.750 E16.19280
G1 E10.19280 F1800.00000
G92 E0
G1 X76.613 Y102.129 F9000.000
G1 E6.00000 F1800.00000
G1 X74.744 Y102.129 E6.09413 F600.000
G1 X74.744 Y100.113 E6.19569
G1 X73.375 Y100.113 E6.26469
G1 X73.375 Y102.129 E6.36624
G1 X65.768 Y102.129 E6.74940
G1 X64.329 Y100.639 E6.85373
G1 X64.329 Y102.129 E6.92875
G1 X62.460 Y102.129 E7.02288
G1 X62.460 Y96.139 E7.32458
G1 X64.329 Y96.139 E7.41871
G1 X64.329 Y98.115 E7.51822
G1 X65.972 Y96.139 E7.64766
G1 X73.375 Y96.139 E8.02054
G1 X73.375 Y98.349 E8.13184
G1 X74.744 Y98.349 E8.20084
G1 X74.744 Y96.139 E8.31214
G1 X76.613 Y96.139 E8.40627
G1 X76.613 Y102.069 E8.70495
G1 X76.227 Y101.743 F9000.000
G1 X75.130 Y101.743 E8.76023 F600.000
G1 X75.130 Y99.727 E8.86178
G1 X72.989 Y99.727 E8.96963
G1 X72.989 Y101.743 E9.07118
G1 X71.891 Y101.743 E9.12647
G1 X71.891 Y96.525 E9.38932
G1 X72.989 Y96.525 E9.44460
G1 X72.989 Y98.735 E9.55590
G1 X75.130 Y98.735 E9.66375
G1 X75.130 Y96.525 E9.77505
G1 X76.227 Y96.525 E9.83033
G1 X76.227 Y101.683 E10.09016
G1 X76.227 Y102.143 F9000.000
G1 X71.450 Y101.743 F9000.000
G1 X67.368 Y101.743 E10.29575 F600.000
G1 X67.368 Y96.738 E10.54787
G1 X65.057 Y99.436 E10.72683
G1 X67.327 Y101.743 E10.88984
G1 X65.932 Y101.743 E10.96014
G1 X63.943 Y99.686 E11.10428
G1 X63.943 Y101.743 E11.20792
G1 X62.845 Y101.743 E11.26320
G1 X62.845 Y96.525 E11.52605
G1 X63.943 Y96.525 E11.58133
G1 X63.943 Y98.466 E11.67909
G1 X64.308 Y98.742 E11.70217
G1 X66.153 Y96.525 E11.84744
G1 X71.589 Y96.525 E12.12127
G1 X71.589 Y97.504 E12.17058
G1 X68.466 Y97.504 E12.32790
G1 X68.466 Y98.723 E12.38930
G1 X71.246 Y98.723 E12.52934
G1 X71.246 Y99.695 E12.57830
G1 X68.466 Y99.695 E12.71834
G1 X68.466 Y100.764 E12.77219
G1 X71.450 Y100.764 E12.92250
G1 X71.450 Y101.683 E12.96879
G1 X71.450 Y102.143 F9000.000
G1 E6.96879 F1800.00000
G92 E0
G1 X60.456 Y99.766 F9000.000
G1 E6.00000 F1800.00000
G1 X60.291 Y100.355 E6.03084 F600.000
G1 X60.005 Y100.902 E6.06193
G1 X59.676 Y101.315 E6.08851
G1 X59.213 Y101.715 E6.11934
G1 X58.672 Y102.012 E6.15040
G1 X58.175 Y102.174 E6.17675
G1 X57.563 Y102.251 E6.20783
G1 X56.938 Y102.199 E6.23944
G1 X56.337 Y102.017 E6.27103
G1 X55.800 Y101.723 E6.30187
G1 X55.394 Y101.387 E6.32845
G1 X55.007 Y100.919 E6.35903
G1 X54.755 Y100.461 E6.38538
G1 X54.567 Y99.883 E6.41596
G1 X54.501 Y99.360 E6.44254
G1 X54.540 Y98.749 E6.47337
G1 X54.709 Y98.145 E6.50496
G1 X54.995 Y97.598 E6.53604
G1 X55.320 Y97.188 E6.56239
G1 X55.787 Y96.785 E6.59347
G1 X56.328 Y96.488 E6.62455
G1 X56.825 Y96.326 E6.65090
G1 X57.437 Y96.249 E6.68198 F600.000
G1 X58.062 Y96.301 E6.71359
G1 X58.663 Y96.483 E6.74520
G1 X59.204 Y96.780 E6.77628
G1 X59.607 Y97.113 E6.80263
G1 X60.000 Y97.589 E6.83371
G1 X60.291 Y98.145 E6.86532
G1 X60.457 Y98.739 E6.89640
G1 X60.500 Y99.251 E6.92225
G1 X60.461 Y99.706 E6.94528
G1 X60.075 Y99.697 F9000.000
G1 X59.930 Y100.213 E6.97225 F600.000
G1 X59.680 Y100.691 E6.99946
G1 X59.397 Y101.047 E7.02236
G1 X58.992 Y101.397 E7.04933
G1 X58.519 Y101.657 E7.07652
G1 X58.090 Y101.796 E7.09919
G1 X57.555 Y101.863 E7.12639
G1 X57.010 Y101.818 E7.15392
G1 X56.487 Y101.660 E7.18143
G1 X56.018 Y101.402 E7.20841
G1 X55.667 Y101.113 E7.23131
G1 X55.327 Y100.702 E7.25820
G1 X55.110 Y100.307 E7.28088
G1 X54.945 Y99.799 E7.30778
G1 X54.889 Y99.348 E7.33067
G1 X54.923 Y98.814 E7.35765
G1 X55.070 Y98.288 E7.38516
G1 X55.320 Y97.809 E7.41236
G1 X55.599 Y97.456 E7.43504
G1 X56.008 Y97.104 E7.46224
G1 X56.481 Y96.843 E7.48944
G1 X56.910 Y96.704 E7.51212
G1 X57.445 Y96.637 E7.53932 F600.000
G1 X57.990 Y96.682 E7.56685
G1 X58.513 Y96.840 E7.59437
G1 X58.986 Y97.100 E7.62158
G1 X59.333 Y97.387 E7.64425
G1 X59.677 Y97.803 E7.67145
G1 X59.930 Y98.288 E7.69898
G1 X60.076 Y98.808 E7.72618
G1 X60.113 Y99.250 E7.74855
G1 X60.080 Y99.637 E7.76811
G1 X59.694 Y99.628 F9000.000
G1 X59.570 Y100.070 E7.79121 F600.000
G1 X59.355 Y100.480 E7.81454
G1 X59.118 Y100.779 E7.83376
G1 X58.770 Y101.078 E7.85686
G1 X58.365 Y101.301 E7.88018
G1 X58.006 Y101.418 E7.89919
G1 X57.547 Y101.476 E7.92251
G1 X57.083 Y101.437 E7.94595
G1 X56.637 Y101.302 E7.96939
G1 X56.235 Y101.082 E7.99250
G1 X55.941 Y100.839 E8.01172
G1 X55.647 Y100.484 E8.03493
G1 X55.465 Y100.153 E8.05393
G1 X55.323 Y99.715 E8.07715
G1 X55.276 Y99.336 E8.09636
G1 X55.305 Y98.879 E8.11947
G1 X55.430 Y98.430 E8.14291
G1 X55.645 Y98.020 E8.16623
G1 X55.879 Y97.724 E8.18524
G1 X56.229 Y97.422 E8.20856
G1 X56.635 Y97.199 E8.23189
G1 X56.994 Y97.082 E8.25089
G1 X57.453 Y97.024 E8.27421 F600.000
G1 X57.917 Y97.063 E8.29766
G1 X58.363 Y97.198 E8.32110
G1 X58.768 Y97.421 E8.34443
G1 X59.059 Y97.661 E8.36343
G1 X59.354 Y98.018 E8.38675
G1 X59.570 Y98.430 E8.41020
G1 X59.694 Y98.876 E8.43352
G1 X59.726 Y99.250 E8.45241
G1 X59.699 Y99.568 E8.46849
G1 X59.991 Y99.896 F9000.000
G1 X62.074 Y102.514 F9000.000
G1 X64.714 Y102.514 E8.60147 F600.000
G1 X64.714 Y101.593 E8.64786
G1 X65.604 Y102.514 E8.71238
G1 X73.760 Y102.514 E9.12321
G1 X73.760 Y100.498 E9.22477
G1 X74.359 Y100.498 E9.25492
G1 X74.359 Y102.514 E9.35647
G1 X76.504 Y102.514 E9.46452
G1 X76.504 Y103.254 E9.50178
G1 X57.526 Y103.254 E10.45774
G1 X57.087 Y103.231 E10.47989
G1 X56.576 Y103.144 E10.50600
G1 X56.273 Y103.060 E10.52183
G1 X55.786 Y102.867 E10.54820
G1 X55.499 Y102.717 E10.56456
G1 X55.216 Y102.537 E10.58145
G1 X54.957 Y102.341 E10.59781
G1 X54.583 Y101.989 E10.62366
G1 X54.256 Y101.594 E10.64950
G1 X54.076 Y101.324 E10.66586
G1 X53.920 Y101.039 E10.68222
G1 X53.717 Y100.556 E10.70859
G1 X53.623 Y100.245 E10.72495
G1 X53.555 Y99.928 E10.74131
G1 X53.501 Y99.407 E10.76768
G1 X53.501 Y99.093 E10.78351
G1 X53.555 Y98.572 E10.80988
G1 X53.623 Y98.255 E10.82624
G1 X53.720 Y97.934 E10.84313
G1 X53.839 Y97.632 E10.85949
G1 X54.077 Y97.177 E10.88533
G1 X54.370 Y96.756 E10.91118
G1 X54.582 Y96.510 E10.92754
G1 X54.814 Y96.283 E10.94390
G1 X55.224 Y95.957 E10.97027
G1 X55.499 Y95.783 E10.98663
G1 X55.786 Y95.633 E11.00299
G1 X56.273 Y95.440 E11.02936
G1 X56.586 Y95.353 E11.04572
G1 X56.915 Y95.290 E11.06261
G1 X57.254 Y95.254 E11.07976
G1 X76.504 Y95.246 E12.04943
G1 X76.504 Y95.754 E12.07500
G1 X74.359 Y95.754 E12.18305
G1 X74.359 Y97.963 E12.29435
G1 X73.760 Y97.963 E12.32450
G1 X73.760 Y95.754 E12.43580
G1 X65.791 Y95.754 E12.83721
G1 X64.714 Y97.048 E12.92205
G1 X64.714 Y95.754 E12.98726
G1 X62.074 Y95.754 E13.12025
G1 X62.074 Y102.454 E13.45777
G1 E7.45777 F1800.00000
G92 E0
G1 X66.104 Y99.400 F9000.000
G1 E6.00000 F1800.00000
G1 X66.597 Y98.824 E6.03821 F600.000
G1 X66.597 Y99.902 E6.09250
G1 X66.146 Y99.443 E6.12491
G1 E0.12491 F1800.00000
G92 E0
G1 X76.889 Y103.639 F9000.000
G1 E6.00000 F1800.00000
G1 X57.516 Y103.639 E6.97590 F600.000
G1 X57.044 Y103.615 E6.99968
G1 X56.492 Y103.521 E7.02793
G1 X56.150 Y103.426 E7.04579
G1 X55.626 Y103.218 E7.07420
G1 X55.306 Y103.051 E7.09239
G1 X54.995 Y102.854 E7.11091
G1 X54.708 Y102.636 E7.12910
G1 X54.301 Y102.254 E7.15718
G1 X53.946 Y101.824 E7.18527
G1 X53.746 Y101.524 E7.20346
G1 X53.572 Y101.207 E7.22165
G1 X53.353 Y100.687 E7.25006
G1 X53.249 Y100.341 E7.26825
G1 X53.174 Y99.988 E7.28644
G1 X53.115 Y99.427 E7.31485
G1 X53.115 Y99.073 E7.33272
G1 X53.174 Y98.512 E7.36112
G1 X53.249 Y98.159 E7.37932
G1 X53.355 Y97.807 E7.39783
G1 X53.488 Y97.471 E7.41603
G1 X53.747 Y96.977 E7.44411
G1 X54.065 Y96.519 E7.47219
G1 X54.301 Y96.246 E7.49038
G1 X54.559 Y95.993 E7.50858
G1 X55.001 Y95.643 E7.53698
G1 X55.306 Y95.449 E7.55518
G1 X55.626 Y95.282 E7.57337
G1 X56.150 Y95.074 E7.60177
G1 X56.498 Y94.977 E7.61997
G1 X56.859 Y94.908 E7.63848
G1 X57.510 Y94.861 E7.67135
G1 X76.889 Y94.861 E8.64757
G1 X76.889 Y103.579 E9.08676
G1 E3.08676 F1800.00000
G92 E0
G1 X71.506 Y100.378 F9000.000
G1 E6.00000 F1800.00000
G1 X68.852 Y100.378 E6.13370 F600.000
G1 X68.852 Y100.081 E6.14870
G1 X71.506 Y100.081 E6.28240
G1 X71.506 Y100.318 E6.29438
G1 X71.506 Y98.337 F9000.000
G1 X68.852 Y98.337 E6.42808 F600.000
G1 X68.852 Y97.890 E6.45063
G1 X71.506 Y97.890 E6.58433
G1 X71.506 Y98.277 E6.60387
G1 E0.60387 F1800.00000
G92 E0
G1 X66.983 Y97.781 F9000.000
G1 E6.00000 F1800.00000
G1 X66.983 Y100.843 E6.15426 F600.000
G1 X65.581 Y99.418 E6.25497
G1 X66.944 Y97.827 E6.36054
G1 E0.36054 F1800.00000
G92 E0
G1 X77.275 Y94.475 F9000.000
G1 E6.00000 F1800.00000
G1 X77.275 Y104.025 E6.48106 F600.000
G1 X57.506 Y104.025 E7.47689
G1 X57.002 Y103.999 E7.50231
G1 X56.407 Y103.898 E7.53269
G1 X56.027 Y103.792 E7.55259
G1 X55.465 Y103.569 E7.58303
G1 X55.113 Y103.385 E7.60306
G1 X54.775 Y103.171 E7.62320
G1 X54.458 Y102.930 E7.64323
G1 X54.019 Y102.518 E7.67355
G1 X53.636 Y102.055 E7.70387
G1 X53.416 Y101.723 E7.72390
G1 X53.224 Y101.375 E7.74392
G1 X52.990 Y100.818 E7.77436
G1 X52.875 Y100.437 E7.79439
G1 X52.793 Y100.049 E7.81442
G1 X52.729 Y99.448 E7.84486
G1 X52.729 Y99.052 E7.86476
G1 X52.793 Y98.451 E7.89520
G1 X52.875 Y98.063 E7.91523
G1 X52.991 Y97.680 E7.93537
G1 X53.137 Y97.310 E7.95540
G1 X53.416 Y96.777 E7.98572
G1 X53.760 Y96.282 E8.01604
G1 X54.019 Y95.981 E8.03607
G1 X54.303 Y95.703 E8.05609
G1 X54.777 Y95.328 E8.08654
G1 X55.113 Y95.115 E8.10656
G1 X55.465 Y94.931 E8.12659
G1 X56.027 Y94.708 E8.15703
G1 X56.410 Y94.601 E8.17705
G1 X56.802 Y94.526 E8.19720
G1 X57.201 Y94.484 E8.21740
G1 X57.504 Y94.475 E8.23263
G1 X77.215 Y94.475 E9.22555
G1 X77.075 Y94.821 F9000.000
G1 X76.311 Y95.500 F9000.000
G1 X74.166 Y95.500 E9.33361 F600.000
G1 X74.059 Y95.546 E9.33946
G1 X74.059 Y97.770 E9.45149
G1 X74.166 Y95.593 F9000.000
G1 X73.953 Y95.500 E9.46319 F600.000
G1 X65.752 Y95.500 E9.87631
G1 X65.468 Y95.734 F9000.000
G1 X65.264 Y95.530 E9.89082 F600.000
G1 X64.907 Y95.500 F9000.000
G1 X61.881 Y95.500 E10.04322 F600.000
G1 X61.598 Y95.734 F9000.000
G1 X61.394 Y95.530 E10.05794 F600.000
G1 X60.841 Y95.530 E10.08621
G1 X61.790 Y96.480 E10.15484
G1 X61.790 Y97.033 E10.18311
G1 X60.288 Y95.530 E10.29172
G1 X59.734 Y95.530 E10.31999
G1 X61.790 Y97.586 E10.46859
G1 X61.790 Y98.139 E10.49686
G1 X59.181 Y95.530 E10.68544
G1 X58.628 Y95.530 E10.71371
G1 X61.790 Y98.693 E10.94227
G1 X61.790 Y99.246 E10.97054
G1 X60.581 Y98.037 E11.05792
G1 X60.750 Y98.759 E11.09584
G1 X61.790 Y99.799 E11.17100
G1 X61.790 Y100.352 E11.19927
G1 X60.771 Y99.333 E11.27295
G1 X60.713 Y99.828 E11.29844
G1 X61.790 Y100.906 E11.37629
G1 X61.790 Y101.459 E11.40456
G1 X60.592 Y100.261 E11.49116
G1 X60.426 Y100.648 E11.51268
G1 X61.790 Y102.012 E11.61129
G1 X61.598 Y102.373 E11.63218
G1 X60.236 Y101.011 E11.73058
G1 X59.993 Y101.321 E11.75072
G1 X61.598 Y102.926 E11.86672
G1 X61.089 Y102.970 E11.89283
G1 X59.724 Y101.605 E11.99147
G1 X59.427 Y101.861 E12.01151
G1 X60.535 Y102.970 E12.09165
G1 X59.982 Y102.970 E12.11992
G1 X59.087 Y102.075 E12.18462
G1 X58.729 Y102.270 E12.20546
G1 X59.429 Y102.970 E12.25605
G1 X58.876 Y102.970 E12.28433
G1 X58.311 Y102.406 E12.32512
G1 X57.844 Y102.492 E12.34938
G1 X58.322 Y102.970 E12.38393
G1 X57.769 Y102.970 E12.41221
G1 X57.322 Y102.523 E12.44452
G1 X57.192 Y102.946 E12.46714
G1 X56.697 Y102.451 E12.50291
G1 X56.493 Y102.801 E12.52360
G1 X55.790 Y102.097 E12.57445
G1 X55.305 Y102.166 E12.59945
G1 X54.632 Y101.493 E12.64809
G1 X54.643 Y100.951 E12.67580
G1 X53.952 Y100.259 E12.72579
G1 X54.290 Y100.044 E12.74627
G1 X53.812 Y99.566 E12.78085
G1 X54.218 Y99.419 E12.80294
G1 X53.789 Y98.989 E12.83399
G1 X54.252 Y98.899 E12.85809
G1 X53.847 Y98.494 E12.88736
G1 X53.959 Y98.053 E12.91061
G1 X54.350 Y98.445 E12.93889
G1 X54.484 Y98.025 E12.96141
G1 X54.115 Y97.656 E12.98809
G1 X54.305 Y97.292 E13.00903
G1 X54.674 Y97.662 E13.03571
G1 X54.891 Y97.326 E13.05616
G1 X54.531 Y96.965 E13.08220
G1 X54.796 Y96.678 E13.10221
G1 X55.136 Y97.017 E13.12674
G1 X55.432 Y96.761 E13.14679
G1 X55.073 Y96.401 E13.17278
G1 X55.382 Y96.157 E13.19290
G1 X55.744 Y96.518 E13.21905
G1 X56.101 Y96.322 E13.23986
G1 X55.729 Y95.951 E13.26671
G1 X56.114 Y95.782 E13.28817
G1 X56.491 Y96.159 E13.31539
G1 X56.922 Y96.038 E13.33832
G1 X56.529 Y95.644 E13.36677
G1 X57.001 Y95.563 E13.39125
G1 X57.414 Y95.976 E13.42109
G1 X57.521 Y95.530 E13.44452
G1 X57.995 Y96.004 E13.47876
G1 X58.075 Y95.530 E13.50331
G1 X58.720 Y96.175 E13.54992
G1 X61.881 Y102.884 F9000.000
G1 X64.907 Y102.884 E13.88018 F600.000
G1 X65.187 Y102.773 E13.91302
G1 X65.372 Y102.852 E13.93503
G1 X65.523 Y102.884 E13.95179
G1 X76.311 Y102.884 E15.12940
G1 X74.059 Y102.434 F9000.000
G1 X74.059 Y100.691 E15.21720 F600.000
G1 E9.21720 F1800.00000
G92 E0
G1 X71.569 Y99.888 F9000.000
G1 E6.00000 F1800.00000
G1 X71.569 Y98.530 E6.06839 F600.000
G1 E0.06839 F1800.00000
G92 E0
G1 X60.000 Y82.411 F9000.000
G1 E6.00000 F1800.00000
G1 X59.607 Y82.887 E6.03106 F600.000
G1 X59.204 Y83.220 E6.05741
G1 X58.663 Y83.517 E6.08849
G1 X58.073 Y83.696 E6.11957
G1 X57.563 Y83.749 E6.14538
G1 X57.051 Y83.717 E6.17120
G1 X56.454 Y83.563 E6.20228
G1 X55.892 Y83.284 E6.23389
G1 X55.400 Y82.895 E6.26550
G1 X55.007 Y82.419 E6.29658
G1 X54.755 Y81.961 E6.32293
G1 X54.567 Y81.383 E6.35351
G1 X54.501 Y80.860 E6.38009
G1 X54.540 Y80.249 E6.41093
G1 X54.706 Y79.655 E6.44199
G1 X54.939 Y79.187 E6.46834
G1 X55.305 Y78.704 E6.49888
G1 X55.694 Y78.354 E6.52523
G1 X56.222 Y78.034 E6.55631
G1 X56.815 Y77.828 E6.58792
G1 X57.427 Y77.750 E6.61900 F600.000
G1 X57.949 Y77.783 E6.64535
G1 X58.546 Y77.937 E6.67643
G1 X59.108 Y78.216 E6.70804
G1 X59.600 Y78.605 E6.73965
G1 X59.994 Y79.081 E6.77076
G1 X60.247 Y79.544 E6.79734
G1 X60.436 Y80.126 E6.82818
G1 X60.502 Y80.750 E6.85977
G1 X60.437 Y81.364 E6.89088
G1 X60.284 Y81.869 E6.91746
G1 X60.028 Y82.358 E6.94528
G1 X59.677 Y82.197 F9000.000
G1 X59.333 Y82.613 E6.97247 F600.000
G1 X58.986 Y82.900 E6.99514
G1 X58.513 Y83.160 E7.02234
G1 X57.996 Y83.316 E7.04955
G1 X57.555 Y83.362 E7.07190
G1 X57.112 Y83.334 E7.09425
G1 X56.589 Y83.200 E7.12145
