; generated by Slic3r 1.2.9 on 2017-03-14 at 20:51:54

; external perimeters extrusion width = 0.40mm
; perimeters extrusion width = 0.56mm
; infill extrusion width = 0.38mm
; solid infill extrusion width = 0.56mm
; top infill extrusion width = 0.22mm

M106 S256; Turn on fan to 100% power
M104 S140; turn on extruder temperature at S value
M140 S60; turn on bed temperature at S value
G28; home all axes
M84; disable motors
G1 Z15 F15000; have Z move to 20mm at 15000 mm/min
M190 S55; turn on bed temperature at S value and wait
M140 S55; turn on bed temperature at S value (printing temperature)
M109 S200; turn on extruder temperature at S value and wait (printing temperature)
M104 S200; turn on extruder temperature at S value
G1 Z0 F12000; move Z back to home
G21 ; set units to millimeters
G90 ; use absolute coordinates
M82 ; use absolute distances for extrusion
G92 E0
M106 S255
;Layer change
G1 E-6.00000 F1800.00000
G92 E0
G1 Z0.300 F9000.000
G1 X37.513 Y23.823 F9000.000
G1 E6.00000 F1800.00000
G1 X37.836 Y23.357 E6.02823 F600.000
G1 X38.247 Y22.839 E6.06112
G1 X38.922 Y22.121 E6.11023
G1 X39.405 Y21.686 E6.14260
G1 X39.850 Y21.334 E6.17083
G1 X40.392 Y20.957 E6.20371
G1 X40.877 Y20.663 E6.23194
G1 X41.463 Y20.357 E6.26484
G1 X41.981 Y20.126 E6.29306
G1 X42.363 Y19.979 E6.31345
G1 X42.991 Y19.775 E6.34633
G1 X43.941 Y19.552 E6.39494
G1 X44.594 Y19.455 E6.42782
G1 X45.159 Y19.408 E6.45605
G1 X45.694 Y19.393 E6.48269
G1 X129.694 Y19.393 E10.66496
G1 X131.374 Y19.787 E10.75087
G1 X132.702 Y20.889 E10.83678 F600.000
G1 X133.465 Y23.164 E10.95626
G1 X133.465 Y35.195 E11.55526
G1 X133.117 Y77.827 E13.67795
G1 X132.709 Y79.503 E13.76386
G1 X131.596 Y80.822 E13.84976
G1 X130.654 Y81.333 E13.90310
G1 X70.654 Y103.533 E17.08837
G1 X69.346 Y103.767 E17.15456
G1 X45.346 Y103.767 E18.34950
G1 X44.521 Y103.729 E18.39059
G1 X43.935 Y103.652 E18.42005
G1 X42.708 Y103.391 E18.48251
G1 X41.958 Y103.148 E18.52176
G1 X40.812 Y102.638 E18.58422
G1 X40.129 Y102.243 E18.62348
G1 X39.114 Y101.506 E18.68593
G1 X38.529 Y100.979 E18.72517
G1 X37.689 Y100.046 E18.78762
G1 X37.226 Y99.408 E18.82688
G1 X36.599 Y98.322 E18.88934
G1 X36.278 Y97.602 E18.92859
G1 X35.890 Y96.409 E18.99105
G1 X35.726 Y95.638 E19.03030
G1 X35.595 Y94.390 E19.09275
G1 X35.575 Y93.996 E19.11240
G1 X35.575 Y71.765 E20.21925
G1 X35.924 Y29.085 E22.34434
G1 X35.951 Y28.425 E22.37722
G1 X36.011 Y27.861 E22.40546
G1 X36.121 Y27.210 E22.43834
G1 X36.318 Y26.416 E22.47909
G1 X36.493 Y25.876 E22.50733
G1 X36.801 Y25.118 E22.54807
G1 X37.094 Y24.526 E22.58096
G1 X37.480 Y23.873 E22.61872
G1 X37.838 Y24.029 F9000.000
G1 X38.143 Y23.590 E22.64534 F600.000
G1 X38.537 Y23.093 E22.67691
G1 X39.179 Y22.409 E22.72361
G1 X39.657 Y21.978 E22.75569
G1 X40.076 Y21.646 E22.78231
G1 X40.606 Y21.278 E22.81440
G1 X41.063 Y21.001 E22.84102
G1 X41.634 Y20.702 E22.87311
G1 X42.123 Y20.485 E22.89973
G1 X42.727 Y20.260 E22.93182
G1 X43.239 Y20.106 E22.95844
G1 X43.866 Y19.958 E22.99053
G1 X44.393 Y19.869 E23.01715
G1 X44.784 Y19.823 E23.03672
G1 X45.427 Y19.783 E23.06881
G1 X129.694 Y19.778 E27.26440
G1 X131.279 Y20.172 E27.34573
G1 X132.496 Y21.263 E27.42707 F600.000
G1 X133.080 Y23.164 E27.52608
G1 X133.080 Y35.192 E28.12493
G1 X132.731 Y77.824 E30.24762
G1 X132.324 Y79.406 E30.32895
G1 X130.521 Y80.971 E30.44786
G1 X70.521 Y103.171 E33.63313
G1 X69.346 Y103.382 E33.69255
G1 X45.346 Y103.382 E34.88749
G1 X44.541 Y103.344 E34.92758
G1 X44.015 Y103.275 E34.95403
G1 X42.788 Y103.014 E35.01648
G1 X42.115 Y102.795 E35.05172
G1 X40.969 Y102.285 E35.11417
G1 X40.356 Y101.931 E35.14942
G1 X39.341 Y101.194 E35.21188
G1 X38.815 Y100.720 E35.24711
G1 X37.976 Y99.788 E35.30956
G1 X37.560 Y99.216 E35.34480
G1 X36.932 Y98.129 E35.40726
G1 X36.645 Y97.483 E35.44249
G1 X36.257 Y96.290 E35.50495
G1 X36.110 Y95.597 E35.54019
G1 X35.979 Y94.350 E35.60264
G1 X35.960 Y93.996 E35.62028
G1 X35.960 Y71.768 E36.72698
G1 X36.309 Y29.093 E38.85182
G1 X36.336 Y28.449 E38.88390
G1 X36.392 Y27.917 E38.91053
G1 X36.500 Y27.282 E38.94261
G1 X36.689 Y26.519 E38.98174
G1 X36.855 Y26.010 E39.00838
G1 X37.150 Y25.282 E39.04751
G1 X37.436 Y24.705 E39.07960
G1 X37.806 Y24.080 E39.11575
G1 E33.11575 F1800.00000
G92 E0
G1 X47.066 Y91.503 F9000.000
G1 E6.00000 F1800.00000
G1 X48.028 Y92.589 E6.07218 F600.000
G1 X48.375 Y93.996 E6.14436
G1 X48.028 Y95.404 E6.21654
G1 X47.066 Y96.489 E6.28872
G1 X45.711 Y97.003 E6.36090
G1 X44.272 Y96.828 E6.43308
G1 X43.079 Y96.005 E6.50526
G1 X42.405 Y94.721 E6.57744
G1 X42.405 Y93.271 E6.64962
G1 X43.079 Y91.988 E6.72180
G1 X44.272 Y91.164 E6.79398
G1 X45.466 Y91.019 E6.85391
G1 X45.711 Y90.989 E6.86616 F600.000
G1 X47.010 Y91.482 E6.93536
G1 X46.841 Y91.830 F9000.000
G1 X47.676 Y92.773 E6.99807 F600.000
G1 X47.978 Y93.996 E7.06079
G1 X47.676 Y95.219 E7.12350
G1 X46.841 Y96.162 E7.18622
G1 X45.663 Y96.609 E7.24893
G1 X44.413 Y96.457 E7.31165
G1 X43.376 Y95.741 E7.37436
G1 X42.791 Y94.626 E7.43708
G1 X42.791 Y93.366 E7.49980
G1 X43.376 Y92.251 E7.56251
G1 X44.413 Y91.535 E7.62523
G1 X45.513 Y91.402 E7.68042
G1 X45.663 Y91.384 E7.68795 F600.000
G1 X46.785 Y91.809 E7.74767
G1 X47.215 Y91.688 F9000.000
G1 X68.735 Y88.607 F9000.000
G1 X68.735 Y99.386 E8.28434 F600.000
G1 X45.956 Y99.386 E9.41847
G1 X45.956 Y99.353 E9.42010
G1 X44.783 Y99.353 E9.47854
G1 X43.681 Y99.119 E9.53460
G1 X42.653 Y98.661 E9.59066
G1 X41.742 Y97.999 E9.64672
G1 X40.988 Y97.162 E9.70278
G1 X40.425 Y96.187 E9.75884
G1 X40.077 Y95.116 E9.81491
G1 X39.960 Y93.996 E9.87097
G1 X40.077 Y92.876 E9.92703
G1 X40.425 Y91.805 E9.98309
G1 X40.988 Y90.830 E10.03915
G1 X41.742 Y89.994 E10.09522
G1 X42.653 Y89.332 E10.15128
G1 X43.681 Y88.874 E10.20734
G1 X44.783 Y88.640 E10.26340
G1 X45.956 Y88.640 E10.32183
G1 X45.956 Y88.607 E10.32347
G1 X68.675 Y88.607 E11.45462
G1 X69.121 Y88.221 F9000.000
G1 X69.121 Y99.771 E12.02968 F600.000
G1 X45.571 Y99.771 E13.20221
G1 X45.571 Y99.738 E13.20385
G1 X44.742 Y99.738 E13.24510
G1 X43.562 Y99.487 E13.30519
G1 X42.459 Y98.996 E13.36529
G1 X41.482 Y98.287 E13.42539
G1 X40.675 Y97.390 E13.48549
G1 X40.071 Y96.345 E13.54558
G1 X39.698 Y95.197 E13.60568
G1 X39.572 Y93.996 E13.66578
G1 X39.698 Y92.796 E13.72588
G1 X40.071 Y91.648 E13.78598
G1 X40.675 Y90.602 E13.84607
G1 X41.482 Y89.705 E13.90617
G1 X42.459 Y88.996 E13.96627
G1 X43.562 Y88.505 E14.02637
G1 X44.742 Y88.254 E14.08646
G1 X45.571 Y88.254 E14.12771
G1 X45.571 Y88.221 E14.12935
G1 X69.061 Y88.221 E15.29890
G1 X68.921 Y88.568 F9000.000
G1 X68.451 Y89.094 F9000.000
G1 X68.248 Y88.891 E15.31330 F600.000
G1 X67.700 Y88.891 E15.34071
G1 X68.451 Y89.642 E15.39387
G1 X68.451 Y90.190 E15.42128
G1 X67.152 Y88.891 E15.51321
G1 X66.604 Y88.891 E15.54062
G1 X68.451 Y90.738 E15.67131
G1 X68.451 Y91.286 E15.69871
G1 X66.056 Y88.891 E15.86816
G1 X65.508 Y88.891 E15.89557
G1 X68.451 Y91.834 E16.10378
G1 X68.451 Y92.382 E16.13119
G1 X64.960 Y88.891 E16.37816
G1 X64.412 Y88.891 E16.40557
G1 X68.451 Y92.930 E16.69131
G1 X68.451 Y93.477 E16.71872
G1 X63.864 Y88.891 E17.04321
G1 X63.317 Y88.891 E17.07062
G1 X68.451 Y94.025 E17.43388
G1 X68.451 Y94.573 E17.46129
G1 X62.769 Y88.891 E17.86330
G1 X62.221 Y88.891 E17.89071
G1 X68.451 Y95.121 E18.33149
G1 X68.451 Y95.669 E18.35890
G1 X61.673 Y88.891 E18.83844
G1 X61.125 Y88.891 E18.86585
G1 X68.451 Y96.217 E19.38416
G1 X68.451 Y96.765 E19.41156
G1 X60.577 Y88.891 E19.96863
G1 X60.029 Y88.891 E19.99604
G1 X68.451 Y97.313 E20.59186
G1 X68.451 Y97.861 E20.61927
G1 X59.481 Y88.891 E21.25386
G1 X58.933 Y88.891 E21.28127
G1 X68.451 Y98.409 E21.95462
G1 X68.451 Y98.957 E21.98203
G1 X58.385 Y88.891 E22.69414
G1 X57.837 Y88.891 E22.72155
G1 X68.049 Y99.102 E23.44392
G1 X67.501 Y99.102 E23.47133
G1 X57.289 Y88.891 E24.19370
G1 X56.742 Y88.891 E24.22111
G1 X66.953 Y99.102 E24.94349
G1 X66.405 Y99.102 E24.97090
G1 X56.194 Y88.891 E25.69327
G1 X55.646 Y88.891 E25.72068
G1 X65.857 Y99.102 E26.44306
G1 X65.309 Y99.102 E26.47046
G1 X55.098 Y88.891 E27.19284
G1 X54.550 Y88.891 E27.22025
G1 X64.761 Y99.102 E27.94262
G1 X64.213 Y99.102 E27.97003
G1 X54.002 Y88.891 E28.69241
G1 X53.454 Y88.891 E28.71981
G1 X63.665 Y99.102 E29.44219
G1 X63.117 Y99.102 E29.46960
G1 X52.906 Y88.891 E30.19197
G1 X52.358 Y88.891 E30.21938
G1 X62.569 Y99.102 E30.94176
G1 X62.021 Y99.102 E30.96917
G1 X51.810 Y88.891 E31.69154
G1 X51.262 Y88.891 E31.71895
G1 X61.474 Y99.102 E32.44132
G1 X60.926 Y99.102 E32.46873
G1 X50.715 Y88.891 E33.19111
G1 X50.167 Y88.891 E33.21852
G1 X60.378 Y99.102 E33.94089
G1 X59.830 Y99.102 E33.96830
G1 X49.619 Y88.891 E34.69067
G1 X49.071 Y88.891 E34.71808
G1 X59.282 Y99.102 E35.44046
G1 X58.734 Y99.102 E35.46787
G1 X48.523 Y88.891 E36.19024
G1 X47.975 Y88.891 E36.21765
G1 X58.186 Y99.102 E36.94003
G1 X57.638 Y99.102 E36.96743
G1 X47.427 Y88.891 E37.68981
G1 X46.879 Y88.891 E37.71722
G1 X57.090 Y99.102 E38.43959
G1 X56.542 Y99.102 E38.46700
G1 X46.331 Y88.891 E39.18938
G1 X45.816 Y88.923 E39.21519
G1 X55.994 Y99.102 E39.93524
G1 X55.447 Y99.102 E39.96265
G1 X45.268 Y88.923 E40.68270
G1 X44.724 Y88.927 E40.70994
G1 X46.895 Y91.098 E40.86356
G1 X46.012 Y90.763 F9000.000
G1 X44.272 Y89.023 E40.98670 F600.000
G1 X43.820 Y89.119 E41.00981
G1 X45.446 Y90.745 E41.12484
G1 X44.957 Y90.804 E41.14946
G1 X43.424 Y89.270 E41.25797
G1 X43.044 Y89.439 E41.27873
G1 X44.469 Y90.864 E41.37949
G1 X44.061 Y91.004 E41.40106
G1 X42.680 Y89.623 E41.49876
G1 X42.363 Y89.853 E41.51838
G1 X43.737 Y91.227 E41.61559
G1 X43.413 Y91.451 E41.63530
G1 X42.045 Y90.084 E41.73203
G1 X41.766 Y90.353 E41.75141
G1 X43.088 Y91.675 E41.84493
G1 X42.812 Y91.946 E41.86431
G1 X41.501 Y90.635 E41.95708
G1 X41.241 Y90.923 E41.97649
G1 X42.623 Y92.306 E42.07428
G1 X42.435 Y92.665 E42.09458
G1 X41.032 Y91.262 E42.19382
G1 X40.832 Y91.610 E42.21389
G1 X42.246 Y93.024 E42.31397
G1 X42.121 Y93.447 E42.33602
G1 X40.647 Y91.973 E42.44031
G1 X40.513 Y92.387 E42.46206
G1 X42.121 Y93.995 E42.57585
G1 X42.121 Y94.543 E42.60326
G1 X40.378 Y92.800 E42.72655
G1 X40.312 Y93.282 E42.75088
G1 X42.340 Y95.309 E42.89432
G1 X40.624 Y95.786 F9000.000
G1 X43.539 Y98.700 E43.10051 F600.000
G1 X44.335 Y98.948 E43.14220
G1 X40.361 Y94.974 E43.42333
G1 X40.292 Y94.358 E43.45435
G1 X45.003 Y99.069 E43.78762
G1 X45.551 Y99.069 E43.81503
G1 X40.260 Y93.778 E44.18935
G1 X41.650 Y97.359 F9000.000
G1 X42.173 Y97.883 E44.22641 F600.000
G1 X44.139 Y97.108 F9000.000
G1 X46.099 Y99.069 E44.36509 F600.000
G1 X46.680 Y99.102 E44.39419
G1 X44.762 Y97.184 E44.52984
G1 X45.386 Y97.260 E44.56127
G1 X47.228 Y99.102 E44.69157
G1 X47.776 Y99.102 E44.71897
G1 X45.888 Y97.214 E44.85252
G1 X46.285 Y97.063 E44.87377
G1 X48.324 Y99.102 E45.01798
G1 X48.872 Y99.102 E45.04539
G1 X46.682 Y96.913 E45.20025
G1 X47.080 Y96.762 E45.22150
G1 X49.419 Y99.102 E45.38703
G1 X49.967 Y99.102 E45.41443
G1 X47.379 Y96.513 E45.59755
G1 X47.636 Y96.223 E45.61697
G1 X50.515 Y99.102 E45.82063
G1 X51.063 Y99.102 E45.84804
G1 X47.894 Y95.932 E46.07226
G1 X48.151 Y95.642 E46.09168
G1 X51.611 Y99.102 E46.33645
G1 X52.159 Y99.102 E46.36386
G1 X48.334 Y95.276 E46.63448
G1 X48.442 Y94.837 E46.65713
G1 X52.707 Y99.102 E46.95884
G1 X53.255 Y99.102 E46.98625
G1 X48.550 Y94.397 E47.31906
G1 X48.659 Y93.958 E47.34171
G1 X53.803 Y99.102 E47.70561
G1 X54.351 Y99.102 E47.73302
G1 X48.508 Y93.259 E48.14636
G1 X48.329 Y92.532 E48.18383
G1 X54.899 Y99.102 E48.64861
G1 E42.64861 F1800.00000
G92 E0
G1 X68.571 Y54.310 F9000.000
G1 E6.00000 F1800.00000
G1 X67.344 Y54.310 E6.06109 F600.000
G1 X67.344 Y51.891 E6.18154
G1 X64.685 Y51.891 E6.31394
G1 X64.685 Y54.310 E6.43439
G1 X63.458 Y54.310 E6.49548
G1 X63.458 Y48.139 E6.80276
G1 X64.685 Y48.139 E6.86385
G1 X64.685 Y50.790 E6.99586
G1 X67.344 Y50.790 E7.12826
G1 X67.344 Y48.139 E7.26027
G1 X68.571 Y48.139 E7.32136
G1 X68.571 Y54.250 E7.62565
G1 X68.571 Y54.710 F9000.000
G1 E1.62565 F1800.00000
G92 E0
G1 X63.072 Y50.391 F9000.000
G1 E6.00000 F1800.00000
G1 X59.643 Y50.391 E6.17074 F600.000
G1 X59.643 Y49.609 E6.20965
G1 X63.072 Y49.609 E6.38040
G1 X63.072 Y50.331 E6.41632
G1 X63.072 Y52.238 F9000.000
G1 X63.072 Y52.840 E6.44627 F600.000
G1 X59.643 Y52.840 E6.61701
G1 X59.643 Y52.238 E6.64697
G1 X63.012 Y52.238 E6.81472
G1 E0.81472 F1800.00000
G92 E0
G1 X57.472 Y51.396 F9000.000
G1 E6.00000 F1800.00000
G1 X57.351 Y51.181 E6.01228 F600.000
G1 X57.142 Y50.919 E6.02896
G1 X56.900 Y50.696 E6.04534
G1 X56.644 Y50.520 E6.06082
G1 X57.480 Y49.254 E6.13634
G1 X57.645 Y49.304 E6.14491
G1 X57.645 Y51.350 E6.24681
G1 X57.530 Y51.381 E6.25270
G1 X58.030 Y54.310 F9000.000
G1 X58.030 Y48.139 E6.55998 F600.000
G1 X63.005 Y48.139 E6.80766
G1 X63.005 Y49.224 E6.86167
G1 X59.257 Y49.224 E7.04826
G1 X59.257 Y50.776 E7.12558
G1 X62.593 Y50.776 E7.29167
G1 X62.593 Y51.853 E7.34526
G1 X59.257 Y51.853 E7.51136
G1 X59.257 Y53.226 E7.57971
G1 X62.838 Y53.226 E7.75800
G1 X62.838 Y54.310 E7.81201
G1 X58.090 Y54.310 E8.04839
G1 X57.630 Y54.310 F9000.000
G1 X52.154 Y54.310 F9000.000
G1 X52.154 Y48.139 E8.35567 F600.000
G1 X53.381 Y48.139 E8.41676
G1 X53.381 Y50.520 E8.53530
G1 X54.823 Y50.520 E8.60710
G1 X56.316 Y48.139 E8.74703
G1 X57.754 Y48.139 E8.81862
G1 X56.068 Y50.693 E8.97100
G1 X56.239 Y50.754 E8.98006
G1 X56.485 Y50.879 E8.99379
G1 X56.659 Y50.999 E9.00430
G1 X56.859 Y51.183 E9.01784
G1 X57.030 Y51.397 E9.03150
G1 X57.162 Y51.632 E9.04489
G1 X57.239 Y51.826 E9.05529
G1 X57.304 Y52.093 E9.06897
G1 X57.332 Y52.379 E9.08328
G1 X57.318 Y52.711 E9.09985
G1 X57.273 Y52.960 E9.11242
G1 X57.198 Y53.191 E9.12455
G1 X57.089 Y53.408 E9.13663
G1 X56.901 Y53.659 E9.15223
G1 X56.720 Y53.830 E9.16462
G1 X56.447 Y54.014 E9.18104
G1 X56.132 Y54.153 E9.19820
G1 X55.782 Y54.247 E9.21622
G1 X55.492 Y54.291 E9.23081
G1 X55.087 Y54.310 E9.25102
G1 X52.214 Y54.310 E9.39406
G1 X51.754 Y54.310 F9000.000
G1 X48.450 Y52.567 F9000.000
G1 X48.336 Y52.809 E9.40735 F600.000
G1 X48.199 Y53.036 E9.42055
G1 X47.978 Y53.327 E9.43874
G1 X47.792 Y53.525 E9.45225
G1 X47.424 Y53.830 E9.47608
G1 X47.194 Y53.975 E9.48959
G1 X46.856 Y54.143 E9.50842
G1 X46.393 Y54.293 E9.53263
G1 X46.067 Y54.354 E9.54916
G1 X45.752 Y54.375 E9.56489
G1 X45.386 Y54.359 E9.58312
G1 X45.124 Y54.321 E9.59631
G1 X44.770 Y54.230 E9.61450
G1 X44.521 Y54.138 E9.62769
G1 X44.194 Y53.975 E9.64589
G1 X43.965 Y53.830 E9.65940
G1 X43.596 Y53.524 E9.68324
G1 X43.407 Y53.323 E9.69697
G1 X43.189 Y53.036 E9.71494
G1 X43.052 Y52.809 E9.72813
G1 X42.894 Y52.473 E9.74664
G1 X42.779 Y52.119 E9.76515
G1 X42.723 Y51.853 E9.77866
G1 X42.681 Y51.364 E9.80314
G1 X42.725 Y50.850 E9.82879
G1 X42.888 Y50.267 E9.85897
G1 X43.052 Y49.919 E9.87811
G1 X43.189 Y49.692 E9.89131
G1 X43.410 Y49.401 E9.90950
G1 X43.596 Y49.203 E9.92301
G1 X43.965 Y48.898 E9.94684
G1 X44.194 Y48.753 E9.96035
G1 X44.533 Y48.584 E9.97918
G1 X44.995 Y48.434 E10.00339
G1 X45.322 Y48.373 E10.01992
G1 X45.637 Y48.353 E10.03565 F600.000
G1 X46.003 Y48.368 E10.05388
G1 X46.265 Y48.407 E10.06706
G1 X46.614 Y48.496 E10.08502
G1 X46.867 Y48.590 E10.09843
G1 X47.194 Y48.753 E10.11665
G1 X47.424 Y48.898 E10.13016
G1 X47.793 Y49.203 E10.15401
G1 X47.981 Y49.405 E10.16774
G1 X48.199 Y49.692 E10.18572
G1 X48.338 Y49.923 E10.19912
G1 X48.495 Y50.255 E10.21741
G1 X48.609 Y50.609 E10.23591
G1 X48.666 Y50.874 E10.24942
G1 X48.707 Y51.364 E10.27389
G1 X48.666 Y51.854 E10.29837
G1 X48.608 Y52.124 E10.31210
G1 X48.475 Y52.513 E10.33260
G1 X48.101 Y52.403 F9000.000
G1 X47.880 Y52.819 E10.35603 F600.000
G1 X47.683 Y53.078 E10.37221
G1 X47.528 Y53.243 E10.38351
G1 X47.196 Y53.517 E10.40492
G1 X47.005 Y53.639 E10.41622
G1 X46.709 Y53.785 E10.43264
G1 X46.298 Y53.919 E10.45418
G1 X46.019 Y53.971 E10.46832
G1 X45.747 Y53.989 E10.48187
G1 X45.422 Y53.975 E10.49807
G1 X45.200 Y53.942 E10.50925
G1 X44.885 Y53.861 E10.52543
G1 X44.675 Y53.783 E10.53661
G1 X44.384 Y53.639 E10.55279
G1 X44.192 Y53.517 E10.56409
G1 X43.861 Y53.243 E10.58551
G1 X43.703 Y53.074 E10.59702
G1 X43.509 Y52.819 E10.61298
G1 X43.392 Y52.627 E10.62416
G1 X43.253 Y52.330 E10.64046
G1 X43.152 Y52.019 E10.65676
G1 X43.105 Y51.797 E10.66806
G1 X43.068 Y51.364 E10.68971
G1 X43.106 Y50.919 E10.71192
G1 X43.251 Y50.402 E10.73868
G1 X43.392 Y50.101 E10.75521
G1 X43.509 Y49.909 E10.76639
