; generated by Slic3r 1.2.9 on 2017-03-14 at 20:19:56

; external perimeters extrusion width = 0.40mm
; perimeters extrusion width = 0.56mm
; infill extrusion width = 0.38mm
; solid infill extrusion width = 0.56mm
; top infill extrusion width = 0.22mm

M106 S256; Turn on fan to 100% power
M104 S140; turn on extruder temperature at S value
M140 S60; turn on bed temperature at S value
G28; home all axes
M84; disable motors
G1 Z15 F15000; have Z move to 20mm at 15000 mm/min
M190 S55; turn on bed temperature at S value and wait
M140 S55; turn on bed temperature at S value (printing temperature)
M109 S200; turn on extruder temperature at S value and wait (printing temperature)
M104 S200; turn on extruder temperature at S value
G1 Z0 F12000; move Z back to home
G21 ; set units to millimeters
G90 ; use absolute coordinates
M82 ; use absolute distances for extrusion
G92 E0
M106 S255
;Layer change
G1 E-6.00000 F1800.00000
G92 E0
G1 Z0.300 F9000.000
G1 X35.657 Y20.587 F9000.000
G1 E6.00000 F1800.00000
G1 X35.769 Y20.393 E6.01112 F600.000
G1 X36.232 Y19.755 E6.05037
G1 X37.072 Y18.823 E6.11282
G1 X37.658 Y18.296 E6.15208
G1 X38.672 Y17.558 E6.21453
G1 X39.355 Y17.164 E6.25379
G1 X40.501 Y16.654 E6.31624
G1 X41.251 Y16.410 E6.35549
G1 X42.478 Y16.150 E6.41794
G1 X43.065 Y16.072 E6.44741
G1 X43.692 Y16.040 E6.47868
G1 X127.889 Y16.034 E10.67078
G1 X129.569 Y16.429 E10.75669
G1 X130.897 Y17.531 E10.84259 F600.000
G1 X131.651 Y19.544 E10.94965
G1 X134.813 Y65.033 E13.21996
G1 X134.822 Y77.294 E13.83045
G1 X134.428 Y78.974 E13.91635
G1 X133.326 Y80.302 E14.00226
G1 X132.360 Y80.831 E14.05712
G1 X72.360 Y103.031 E17.24239
G1 X71.051 Y103.266 E17.30858
G1 X47.012 Y103.265 E18.50547
G1 X46.108 Y103.219 E18.55054
G1 X45.298 Y103.107 E18.59123
G1 X44.743 Y102.989 E18.61951
G1 X44.107 Y102.811 E18.65235
G1 X43.571 Y102.624 E18.68062
G1 X42.963 Y102.369 E18.71347
G1 X42.456 Y102.117 E18.74166
G1 X41.882 Y101.786 E18.77463
G1 X41.073 Y101.223 E18.82373
G1 X40.572 Y100.808 E18.85611
G1 X40.159 Y100.420 E18.88432
G1 X39.706 Y99.938 E18.91726
G1 X39.345 Y99.502 E18.94545
G1 X38.956 Y98.967 E18.97837
G1 X38.653 Y98.488 E19.00660
G1 X38.335 Y97.909 E19.03947
G1 X38.093 Y97.396 E19.06772
G1 X37.798 Y96.633 E19.10846
G1 X37.568 Y95.848 E19.14919
G1 X37.404 Y95.046 E19.18994
G1 X37.310 Y94.257 E19.22950
G1 X34.118 Y48.006 E21.53779
G1 X34.118 Y25.806 E22.64310
G1 X34.138 Y25.411 E22.66275
G1 X34.270 Y24.164 E22.72521
G1 X34.433 Y23.393 E22.76446
G1 X34.821 Y22.200 E22.82692
G1 X35.142 Y21.480 E22.86617
G1 X35.627 Y20.639 E22.91451
G1 X35.991 Y20.779 F9000.000
G1 X36.103 Y20.586 E22.92563 F600.000
G1 X36.519 Y20.013 E22.96087
G1 X37.358 Y19.081 E23.02333
G1 X37.884 Y18.608 E23.05857
G1 X38.899 Y17.870 E23.12102
G1 X39.512 Y17.517 E23.15626
G1 X40.658 Y17.006 E23.21871
G1 X41.331 Y16.788 E23.25395
G1 X42.558 Y16.527 E23.31640
G1 X43.085 Y16.457 E23.34285
G1 X43.712 Y16.425 E23.37412
G1 X127.889 Y16.420 E27.56522
G1 X129.474 Y16.814 E27.64655
G1 X130.691 Y17.905 E27.72789 F600.000
G1 X131.267 Y19.571 E27.81566
G1 X134.428 Y65.060 E30.08597
G1 X134.437 Y77.294 E30.69513
G1 X134.042 Y78.880 E30.77646
G1 X132.226 Y80.470 E30.89666
G1 X72.226 Y102.670 E34.08193
G1 X71.051 Y102.880 E34.14135
G1 X47.016 Y102.880 E35.33805
G1 X46.140 Y102.835 E35.38171
G1 X45.362 Y102.726 E35.42079
G1 X44.839 Y102.615 E35.44746
G1 X44.219 Y102.442 E35.47950
G1 X43.713 Y102.266 E35.50616
G1 X43.120 Y102.017 E35.53820
G1 X42.297 Y101.587 E35.58442
G1 X41.753 Y101.241 E35.61651
G1 X41.321 Y100.927 E35.64312
G1 X40.824 Y100.516 E35.67521
G1 X40.434 Y100.150 E35.70182
G1 X39.993 Y99.680 E35.73395
G1 X39.652 Y99.268 E35.76054
G1 X39.273 Y98.747 E35.79265
G1 X38.987 Y98.295 E35.81927
G1 X38.676 Y97.731 E35.85134
G1 X38.449 Y97.247 E35.87798
G1 X38.165 Y96.514 E35.91711
G1 X37.943 Y95.760 E35.95624
G1 X37.786 Y94.990 E35.99538
G1 X37.694 Y94.230 E36.03345
G1 X34.503 Y48.006 E38.34041
G1 X34.503 Y25.806 E39.44573
G1 X34.522 Y25.452 E39.46337
G1 X34.653 Y24.204 E39.52583
G1 X34.800 Y23.512 E39.56107
G1 X35.188 Y22.319 E39.62352
G1 X35.476 Y21.672 E39.65876
G1 X35.961 Y20.831 E39.70710
G1 E33.70710 F1800.00000
G92 E0
G1 X67.604 Y89.884 F9000.000
G1 E6.00000 F1800.00000
G1 X67.604 Y96.827 E6.34568 F600.000
G1 X65.606 Y96.827 E6.44517
G1 X65.606 Y94.407 E6.56562
G1 X63.718 Y94.407 E6.65962
G1 X63.718 Y96.827 E6.78007
G1 X61.719 Y96.827 E6.87956
G1 X61.719 Y91.740 E7.13283
G1 X59.193 Y91.740 E7.25864
G1 X59.193 Y96.827 E7.51191
G1 X54.120 Y96.827 E7.76444
G1 X54.120 Y94.971 E7.85686
G1 X55.231 Y94.971 E7.91216
G1 X55.229 Y92.104 E8.05486
G1 X55.190 Y91.857 E8.06734
G1 X55.142 Y91.755 E8.07297
G1 X55.027 Y91.676 E8.07987
G1 X54.948 Y91.664 E8.08384
G1 X54.809 Y91.677 E8.09082
G1 X54.700 Y91.762 E8.09765
G1 X54.610 Y91.927 E8.10706
G1 X54.394 Y92.764 E8.15007
G1 X52.422 Y92.433 E8.24963
G1 X52.719 Y91.297 E8.30805
G1 X52.866 Y90.960 E8.32639
G1 X53.053 Y90.660 E8.34398
G1 X53.293 Y90.386 E8.36210
G1 X53.695 Y90.093 E8.38687
G1 X54.028 Y89.945 E8.40502
G1 X54.381 Y89.852 E8.42317
G1 X54.900 Y89.806 E8.44913
G1 X55.228 Y89.821 E8.46549
G1 X55.612 Y89.890 E8.48493
G1 X55.979 Y90.021 E8.50430
G1 X56.313 Y90.216 E8.52357
G1 X56.606 Y90.471 E8.54288
G1 X56.846 Y90.776 E8.56225
G1 X57.018 Y91.103 E8.58063
G1 X57.194 Y91.060 E8.58965
G1 X57.194 Y89.884 E8.64819
G1 X63.718 Y89.884 E8.97298
G1 X63.718 Y92.535 E9.10499
G1 X65.606 Y92.535 E9.19899
G1 X65.606 Y89.884 E9.33100
G1 X67.544 Y89.884 E9.42751
G1 X67.218 Y90.269 F9000.000
G1 X67.218 Y96.441 E9.73478 F600.000
G1 X65.991 Y96.441 E9.79588
G1 X65.991 Y94.022 E9.91633
G1 X63.332 Y94.022 E10.04872
G1 X63.332 Y96.441 E10.16917
G1 X62.105 Y96.441 E10.23027
G1 X62.105 Y90.269 E10.53754
G1 X63.332 Y90.269 E10.59863
G1 X63.332 Y92.921 E10.73065
G1 X65.991 Y92.921 E10.86304
G1 X65.991 Y90.269 E10.99506
G1 X67.158 Y90.269 E11.05316
G1 X67.618 Y90.269 F9000.000
G1 X61.714 Y90.269 F9000.000
G1 X61.714 Y91.354 E11.10717 F600.000
G1 X58.807 Y91.354 E11.25191
G1 X58.807 Y96.441 E11.50517
G1 X57.580 Y96.441 E11.56627
G1 X57.580 Y90.269 E11.87354
G1 X61.654 Y90.269 E12.07638
G1 X62.114 Y90.269 F9000.000
G1 E6.07638 F1800.00000
G92 E0
G1 X56.840 Y96.441 F9000.000
G1 E6.00000 F1800.00000
G1 X54.506 Y96.441 E6.11621 F600.000
G1 X54.506 Y95.356 E6.17022
G1 X55.617 Y95.356 E6.22554
G1 X55.614 Y92.084 E6.38844
G1 X55.559 Y91.741 E6.40577
G1 X55.444 Y91.511 E6.41854
G1 X55.322 Y91.392 E6.42705
G1 X55.144 Y91.305 E6.43691
G1 X54.960 Y91.276 E6.44618
G1 X54.737 Y91.297 E6.45733
G1 X54.641 Y91.329 E6.46241
G1 X54.547 Y91.382 E6.46777
G1 X54.383 Y91.538 E6.47905
G1 X54.248 Y91.784 E6.49302
G1 X54.109 Y92.325 E6.52081
G1 X52.902 Y92.122 E6.58175
G1 X53.085 Y91.424 E6.61768
G1 X53.208 Y91.140 E6.63312
G1 X53.364 Y90.891 E6.64773
G1 X53.555 Y90.673 E6.66218
G1 X53.889 Y90.428 E6.68276
G1 X54.156 Y90.310 E6.69732
G1 X54.447 Y90.233 E6.71232
G1 X54.908 Y90.192 E6.73534
G1 X55.185 Y90.205 E6.74914
G1 X55.513 Y90.264 E6.76573
G1 X55.815 Y90.372 E6.78173
G1 X56.087 Y90.531 E6.79740
G1 X56.325 Y90.738 E6.81310
G1 X56.522 Y90.987 E6.82891
G1 X56.670 Y91.269 E6.84475
G1 X56.752 Y91.506 E6.85726
G1 X56.818 Y91.838 E6.87410
G1 X56.839 Y92.108 E6.88758
G1 X56.840 Y96.381 E7.10033
G1 X56.840 Y96.841 F9000.000
G1 E1.10033 F1800.00000
G92 E0
G1 X49.965 Y94.254 F9000.000
G1 E6.00000 F1800.00000
G1 X49.851 Y94.603 E6.01828 F600.000
G1 X49.693 Y94.940 E6.03679
G1 X49.552 Y95.172 E6.05032
G1 X49.240 Y95.565 E6.07532
G1 X48.786 Y95.957 E6.10518
G1 X48.551 Y96.106 E6.11900
G1 X48.212 Y96.274 E6.13784
G1 X47.745 Y96.426 E6.16230
G1 X47.372 Y96.489 E6.18113
G1 X47.108 Y96.505 E6.19432
G1 X46.747 Y96.490 E6.21228
G1 X46.468 Y96.450 E6.22632
G1 X45.894 Y96.277 E6.25620
G1 X45.443 Y96.041 E6.28153
G1 X45.136 Y95.819 E6.30038
G1 X44.764 Y95.454 E6.32634
G1 X44.546 Y95.166 E6.34433
G1 X44.407 Y94.935 E6.35773
G1 X44.251 Y94.603 E6.37601
G1 X44.136 Y94.250 E6.39451
G1 X44.079 Y93.984 E6.40803
G1 X44.038 Y93.494 E6.43249
G1 X44.079 Y93.005 E6.45696
G1 X44.136 Y92.739 E6.47047
G1 X44.251 Y92.386 E6.48898
G1 X44.409 Y92.049 E6.50749
G1 X44.546 Y91.823 E6.52069
G1 X44.767 Y91.532 E6.53888
G1 X44.953 Y91.334 E6.55240
G1 X45.322 Y91.029 E6.57622
G1 X45.551 Y90.883 E6.58973
G1 X45.890 Y90.715 E6.60857
G1 X46.357 Y90.563 E6.63303
G1 X46.730 Y90.500 E6.65186
G1 X46.994 Y90.484 E6.66505 F600.000
G1 X47.355 Y90.498 E6.68301
G1 X47.621 Y90.537 E6.69642
G1 X47.975 Y90.628 E6.71463
G1 X48.236 Y90.725 E6.72845
G1 X48.761 Y91.014 E6.75832
G1 X49.149 Y91.334 E6.78334
G1 X49.338 Y91.535 E6.79709
G1 X49.556 Y91.823 E6.81505
G1 X49.693 Y92.049 E6.82824
G1 X49.851 Y92.386 E6.84675
G1 X49.966 Y92.739 E6.86526
G1 X50.023 Y93.005 E6.87878
G1 X50.064 Y93.494 E6.90324
G1 X50.023 Y93.984 E6.92773
G1 X49.977 Y94.195 E6.93847
G1 X49.592 Y94.154 F9000.000
G1 X49.492 Y94.461 E6.95455 F600.000
G1 X49.353 Y94.757 E6.97085
G1 X49.235 Y94.951 E6.98215
G1 X48.961 Y95.297 E7.00413
G1 X48.555 Y95.646 E7.03077
G1 X48.362 Y95.769 E7.04219
G1 X48.066 Y95.916 E7.05860
G1 X47.653 Y96.050 E7.08025
G1 X47.328 Y96.105 E7.09666
G1 X47.104 Y96.119 E7.10784
G1 X46.783 Y96.106 E7.12381
G1 X46.552 Y96.072 E7.13543
G1 X46.040 Y95.918 E7.16209
G1 X45.646 Y95.713 E7.18418
G1 X45.379 Y95.519 E7.20060
G1 X45.059 Y95.205 E7.22293
G1 X44.865 Y94.949 E7.23890
G1 X44.747 Y94.753 E7.25029
G1 X44.610 Y94.461 E7.26637
G1 X44.509 Y94.150 E7.28267
G1 X44.462 Y93.928 E7.29396
G1 X44.425 Y93.494 E7.31561
G1 X44.462 Y93.061 E7.33725
G1 X44.509 Y92.839 E7.34855
G1 X44.610 Y92.528 E7.36485
G1 X44.749 Y92.232 E7.38115
G1 X44.866 Y92.040 E7.39233
G1 X45.062 Y91.781 E7.40851
G1 X45.217 Y91.615 E7.41981
G1 X45.549 Y91.341 E7.44122
G1 X45.740 Y91.220 E7.45252
G1 X46.036 Y91.073 E7.46893
G1 X46.449 Y90.939 E7.49058
G1 X46.774 Y90.884 E7.50699
G1 X46.998 Y90.870 E7.51817 F600.000
G1 X47.319 Y90.883 E7.53414
G1 X47.545 Y90.916 E7.54553
G1 X47.860 Y90.997 E7.56172
G1 X48.075 Y91.077 E7.57313
G1 X48.544 Y91.334 E7.59978
G1 X48.885 Y91.615 E7.62176
G1 X49.043 Y91.784 E7.63328
G1 X49.236 Y92.040 E7.64924
G1 X49.353 Y92.232 E7.66042
G1 X49.492 Y92.528 E7.67672
G1 X49.593 Y92.839 E7.69302
G1 X49.640 Y93.061 E7.70432
G1 X49.677 Y93.494 E7.72596
G1 X49.640 Y93.928 E7.74761
G1 X49.605 Y94.095 E7.75613
G1 X49.816 Y94.386 F9000.000
G1 E1.75613 F1800.00000
G92 E0
G1 X70.440 Y98.884 F9000.000
G1 E6.00000 F1800.00000
G1 X47.067 Y98.884 E7.16374 F600.000
G1 X46.491 Y98.854 E7.19246
G1 X45.814 Y98.739 E7.22663
G1 X45.392 Y98.621 E7.24846
G1 X44.751 Y98.367 E7.28279
G1 X44.362 Y98.164 E7.30462
G1 X43.788 Y97.783 E7.33895
G1 X43.445 Y97.499 E7.36110
G1 X43.127 Y97.188 E7.38325
G1 X42.688 Y96.657 E7.41758
G1 X42.442 Y96.286 E7.43973
G1 X42.227 Y95.896 E7.46189
G1 X41.963 Y95.270 E7.49572
G1 X41.831 Y94.834 E7.51839
G1 X41.739 Y94.399 E7.54053
G1 X41.667 Y93.724 E7.57435
G1 X41.667 Y93.275 E7.59671
G1 X41.737 Y92.599 E7.63052
G1 X41.832 Y92.154 E7.65318
G1 X41.962 Y91.722 E7.67564
G1 X42.122 Y91.318 E7.69729
G1 X42.442 Y90.703 E7.73181
G1 X42.832 Y90.142 E7.76580
G1 X43.123 Y89.805 E7.78795
G1 X43.441 Y89.494 E7.81010
G1 X43.981 Y89.066 E7.84443
G1 X44.357 Y88.828 E7.86658
G1 X44.751 Y88.621 E7.88874
G1 X45.392 Y88.368 E7.92306
G1 X45.820 Y88.248 E7.94521
G1 X46.264 Y88.163 E7.96769
G1 X46.716 Y88.116 E7.99032
G1 X47.061 Y88.105 E8.00749
G1 X70.440 Y88.105 E9.17155
G1 X70.440 Y98.824 E9.70522
G1 X70.826 Y99.269 F9000.000
G1 X47.057 Y99.269 E10.88866 F600.000
G1 X46.449 Y99.238 E10.91899
G1 X45.730 Y99.116 E10.95528
G1 X45.269 Y98.987 E10.97912
G1 X44.590 Y98.719 E11.01546
G1 X44.166 Y98.497 E11.03931
G1 X43.558 Y98.093 E11.07565
G1 X43.187 Y97.786 E11.09961
G1 X42.843 Y97.449 E11.12357
G1 X42.378 Y96.887 E11.15991
G1 X42.111 Y96.486 E11.18388
G1 X41.880 Y96.064 E11.20784
G1 X41.600 Y95.401 E11.24367
G1 X41.458 Y94.930 E11.26815
G1 X41.358 Y94.460 E11.29211
G1 X41.282 Y93.744 E11.32794
G1 X41.281 Y93.255 E11.35231
G1 X41.356 Y92.539 E11.38812
G1 X41.458 Y92.058 E11.41260
G1 X41.597 Y91.595 E11.43668
G1 X41.771 Y91.157 E11.46013
G1 X42.112 Y90.503 E11.49687
G1 X42.527 Y89.906 E11.53309
G1 X42.841 Y89.541 E11.55705
G1 X43.185 Y89.205 E11.58101
G1 X43.757 Y88.751 E11.61735
G1 X44.164 Y88.493 E11.64132
G1 X44.590 Y88.270 E11.66528
G1 X45.269 Y88.002 E11.70162
G1 X45.732 Y87.872 E11.72558
G1 X46.207 Y87.782 E11.74966
G1 X46.690 Y87.731 E11.77380
G1 X47.054 Y87.719 E11.79198
G1 X70.826 Y87.719 E12.97554
G1 X70.826 Y99.209 E13.54761
G1 X70.480 Y99.069 F9000.000
G1 X65.520 Y97.110 F9000.000
G1 X67.009 Y98.600 E13.65303 F600.000
G1 X67.558 Y98.600 E13.68046
G1 X66.068 Y97.110 E13.78587
G1 X66.616 Y97.110 E13.81330
G1 X68.106 Y98.600 E13.91872
G1 X68.654 Y98.600 E13.94614
G1 X67.164 Y97.110 E14.05156
G1 X67.712 Y97.110 E14.07899
G1 X69.202 Y98.600 E14.18440
G1 X69.750 Y98.600 E14.21183
G1 X67.888 Y96.738 E14.34362
G1 X67.888 Y96.190 E14.37105
G1 X70.157 Y98.458 E14.53161
G1 X70.157 Y97.910 E14.55904
G1 X67.888 Y95.641 E14.71961
G1 X67.888 Y95.093 E14.74703
G1 X70.157 Y97.362 E14.90760
G1 X70.157 Y96.814 E14.93503
G1 X67.888 Y94.545 E15.09559
G1 X67.888 Y93.997 E15.12302
G1 X70.157 Y96.266 E15.28358
G1 X70.157 Y95.718 E15.31101
G1 X67.888 Y93.449 E15.47157
G1 X67.888 Y92.901 E15.49900
G1 X70.157 Y95.170 E15.65957
G1 X70.157 Y94.622 E15.68700
G1 X67.888 Y92.353 E15.84756
G1 X67.888 Y91.805 E15.87499
G1 X70.157 Y94.074 E16.03555
G1 X70.157 Y93.525 E16.06298
G1 X67.888 Y91.257 E16.22354
G1 X67.888 Y90.708 E16.25097
G1 X70.157 Y92.977 E16.41154
G1 X70.157 Y92.429 E16.43896
G1 X67.888 Y90.160 E16.59953
G1 X70.157 Y88.592 F9000.000
G1 X69.953 Y88.389 E16.61394 F600.000
G1 X69.405 Y88.389 E16.64137
G1 X70.157 Y89.141 E16.69456
G1 X70.157 Y89.689 E16.72199
G1 X68.857 Y88.389 E16.81398
G1 X68.309 Y88.389 E16.84141
G1 X70.157 Y90.237 E16.97219
G1 X70.157 Y90.785 E16.99961
G1 X67.760 Y88.389 E17.16918
G1 X67.212 Y88.389 E17.19661
G1 X70.157 Y91.333 E17.40496
G1 X70.157 Y91.881 E17.43239
G1 X66.664 Y88.389 E17.67954
G1 X66.116 Y88.389 E17.70697
G1 X67.327 Y89.600 E17.79268
G1 X66.779 Y89.600 E17.82011
G1 X65.568 Y88.389 E17.90582
G1 X65.020 Y88.389 E17.93325
G1 X66.231 Y89.600 E18.01896
G1 X65.683 Y89.600 E18.04639
G1 X64.472 Y88.389 E18.13210
G1 X63.924 Y88.389 E18.15953
G1 X65.322 Y89.787 E18.25848
G1 X65.322 Y90.335 E18.28591
G1 X63.376 Y88.389 E18.42364
G1 X62.827 Y88.389 E18.45107
G1 X65.322 Y90.883 E18.62759
G1 X65.322 Y91.431 E18.65502
G1 X64.001 Y90.111 E18.74846
G1 X64.001 Y90.659 E18.77589
G1 X65.322 Y91.979 E18.86933
G1 X65.046 Y92.251 E18.88873
G1 X64.001 Y91.207 E18.96263
G1 X64.001 Y91.755 E18.99006
G1 X64.498 Y92.251 E19.02517
G1 E13.02517 F1800.00000
G92 E0
G1 X64.745 Y94.691 F9000.000
G1 E6.00000 F1800.00000
G1 X65.322 Y95.268 E6.04082 F600.000
G1 X65.322 Y95.816 E6.06825
G1 X64.197 Y94.691 E6.14787
G1 X64.001 Y95.044 E6.16805
G1 X65.322 Y96.364 E6.26149
G1 X65.322 Y96.912 E6.28892
G1 X64.001 Y95.592 E6.38236
G1 X64.001 Y96.140 E6.40978
G1 X66.461 Y98.600 E6.58386
G1 X65.913 Y98.600 E6.61129
G1 X64.001 Y96.688 E6.74658
G1 X63.876 Y97.110 F9000.000
G1 X65.365 Y98.600 E6.85200 F600.000
G1 X64.817 Y98.600 E6.87942
G1 X63.327 Y97.110 E6.98484
G1 X62.779 Y97.110 E7.01227
G1 X64.269 Y98.600 E7.11768
G1 X63.721 Y98.600 E7.14511
G1 X62.231 Y97.110 E7.25052
G1 X61.683 Y97.110 E7.27795
G1 X63.173 Y98.600 E7.38337
G1 X62.625 Y98.600 E7.41080
G1 X59.476 Y95.452 E7.63359
G1 X59.476 Y96.000 E7.66102
G1 X62.076 Y98.600 E7.84503
G1 X61.528 Y98.600 E7.87246
G1 X59.476 Y96.548 E8.01768
G1 X59.476 Y97.096 E8.04511
G1 X60.980 Y98.600 E8.15153
G1 X60.432 Y98.600 E8.17896
G1 X58.943 Y97.110 E8.28438
G1 X58.394 Y97.110 E8.31181
G1 X59.884 Y98.600 E8.41722
G1 X59.336 Y98.600 E8.44465
G1 X57.846 Y97.110 E8.55006
G1 X57.298 Y97.110 E8.57749
G1 X58.788 Y98.600 E8.68291
G1 X58.240 Y98.600 E8.71033
G1 X56.750 Y97.110 E8.81575
G1 X56.202 Y97.110 E8.84318
G1 X57.692 Y98.600 E8.94859
G1 X57.143 Y98.600 E8.97602
G1 X55.654 Y97.110 E9.08144
G1 X55.106 Y97.110 E9.10886
G1 X56.595 Y98.600 E9.21428
G1 X56.047 Y98.600 E9.24171
G1 X54.558 Y97.110 E9.34712
G1 X54.010 Y97.110 E9.37455
G1 X55.499 Y98.600 E9.47996
G1 X54.951 Y98.600 E9.50739
G1 X50.303 Y93.953 E9.83629
G1 X50.196 Y94.393 E9.85898
