; generated by Slic3r 1.2.9 on 2017-03-05 at 23:41:18

; external perimeters extrusion width = 0.40mm
; perimeters extrusion width = 0.56mm
; infill extrusion width = 0.38mm
; solid infill extrusion width = 0.56mm
; top infill extrusion width = 0.22mm

M106 S256; Turn on fan to 100% power
M104 S140; turn on extruder temperature at S value
M140 S60; turn on bed temperature at S value
G28; home all axes
M84; disable motors
G1 Z15 F15000; have Z move to 20mm at 15000 mm/min
M190 S55; turn on bed temperature at S value and wait
M140 S55; turn on bed temperature at S value (printing temperature)
M109 S200; turn on extruder temperature at S value and wait (printing temperature)
M104 S200; turn on extruder temperature at S value
G1 Z0 F12000; move Z back to home
G21 ; set units to millimeters
G90 ; use absolute coordinates
M82 ; use absolute distances for extrusion
G92 E0
M106 S255
;Layer change
G1 E-6.00000 F1800.00000
G92 E0
G1 Z0.300 F9000.000
G1 X45.698 Y70.693 F9000.000
G1 E6.00000 F1800.00000
G1 X46.183 Y70.399 E6.02822 F600.000
G1 X46.769 Y70.093 E6.06113
G1 X47.287 Y69.862 E6.08936
G1 X48.055 Y69.584 E6.13008
G1 X48.692 Y69.406 E6.16299
G1 X49.495 Y69.246 E6.20373
G1 X50.057 Y69.175 E6.23197
G1 X50.835 Y69.130 E6.27075
G1 X135.000 Y69.129 E10.46125
G1 X136.680 Y69.523 E10.54715
G1 X138.008 Y70.625 E10.63306 F600.000
G1 X138.771 Y72.900 E10.75254
G1 X138.771 Y84.900 E11.35001
G1 X138.377 Y86.580 E11.43591
G1 X137.275 Y87.908 E11.52182
G1 X136.309 Y88.437 E11.57668
G1 X76.309 Y110.637 E14.76195
G1 X75.000 Y110.871 E14.82814
G1 X51.000 Y110.871 E16.02307
G1 X50.466 Y110.856 E16.04969
G1 X49.900 Y110.809 E16.07794
G1 X49.247 Y110.712 E16.11081
G1 X48.846 Y110.630 E16.13121
G1 X47.905 Y110.368 E16.17982
G1 X47.520 Y110.230 E16.20018
G1 X46.912 Y109.974 E16.23304
G1 X46.046 Y109.522 E16.28167
G1 X45.489 Y109.168 E16.31455
G1 X45.156 Y108.930 E16.33493
G1 X44.404 Y108.308 E16.38352
G1 X43.823 Y107.731 E16.42427
G1 X43.399 Y107.239 E16.45662
G1 X43.142 Y106.907 E16.47752
G1 X42.684 Y106.229 E16.51825
G1 X42.400 Y105.738 E16.54649
G1 X42.106 Y105.146 E16.57939
G1 X41.799 Y104.388 E16.62012
G1 X41.624 Y103.848 E16.64837
G1 X41.460 Y103.209 E16.68125
G1 X41.353 Y102.651 E16.70949
G1 X41.257 Y101.839 E16.75023
G1 X41.229 Y101.100 E16.78705
G1 X41.229 Y78.900 E17.89237
G1 X41.257 Y78.161 E17.92918
G1 X41.317 Y77.597 E17.95742
G1 X41.427 Y76.946 E17.99030
G1 X41.669 Y76.000 E18.03890
G1 X41.799 Y75.612 E18.05928
G1 X42.042 Y74.998 E18.09217
G1 X42.284 Y74.485 E18.12040
G1 X42.602 Y73.906 E18.15329
G1 X42.906 Y73.427 E18.18152
G1 X43.288 Y72.901 E18.21388
G1 X43.932 Y72.154 E18.26300
G1 X44.220 Y71.864 E18.28338
G1 X44.711 Y71.422 E18.31627
G1 X45.156 Y71.070 E18.34449
G1 X45.648 Y70.726 E18.37440
G1 X45.911 Y71.014 F9000.000
G1 X46.369 Y70.737 E18.40102 F600.000
G1 X46.940 Y70.438 E18.43311
G1 X47.429 Y70.221 E18.45974
G1 X48.167 Y69.953 E18.49885
G1 X48.788 Y69.779 E18.53095
G1 X49.559 Y69.626 E18.57009
G1 X50.089 Y69.559 E18.59672
G1 X50.839 Y69.516 E18.63410
G1 X135.000 Y69.514 E22.82439
G1 X136.585 Y69.908 E22.90572
G1 X137.802 Y70.999 E22.98705 F600.000
G1 X138.386 Y72.900 E23.08607
G1 X138.386 Y84.900 E23.68354
G1 X137.992 Y86.485 E23.76487
G1 X136.175 Y88.075 E23.88507
G1 X76.175 Y110.275 E27.07034
G1 X75.000 Y110.486 E27.12976
G1 X51.000 Y110.486 E28.32470
G1 X50.482 Y110.471 E28.35051
G1 X49.949 Y110.426 E28.37715
G1 X49.311 Y110.332 E28.40922
G1 X48.926 Y110.253 E28.42881
G1 X48.032 Y110.004 E28.47501
G1 X47.662 Y109.872 E28.49457
G1 X47.069 Y109.622 E28.52663
G1 X46.246 Y109.192 E28.57284
G1 X45.702 Y108.847 E28.60492
G1 X45.382 Y108.618 E28.62449
G1 X44.668 Y108.027 E28.67067
G1 X44.110 Y107.473 E28.70982
G1 X43.696 Y106.993 E28.74136
G1 X43.449 Y106.674 E28.76145
G1 X43.009 Y106.022 E28.80058
G1 X42.742 Y105.559 E28.82721
G1 X42.455 Y104.982 E28.85931
G1 X42.161 Y104.254 E28.89843
G1 X41.995 Y103.745 E28.92507
G1 X41.835 Y103.121 E28.95715
G1 X41.735 Y102.595 E28.98378
G1 X41.642 Y101.815 E29.02291
G1 X41.614 Y101.100 E29.05852
G1 X41.614 Y78.900 E30.16384
G1 X41.642 Y78.185 E30.19945
G1 X41.698 Y77.653 E30.22608
G1 X41.805 Y77.018 E30.25816
G1 X42.036 Y76.120 E30.30435
G1 X42.160 Y75.747 E30.32392
G1 X42.398 Y75.148 E30.35600
G1 X42.625 Y74.664 E30.38263
G1 X42.936 Y74.099 E30.41471
G1 X43.222 Y73.647 E30.44134
G1 X43.595 Y73.135 E30.47290
G1 X44.207 Y72.424 E30.51960
G1 X44.492 Y72.138 E30.53970
G1 X44.963 Y71.714 E30.57126
G1 X45.382 Y71.382 E30.59788
G1 X45.861 Y71.047 E30.62698
G1 E24.62698 F1800.00000
G92 E0
G1 X66.665 Y104.047 F9000.000
G1 E6.00000 F1800.00000
G1 X64.331 Y104.047 E6.11621 F600.000
G1 X64.331 Y102.962 E6.17022
G1 X65.442 Y102.962 E6.22554
G1 X65.440 Y99.690 E6.38844
G1 X65.421 Y99.504 E6.39776
G1 X65.332 Y99.217 E6.41270
G1 X65.270 Y99.117 E6.41858
G1 X65.147 Y98.997 E6.42709
G1 X64.970 Y98.910 E6.43695
G1 X64.786 Y98.881 E6.44622
G1 X64.563 Y98.902 E6.45737
G1 X64.372 Y98.987 E6.46777
G1 X64.208 Y99.144 E6.47905
G1 X64.074 Y99.390 E6.49302
G1 X63.934 Y99.930 E6.52081
G1 X62.821 Y99.744 E6.57700
G1 X61.985 Y100.164 E6.62359
G1 X61.749 Y99.744 E6.64760
G1 X61.542 Y99.461 E6.66502
G1 X61.397 Y99.311 E6.67541
G1 X61.151 Y99.125 E6.69077
G1 X60.881 Y98.992 E6.70576
G1 X60.691 Y98.935 E6.71564
G1 X60.486 Y98.900 E6.72601
G1 X60.174 Y98.890 E6.74152
G1 X59.755 Y98.947 E6.76260
G1 X59.540 Y99.016 E6.77383
G1 X59.340 Y99.113 E6.78492
G1 X59.157 Y99.239 E6.79597
G1 X58.990 Y99.394 E6.80732
G1 X58.839 Y99.576 E6.81911
G1 X58.714 Y99.775 E6.83079
G1 X58.553 Y100.164 E6.85177
G1 X58.475 Y100.510 E6.86940
G1 X58.439 Y101.005 E6.89411
G1 X58.474 Y101.504 E6.91902
G1 X58.549 Y101.849 E6.93659
G1 X58.701 Y102.226 E6.95685
G1 X58.915 Y102.539 E6.97571
G1 X59.185 Y102.785 E6.99392
G1 X59.431 Y102.924 E7.00798
G1 X59.802 Y103.038 E7.02729
G1 X60.138 Y103.075 E7.04410
G1 X60.513 Y103.060 E7.06283
G1 X60.905 Y102.968 E7.08284
G1 X61.125 Y102.869 E7.09486
G1 X61.414 Y102.656 E7.11275
G1 X61.531 Y102.524 E7.12155
G1 X61.631 Y102.372 E7.13055
G1 X61.804 Y102.010 E7.15057
G1 X62.973 Y102.395 E7.21184
G1 X62.718 Y102.918 E7.24085
G1 X62.514 Y103.229 E7.25935
G1 X62.200 Y103.544 E7.28149
G1 X61.866 Y103.777 E7.30174
G1 X61.488 Y103.955 E7.32255
G1 X61.069 Y104.078 E7.34428
G1 X60.562 Y104.151 E7.36982
G1 X59.933 Y104.153 E7.40111
G1 X59.532 Y104.105 E7.42124
G1 X59.271 Y104.048 E7.43451
G1 X58.912 Y103.930 E7.45336
G1 X58.581 Y103.768 E7.47170
G1 X58.368 Y103.631 E7.48429
G1 X58.004 Y103.315 E7.50830
G1 X57.768 Y103.030 E7.52672
G1 X57.632 Y102.820 E7.53918
G1 X57.515 Y102.596 E7.55175
G1 X57.375 Y102.240 E7.57081
G1 X57.253 Y101.719 E7.59745
G1 X57.208 Y101.303 E7.61831
G1 X57.199 Y101.000 E7.63338
G1 X57.246 Y100.332 E7.66672
G1 X57.316 Y99.972 E7.68501
G1 X57.391 Y99.713 E7.69839
G1 X57.517 Y99.393 E7.71555
G1 X57.676 Y99.094 E7.73239
G1 X57.864 Y98.824 E7.74877
G1 X58.207 Y98.470 E7.77330
G1 X58.468 Y98.275 E7.78955
G1 X58.757 Y98.110 E7.80610
G1 X58.992 Y98.009 E7.81882
G1 X59.237 Y97.927 E7.83170
G1 X59.582 Y97.849 E7.84932
G1 X60.217 Y97.798 E7.88102
G1 X60.597 Y97.816 E7.89995
G1 X61.035 Y97.891 E7.92211
G1 X61.448 Y98.026 E7.94372
G1 X61.831 Y98.219 E7.96510
G1 X62.177 Y98.469 E7.98633
G1 X62.426 Y98.711 E8.00361
G1 X62.692 Y99.055 E8.02527
G1 X62.823 Y99.287 E8.03855
G1 X62.990 Y98.823 E8.06313
G1 X63.188 Y98.497 E8.08212
G1 X63.381 Y98.278 E8.09662
G1 X63.714 Y98.034 E8.11720
G1 X63.982 Y97.916 E8.13177
G1 X64.273 Y97.839 E8.14676
G1 X64.733 Y97.798 E8.16978
G1 X65.010 Y97.811 E8.18358
G1 X65.338 Y97.870 E8.20017
G1 X65.641 Y97.978 E8.21617
G1 X65.913 Y98.136 E8.23184
G1 X66.150 Y98.344 E8.24755
G1 X66.346 Y98.592 E8.26328
G1 X66.483 Y98.844 E8.27755
G1 X66.577 Y99.109 E8.29158
G1 X66.632 Y99.361 E8.30440
G1 X66.664 Y99.712 E8.32194
G1 X66.665 Y103.987 E8.53478
G1 X67.405 Y104.047 F9000.000
G1 X67.405 Y97.875 E8.84206 F600.000
G1 X68.632 Y97.875 E8.90315
G1 X68.632 Y100.526 E9.03516
G1 X71.291 Y100.526 E9.16756
G1 X71.291 Y97.875 E9.29957
G1 X72.518 Y97.875 E9.36066
G1 X72.518 Y104.047 E9.66794
G1 X71.291 Y104.047 E9.72903
G1 X71.291 Y101.627 E9.84948
G1 X68.632 Y101.627 E9.98188
G1 X68.632 Y104.047 E10.10233
G1 X67.465 Y104.047 E10.16043
G1 E4.16043 F1800.00000
G92 E0
G1 X53.567 Y101.651 F9000.000
G1 E6.00000 F1800.00000
G1 X53.439 Y102.073 E6.02197 F600.000
G1 X53.190 Y102.549 E6.04874
G1 X52.989 Y102.814 E6.06527
G1 X52.834 Y102.979 E6.07657
G1 X52.502 Y103.253 E6.09798
G1 X52.311 Y103.375 E6.10928
G1 X52.015 Y103.521 E6.12569
G1 X51.604 Y103.655 E6.14724
G1 X51.324 Y103.707 E6.16138
G1 X51.053 Y103.725 E6.17493
G1 X50.728 Y103.711 E6.19113
G1 X50.506 Y103.678 E6.20231
G1 X50.195 Y103.599 E6.21827
G1 X49.981 Y103.519 E6.22966
G1 X49.689 Y103.375 E6.24585
G1 X49.498 Y103.253 E6.25715
G1 X49.166 Y102.979 E6.27856
G1 X49.008 Y102.810 E6.29008
G1 X48.815 Y102.555 E6.30605
G1 X48.696 Y102.359 E6.31744
G1 X48.559 Y102.066 E6.33352
G1 X48.458 Y101.755 E6.34981
G1 X48.411 Y101.533 E6.36111
G1 X48.374 Y101.100 E6.38276
G1 X48.411 Y100.667 E6.40441
G1 X48.459 Y100.441 E6.41592
G1 X48.559 Y100.133 E6.43200
G1 X48.698 Y99.837 E6.44830
G1 X48.816 Y99.643 E6.45960
G1 X49.087 Y99.301 E6.48134
G1 X49.325 Y99.079 E6.49754
G1 X49.689 Y98.825 E6.51965
G1 X49.985 Y98.679 E6.53606
G1 X50.396 Y98.545 E6.55761
G1 X50.676 Y98.493 E6.57175
G1 X50.947 Y98.475 E6.58530 F600.000
G1 X51.272 Y98.489 E6.60150
G1 X51.708 Y98.572 E6.62360
G1 X52.017 Y98.680 E6.63990
G1 X52.311 Y98.825 E6.65620
G1 X52.502 Y98.947 E6.66750
G1 X52.834 Y99.221 E6.68892
G1 X52.992 Y99.390 E6.70043
G1 X53.185 Y99.645 E6.71639
G1 X53.302 Y99.837 E6.72757
G1 X53.441 Y100.134 E6.74387
G1 X53.542 Y100.445 E6.76017
G1 X53.589 Y100.667 E6.77146
G1 X53.626 Y101.098 E6.79299
G1 X53.577 Y101.591 E6.81769
G1 E0.81769 F1800.00000
G92 E0
G1 X74.775 Y106.875 F9000.000
G1 E6.00000 F1800.00000
G1 X51.006 Y106.875 E7.18344 F600.000
G1 X50.398 Y106.843 E7.21377
G1 X49.679 Y106.722 E7.25005
G1 X49.218 Y106.593 E7.27390
G1 X48.539 Y106.324 E7.31024
G1 X48.113 Y106.101 E7.33420
G1 X47.704 Y105.842 E7.35828
G1 X47.321 Y105.551 E7.38225
G1 X46.790 Y105.053 E7.41847
G1 X46.333 Y104.501 E7.45418
G1 X46.060 Y104.091 E7.47866
G1 X45.829 Y103.670 E7.50262
G1 X45.546 Y102.997 E7.53896
G1 X45.407 Y102.536 E7.56292
G1 X45.307 Y102.065 E7.58688
G1 X45.230 Y101.339 E7.62322
G1 X45.230 Y100.860 E7.64707
G1 X45.305 Y100.145 E7.68290
G1 X45.407 Y99.664 E7.70738
G1 X45.546 Y99.201 E7.73145
G1 X45.724 Y98.753 E7.75542
G1 X46.061 Y98.109 E7.79164
G1 X46.476 Y97.511 E7.82786
G1 X46.790 Y97.147 E7.85183
G1 X47.136 Y96.809 E7.87590
G1 X47.509 Y96.500 E7.89999
G1 X47.904 Y96.226 E7.92395
G1 X48.541 Y95.875 E7.96017
G1 X49.218 Y95.607 E7.99640
G1 X49.681 Y95.478 E8.02036
G1 X50.156 Y95.387 E8.04444
G1 X50.639 Y95.336 E8.06858
G1 X51.004 Y95.325 E8.08676
G1 X74.775 Y95.325 E9.27032
G1 X74.775 Y106.815 E9.84239
G1 X67.035 Y104.239 F9000.000
G1 X67.034 Y99.703 E10.33185 F600.000
G1 X67.015 Y99.289 E10.37650
G1 X66.970 Y98.869 E10.42216
G1 X66.810 Y98.609 F9000.000
G1 X66.644 Y98.442 E10.43401 F600.000
G1 X68.550 Y97.591 F9000.000
G1 X66.567 Y95.609 E10.57516 F600.000
G1 X66.016 Y95.609 E10.60292
G1 X67.998 Y97.591 E10.74407
G1 X67.447 Y97.591 E10.77183
G1 X65.465 Y95.609 E10.91297
G1 X64.913 Y95.609 E10.94074
G1 X67.121 Y97.817 E11.09793
G1 X67.121 Y98.368 E11.12570
G1 X64.362 Y95.609 E11.32215
G1 X63.810 Y95.609 E11.34992
G1 X66.000 Y97.798 E11.50579
G1 X65.189 Y97.539 E11.54866
G1 X63.259 Y95.609 E11.68606
G1 X62.707 Y95.609 E11.71383
G1 X64.628 Y97.529 E11.85056
G1 X64.145 Y97.598 E11.87512
G1 X62.156 Y95.609 E12.01673
G1 X61.604 Y95.609 E12.04450
G1 X63.738 Y97.742 E12.19637
G1 X63.398 Y97.954 E12.21652
G1 X61.053 Y95.609 E12.38349
G1 X60.502 Y95.609 E12.41125
G1 X63.105 Y98.213 E12.59663
G1 X62.872 Y98.530 E12.61649
G1 X59.950 Y95.609 E12.82449
G1 X59.399 Y95.609 E12.85226
G1 X61.505 Y97.715 E13.00220
G1 X60.784 Y97.545 E13.03949
G1 X58.847 Y95.609 E13.17736
G1 X58.296 Y95.609 E13.20513
G1 X60.207 Y97.520 E13.34122
G1 X59.697 Y97.562 E13.36699
G1 X57.744 Y95.609 E13.50602
G1 X57.193 Y95.609 E13.53378
G1 X59.237 Y97.653 E13.67930
G1 X58.835 Y97.802 E13.70088
G1 X56.641 Y95.609 E13.85706
G1 X56.090 Y95.609 E13.88482
G1 X58.465 Y97.984 E14.05394
G1 X58.138 Y98.208 E14.07391
G1 X55.539 Y95.609 E14.25899
G1 X54.987 Y95.609 E14.28675
G1 X57.845 Y98.467 E14.49026
G1 X57.596 Y98.769 E14.50998
G1 X54.436 Y95.609 E14.73499
G1 X53.884 Y95.609 E14.76276
G1 X57.381 Y99.106 E15.01173
G1 X57.204 Y99.480 E15.03258
G1 X53.333 Y95.609 E15.30821
G1 X52.781 Y95.609 E15.33597
G1 X57.064 Y99.892 E15.64092
G1 X56.968 Y100.347 E15.66435
G1 X52.230 Y95.609 E16.00170
G1 X51.678 Y95.609 E16.02946
G1 X56.930 Y100.860 E16.40335
G1 X56.924 Y101.406 E16.43085
G1 X51.127 Y95.609 E16.84362
G1 X50.586 Y95.619 E16.87085
G1 X57.018 Y102.051 E17.32875
G1 X57.286 Y102.870 E17.37216
G1 X50.090 Y95.675 E17.88449
G1 X49.631 Y95.767 E17.90807
G1 X52.334 Y98.470 E18.10051
G1 X51.548 Y98.235 E18.14178
G1 X49.204 Y95.892 E18.30866
G1 X48.809 Y96.048 E18.33005
G1 X50.956 Y98.195 E18.48294
G1 X50.467 Y98.257 E18.50779
G1 X48.434 Y96.224 E18.65251
G1 X48.078 Y96.420 E18.67295
G1 X50.042 Y98.384 E18.81278
G1 X49.661 Y98.554 E18.83381
G1 X47.747 Y96.641 E18.97002
G1 X47.438 Y96.883 E18.98979
G1 X49.326 Y98.771 E19.12420
G1 X49.023 Y99.019 E19.14393
G1 X47.161 Y97.158 E19.27646
G1 X46.886 Y97.433 E19.29609
G1 X48.761 Y99.309 E19.42963
G1 X48.529 Y99.628 E19.44950
G1 X46.631 Y97.730 E19.58466
G1 X46.404 Y98.055 E19.60461
G1 X48.342 Y99.992 E19.74254
G1 X48.197 Y100.399 E19.76426
G1 X46.197 Y98.399 E19.90663
G1 X46.008 Y98.761 E19.92721
G1 X48.115 Y100.869 E20.07728
G1 X48.109 Y101.413 E20.10470
G1 X45.845 Y99.150 E20.26583
G1 X45.711 Y99.567 E20.28790
G1 X48.239 Y102.095 E20.46789
G1 X50.012 Y103.868 F9000.000
G1 X52.735 Y106.591 E20.66174 F600.000
G1 X53.286 Y106.591 E20.68950
G1 X50.692 Y103.997 E20.87419
G1 X51.239 Y103.992 E20.90169
G1 X53.838 Y106.591 E21.08676
G1 X54.389 Y106.591 E21.11452
G1 X51.698 Y103.900 E21.30610
G1 X52.110 Y103.760 E21.32798
G1 X54.941 Y106.591 E21.52954
G1 X55.492 Y106.591 E21.55731
G1 X52.472 Y103.571 E21.77231
G1 X52.791 Y103.339 E21.79218
G1 X56.044 Y106.591 E22.02374
G1 X56.595 Y106.591 E22.05150
G1 X53.083 Y103.079 E22.30158
G1 X53.332 Y102.777 E22.32130
G1 X57.146 Y106.591 E22.59288
G1 X57.698 Y106.591 E22.62065
G1 X53.539 Y102.432 E22.91676
G1 X53.718 Y102.060 E22.93756
G1 X58.249 Y106.591 E23.26016
G1 X58.801 Y106.591 E23.28792
G1 X53.845 Y101.635 E23.64079
G1 X53.902 Y101.141 E23.66583
G1 X59.352 Y106.591 E24.05386
G1 X59.904 Y106.591 E24.08162
G1 X53.872 Y100.560 E24.51105
G1 X53.628 Y99.764 E24.55296
G1 X60.455 Y106.591 E25.03905
G1 X61.007 Y106.591 E25.06681
G1 X58.518 Y104.103 E25.24400
G1 X59.340 Y104.373 F9000.000
G1 X61.558 Y106.591 E25.40190 F600.000
G1 X62.109 Y106.591 E25.42967
G1 X59.958 Y104.440 E25.58282
G1 X60.504 Y104.434 E25.61027
G1 X62.661 Y106.591 E25.76387
G1 X63.212 Y106.591 E25.79163
G1 X60.986 Y104.365 E25.95011
G1 X61.422 Y104.250 E25.97281
G1 X63.764 Y106.591 E26.13953
G1 X64.315 Y106.591 E26.16730
G1 X61.811 Y104.087 E26.34560
G1 X62.157 Y103.881 E26.36585
G1 X64.867 Y106.591 E26.55881
G1 X65.418 Y106.591 E26.58657
G1 X62.462 Y103.635 E26.79704
G1 X62.733 Y103.355 E26.81668
G1 X65.970 Y106.591 E27.04710
G1 X66.521 Y106.591 E27.07486
G1 X64.260 Y104.330 E27.23583
G1 X64.048 Y104.118 F9000.000
G1 X62.952 Y103.022 E27.31386 F600.000
G1 X63.133 Y102.652 E27.33461
G1 X64.048 Y103.566 E27.39972
G1 X64.048 Y103.015 E27.42748
G1 X60.210 Y99.177 E27.70071
G1 X59.716 Y99.235 E27.72574
G1 X62.336 Y101.855 E27.91230
G1 X61.656 Y101.726 E27.94716
G1 X59.345 Y99.415 E28.11170
G1 X59.069 Y99.691 E28.13133
G1 X61.477 Y102.099 E28.30278
G1 X61.269 Y102.442 E28.32299
G1 X58.879 Y100.053 E28.49315
G1 X58.756 Y100.481 E28.51558
G1 X60.944 Y102.668 E28.67134
G1 X60.503 Y102.779 E28.69421
G1 X58.730 Y101.006 E28.82049
G1 X58.814 Y101.641 E28.85275
G1 X59.922 Y102.749 E28.93164
G1 X62.018 Y100.434 F9000.000
G1 X64.262 Y102.678 E29.09143 F600.000
G1 X64.814 Y102.678 E29.11919
G1 X62.385 Y100.249 E29.29212
G1 X62.752 Y100.065 E29.31280
G1 X65.158 Y102.471 E29.48413
