; generated by Slic3r 1.2.9 on 2020-10-03 at 21:28:14

; external perimeters extrusion width = 0.40mm
; perimeters extrusion width = 0.62mm
; infill extrusion width = 0.33mm
; solid infill extrusion width = 0.62mm
; top infill extrusion width = 0.20mm

M106 S256; Turn on fan to 100% power
M104 S140; turn on extruder temperature at S value
M140 S60; turn on bed temperature at S value
G28; home all axes
M84; disable motors
G1 Z15 F15000; have Z move to 20mm at 15000 mm/min
M190 S55; turn on bed temperature at S value and wait
M140 S55; turn on bed temperature at S value (printing temperature)
M109 S200; turn on extruder temperature at S value and wait (printing temperature)
M104 S200; turn on extruder temperature at S value
G1 Z0 F12000; move Z back to home
G21 ; set units to millimeters
G90 ; use absolute coordinates
M82 ; use absolute distances for extrusion
G92 E0
M106 S255
;Layer change
G1 E-6.00000 F1800.00000
G92 E0
G1 Z0.300 F9000.000
G1 X76.856 Y27.174 F9000.000
G1 E6.00000 F1800.00000
G1 X81.856 Y18.514 E6.49215 F600.000
G1 X82.850 Y17.576 E6.55942
G1 X83.922 Y17.321 E6.61365
G1 X131.118 Y17.321 E8.93641
G1 X132.428 Y17.713 E9.00369
G1 X133.184 Y18.514 E9.05791 F600.000
G1 X138.184 Y27.174 E9.55006
G1 X138.500 Y28.504 E9.61734
G1 X138.033 Y29.789 E9.68461
G1 X137.311 Y30.433 E9.73225
G1 X132.115 Y33.433 E10.02754
G1 X130.922 Y33.753 E10.08831
G1 X84.118 Y33.753 E12.39177
G1 X82.925 Y33.433 E12.45254
G1 X77.729 Y30.433 E12.74783
G1 X76.791 Y29.439 E12.81511
G1 X76.552 Y28.093 E12.88238
G1 X76.837 Y27.231 E12.92706
G1 E6.92706 F1800.00000
G92 E0
G1 X87.757 Y23.072 F9000.000
G1 E6.00000 F1800.00000
G1 X83.753 Y30.006 E6.39409 F600.000
G1 X80.283 Y28.003 E6.59132
G1 X84.287 Y21.068 E6.98541
G1 X87.705 Y23.042 E7.17969
G1 X88.284 Y22.931 F9000.000
G1 X83.895 Y30.533 E7.61174 F600.000
G1 X79.756 Y28.144 E7.84693
G1 X84.145 Y20.541 E8.27897
G1 X88.232 Y22.901 E8.51121
G1 E2.51121 F1800.00000
G92 E0
G1 X127.283 Y23.072 F9000.000
G1 E6.00000 F1800.00000
G1 X130.753 Y21.068 E6.19723 F600.000
G1 X134.757 Y28.003 E6.59132
G1 X131.287 Y30.006 E6.78856
G1 X127.313 Y23.124 E7.17969
G1 X126.756 Y22.931 F9000.000
G1 X130.895 Y20.541 E7.41488 F600.000
G1 X135.284 Y28.144 E7.84693
G1 X131.145 Y30.533 E8.08212
G1 X126.786 Y22.982 E8.51121
G1 X127.466 Y24.932 F9000.000
G1 X126.229 Y22.789 E8.63298 F600.000
G1 X131.036 Y20.014 E8.90612
G1 X135.811 Y28.285 E9.37612
G1 X131.004 Y31.060 E9.64927
G1 X127.784 Y25.482 E9.96625
G1 X87.256 Y25.482 E11.96083
G1 X84.036 Y31.060 E12.27782
G1 X79.229 Y28.285 E12.55096
G1 X84.004 Y20.014 E13.02096
G1 X88.811 Y22.789 E13.29411
G1 X87.574 Y24.932 E13.41587
G1 X127.406 Y24.932 E15.37624
G1 X127.842 Y24.795 F9000.000
G1 X127.848 Y25.207 F9000.000
G1 X87.192 Y25.207 E17.37710 F600.000
G1 X87.327 Y23.309 F9000.000
G1 X87.094 Y23.076 E17.39355 F600.000
G1 X87.124 Y23.660 E17.42275
G1 X85.784 Y22.320 E17.51739
G1 X84.475 Y21.564 F9000.000
G1 X86.922 Y24.011 E17.69023 F600.000
G1 X86.719 Y24.362 E17.71047
G1 X84.157 Y21.800 E17.89145
G1 X83.954 Y22.151 E17.91168
G1 X86.517 Y24.713 E18.09266
G1 X86.314 Y25.064 E18.11290
G1 X83.752 Y22.502 E18.29388
G1 X83.549 Y22.853 E18.31412
G1 X86.111 Y25.415 E18.49510
G1 X85.909 Y25.765 E18.51534
G1 X83.347 Y23.203 E18.69632
G1 X83.144 Y23.554 E18.71656
G1 X85.706 Y26.116 E18.89754
G1 X85.504 Y26.467 E18.91777
G1 X82.942 Y23.905 E19.09875
G1 X82.739 Y24.256 E19.11899
G1 X85.301 Y26.818 E19.29997
G1 X85.098 Y27.169 E19.32021
G1 X82.536 Y24.607 E19.50119
G1 X82.334 Y24.958 E19.52143
G1 X84.896 Y27.520 E19.70241
G1 X84.693 Y27.871 E19.72265
G1 X82.131 Y25.309 E19.90362
G1 X81.929 Y25.660 E19.92386
G1 X84.491 Y28.222 E20.10484
G1 X84.288 Y28.573 E20.12508
G1 X81.726 Y26.011 E20.30606
G1 X81.523 Y26.361 E20.32630
G1 X84.085 Y28.923 E20.50728
G1 X83.883 Y29.274 E20.52751
G1 X81.321 Y26.712 E20.70849
G1 X81.118 Y27.063 E20.72873
G1 X83.565 Y29.510 E20.90157
G1 X82.255 Y28.754 F9000.000
G1 X80.916 Y27.414 E20.99621 F600.000
G1 X80.713 Y27.765 E21.01645
G1 X80.946 Y27.998 E21.03290
G1 E15.03290 F1800.00000
G92 E0
G1 X128.072 Y23.768 F9000.000
G1 E6.00000 F1800.00000
G1 X133.018 Y28.714 E6.37188 F600.000
G1 X133.392 Y28.498 E6.39481
G1 X127.901 Y23.008 E6.80762
G1 X128.275 Y22.792 E6.83055
G1 X133.765 Y28.282 E7.24335
G1 X134.139 Y28.067 E7.26628
G1 X128.648 Y22.576 E7.67909
G1 X129.022 Y22.361 E7.70202
G1 X133.968 Y27.307 E8.07390
G1 X133.163 Y25.913 F9000.000
G1 X129.395 Y22.145 E8.35719 F600.000
G1 X129.769 Y21.929 E8.38012
G1 X132.358 Y24.519 E8.57482
G1 X131.554 Y23.125 F9000.000
G1 X130.142 Y21.714 E8.68092 F600.000
G1 X130.516 Y21.498 E8.70385
G1 X130.749 Y21.731 E8.72136
G1 X128.877 Y25.161 F9000.000
G1 X132.645 Y28.929 E9.00465 F600.000
G1 X132.271 Y29.145 E9.02758
G1 X129.682 Y26.555 E9.22228
G1 X130.486 Y27.949 F9000.000
G1 X131.898 Y29.360 E9.32838 F600.000
G1 X131.524 Y29.576 E9.35131
G1 X131.291 Y29.343 E9.36882
M104 S205 ; set temperature
M140 S55 ; wait for bed temperature to be reached
;Layer change
G1 E3.36882 F1800.00000
G92 E0
G1 Z0.520 F9000.000
G1 X87.434 Y23.158 F9000.000
G1 E6.00000 F1800.00000
G1 X83.667 Y29.683 E6.40275 F900.000
G1 X80.606 Y27.916 E6.59165
G1 X84.373 Y21.392 E6.99440
G1 X87.382 Y23.128 E7.18010
G1 X88.214 Y22.949 F9000.000
G1 X83.876 Y30.463 E7.64392 F900.000
G1 X79.826 Y28.125 E7.89390
G1 X84.164 Y20.611 E8.35772
G1 X88.162 Y22.919 E8.60449
G1 E2.60449 F1800.00000
G92 E0
G1 X127.606 Y23.158 F9000.000
G1 E6.00000 F1800.00000
G1 X130.667 Y21.392 E6.18891 F900.000
G1 X134.434 Y27.916 E6.59165
G1 X131.373 Y29.683 E6.78056
G1 X127.636 Y23.210 E7.18010
G1 X126.826 Y22.949 F9000.000
G1 X130.876 Y20.611 E7.43008 F900.000
G1 X135.214 Y28.125 E7.89390
G1 X131.164 Y30.463 E8.14388
G1 X126.856 Y23.001 E8.60449
G1 X127.423 Y24.907 F9000.000
G1 X126.195 Y22.780 E8.68558 F1800.000
G1 X131.045 Y19.980 E8.87048
G1 X135.845 Y28.294 E9.18746
G1 X130.995 Y31.094 E9.37236
G1 X127.769 Y25.507 E9.58537
G1 X87.271 Y25.507 E10.92258
G1 X84.045 Y31.094 E11.13559
G1 X79.195 Y28.294 E11.32049
G1 X83.995 Y19.980 E11.63747
G1 X88.845 Y22.780 E11.82237
G1 X87.617 Y24.907 E11.90346
G1 X127.363 Y24.907 E13.21580
G1 X127.799 Y24.770 F9000.000
G1 X127.863 Y25.207 F9000.000
G1 X87.177 Y25.207 E15.39086 F1800.000
G1 X86.186 Y24.305 F9000.000
G1 X82.137 Y28.354 E15.74492 F1800.000
G1 X81.545 Y28.012 E15.78721
G1 X86.495 Y23.062 E16.22009
G1 X85.903 Y22.720 E16.26239
G1 X81.854 Y26.769 E16.61644
G1 X83.130 Y24.558 F9000.000
G1 X85.310 Y22.378 E16.80709 F1800.000
G1 X84.718 Y22.036 E16.84938
G1 X84.407 Y22.348 E16.87663
G1 X84.910 Y26.516 F9000.000
G1 X82.729 Y28.696 E17.06728 F1800.000
G1 X83.633 Y28.727 E17.12321
G1 X83.322 Y29.038 E17.15046
G1 E11.15046 F1800.00000
G92 E0
G1 X128.251 Y23.503 F9000.000
G1 E6.00000 F1800.00000
G1 X128.562 Y23.192 E6.02547 F1800.000
G1 X130.578 Y22.050 F9000.000
G1 X128.571 Y24.057 E6.18952 F1800.000
G1 X128.890 Y24.611 E6.22647
G1 X130.912 Y22.588 E6.39174
G1 X131.232 Y23.142 E6.42869
G1 X129.210 Y25.164 E6.59396
G1 X129.529 Y25.718 E6.63091
G1 X131.552 Y23.696 E6.79618
G1 X131.871 Y24.249 E6.83313
G1 X129.849 Y26.271 E6.99840
G1 X130.169 Y26.825 E7.03535
G1 X132.191 Y24.803 E7.20062
G1 X132.511 Y25.356 E7.23756
G1 X130.488 Y27.379 E7.40284
G1 X130.808 Y27.932 E7.43978
G1 X132.830 Y25.910 E7.60506
G1 X133.150 Y26.464 E7.64200
G1 X131.128 Y28.486 E7.80728
G1 X131.462 Y29.025 E7.84393
G1 X133.469 Y27.017 E8.00798
G1 X133.789 Y27.571 E8.04493
G1 X133.477 Y27.883 E8.07039
;Layer change
G1 E2.07039 F1800.00000
G92 E0
G1 Z0.740 F9000.000
G1 X87.434 Y23.158 F9000.000
G1 E6.00000 F1800.00000
G1 X83.667 Y29.683 E6.40275 F900.000
G1 X80.606 Y27.916 E6.59165
G1 X84.373 Y21.392 E6.99440
G1 X87.382 Y23.128 E7.18010
G1 X88.214 Y22.949 F9000.000
G1 X83.876 Y30.463 E7.64392 F900.000
G1 X79.826 Y28.125 E7.89390
G1 X84.164 Y20.611 E8.35772
G1 X88.162 Y22.919 E8.60449
G1 E2.60449 F1800.00000
G92 E0
G1 X127.606 Y23.158 F9000.000
G1 E6.00000 F1800.00000
G1 X130.667 Y21.392 E6.18891 F900.000
G1 X134.434 Y27.916 E6.59165
G1 X131.373 Y29.683 E6.78056
G1 X127.636 Y23.210 E7.18010
G1 X126.826 Y22.949 F9000.000
G1 X130.876 Y20.611 E7.43008 F900.000
G1 X135.214 Y28.125 E7.89390
G1 X131.164 Y30.463 E8.14388
G1 X126.856 Y23.001 E8.60449
G1 X127.423 Y24.907 F9000.000
G1 X126.195 Y22.780 E8.68558 F1800.000
G1 X131.045 Y19.980 E8.87048
G1 X135.845 Y28.294 E9.18746
G1 X130.995 Y31.094 E9.37236
G1 X127.769 Y25.507 E9.58537
G1 X87.271 Y25.507 E10.92258
G1 X84.045 Y31.094 E11.13559
G1 X79.195 Y28.294 E11.32049
G1 X83.995 Y19.980 E11.63747
G1 X88.845 Y22.780 E11.82237
G1 X87.617 Y24.907 E11.90346
G1 X127.363 Y24.907 E13.21580
G1 X127.799 Y24.770 F9000.000
G1 X127.863 Y25.207 F9000.000
G1 X87.177 Y25.207 E15.39086 F1800.000
G1 X86.789 Y23.503 F9000.000
G1 X86.477 Y23.192 E15.41633 F1800.000
G1 X86.469 Y24.057 E15.46633
G1 X84.462 Y22.050 E15.63039
G1 X84.128 Y22.588 E15.66704
G1 X86.150 Y24.611 E15.83231
G1 X85.830 Y25.164 E15.86925
G1 X83.808 Y23.142 E16.03453
G1 X83.488 Y23.696 E16.07147
G1 X85.511 Y25.718 E16.23674
G1 X85.191 Y26.271 E16.27369
G1 X83.169 Y24.249 E16.43896
G1 X82.849 Y24.803 E16.47590
G1 X84.871 Y26.825 E16.64118
G1 X84.552 Y27.379 E16.67812
G1 X82.529 Y25.356 E16.84339
G1 X82.210 Y25.910 E16.88034
G1 X84.232 Y27.932 E17.04561
G1 X83.912 Y28.486 E17.08255
G1 X81.890 Y26.464 E17.24782
G1 X81.571 Y27.017 E17.28477
G1 X83.578 Y29.025 E17.44882
G1 X81.563 Y27.883 F9000.000
G1 X81.251 Y27.571 E17.47429 F1800.000
G1 E11.47429 F1800.00000
G92 E0
G1 X128.854 Y24.305 F9000.000
G1 E6.00000 F1800.00000
G1 X132.903 Y28.354 E6.35406 F1800.000
G1 X133.495 Y28.012 E6.39635
G1 X128.545 Y23.062 E6.82923
G1 X129.137 Y22.720 E6.87152
G1 X133.186 Y26.769 E7.22557
G1 X131.910 Y24.558 F9000.000
G1 X129.729 Y22.378 E7.41623 F1800.000
G1 X130.322 Y22.036 E7.45852
G1 X130.633 Y22.348 E7.48577
G1 X130.130 Y26.516 F9000.000
G1 X132.310 Y28.696 E7.67642 F1800.000
G1 X131.718 Y29.038 E7.71871
G1 X131.407 Y28.727 E7.74596
;Layer change
G1 E1.74596 F1800.00000
G92 E0
G1 Z0.960 F9000.000
G1 X87.434 Y23.158 F9000.000
G1 E6.00000 F1800.00000
G1 X83.667 Y29.683 E6.40275 F900.000
G1 X80.606 Y27.916 E6.59165
G1 X84.373 Y21.392 E6.99440
G1 X87.382 Y23.128 E7.18010
G1 X88.214 Y22.949 F9000.000
G1 X83.876 Y30.463 E7.64392 F900.000
G1 X79.826 Y28.125 E7.89390
G1 X84.164 Y20.611 E8.35772
G1 X88.162 Y22.919 E8.60449
G1 E2.60449 F1800.00000
G92 E0
G1 X127.606 Y23.158 F9000.000
G1 E6.00000 F1800.00000
G1 X130.667 Y21.392 E6.18891 F900.000
G1 X134.434 Y27.916 E6.59165
G1 X131.373 Y29.683 E6.78056
G1 X127.636 Y23.210 E7.18010
G1 X126.826 Y22.949 F9000.000
G1 X130.876 Y20.611 E7.43008 F900.000
G1 X135.214 Y28.125 E7.89390
G1 X131.164 Y30.463 E8.14388
G1 X126.856 Y23.001 E8.60449
G1 X127.423 Y24.907 F9000.000
G1 X126.195 Y22.780 E8.68558 F1800.000
G1 X131.045 Y19.980 E8.87048
G1 X135.845 Y28.294 E9.18746
G1 X130.995 Y31.094 E9.37236
G1 X127.769 Y25.507 E9.58537
G1 X87.271 Y25.507 E10.92258
G1 X84.045 Y31.094 E11.13559
G1 X79.195 Y28.294 E11.32049
G1 X83.995 Y19.980 E11.63747
G1 X88.845 Y22.780 E11.82237
G1 X87.617 Y24.907 E11.90346
G1 X127.363 Y24.907 E13.21580
G1 X127.799 Y24.770 F9000.000
G1 X127.863 Y25.207 F9000.000
G1 X87.177 Y25.207 E15.39086 F1800.000
G1 X86.186 Y24.305 F9000.000
G1 X82.137 Y28.354 E15.74492 F1800.000
G1 X81.545 Y28.012 E15.78721
G1 X86.495 Y23.062 E16.22009
G1 X85.903 Y22.720 E16.26238
G1 X81.854 Y26.769 E16.61643
G1 X83.130 Y24.558 F9000.000
G1 X85.310 Y22.378 E16.80707 F1800.000
G1 X84.718 Y22.036 E16.84936
G1 X84.407 Y22.348 E16.87661
G1 X84.910 Y26.516 F9000.000
G1 X82.729 Y28.696 E17.06727 F1800.000
G1 X83.633 Y28.727 E17.12319
G1 X83.322 Y29.038 E17.15044
G1 E11.15044 F1800.00000
G92 E0
G1 X128.251 Y23.503 F9000.000
G1 E6.00000 F1800.00000
G1 X128.563 Y23.192 E6.02547 F1800.000
G1 X130.578 Y22.050 F9000.000
G1 X128.571 Y24.057 E6.18952 F1800.000
G1 X128.890 Y24.611 E6.22647
G1 X130.912 Y22.588 E6.39174
G1 X131.232 Y23.142 E6.42868
G1 X129.210 Y25.164 E6.59396
G1 X129.529 Y25.718 E6.63090
G1 X131.552 Y23.696 E6.79617
G1 X131.871 Y24.249 E6.83312
G1 X129.849 Y26.271 E6.99839
G1 X130.169 Y26.825 E7.03534
G1 X132.191 Y24.803 E7.20061
G1 X132.511 Y25.356 E7.23755
G1 X130.488 Y27.379 E7.40282
G1 X130.808 Y27.932 E7.43977
G1 X132.830 Y25.910 E7.60504
G1 X133.150 Y26.464 E7.64199
G1 X131.128 Y28.486 E7.80726
G1 X131.462 Y29.025 E7.84391
G1 X133.469 Y27.017 E8.00796
G1 X133.789 Y27.571 E8.04491
G1 X133.477 Y27.883 E8.07037
;Layer change
G1 E2.07037 F1800.00000
G92 E0
G1 Z1.180 F9000.000
G1 X87.434 Y23.158 F9000.000
G1 E6.00000 F1800.00000
G1 X83.667 Y29.683 E6.40275 F900.000
G1 X80.606 Y27.916 E6.59165
G1 X84.373 Y21.392 E6.99440
G1 X87.382 Y23.128 E7.18010
G1 X88.214 Y22.949 F9000.000
G1 X83.876 Y30.463 E7.64392 F900.000
G1 X79.826 Y28.125 E7.89390
G1 X84.164 Y20.611 E8.35772
G1 X88.162 Y22.919 E8.60449
G1 E2.60449 F1800.00000
G92 E0
G1 X127.606 Y23.158 F9000.000
G1 E6.00000 F1800.00000
G1 X130.667 Y21.392 E6.18891 F900.000
G1 X134.434 Y27.916 E6.59165
G1 X131.373 Y29.683 E6.78056
G1 X127.636 Y23.210 E7.18010
G1 X126.826 Y22.949 F9000.000
G1 X130.876 Y20.611 E7.43008 F900.000
G1 X135.214 Y28.125 E7.89390
G1 X131.164 Y30.463 E8.14388
G1 X126.856 Y23.001 E8.60449
G1 X127.423 Y24.907 F9000.000
G1 X126.195 Y22.780 E8.68558 F1800.000
G1 X131.045 Y19.980 E8.87048
G1 X135.845 Y28.294 E9.18746
G1 X130.995 Y31.094 E9.37236
G1 X127.769 Y25.507 E9.58537
G1 X87.271 Y25.507 E10.92258
G1 X84.045 Y31.094 E11.13559
G1 X79.195 Y28.294 E11.32049
G1 X83.995 Y19.980 E11.63747
G1 X88.845 Y22.780 E11.82237
G1 X87.617 Y24.907 E11.90346
G1 X127.363 Y24.907 E13.21580
G1 X127.799 Y24.770 F9000.000
G1 X127.863 Y25.207 F9000.000
G1 X87.177 Y25.207 E15.39086 F1800.000
G1 X86.789 Y23.503 F9000.000
G1 X86.477 Y23.192 E15.41633 F1800.000
G1 X86.469 Y24.057 E15.46634
G1 X84.462 Y22.050 E15.63039
G1 X84.128 Y22.588 E15.66704
G1 X86.150 Y24.611 E15.83231
G1 X85.830 Y25.164 E15.86925
G1 X83.808 Y23.142 E16.03453
G1 X83.488 Y23.696 E16.07147
G1 X85.511 Y25.718 E16.23674
G1 X85.191 Y26.271 E16.27369
G1 X83.169 Y24.249 E16.43896
G1 X82.849 Y24.803 E16.47590
G1 X84.871 Y26.825 E16.64118
G1 X84.552 Y27.379 E16.67812
G1 X82.529 Y25.356 E16.84339
G1 X82.210 Y25.910 E16.88034
G1 X84.232 Y27.932 E17.04561
G1 X83.912 Y28.486 E17.08255
G1 X81.890 Y26.464 E17.24782
G1 X81.571 Y27.017 E17.28477
G1 X83.578 Y29.025 E17.44882
G1 X81.563 Y27.883 F9000.000
G1 X81.251 Y27.571 E17.47429 F1800.000
G1 E11.47429 F1800.00000
G92 E0
G1 X128.854 Y24.305 F9000.000
G1 E6.00000 F1800.00000
G1 X132.903 Y28.354 E6.35406 F1800.000
G1 X133.495 Y28.012 E6.39635
G1 X128.545 Y23.062 E6.82923
G1 X129.137 Y22.720 E6.87152
G1 X133.186 Y26.769 E7.22557
G1 X131.910 Y24.558 F9000.000
G1 X129.729 Y22.378 E7.41623 F1800.000
G1 X130.322 Y22.036 E7.45852
G1 X130.633 Y22.348 E7.48577
G1 X130.130 Y26.516 F9000.000
G1 X132.310 Y28.696 E7.67642 F1800.000
G1 X131.718 Y29.038 E7.71871
G1 X131.407 Y28.727 E7.74596
;Layer change
G1 E1.74596 F1800.00000
G92 E0
G1 Z1.400 F9000.000
G1 X87.434 Y23.158 F9000.000
G1 E6.00000 F1800.00000
G1 X83.667 Y29.683 E6.40275 F900.000
G1 X80.606 Y27.916 E6.59165
G1 X84.373 Y21.392 E6.99440
G1 X87.382 Y23.128 E7.18010
G1 X88.214 Y22.949 F9000.000
G1 X83.876 Y30.463 E7.64392 F900.000
G1 X79.826 Y28.125 E7.89390
G1 X84.164 Y20.611 E8.35772
G1 X88.162 Y22.919 E8.60449
G1 E2.60449 F1800.00000
G92 E0
G1 X127.606 Y23.158 F9000.000
G1 E6.00000 F1800.00000
G1 X130.667 Y21.392 E6.18891 F900.000
G1 X134.434 Y27.916 E6.59165
G1 X131.373 Y29.683 E6.78056
G1 X127.636 Y23.210 E7.18010
G1 X126.826 Y22.949 F9000.000
G1 X130.876 Y20.611 E7.43008 F900.000
G1 X135.214 Y28.125 E7.89390
G1 X131.164 Y30.463 E8.14388
G1 X126.856 Y23.001 E8.60449
G1 X127.423 Y24.907 F9000.000
G1 X126.195 Y22.780 E8.68558 F1800.000
G1 X131.045 Y19.980 E8.87048
G1 X135.845 Y28.294 E9.18746
G1 X130.995 Y31.094 E9.37236
G1 X127.769 Y25.507 E9.58537
G1 X87.271 Y25.507 E10.92258
G1 X84.045 Y31.094 E11.13559
G1 X79.195 Y28.294 E11.32049
G1 X83.995 Y19.980 E11.63747
G1 X88.845 Y22.780 E11.82237
G1 X87.617 Y24.907 E11.90346
G1 X127.363 Y24.907 E13.21580
G1 X127.799 Y24.770 F9000.000
G1 X127.863 Y25.207 F9000.000
G1 X87.177 Y25.207 E15.39086 F1800.000
