; generated by Slic3r 1.2.9 on 2018-01-13 at 20:24:09

; external perimeters extrusion width = 0.40mm
; perimeters extrusion width = 0.62mm
; infill extrusion width = 0.33mm
; solid infill extrusion width = 0.62mm
; top infill extrusion width = 0.20mm

M106 S256; Turn on fan to 100% power
M104 S140; turn on extruder temperature at S value
M140 S60; turn on bed temperature at S value
G28; home all axes
M84; disable motors
G1 Z15 F15000; have Z move to 20mm at 15000 mm/min
M190 S55; turn on bed temperature at S value and wait
M140 S55; turn on bed temperature at S value (printing temperature)
M109 S200; turn on extruder temperature at S value and wait (printing temperature)
M104 S200; turn on extruder temperature at S value
G1 Z0 F12000; move Z back to home
G21 ; set units to millimeters
G90 ; use absolute coordinates
M82 ; use absolute distances for extrusion
G92 E0
M106 S255
;Layer change
G1 E-6.00000 F1800.00000
G92 E0
G1 Z0.300 F9000.000
G1 X121.623 Y24.435 F9000.000
G1 E6.00000 F1800.00000
G1 X121.878 Y23.294 E6.05887 F600.000
G1 X122.241 Y22.028 E6.12526
G1 X122.684 Y20.785 E6.19168
G1 X123.266 Y19.438 E6.26562
G1 X123.797 Y18.397 E6.32447
G1 X124.464 Y17.260 E6.39087
G1 X125.289 Y16.046 E6.46481
G1 X126.005 Y15.123 E6.52367
G1 X126.873 Y14.131 E6.59006
G1 X127.802 Y13.196 E6.65646
G1 X128.903 Y12.225 E6.73041
G1 X129.826 Y11.509 E6.78926
G1 X130.914 Y10.764 E6.85566
G1 X132.046 Y10.089 E6.92207
G1 X133.354 Y9.423 E6.99601
G1 X134.427 Y8.958 E7.05488
G1 X135.665 Y8.508 E7.12125
G1 X137.074 Y8.098 E7.19520
G1 X138.215 Y7.843 E7.25408
G1 X139.516 Y7.632 E7.32046
G1 X140.828 Y7.504 E7.38685
G1 X142.295 Y7.458 E7.46079
G1 X143.612 Y7.504 E7.52720 F600.000
G1 X144.924 Y7.632 E7.59360
G1 X146.225 Y7.843 E7.66000
G1 X147.511 Y8.135 E7.72639
G1 X148.633 Y8.461 E7.78527
G1 X150.014 Y8.959 E7.85919
G1 X151.222 Y9.486 E7.92560
G1 X152.394 Y10.089 E7.99197
G1 X153.400 Y10.684 E8.05085
G1 X154.493 Y11.421 E8.11725
G1 X155.537 Y12.225 E8.18367
G1 X156.638 Y13.196 E8.25760
G1 X157.567 Y14.131 E8.32400
G1 X158.435 Y15.123 E8.39039
G1 X159.151 Y16.046 E8.44925
G1 X159.896 Y17.134 E8.51565
G1 X160.643 Y18.397 E8.58958
G1 X161.237 Y19.574 E8.65600
G1 X161.702 Y20.647 E8.71487
G1 X162.152 Y21.885 E8.78124
G1 X162.525 Y23.149 E8.84765
G1 X162.845 Y24.582 E8.92159
G1 X163.046 Y25.884 E8.98796
G1 X163.156 Y27.048 E9.04684
G1 X163.202 Y28.365 E9.11324
G1 X163.166 Y29.683 E9.17964
G1 X163.028 Y31.144 E9.25359
G1 X162.817 Y32.445 E9.31999
G1 X162.562 Y33.586 E9.37884
G1 X162.200 Y34.847 E9.44494
G1 X161.756 Y36.095 E9.51165
G1 X161.237 Y37.306 E9.57803
G1 X160.643 Y38.483 E9.64444
G1 X159.896 Y39.746 E9.71838
G1 X159.151 Y40.834 E9.78478
G1 X158.435 Y41.757 E9.84364
G1 X157.567 Y42.749 E9.91003
G1 X156.638 Y43.684 E9.97643
G1 X155.537 Y44.655 E10.05036
G1 X154.614 Y45.371 E10.10923
G1 X153.526 Y46.116 E10.17563
G1 X152.394 Y46.791 E10.24203
G1 X151.222 Y47.394 E10.30843
G1 X150.013 Y47.922 E10.37488
G1 X148.633 Y48.419 E10.44876
G1 X147.366 Y48.782 E10.51517
G1 X146.078 Y49.065 E10.58157
G1 X144.776 Y49.266 E10.64793
G1 X143.612 Y49.376 E10.70682
G1 X142.145 Y49.422 E10.78077
G1 X140.828 Y49.376 E10.84717
G1 X139.664 Y49.266 E10.90605
G1 X138.362 Y49.065 E10.97243
G1 X137.074 Y48.782 E11.03882
G1 X135.807 Y48.419 E11.10524
G1 X134.427 Y47.922 E11.17914
G1 X133.218 Y47.394 E11.24557
G1 X132.177 Y46.863 E11.30445
G1 X131.040 Y46.196 E11.37082
G1 X129.947 Y45.459 E11.43722
G1 X128.903 Y44.655 E11.50363
G1 X127.802 Y43.684 E11.57757
G1 X126.873 Y42.749 E11.64397
G1 X126.101 Y41.872 E11.70282
G1 X125.289 Y40.834 E11.76922
G1 X124.544 Y39.746 E11.83562
G1 X123.869 Y38.614 E11.90204
G1 X123.203 Y37.306 E11.97597
G1 X122.739 Y36.234 E12.03483
G1 X122.288 Y34.995 E12.10121
G1 X121.915 Y33.731 E12.16762
G1 X121.595 Y32.298 E12.24156
G1 X121.394 Y30.996 E12.30795
G1 X121.274 Y29.683 E12.37436
G1 X121.238 Y28.366 E12.44072
G1 X121.274 Y27.197 E12.49961
G1 X121.394 Y25.884 E12.56601
G1 X121.612 Y24.494 E12.63692
G1 E6.63692 F1800.00000
G92 E0
G1 X159.894 Y29.552 F9000.000
G1 E6.00000 F1800.00000
G1 X159.789 Y30.660 E6.05604 F600.000
G1 X159.615 Y31.758 E6.11208
G1 X159.373 Y32.844 E6.16812
G1 X159.062 Y33.912 E6.22416
G1 X158.685 Y34.959 E6.28020
G1 X158.243 Y35.980 E6.33624
G1 X157.738 Y36.971 E6.39228
G1 X157.172 Y37.929 E6.44832
G1 X156.547 Y38.849 E6.50436
G1 X155.865 Y39.728 E6.56040
G1 X155.133 Y40.559 E6.61617
G1 X154.343 Y41.349 E6.67248
G1 X153.508 Y42.085 E6.72852
G1 X152.629 Y42.767 E6.78456
G1 X151.709 Y43.392 E6.84060
G1 X150.751 Y43.958 E6.89664
G1 X149.760 Y44.463 E6.95268
G1 X148.739 Y44.905 E7.00872
G1 X147.692 Y45.282 E7.06476
G1 X146.624 Y45.593 E7.12080
G1 X145.538 Y45.835 E7.17684
G1 X144.440 Y46.009 E7.23288
G1 X143.332 Y46.114 E7.28892
G1 X142.220 Y46.149 E7.34496
G1 X141.108 Y46.114 E7.40100
G1 X140.002 Y46.009 E7.45699
G1 X138.958 Y45.848 E7.51016
G1 X137.816 Y45.593 E7.56913
G1 X136.748 Y45.282 E7.62517
G1 X135.701 Y44.905 E7.68121
G1 X134.680 Y44.463 E7.73725
G1 X133.689 Y43.958 E7.79329
G1 X132.731 Y43.392 E7.84933
G1 X131.811 Y42.767 E7.90537
G1 X130.932 Y42.085 E7.96141
G1 X130.097 Y41.349 E8.01745
G1 X129.311 Y40.563 E8.07349
G1 X128.575 Y39.728 E8.12953
G1 X127.893 Y38.849 E8.18557
G1 X127.268 Y37.929 E8.24161
G1 X126.702 Y36.971 E8.29765
G1 X126.197 Y35.980 E8.35369
G1 X125.755 Y34.959 E8.40973
G1 X125.378 Y33.912 E8.46577
G1 X125.067 Y32.844 E8.52181
G1 X124.825 Y31.758 E8.57785
G1 X124.651 Y30.660 E8.63389
G1 X124.546 Y29.552 E8.68993
G1 X124.511 Y28.440 E8.74597
G1 X124.546 Y27.328 E8.80201
G1 X124.651 Y26.220 E8.85805
G1 X124.825 Y25.122 E8.91409
G1 X125.067 Y24.036 E8.97013
G1 X125.378 Y22.968 E9.02617
G1 X125.755 Y21.921 E9.08221
G1 X126.197 Y20.900 E9.13825
G1 X126.702 Y19.909 E9.19429
G1 X127.268 Y18.951 E9.25033
G1 X127.893 Y18.031 E9.30637
G1 X128.575 Y17.152 E9.36241
G1 X129.311 Y16.317 E9.41845
G1 X130.097 Y15.531 E9.47449
G1 X130.932 Y14.795 E9.53053
G1 X131.811 Y14.113 E9.58658
G1 X132.731 Y13.488 E9.64261
G1 X133.689 Y12.922 E9.69865
G1 X134.680 Y12.417 E9.75469
G1 X135.701 Y11.975 E9.81073
G1 X136.748 Y11.598 E9.86677
G1 X137.816 Y11.287 E9.92281
G1 X138.902 Y11.045 E9.97885
G1 X140.001 Y10.871 E10.03490
G1 X141.113 Y10.766 E10.09120
G1 X142.220 Y10.731 E10.14697 F600.000
G1 X143.332 Y10.766 E10.20301
G1 X144.440 Y10.871 E10.25905
G1 X145.538 Y11.045 E10.31509
G1 X146.624 Y11.287 E10.37113
G1 X147.692 Y11.598 E10.42717
G1 X148.739 Y11.975 E10.48321
G1 X149.760 Y12.417 E10.53926
G1 X150.751 Y12.922 E10.59529
G1 X151.709 Y13.488 E10.65133
G1 X152.629 Y14.113 E10.70737
G1 X153.508 Y14.795 E10.76341
G1 X154.343 Y15.531 E10.81946
G1 X155.129 Y16.317 E10.87549
G1 X155.865 Y17.152 E10.93154
G1 X156.547 Y18.031 E10.98758
G1 X157.172 Y18.951 E11.04362
G1 X157.738 Y19.909 E11.09965
G1 X158.243 Y20.900 E11.15569
G1 X158.685 Y21.921 E11.21173
G1 X159.062 Y22.968 E11.26778
G1 X159.373 Y24.036 E11.32382
G1 X159.615 Y25.122 E11.37986
G1 X159.789 Y26.220 E11.43590
G1 X159.894 Y27.328 E11.49194
G1 X159.929 Y28.440 E11.54798
G1 X159.896 Y29.492 E11.60099
G1 X159.509 Y29.528 F9000.000
G1 X159.407 Y30.611 E11.65581 F600.000
G1 X159.236 Y31.686 E11.71063
G1 X158.999 Y32.748 E11.76545
G1 X158.695 Y33.793 E11.82027
G1 X158.327 Y34.817 E11.87509
G1 X157.894 Y35.816 E11.92991
G1 X157.400 Y36.785 E11.98473
G1 X156.846 Y37.722 E12.03955
G1 X156.235 Y38.622 E12.09436
G1 X155.568 Y39.482 E12.14919
G1 X154.852 Y40.295 E12.20374
G1 X154.079 Y41.068 E12.25882
G1 X153.262 Y41.788 E12.31364
G1 X152.402 Y42.455 E12.36846
G1 X151.502 Y43.066 E12.42328
G1 X150.565 Y43.620 E12.47810
G1 X149.596 Y44.114 E12.53292
G1 X148.597 Y44.547 E12.58774
G1 X147.573 Y44.915 E12.64256
G1 X146.528 Y45.219 E12.69738
G1 X145.466 Y45.456 E12.75220
G1 X144.391 Y45.627 E12.80702
G1 X143.308 Y45.729 E12.86183
G1 X142.220 Y45.763 E12.91665
G1 X141.132 Y45.729 E12.97147
G1 X140.049 Y45.627 E13.02627
G1 X139.030 Y45.469 E13.07822
G1 X137.912 Y45.219 E13.13594
G1 X136.867 Y44.915 E13.19076
G1 X135.843 Y44.547 E13.24558
G1 X134.844 Y44.114 E13.30040
G1 X133.875 Y43.620 E13.35521
G1 X132.938 Y43.066 E13.41003
G1 X132.038 Y42.455 E13.46485
G1 X131.178 Y41.788 E13.51967
G1 X130.361 Y41.068 E13.57449
G1 X129.592 Y40.299 E13.62931
G1 X128.872 Y39.482 E13.68413
G1 X128.205 Y38.622 E13.73895
G1 X127.594 Y37.722 E13.79377
G1 X127.040 Y36.785 E13.84859
G1 X126.546 Y35.816 E13.90340
G1 X126.113 Y34.817 E13.95822
G1 X125.745 Y33.793 E14.01304
G1 X125.441 Y32.748 E14.06786
G1 X125.204 Y31.686 E14.12268
G1 X125.033 Y30.611 E14.17750
G1 X124.931 Y29.528 E14.23232
G1 X124.897 Y28.440 E14.28714
G1 X124.931 Y27.352 E14.34196
G1 X125.033 Y26.269 E14.39678
G1 X125.204 Y25.194 E14.45160
G1 X125.441 Y24.132 E14.50642
G1 X125.745 Y23.087 E14.56124
G1 X126.113 Y22.063 E14.61606
G1 X126.546 Y21.064 E14.67088
G1 X127.040 Y20.095 E14.72569
G1 X127.594 Y19.158 E14.78051
G1 X128.205 Y18.258 E14.83533
G1 X128.872 Y17.398 E14.89015
G1 X129.592 Y16.581 E14.94497
G1 X130.361 Y15.812 E14.99979
G1 X131.178 Y15.092 E15.05461
G1 X132.038 Y14.425 E15.10943
G1 X132.938 Y13.814 E15.16425
G1 X133.875 Y13.260 E15.21907
G1 X134.844 Y12.766 E15.27388
G1 X135.843 Y12.333 E15.32871
G1 X136.867 Y11.965 E15.38352
G1 X137.912 Y11.661 E15.43834
G1 X138.974 Y11.424 E15.49316
G1 X140.049 Y11.253 E15.54798
G1 X141.138 Y11.151 E15.60307
G1 X142.220 Y11.117 E15.65762 F600.000
G1 X143.308 Y11.151 E15.71244
G1 X144.391 Y11.253 E15.76726
G1 X145.466 Y11.424 E15.82208
G1 X146.528 Y11.661 E15.87690
G1 X147.573 Y11.965 E15.93172
G1 X148.597 Y12.333 E15.98654
G1 X149.596 Y12.766 E16.04136
G1 X150.565 Y13.260 E16.09617
G1 X151.502 Y13.814 E16.15099
G1 X152.402 Y14.425 E16.20581
G1 X153.262 Y15.092 E16.26063
G1 X154.079 Y15.812 E16.31545
G1 X154.848 Y16.581 E16.37027
G1 X155.568 Y17.398 E16.42509
G1 X156.235 Y18.258 E16.47991
G1 X156.846 Y19.158 E16.53473
G1 X157.400 Y20.095 E16.58955
G1 X157.894 Y21.064 E16.64436
G1 X158.327 Y22.063 E16.69918
G1 X158.695 Y23.087 E16.75400
G1 X158.999 Y24.132 E16.80882
G1 X159.236 Y25.194 E16.86364
G1 X159.407 Y26.269 E16.91846
G1 X159.509 Y27.352 E16.97328
G1 X159.543 Y28.440 E17.02810
G1 X159.511 Y29.468 E17.07990
G1 X159.840 Y29.753 F9000.000
G1 X160.170 Y29.590 F9000.000
G1 X160.065 Y30.694 E17.13577 F600.000
G1 X159.888 Y31.810 E17.19269
G1 X159.642 Y32.913 E17.24961
G1 X159.328 Y33.993 E17.30624
G1 X158.944 Y35.062 E17.36345
G1 X158.495 Y36.099 E17.42037
G1 X157.982 Y37.105 E17.47729
G1 X157.407 Y38.078 E17.53421
G1 X156.772 Y39.013 E17.59113
G1 X156.079 Y39.905 E17.64805
G1 X155.332 Y40.753 E17.70497
G1 X154.533 Y41.552 E17.76189
G1 X153.685 Y42.299 E17.81881
G1 X152.793 Y42.992 E17.87573
G1 X151.858 Y43.627 E17.93265
G1 X150.885 Y44.202 E17.98957
G1 X149.879 Y44.715 E18.04649
G1 X148.841 Y45.164 E18.10341
G1 X147.778 Y45.547 E18.16033
G1 X146.693 Y45.862 E18.21725
G1 X145.590 Y46.108 E18.27417
G1 X144.474 Y46.285 E18.33109
G1 X143.349 Y46.392 E18.38801
G1 X142.220 Y46.427 E18.44493
G1 X141.091 Y46.392 E18.50185
G1 X139.966 Y46.285 E18.55877
G1 X138.850 Y46.108 E18.61569
G1 X137.747 Y45.862 E18.67261
G1 X136.667 Y45.548 E18.72924
G1 X135.593 Y45.162 E18.78674
G1 X134.561 Y44.715 E18.84337
G1 X133.560 Y44.205 E18.90001
G1 X132.582 Y43.627 E18.95722
G1 X131.647 Y42.992 E19.01413
G1 X130.755 Y42.299 E19.07105
G1 X129.907 Y41.552 E19.12797
G1 X129.112 Y40.757 E19.18461
G1 X128.361 Y39.905 E19.24182
G1 X127.668 Y39.013 E19.29873
G1 X127.033 Y38.078 E19.35565
G1 X126.458 Y37.105 E19.41257
G1 X125.945 Y36.099 E19.46949
G1 X125.496 Y35.061 E19.52641
G1 X125.113 Y33.998 E19.58333
G1 X124.798 Y32.913 E19.64025
G1 X124.552 Y31.810 E19.69717
G1 X124.375 Y30.694 E19.75410
G1 X124.268 Y29.569 E19.81102
G1 X124.233 Y28.440 E19.86794
G1 X124.268 Y27.311 E19.92486
G1 X124.375 Y26.186 E19.98178
G1 X124.552 Y25.070 E20.03870
G1 X124.798 Y23.967 E20.09562
G1 X125.113 Y22.882 E20.15254
G1 X125.496 Y21.819 E20.20946
G1 X125.945 Y20.781 E20.26638
G1 X126.458 Y19.775 E20.32330
G1 X127.033 Y18.802 E20.38022
G1 X127.668 Y17.867 E20.43714
G1 X128.361 Y16.975 E20.49406
G1 X129.104 Y16.131 E20.55070
G1 X129.907 Y15.328 E20.60790
G1 X130.755 Y14.581 E20.66482
G1 X131.647 Y13.888 E20.72174
G1 X132.582 Y13.253 E20.77866
G1 X133.555 Y12.678 E20.83558
G1 X134.561 Y12.165 E20.89250
G1 X135.599 Y11.716 E20.94942
G1 X136.662 Y11.333 E21.00634
G1 X137.747 Y11.018 E21.06326
G1 X138.850 Y10.772 E21.12018
G1 X139.966 Y10.595 E21.17710
G1 X141.090 Y10.488 E21.23402
G1 X142.226 Y10.453 E21.29122
G1 X143.349 Y10.488 E21.34786
G1 X144.474 Y10.595 E21.40478 F600.000
G1 X145.590 Y10.772 E21.46170
G1 X146.693 Y11.018 E21.51862
G1 X147.778 Y11.333 E21.57554
G1 X148.841 Y11.716 E21.63246
G1 X149.879 Y12.165 E21.68938
G1 X150.885 Y12.678 E21.74630
G1 X151.858 Y13.253 E21.80322
G1 X152.793 Y13.888 E21.86014
G1 X153.685 Y14.581 E21.91707
G1 X154.529 Y15.324 E21.97370
G1 X155.332 Y16.127 E22.03091
G1 X156.079 Y16.975 E22.08782
G1 X156.772 Y17.867 E22.14474
G1 X157.407 Y18.802 E22.20166
G1 X157.982 Y19.775 E22.25858
G1 X158.495 Y20.781 E22.31551
G1 X158.944 Y21.818 E22.37242
G1 X159.328 Y22.887 E22.42963
G1 X159.642 Y23.967 E22.48626
G1 X159.888 Y25.070 E22.54319
G1 X160.065 Y26.186 E22.60011
G1 X160.172 Y27.311 E22.65703
G1 X160.207 Y28.440 E22.71395
G1 X160.173 Y29.530 E22.76890
G1 X160.554 Y29.626 F9000.000
G1 X160.448 Y30.743 E22.82537 F600.000
G1 X160.267 Y31.883 E22.88352
G1 X160.016 Y33.009 E22.94166
G1 X159.695 Y34.112 E22.99951
G1 X159.303 Y35.204 E23.05794
G1 X158.844 Y36.263 E23.11608
G1 X158.320 Y37.291 E23.17422
G1 X157.733 Y38.285 E23.23236
G1 X157.084 Y39.239 E23.29050
G1 X156.377 Y40.151 E23.34865
G1 X155.613 Y41.017 E23.40679
G1 X154.797 Y41.833 E23.46493
G1 X153.931 Y42.597 E23.52307
G1 X153.019 Y43.304 E23.58121
G1 X152.065 Y43.953 E23.63935
G1 X151.071 Y44.540 E23.69749
G1 X150.043 Y45.064 E23.75563
G1 X148.984 Y45.523 E23.81377
G1 X147.898 Y45.914 E23.87192
G1 X146.789 Y46.236 E23.93006
G1 X145.663 Y46.487 E23.98820
G1 X144.523 Y46.668 E24.04634
G1 X143.374 Y46.777 E24.10448
G1 X142.220 Y46.813 E24.16262
G1 X141.066 Y46.777 E24.22076
G1 X139.917 Y46.668 E24.27890
G1 X138.777 Y46.487 E24.33704
G1 X137.651 Y46.236 E24.39519
G1 X136.548 Y45.915 E24.45304
G1 X135.451 Y45.520 E24.51176
G1 X134.397 Y45.064 E24.56961
G1 X133.374 Y44.543 E24.62746
G1 X132.375 Y43.953 E24.68589
G1 X131.421 Y43.304 E24.74403
G1 X130.509 Y42.597 E24.80217
G1 X129.643 Y41.833 E24.86031
G1 X128.831 Y41.021 E24.91817
G1 X128.063 Y40.151 E24.97659
G1 X127.356 Y39.239 E25.03474
G1 X126.707 Y38.285 E25.09288
G1 X126.120 Y37.291 E25.15102
G1 X125.596 Y36.263 E25.20916
G1 X125.137 Y35.204 E25.26730
G1 X124.746 Y34.118 E25.32544
G1 X124.424 Y33.009 E25.38358
G1 X124.173 Y31.883 E25.44172
G1 X123.992 Y30.743 E25.49987
G1 X123.883 Y29.594 E25.55801
G1 X123.847 Y28.440 E25.61615
G1 X123.883 Y27.286 E25.67429
G1 X123.992 Y26.137 E25.73243
G1 X124.173 Y24.997 E25.79057
G1 X124.424 Y23.871 E25.84871
G1 X124.746 Y22.762 E25.90685
G1 X125.137 Y21.676 E25.96500
G1 X125.596 Y20.617 E26.02314
G1 X126.120 Y19.589 E26.08128
G1 X126.707 Y18.595 E26.13942
G1 X127.356 Y17.641 E26.19756
G1 X128.063 Y16.729 E26.25570
G1 X128.823 Y15.867 E26.31356
G1 X129.643 Y15.047 E26.37198
G1 X130.509 Y14.283 E26.43012
G1 X131.421 Y13.576 E26.48826
G1 X132.375 Y12.927 E26.54641
G1 X133.369 Y12.340 E26.60455
G1 X134.397 Y11.816 E26.66269
G1 X135.456 Y11.357 E26.72083
G1 X136.542 Y10.966 E26.77897
G1 X137.651 Y10.644 E26.83711
G1 X138.777 Y10.393 E26.89525
G1 X139.917 Y10.212 E26.95339
G1 X141.066 Y10.103 E27.01153
G1 X142.226 Y10.067 E27.06996
G1 X143.374 Y10.103 E27.12782
G1 X144.523 Y10.212 E27.18596 F600.000
G1 X145.663 Y10.393 E27.24410
G1 X146.789 Y10.644 E27.30224
G1 X147.898 Y10.966 E27.36038
G1 X148.984 Y11.357 E27.41852
G1 X150.043 Y11.816 E27.47666
G1 X151.071 Y12.340 E27.53481
G1 X152.065 Y12.927 E27.59295
G1 X153.019 Y13.576 E27.65109
G1 X153.931 Y14.283 E27.70923
G1 X154.793 Y15.043 E27.76708
G1 X155.613 Y15.863 E27.82551
G1 X156.377 Y16.729 E27.88365
G1 X157.084 Y17.641 E27.94179
G1 X157.733 Y18.595 E27.99993
G1 X158.320 Y19.589 E28.05807
G1 X158.844 Y20.617 E28.11622
G1 X159.303 Y21.676 E28.17435
G1 X159.695 Y22.768 E28.23278
