; generated by Slic3r 1.2.9 on 2018-01-13 at 20:21:26

; external perimeters extrusion width = 0.40mm
; perimeters extrusion width = 0.62mm
; infill extrusion width = 0.33mm
; solid infill extrusion width = 0.62mm
; top infill extrusion width = 0.20mm

M106 S256; Turn on fan to 100% power
M104 S140; turn on extruder temperature at S value
M140 S60; turn on bed temperature at S value
G28; home all axes
M84; disable motors
G1 Z15 F15000; have Z move to 20mm at 15000 mm/min
M190 S55; turn on bed temperature at S value and wait
M140 S55; turn on bed temperature at S value (printing temperature)
M109 S200; turn on extruder temperature at S value and wait (printing temperature)
M104 S200; turn on extruder temperature at S value
G1 Z0 F12000; move Z back to home
G21 ; set units to millimeters
G90 ; use absolute coordinates
M82 ; use absolute distances for extrusion
G92 E0
M106 S255
;Layer change
G1 E-6.00000 F1800.00000
G92 E0
G1 Z0.300 F9000.000
G1 X115.247 Y23.669 F9000.000
G1 E6.00000 F1800.00000
G1 X115.451 Y22.994 E6.03548 F600.000
G1 X115.704 Y22.355 E6.07011
G1 X115.876 Y21.992 E6.09036
G1 X116.203 Y21.391 E6.12482
G1 X116.442 Y21.035 E6.14640
G1 X116.911 Y20.424 E6.18522
G1 X117.640 Y19.672 E6.23796
G1 X118.472 Y18.991 E6.29211
G1 X119.081 Y18.571 E6.32938
G1 X119.875 Y18.097 E6.37599
G1 X120.857 Y17.597 E6.43150
G1 X121.676 Y17.237 E6.47657
G1 X122.560 Y16.894 E6.52434
G1 X123.610 Y16.535 E6.58019
G1 X124.614 Y16.235 E6.63300
G1 X125.651 Y15.961 E6.68701
G1 X126.759 Y15.705 E6.74430
G1 X127.868 Y15.479 E6.80131
G1 X128.957 Y15.286 E6.85704
G1 X130.235 Y15.091 E6.92217
G1 X131.402 Y14.940 E6.98141
G1 X132.577 Y14.813 E7.04094
G1 X133.891 Y14.698 E7.10742
G1 X135.125 Y14.614 E7.16970
G1 X137.758 Y14.515 E7.30241
G1 X140.277 Y14.514 E7.42933
G1 X141.670 Y14.553 E7.49952 F600.000
G1 X142.955 Y14.614 E7.56433
G1 X144.189 Y14.698 E7.62661
G1 X145.535 Y14.816 E7.69468
G1 X147.845 Y15.091 E7.81185
G1 X148.981 Y15.264 E7.86975
G1 X150.212 Y15.479 E7.93272
G1 X151.321 Y15.705 E7.98970
G1 X152.429 Y15.961 E8.04701
G1 X153.466 Y16.235 E8.10102
G1 X154.553 Y16.562 E8.15822
G1 X155.519 Y16.893 E8.20968
G1 X156.403 Y17.237 E8.25743
G1 X157.338 Y17.652 E8.30898
G1 X158.205 Y18.097 E8.35803
G1 X158.998 Y18.570 E8.40455
G1 X159.711 Y19.067 E8.44834
G1 X160.342 Y19.586 E8.48948
G1 X161.007 Y20.244 E8.53663
G1 X161.265 Y20.540 E8.55638
G1 X161.727 Y21.161 E8.59540
G1 X161.998 Y21.600 E8.62138
G1 X162.326 Y22.240 E8.65760
G1 X162.705 Y23.219 E8.71051
G1 X162.833 Y23.668 E8.73402
G1 X162.913 Y24.095 E8.75589
G1 X162.955 Y24.546 E8.77871
G1 X162.955 Y24.994 E8.80126
G1 X162.913 Y25.445 E8.82407
G1 X162.833 Y25.871 E8.84594
G1 X162.629 Y26.546 E8.88142
G1 X162.262 Y27.436 E8.92996
G1 X161.998 Y27.940 E8.95858
G1 X161.798 Y28.275 E8.97825
G1 X161.169 Y29.116 E9.03115
G1 X160.641 Y29.674 E9.06984
G1 X160.342 Y29.954 E9.09049
G1 X159.711 Y30.473 E9.13163
G1 X159.126 Y30.883 E9.16763
G1 X158.078 Y31.513 E9.22922
G1 X157.338 Y31.888 E9.27097
G1 X156.539 Y32.244 E9.31505
G1 X155.357 Y32.705 E9.37896
G1 X154.470 Y33.005 E9.42611
G1 X153.466 Y33.305 E9.47892
G1 X152.429 Y33.579 E9.53294
G1 X151.318 Y33.836 E9.59041
G1 X150.272 Y34.049 E9.64416
G1 X149.166 Y34.246 E9.70075
G1 X147.845 Y34.449 E9.76809
G1 X146.678 Y34.600 E9.82733
G1 X145.503 Y34.727 E9.88688
G1 X144.189 Y34.842 E9.95334
G1 X142.909 Y34.928 E10.01796
G1 X140.277 Y35.026 E10.15061
G1 X137.758 Y35.025 E10.27753
G1 X135.125 Y34.926 E10.41025
G1 X133.891 Y34.842 E10.47253
G1 X132.577 Y34.727 E10.53899
G1 X131.351 Y34.594 E10.60112
G1 X130.182 Y34.442 E10.66049
G1 X128.957 Y34.254 E10.72291
G1 X127.868 Y34.061 E10.77864
G1 X126.611 Y33.802 E10.84327
G1 X125.651 Y33.579 E10.89293
G1 X124.670 Y33.320 E10.94403
G1 X123.527 Y32.978 E11.00415
G1 X122.560 Y32.646 E11.05560
G1 X121.677 Y32.303 E11.10337
G1 X120.857 Y31.943 E11.14844
G1 X120.123 Y31.574 E11.18985
G1 X119.208 Y31.050 E11.24299
G1 X118.369 Y30.473 E11.29425
G1 X117.532 Y29.766 E11.34944
G1 X117.073 Y29.296 E11.38255
G1 X116.815 Y29.000 E11.40230
G1 X116.353 Y28.379 E11.44130
G1 X116.082 Y27.940 E11.46730
G1 X115.818 Y27.436 E11.49592
G1 X115.675 Y27.113 E11.51375
G1 X115.451 Y26.546 E11.54447
G1 X115.247 Y25.871 E11.57995
G1 X115.167 Y25.445 E11.60182
G1 X115.125 Y24.994 E11.62463
G1 X115.125 Y24.546 E11.64719
G1 X115.167 Y24.095 E11.67000
G1 X115.236 Y23.728 E11.68884
G1 E5.68884 F1800.00000
G92 E0
G1 X147.152 Y24.771 F9000.000
G1 E6.00000 F1800.00000
G1 X147.122 Y25.244 E6.02391 F600.000
G1 X147.081 Y25.503 E6.03709
G1 X146.963 Y25.963 E6.06104
G1 X146.784 Y26.414 E6.08547
G1 X146.555 Y26.831 E6.10941
G1 X146.259 Y27.239 E6.13480
G1 X145.940 Y27.578 E6.15826
G1 X145.744 Y27.751 E6.17145
G1 X145.359 Y28.031 E6.19539
G1 X144.943 Y28.260 E6.21934
G1 X144.474 Y28.445 E6.24473
G1 X144.014 Y28.563 E6.26863
G1 X143.576 Y28.620 E6.29091
G1 X143.038 Y28.623 E6.31800
G1 X142.566 Y28.563 E6.34195
G1 X142.106 Y28.445 E6.36589
G1 X141.869 Y28.360 E6.37859
G1 X141.637 Y28.260 E6.39130
G1 X141.221 Y28.031 E6.41524
G1 X140.836 Y27.751 E6.43919
G1 X140.640 Y27.578 E6.45237
G1 X140.321 Y27.239 E6.47583
G1 X140.166 Y27.039 E6.48853
G1 X140.025 Y26.831 E6.50124
G1 X139.796 Y26.414 E6.52518
G1 X139.617 Y25.963 E6.54961
G1 X139.498 Y25.501 E6.57368
G1 X139.455 Y25.211 E6.58845
G1 X139.429 Y24.779 E6.61024
G1 X139.437 Y24.518 E6.62338
G1 X139.497 Y24.046 E6.64733
G1 X139.615 Y23.586 E6.67128
G1 X139.816 Y23.087 E6.69837
G1 X140.030 Y22.700 E6.72064
G1 X140.309 Y22.316 E6.74455
G1 X140.482 Y22.120 E6.75774
G1 X140.821 Y21.801 E6.78120
G1 X141.028 Y21.641 E6.79438
G1 X141.421 Y21.391 E6.81784
G1 X141.704 Y21.247 E6.83382
G1 X142.142 Y21.081 E6.85741
G1 X142.578 Y20.974 E6.88002
G1 X143.237 Y20.910 E6.91336 F600.000
G1 X143.540 Y20.917 E6.92862
G1 X144.013 Y20.976 E6.95265
G1 X144.441 Y21.085 E6.97493
G1 X144.943 Y21.280 E7.00202
G1 X145.359 Y21.509 E7.02597
G1 X145.744 Y21.789 E7.04991
G1 X145.940 Y21.962 E7.06310
G1 X146.259 Y22.301 E7.08656
G1 X146.573 Y22.738 E7.11365
G1 X146.785 Y23.126 E7.13593
G1 X146.963 Y23.577 E7.16032
G1 X147.082 Y24.039 E7.18439
G1 X147.125 Y24.329 E7.19915
G1 X147.148 Y24.711 E7.21841
G1 X146.765 Y24.770 F9000.000
G1 X146.738 Y25.202 E7.24020 F600.000
G1 X146.703 Y25.425 E7.25155
G1 X146.595 Y25.844 E7.27336
G1 X146.435 Y26.250 E7.29535
G1 X146.226 Y26.629 E7.31715
G1 X145.965 Y26.988 E7.33949
G1 X145.672 Y27.301 E7.36112
G1 X145.502 Y27.450 E7.37247
G1 X145.152 Y27.704 E7.39428
G1 X144.773 Y27.913 E7.41609
G1 X144.361 Y28.076 E7.43843
G1 X143.942 Y28.184 E7.46022
G1 X143.543 Y28.235 E7.48044
G1 X143.068 Y28.238 E7.50437
G1 X142.639 Y28.184 E7.52618
G1 X142.219 Y28.076 E7.54799
G1 X142.011 Y28.001 E7.55916
G1 X141.807 Y27.913 E7.57034
G1 X141.428 Y27.704 E7.59215
G1 X141.078 Y27.450 E7.61395
G1 X140.908 Y27.301 E7.62531
G1 X140.615 Y26.988 E7.64693
G1 X140.479 Y26.813 E7.65811
G1 X140.354 Y26.629 E7.66928
G1 X140.145 Y26.250 E7.69109
G1 X139.985 Y25.844 E7.71308
G1 X139.877 Y25.424 E7.73493
G1 X139.839 Y25.170 E7.74784
G1 X139.815 Y24.773 E7.76788
G1 X139.822 Y24.548 E7.77922
G1 X139.876 Y24.119 E7.80102
G1 X139.984 Y23.699 E7.82283
G1 X140.161 Y23.259 E7.84677
G1 X140.356 Y22.908 E7.86699
G1 X140.610 Y22.558 E7.88878
G1 X140.759 Y22.388 E7.90013
G1 X141.072 Y22.095 E7.92176
G1 X141.250 Y21.956 E7.93311
G1 X141.613 Y21.726 E7.95474
G1 X141.860 Y21.600 E7.96874
G1 X142.257 Y21.450 E7.99009
G1 X142.643 Y21.355 E8.01013
G1 X143.251 Y21.296 E8.04090 F600.000
G1 X143.511 Y21.302 E8.05399
G1 X143.941 Y21.356 E8.07583
G1 X144.330 Y21.455 E8.09605
G1 X144.773 Y21.627 E8.11999
G1 X145.152 Y21.836 E8.14179
G1 X145.502 Y22.090 E8.16360
G1 X145.672 Y22.239 E8.17495
G1 X145.965 Y22.552 E8.19658
G1 X146.242 Y22.938 E8.22052
G1 X146.435 Y23.290 E8.24074
G1 X146.595 Y23.696 E8.26271
G1 X146.703 Y24.116 E8.28456
G1 X146.741 Y24.370 E8.29747
G1 X146.762 Y24.710 E8.31467
G1 X147.107 Y24.978 F9000.000
G1 E2.31467 F1800.00000
G92 E0
G1 X138.652 Y24.771 F9000.000
G1 E6.00000 F1800.00000
G1 X138.622 Y25.244 E6.02391 F600.000
G1 X138.581 Y25.503 E6.03709
G1 X138.463 Y25.963 E6.06104
G1 X138.284 Y26.414 E6.08547
G1 X138.055 Y26.831 E6.10941
G1 X137.759 Y27.239 E6.13480
G1 X137.440 Y27.578 E6.15826
G1 X137.244 Y27.751 E6.17145
G1 X136.859 Y28.031 E6.19539
G1 X136.443 Y28.260 E6.21934
G1 X135.974 Y28.445 E6.24473
G1 X135.514 Y28.563 E6.26867
G1 X135.042 Y28.623 E6.29262
G1 X134.538 Y28.623 E6.31801
G1 X134.066 Y28.563 E6.34195
G1 X133.606 Y28.445 E6.36590
G1 X133.369 Y28.360 E6.37860
G1 X133.137 Y28.260 E6.39130
G1 X132.721 Y28.031 E6.41525
G1 X132.336 Y27.751 E6.43919
G1 X132.140 Y27.578 E6.45238
G1 X131.821 Y27.239 E6.47584
G1 X131.666 Y27.039 E6.48854
G1 X131.525 Y26.831 E6.50124
G1 X131.296 Y26.414 E6.52519
G1 X131.117 Y25.963 E6.54962
G1 X130.997 Y25.494 E6.57405
G1 X130.937 Y25.022 E6.59799
G1 X130.929 Y24.760 E6.61118
G1 X130.958 Y24.296 E6.63464
G1 X130.999 Y24.037 E6.64782
G1 X131.115 Y23.586 E6.67128
G1 X131.300 Y23.117 E6.69667
G1 X131.529 Y22.701 E6.72062
G1 X131.809 Y22.316 E6.74456
G1 X131.982 Y22.120 E6.75775
G1 X132.321 Y21.801 E6.78121
G1 X132.729 Y21.505 E6.80660
G1 X133.146 Y21.276 E6.83055
G1 X133.588 Y21.101 E6.85449
G1 X133.839 Y21.028 E6.86768
G1 X134.305 Y20.939 E6.89158
G1 X134.747 Y20.910 E6.91386 F600.000
G1 X135.040 Y20.917 E6.92862
G1 X135.514 Y20.977 E6.95270
G1 X135.974 Y21.095 E6.97664
G1 X136.443 Y21.280 E7.00203
G1 X136.859 Y21.509 E7.02598
G1 X137.244 Y21.789 E7.04992
G1 X137.440 Y21.962 E7.06311
G1 X137.759 Y22.301 E7.08657
G1 X138.073 Y22.738 E7.11366
G1 X138.285 Y23.126 E7.13594
G1 X138.463 Y23.577 E7.16033
G1 X138.582 Y24.039 E7.18440
G1 X138.625 Y24.329 E7.19916
G1 X138.648 Y24.711 E7.21842
G1 X138.265 Y24.770 F9000.000
G1 X138.238 Y25.202 E7.24021 F600.000
G1 X138.203 Y25.425 E7.25156
G1 X138.095 Y25.844 E7.27337
G1 X137.935 Y26.250 E7.29535
G1 X137.726 Y26.629 E7.31716
G1 X137.465 Y26.988 E7.33950
G1 X137.172 Y27.301 E7.36113
G1 X137.002 Y27.450 E7.37248
G1 X136.652 Y27.704 E7.39429
G1 X136.273 Y27.913 E7.41610
G1 X135.861 Y28.076 E7.43844
G1 X135.441 Y28.184 E7.46024
G1 X135.012 Y28.238 E7.48205
G1 X134.568 Y28.238 E7.50439
G1 X134.139 Y28.184 E7.52620
G1 X133.719 Y28.076 E7.54800
G1 X133.511 Y28.001 E7.55918
G1 X133.307 Y27.913 E7.57035
G1 X132.928 Y27.704 E7.59216
G1 X132.578 Y27.450 E7.61397
G1 X132.408 Y27.301 E7.62532
G1 X132.115 Y26.988 E7.64695
G1 X131.979 Y26.813 E7.65812
G1 X131.854 Y26.629 E7.66930
G1 X131.645 Y26.250 E7.69111
G1 X131.485 Y25.844 E7.71309
G1 X131.376 Y25.421 E7.73508
G1 X131.322 Y24.992 E7.75688
G1 X131.315 Y24.766 E7.76824
G1 X131.342 Y24.338 E7.78987
G1 X131.377 Y24.115 E7.80122
G1 X131.484 Y23.699 E7.82285
G1 X131.647 Y23.287 E7.84519
G1 X131.856 Y22.908 E7.86699
G1 X132.110 Y22.558 E7.88880
G1 X132.259 Y22.388 E7.90015
G1 X132.572 Y22.095 E7.92178
G1 X132.931 Y21.834 E7.94412
G1 X133.310 Y21.625 E7.96593
G1 X133.713 Y21.466 E7.98774
G1 X133.929 Y21.403 E7.99909
G1 X134.354 Y21.322 E8.02088
G1 X134.755 Y21.296 E8.04110 F600.000
G1 X135.011 Y21.302 E8.05401
G1 X135.441 Y21.356 E8.07586
G1 X135.861 Y21.464 E8.09767
G1 X136.273 Y21.627 E8.12001
G1 X136.652 Y21.836 E8.14181
G1 X137.002 Y22.090 E8.16362
G1 X137.172 Y22.239 E8.17498
G1 X137.465 Y22.552 E8.19660
G1 X137.742 Y22.938 E8.22054
G1 X137.935 Y23.290 E8.24076
G1 X138.095 Y23.696 E8.26273
G1 X138.203 Y24.116 E8.28458
G1 X138.241 Y24.370 E8.29749
G1 X138.262 Y24.710 E8.31469
G1 X138.607 Y24.978 F9000.000
G1 E2.31469 F1800.00000
G92 E0
G1 X130.152 Y24.771 F9000.000
G1 E6.00000 F1800.00000
G1 X130.122 Y25.247 E6.02403 F600.000
G1 X130.074 Y25.536 E6.03880
G1 X129.963 Y25.964 E6.06107
G1 X129.784 Y26.414 E6.08546
G1 X129.555 Y26.831 E6.10941
G1 X129.414 Y27.039 E6.12211
G1 X129.259 Y27.239 E6.13481
G1 X128.934 Y27.585 E6.15876
G1 X128.567 Y27.888 E6.18270
G1 X128.351 Y28.035 E6.19589
G1 X127.943 Y28.260 E6.21935
G1 X127.711 Y28.360 E6.23205
G1 X127.474 Y28.445 E6.24475
G1 X127.014 Y28.563 E6.26870
G1 X126.542 Y28.623 E6.29264
G1 X126.038 Y28.623 E6.31803
G1 X125.566 Y28.563 E6.34198
G1 X125.106 Y28.445 E6.36592
G1 X124.637 Y28.260 E6.39131
G1 X124.229 Y28.035 E6.41477
G1 X124.013 Y27.888 E6.42796
G1 X123.646 Y27.585 E6.45190
G1 X123.314 Y27.232 E6.47634
G1 X123.029 Y26.839 E6.50077
G1 X122.800 Y26.423 E6.52471
G1 X122.696 Y26.182 E6.53790
G1 X122.552 Y25.739 E6.56136
G1 X122.458 Y25.244 E6.58674
G1 X122.428 Y24.770 E6.61069
G1 X122.458 Y24.296 E6.63464
G1 X122.552 Y23.801 E6.66002
G1 X122.696 Y23.358 E6.68349
G1 X122.800 Y23.117 E6.69667
G1 X123.029 Y22.701 E6.72062
G1 X123.309 Y22.316 E6.74457
G1 X123.654 Y21.949 E6.76995
G1 X124.020 Y21.646 E6.79390
G1 X124.421 Y21.391 E6.81784
G1 X124.655 Y21.272 E6.83107
G1 X125.131 Y21.085 E6.85681
G1 X125.805 Y20.939 E6.89156
G1 X126.246 Y20.910 E6.91384 F600.000
G1 X126.540 Y20.917 E6.92861
G1 X127.014 Y20.977 E6.95268
G1 X127.474 Y21.095 E6.97662
G1 X127.943 Y21.280 E7.00201
G1 X128.351 Y21.505 E7.02547
G1 X128.567 Y21.652 E7.03866
G1 X128.934 Y21.955 E7.06260
G1 X129.259 Y22.301 E7.08655
G1 X129.414 Y22.501 E7.09925
G1 X129.555 Y22.709 E7.11195
G1 X129.784 Y23.126 E7.13590
G1 X129.963 Y23.577 E7.16033
G1 X130.082 Y24.039 E7.18440
G1 X130.125 Y24.329 E7.19916
G1 X130.148 Y24.711 E7.21842
G1 X129.765 Y24.770 F9000.000
G1 X129.738 Y25.203 E7.24026 F600.000
G1 X129.696 Y25.456 E7.25316
G1 X129.595 Y25.844 E7.27338
G1 X129.435 Y26.250 E7.29535
G1 X129.226 Y26.629 E7.31716
G1 X128.965 Y26.988 E7.33950
G1 X128.669 Y27.303 E7.36131
G1 X128.336 Y27.579 E7.38311
G1 X128.149 Y27.706 E7.39447
G1 X127.773 Y27.913 E7.41609
G1 X127.361 Y28.076 E7.43844
G1 X126.941 Y28.184 E7.46024
G1 X126.512 Y28.238 E7.48205
G1 X126.290 Y28.245 E7.49322
G1 X126.068 Y28.238 E7.50440
G1 X125.639 Y28.184 E7.52621
G1 X125.219 Y28.076 E7.54801
G1 X124.807 Y27.913 E7.57035
G1 X124.431 Y27.706 E7.59198
G1 X124.244 Y27.579 E7.60333
G1 X123.911 Y27.303 E7.62514
G1 X123.612 Y26.985 E7.64713
G1 X123.356 Y26.632 E7.66911
G1 X123.147 Y26.253 E7.69092
G1 X123.057 Y26.046 E7.70227
G1 X122.925 Y25.638 E7.72390
G1 X122.842 Y25.202 E7.74624
G1 X122.815 Y24.770 E7.76805
G1 X122.842 Y24.338 E7.78986
G1 X122.876 Y24.119 E7.80103
G1 X122.925 Y23.902 E7.81220
G1 X123.057 Y23.494 E7.83383
G1 X123.147 Y23.287 E7.84519
G1 X123.356 Y22.908 E7.86699
G1 X123.610 Y22.558 E7.88880
G1 X123.914 Y22.234 E7.91114
G1 X124.247 Y21.958 E7.93295
G1 X124.613 Y21.726 E7.95475
G1 X124.814 Y21.624 E7.96612
G1 X125.253 Y21.452 E7.98987
G1 X125.854 Y21.322 E8.02087
G1 X126.255 Y21.296 E8.04108 F600.000
G1 X126.511 Y21.302 E8.05399
G1 X126.941 Y21.356 E8.07585
G1 X127.361 Y21.464 E8.09765
G1 X127.773 Y21.627 E8.11999
G1 X128.149 Y21.834 E8.14162
G1 X128.336 Y21.961 E8.15297
G1 X128.669 Y22.237 E8.17478
G1 X128.965 Y22.552 E8.19659
G1 X129.101 Y22.727 E8.20776
G1 X129.226 Y22.911 E8.21894
G1 X129.435 Y23.290 E8.24075
G1 X129.595 Y23.696 E8.26273
G1 X129.703 Y24.116 E8.28458
G1 X129.741 Y24.370 E8.29749
G1 X129.762 Y24.710 E8.31469
G1 X130.107 Y24.978 F9000.000
G1 E2.31469 F1800.00000
G92 E0
G1 X147.929 Y24.779 F9000.000
G1 E6.00000 F1800.00000
G1 X147.937 Y24.518 E6.01315 F600.000
G1 X147.997 Y24.046 E6.03709
G1 X148.115 Y23.586 E6.06104
G1 X148.300 Y23.117 E6.08642
G1 X148.529 Y22.701 E6.11037
G1 X148.809 Y22.316 E6.13432
G1 X149.154 Y21.949 E6.15971
G1 X149.520 Y21.646 E6.18365
G1 X149.921 Y21.391 E6.20760
G1 X150.155 Y21.272 E6.22078
G1 X150.588 Y21.101 E6.24425
G1 X150.839 Y21.028 E6.25743
G1 X151.305 Y20.939 E6.28134
G1 X151.746 Y20.910 E6.30361 F600.000
G1 X152.040 Y20.917 E6.31838
G1 X152.514 Y20.977 E6.34245
G1 X152.974 Y21.095 E6.36639
G1 X153.443 Y21.280 E6.39179
G1 X153.851 Y21.505 E6.41524
G1 X154.067 Y21.652 E6.42843
G1 X154.434 Y21.955 E6.45238
G1 X154.766 Y22.308 E6.47681
G1 X155.051 Y22.701 E6.50124
G1 X155.280 Y23.117 E6.52518
G1 X155.384 Y23.358 E6.53837
G1 X155.528 Y23.801 E6.56183
G1 X155.622 Y24.296 E6.58721
G1 X155.652 Y24.770 E6.61116
G1 X155.622 Y25.244 E6.63511
G1 X155.528 Y25.739 E6.66050
G1 X155.384 Y26.182 E6.68396
G1 X155.280 Y26.423 E6.69714
G1 X155.051 Y26.839 E6.72109
G1 X154.766 Y27.232 E6.74552
G1 X154.434 Y27.585 E6.76995
G1 X154.067 Y27.888 E6.79390
G1 X153.851 Y28.035 E6.80708
