; generated by Slic3r 1.2.9 on 2017-06-24 at 14:50:41

; external perimeters extrusion width = 0.40mm
; perimeters extrusion width = 0.62mm
; infill extrusion width = 0.33mm
; solid infill extrusion width = 0.62mm
; top infill extrusion width = 0.20mm

M106 S256; Turn on fan to 100% power
M104 S140; turn on extruder temperature at S value
M140 S60; turn on bed temperature at S value
G28; home all axes
M84; disable motors
G1 Z15 F15000; have Z move to 20mm at 15000 mm/min
M190 S55; turn on bed temperature at S value and wait
M140 S55; turn on bed temperature at S value (printing temperature)
M109 S200; turn on extruder temperature at S value and wait (printing temperature)
M104 S200; turn on extruder temperature at S value
G1 Z0 F12000; move Z back to home
G21 ; set units to millimeters
G90 ; use absolute coordinates
M82 ; use absolute distances for extrusion
G92 E0
M106 S255
;Layer change
G1 E-6.00000 F1800.00000
G92 E0
G1 Z0.300 F9000.000
G1 X78.555 Y78.555 F9000.000
G1 E6.00000 F1800.00000
G1 X79.269 Y77.884 E6.04877 F600.000
G1 X79.712 Y77.505 E6.07782
G1 X80.456 Y76.928 E6.12470
G1 X80.934 Y76.592 E6.15375
G1 X81.729 Y76.088 E6.20065
G1 X82.618 Y75.596 E6.25126
G1 X83.143 Y75.339 E6.28032
G1 X84.007 Y74.965 E6.32721
G1 X84.553 Y74.759 E6.35626
G1 X85.448 Y74.468 E6.40315
G1 X86.432 Y74.213 E6.45375
G1 X87.004 Y74.094 E6.48283
G1 X87.934 Y73.947 E6.52971
G1 X88.514 Y73.883 E6.55876
G1 X89.454 Y73.824 E6.60567
G1 X90.059 Y73.815 E6.63578
G1 X90.979 Y73.844 E6.68160 F600.000
G1 X91.560 Y73.890 E6.71065
G1 X92.087 Y73.950 E6.73705
G1 X92.996 Y74.094 E6.78285
G1 X93.568 Y74.213 E6.81193
G1 X94.479 Y74.447 E6.85878
G1 X95.518 Y74.784 E6.91317
G1 X96.394 Y75.131 E6.96005
G1 X96.925 Y75.371 E6.98909
G1 X97.382 Y75.596 E7.01442
G1 X98.207 Y76.050 E7.06131
G1 X99.129 Y76.635 E7.11567
G1 X99.891 Y77.188 E7.16256
G1 X100.346 Y77.553 E7.19161
G1 X101.052 Y78.176 E7.23848
G1 X101.471 Y78.582 E7.26754
G1 X101.824 Y78.948 E7.29288
G1 X102.447 Y79.654 E7.33975
G1 X103.116 Y80.517 E7.39411
G1 X103.408 Y80.934 E7.41943
G1 X103.912 Y81.729 E7.46633
G1 X104.438 Y82.686 E7.52068
G1 X104.839 Y83.538 E7.56757
G1 X105.062 Y84.076 E7.59660
G1 X105.241 Y84.553 E7.62194
G1 X105.532 Y85.448 E7.66883
G1 X105.686 Y86.011 E7.69785
G1 X105.892 Y86.930 E7.74477
G1 X105.992 Y87.505 E7.77381
G1 X106.110 Y88.439 E7.82070
G1 X106.179 Y89.529 E7.87507
G1 X106.179 Y90.471 E7.92196
G1 X106.151 Y91.054 E7.95100
G1 X106.110 Y91.561 E7.97633
G1 X105.992 Y92.495 E8.02323
G1 X105.787 Y93.568 E8.07760
G1 X105.553 Y94.479 E8.12445
G1 X105.382 Y95.037 E8.15351
G1 X105.216 Y95.518 E8.17884
G1 X104.869 Y96.394 E8.22573
G1 X104.629 Y96.925 E8.25477
G1 X104.201 Y97.765 E8.30168
G1 X103.912 Y98.271 E8.33071
G1 X103.408 Y99.066 E8.37761
G1 X102.766 Y99.950 E8.43195
G1 X102.447 Y100.346 E8.45729
G1 X101.824 Y101.052 E8.50417
G1 X101.418 Y101.471 E8.53321
G1 X100.731 Y102.116 E8.58013
G1 X100.288 Y102.495 E8.60917
G1 X99.544 Y103.072 E8.65606
G1 X98.641 Y103.686 E8.71042
G1 X97.830 Y104.165 E8.75730
G1 X97.382 Y104.404 E8.78261
G1 X96.374 Y104.877 E8.83805
G1 X95.518 Y105.216 E8.88386
G1 X94.966 Y105.405 E8.91291
G1 X94.479 Y105.553 E8.93825
G1 X93.568 Y105.787 E8.98510
G1 X92.996 Y105.906 E9.01419
G1 X92.066 Y106.053 E9.06107
G1 X90.979 Y106.156 E9.11543
G1 X90.037 Y106.185 E9.16232
G1 X89.454 Y106.176 E9.19136
G1 X88.514 Y106.117 E9.23826
G1 X88.008 Y106.062 E9.26359
G1 X87.431 Y105.980 E9.29261
G1 X86.506 Y105.804 E9.33952
G1 X85.448 Y105.532 E9.39387
G1 X84.553 Y105.241 E9.44076
G1 X84.076 Y105.062 E9.46610
G1 X83.538 Y104.839 E9.49513
G1 X82.686 Y104.438 E9.54202
G1 X81.729 Y103.912 E9.59638
G1 X80.934 Y103.408 E9.64327
G1 X80.517 Y103.116 E9.66860
G1 X79.654 Y102.447 E9.72296
G1 X78.948 Y101.824 E9.76983
G1 X78.529 Y101.418 E9.79888
G1 X78.176 Y101.052 E9.82422
G1 X77.553 Y100.346 E9.87109
G1 X77.188 Y99.891 E9.90014
G1 X76.635 Y99.129 E9.94704
G1 X76.314 Y98.641 E9.97609
G1 X75.835 Y97.830 E10.02298
G1 X75.339 Y96.857 E10.07734
G1 X74.965 Y95.993 E10.12423
G1 X74.759 Y95.447 E10.15329
G1 X74.468 Y94.552 E10.20017
G1 X74.332 Y94.061 E10.22551
G1 X74.094 Y92.996 E10.27985
G1 X73.947 Y92.066 E10.32674
G1 X73.883 Y91.486 E10.35579
G1 X73.844 Y90.979 E10.38111
G1 X73.815 Y90.037 E10.42800
G1 X73.824 Y89.454 E10.45704
G1 X73.883 Y88.514 E10.50394
G1 X73.947 Y87.934 E10.53299
G1 X74.094 Y87.004 E10.57987
G1 X74.332 Y85.939 E10.63421
G1 X74.468 Y85.448 E10.65956
G1 X74.759 Y84.553 E10.70644
G1 X74.965 Y84.007 E10.73549
G1 X75.339 Y83.143 E10.78239
G1 X75.835 Y82.170 E10.83675
G1 X76.314 Y81.359 E10.88364
G1 X76.635 Y80.871 E10.91269
G1 X76.928 Y80.456 E10.93800
G1 X77.505 Y79.712 E10.98488
G1 X77.884 Y79.269 E11.01393
G1 X78.513 Y78.598 E11.05971
G1 E5.05971 F1800.00000
G92 E0
G1 X96.468 Y96.468 F9000.000
G1 E6.00000 F1800.00000
G1 X95.831 Y97.048 E6.04291 F600.000
G1 X95.142 Y97.566 E6.08582
G1 X94.413 Y98.012 E6.12833
G1 X93.894 Y98.276 E6.15733
G1 X93.360 Y98.508 E6.18633
G1 X92.552 Y98.784 E6.22885
G1 X91.714 Y98.985 E6.27176
G1 X90.861 Y99.107 E6.31467
G1 X90.000 Y99.147 E6.35757
G1 X89.139 Y99.107 E6.40048
G1 X88.286 Y98.985 E6.44339
G1 X87.448 Y98.784 E6.48630
G1 X86.640 Y98.508 E6.52882
G1 X86.106 Y98.276 E6.55782
G1 X85.587 Y98.012 E6.58682
G1 X84.858 Y97.566 E6.62933
G1 X84.169 Y97.048 E6.67224
G1 X83.532 Y96.468 E6.71515
G1 X82.952 Y95.831 E6.75806
G1 X82.438 Y95.146 E6.80071
G1 X82.127 Y94.656 E6.82958
G1 X81.846 Y94.146 E6.85857
G1 X81.495 Y93.367 E6.90109
G1 X81.216 Y92.552 E6.94400
G1 X81.015 Y91.714 E6.98691
G1 X80.893 Y90.861 E7.02982
G1 X80.853 Y90.000 E7.07272
G1 X80.893 Y89.139 E7.11563
G1 X81.015 Y88.286 E7.15854
G1 X81.216 Y87.448 E7.20145
G1 X81.494 Y86.638 E7.24410
G1 X81.724 Y86.105 E7.27297
G1 X81.988 Y85.587 E7.30196
G1 X82.434 Y84.858 E7.34448
G1 X82.952 Y84.169 E7.38739
G1 X83.532 Y83.532 E7.43030
G1 X84.169 Y82.952 E7.47321
G1 X84.858 Y82.434 E7.51611
G1 X85.593 Y81.984 E7.55902
G1 X86.367 Y81.605 E7.60193
G1 X87.173 Y81.300 E7.64484
G1 X88.005 Y81.073 E7.68775
G1 X88.846 Y80.926 E7.73026
G1 X89.426 Y80.871 E7.75926
G1 X90.005 Y80.853 E7.78813 F600.000
G1 X90.861 Y80.893 E7.83078
G1 X91.714 Y81.015 E7.87369
G1 X92.552 Y81.216 E7.91660
G1 X93.360 Y81.492 E7.95911
G1 X93.894 Y81.724 E7.98811
G1 X94.413 Y81.988 E8.01711
G1 X95.142 Y82.434 E8.05963
G1 X95.831 Y82.952 E8.10254
G1 X96.468 Y83.532 E8.14545
G1 X97.048 Y84.169 E8.18836
G1 X97.562 Y84.854 E8.23101
G1 X97.873 Y85.344 E8.25987
G1 X98.154 Y85.854 E8.28887
G1 X98.505 Y86.633 E8.33139
G1 X98.784 Y87.448 E8.37430
G1 X98.985 Y88.286 E8.41720
G1 X99.107 Y89.139 E8.46011
G1 X99.147 Y90.000 E8.50302
G1 X99.107 Y90.861 E8.54593
G1 X98.985 Y91.714 E8.58884
G1 X98.784 Y92.552 E8.63175
G1 X98.507 Y93.362 E8.67440
G1 X98.276 Y93.895 E8.70327
G1 X98.012 Y94.413 E8.73226
G1 X97.566 Y95.142 E8.77478
G1 X97.048 Y95.831 E8.81769
G1 X96.509 Y96.424 E8.85761
G1 X96.195 Y96.195 F9000.000
G1 X95.585 Y96.751 E8.89871 F600.000
G1 X94.925 Y97.246 E8.93980
G1 X94.225 Y97.675 E8.98066
G1 X93.730 Y97.927 E9.00830
G1 X93.221 Y98.148 E9.03594
G1 X92.444 Y98.413 E9.07680
G1 X91.642 Y98.606 E9.11790
G1 X90.825 Y98.722 E9.15900
G1 X90.000 Y98.761 E9.20009
G1 X89.175 Y98.722 E9.24119
G1 X88.358 Y98.606 E9.28229
G1 X87.556 Y98.413 E9.32339
G1 X86.779 Y98.148 E9.36424
G1 X86.270 Y97.927 E9.39189
G1 X85.775 Y97.675 E9.41953
G1 X85.075 Y97.246 E9.46038
G1 X84.415 Y96.751 E9.50148
G1 X83.805 Y96.195 E9.54258
G1 X83.249 Y95.585 E9.58368
G1 X82.755 Y94.926 E9.62467
G1 X82.459 Y94.460 E9.65218
G1 X82.192 Y93.973 E9.67982
G1 X81.854 Y93.225 E9.72068
G1 X81.587 Y92.444 E9.76177
G1 X81.394 Y91.642 E9.80287
G1 X81.278 Y90.825 E9.84397
G1 X81.239 Y90.000 E9.88506
G1 X81.278 Y89.175 E9.92616
G1 X81.394 Y88.358 E9.96726
G1 X81.587 Y87.556 E10.00836
G1 X81.853 Y86.777 E10.04935
G1 X82.073 Y86.270 E10.07686
G1 X82.325 Y85.775 E10.10450
G1 X82.754 Y85.075 E10.14535
G1 X83.249 Y84.415 E10.18645
G1 X83.805 Y83.805 E10.22755
G1 X84.415 Y83.249 E10.26865
G1 X85.075 Y82.754 E10.30974
G1 X85.779 Y82.322 E10.35084
G1 X86.520 Y81.959 E10.39194
G1 X87.293 Y81.668 E10.43303
G1 X88.089 Y81.450 E10.47413
G1 X88.897 Y81.309 E10.51499
G1 X89.450 Y81.256 E10.54263
G1 X90.002 Y81.239 E10.57014 F600.000
G1 X90.824 Y81.278 E10.61113
G1 X91.642 Y81.394 E10.65223
G1 X92.444 Y81.587 E10.69333
G1 X93.221 Y81.852 E10.73418
G1 X93.730 Y82.073 E10.76183
G1 X94.225 Y82.325 E10.78947
G1 X94.925 Y82.754 E10.83033
G1 X95.585 Y83.249 E10.87142
G1 X96.195 Y83.805 E10.91252
G1 X96.751 Y84.415 E10.95362
G1 X97.245 Y85.074 E10.99461
G1 X97.541 Y85.540 E11.02212
G1 X97.808 Y86.027 E11.04976
G1 X98.146 Y86.775 E11.09062
G1 X98.413 Y87.556 E11.13171
G1 X98.606 Y88.358 E11.17281
G1 X98.722 Y89.175 E11.21391
G1 X98.761 Y90.000 E11.25500
G1 X98.722 Y90.825 E11.29610
G1 X98.606 Y91.642 E11.33720
G1 X98.413 Y92.444 E11.37830
G1 X98.147 Y93.223 E11.41929
G1 X97.927 Y93.730 E11.44680
G1 X97.675 Y94.225 E11.47444
G1 X97.246 Y94.925 E11.51530
G1 X96.751 Y95.585 E11.55639
G1 X96.236 Y96.151 E11.59450
G1 X95.922 Y95.922 F9000.000
G1 X95.339 Y96.453 E11.63379 F600.000
G1 X94.708 Y96.927 E11.67308
G1 X94.036 Y97.338 E11.71227
G1 X93.566 Y97.578 E11.73856
G1 X93.081 Y97.788 E11.76484
G1 X92.337 Y98.043 E11.80404
G1 X91.569 Y98.227 E11.84333
G1 X90.788 Y98.338 E11.88261
G1 X90.000 Y98.375 E11.92190
G1 X89.212 Y98.338 E11.96118
G1 X88.431 Y98.227 E12.00047
G1 X87.663 Y98.043 E12.03976
G1 X86.919 Y97.788 E12.07896
G1 X86.434 Y97.578 E12.10524
G1 X85.964 Y97.338 E12.13152
G1 X85.292 Y96.927 E12.17072
G1 X84.661 Y96.453 E12.21001
G1 X84.078 Y95.922 E12.24929
G1 X83.547 Y95.339 E12.28858
G1 X83.073 Y94.707 E12.32791
G1 X82.791 Y94.263 E12.35406
G1 X82.537 Y93.801 E12.38035
G1 X82.213 Y93.083 E12.41954
G1 X81.957 Y92.337 E12.45883
G1 X81.773 Y91.569 E12.49812
G1 X81.662 Y90.788 E12.53740
G1 X81.625 Y90.000 E12.57669
G1 X81.662 Y89.212 E12.61598
G1 X81.773 Y88.431 E12.65526
G1 X81.957 Y87.663 E12.69455
G1 X82.213 Y86.916 E12.73388
G1 X82.422 Y86.434 E12.76003
G1 X82.662 Y85.964 E12.78631
G1 X83.073 Y85.292 E12.82551
G1 X83.547 Y84.661 E12.86480
G1 X84.078 Y84.078 E12.90409
G1 X84.661 Y83.547 E12.94337
G1 X85.292 Y83.073 E12.98266
G1 X85.965 Y82.661 E13.02194
G1 X86.674 Y82.314 E13.06123
G1 X87.412 Y82.035 E13.10052
G1 X88.173 Y81.826 E13.13980
G1 X88.949 Y81.691 E13.17900
G1 X89.474 Y81.641 E13.20529
G1 X89.999 Y81.625 E13.23144 F600.000
G1 X90.788 Y81.662 E13.27077
G1 X91.569 Y81.773 E13.31005
G1 X92.337 Y81.957 E13.34934
G1 X93.081 Y82.212 E13.38854
G1 X93.566 Y82.422 E13.41482
G1 X94.036 Y82.662 E13.44111
G1 X94.708 Y83.073 E13.48030
G1 X95.339 Y83.547 E13.51959
G1 X95.922 Y84.078 E13.55888
G1 X96.453 Y84.661 E13.59816
G1 X96.927 Y85.293 E13.63749
G1 X97.209 Y85.737 E13.66365
G1 X97.463 Y86.199 E13.68993
G1 X97.787 Y86.917 E13.72913
G1 X98.043 Y87.663 E13.76841
G1 X98.227 Y88.431 E13.80770
G1 X98.338 Y89.212 E13.84699
G1 X98.375 Y90.000 E13.88627
G1 X98.338 Y90.788 E13.92556
G1 X98.227 Y91.569 E13.96485
G1 X98.043 Y92.337 E14.00413
G1 X97.787 Y93.084 E14.04346
G1 X97.578 Y93.566 E14.06961
G1 X97.338 Y94.036 E14.09590
G1 X96.927 Y94.708 E14.13510
G1 X96.453 Y95.339 E14.17438
G1 X95.963 Y95.878 E14.21068
G1 X96.020 Y96.310 F9000.000
G1 X99.004 Y99.102 F9000.000
G1 X98.161 Y99.865 E14.26729 F600.000
G1 X97.519 Y100.363 E14.30773
G1 X96.517 Y101.020 E14.36739
G1 X95.813 Y101.408 E14.40744
G1 X95.078 Y101.754 E14.44788
G1 X94.344 Y102.044 E14.48715
G1 X93.572 Y102.295 E14.52758
G1 X92.407 Y102.575 E14.58725
G1 X91.597 Y102.704 E14.62808
G1 X90.394 Y102.797 E14.68813
G1 X89.188 Y102.778 E14.74820
G1 X88.795 Y102.747 E14.76783
G1 X88.403 Y102.704 E14.78747
G1 X87.215 Y102.497 E14.84753
G1 X86.428 Y102.295 E14.88796
G1 X85.656 Y102.044 E14.92839
G1 X84.922 Y101.754 E14.96767
G1 X84.187 Y101.408 E15.00810
G1 X83.483 Y101.020 E15.04815
G1 X82.797 Y100.585 E15.08859
G1 X81.839 Y99.865 E15.14825
G1 X81.230 Y99.328 E15.18869
G1 X80.672 Y98.770 E15.22796
G1 X80.135 Y98.161 E15.26839
G1 X79.637 Y97.519 E15.30883
G1 X78.980 Y96.517 E15.36850
G1 X78.592 Y95.812 E15.40856
G1 X78.255 Y95.097 E15.44795
G1 X77.956 Y94.344 E15.48825
G1 X77.705 Y93.572 E15.52869
G1 X77.503 Y92.785 E15.56912
G1 X77.299 Y91.617 E15.62815
G1 X77.253 Y91.204 E15.64885
G1 X77.197 Y90.000 E15.70888
G1 X77.221 Y89.209 E15.74828
G1 X77.296 Y88.403 E15.78858
G1 X77.503 Y87.215 E15.84864
G1 X77.705 Y86.428 E15.88907
G1 X77.956 Y85.656 E15.92950
G1 X78.095 Y85.287 E15.94914
G1 X78.246 Y84.922 E15.96878
G1 X78.592 Y84.187 E16.00922
G1 X78.980 Y83.482 E16.04927
G1 X79.638 Y82.480 E16.10897
G1 X80.135 Y81.839 E16.14937
G1 X80.672 Y81.230 E16.18980
G1 X81.230 Y80.672 E16.22908
G1 X81.839 Y80.135 E16.26951
G1 X82.797 Y79.415 E16.32918
G1 X83.483 Y78.980 E16.36961
G1 X84.187 Y78.592 E16.40966
G1 X84.922 Y78.246 E16.45010
G1 X85.656 Y77.956 E16.48937
G1 X86.428 Y77.705 E16.52980
G1 X87.215 Y77.503 E16.57024
G1 X87.593 Y77.425 E16.58948
G1 X88.787 Y77.254 E16.64954
G1 X89.605 Y77.203 E16.69033
G1 X90.804 Y77.222 E16.75003
G1 X91.605 Y77.298 E16.79008 F600.000
G1 X92.407 Y77.425 E16.83052
G1 X93.580 Y77.707 E16.89058
G1 X94.330 Y77.951 E16.92985
G1 X95.085 Y78.250 E16.97028
G1 X95.820 Y78.596 E17.01072
G1 X96.867 Y79.194 E17.07078
G1 X97.519 Y79.637 E17.11005
G1 X98.161 Y80.135 E17.15048
G1 X98.770 Y80.672 E17.19092
G1 X99.054 Y80.946 E17.21055
G1 X99.328 Y81.230 E17.23019
G1 X99.865 Y81.839 E17.27064
G1 X100.350 Y82.464 E17.31003
G1 X100.586 Y82.798 E17.33035
G1 X101.020 Y83.483 E17.37075
G1 X101.408 Y84.188 E17.41080
G1 X101.745 Y84.903 E17.45020
G1 X102.044 Y85.656 E17.49050
G1 X102.295 Y86.428 E17.53093
G1 X102.497 Y87.215 E17.57137
G1 X102.704 Y88.403 E17.63143
G1 X102.778 Y89.188 E17.67069
G1 X102.797 Y90.394 E17.73076
G1 X102.746 Y91.213 E17.77158
G1 X102.575 Y92.407 E17.83164
G1 X102.497 Y92.785 E17.85089
G1 X102.295 Y93.572 E17.89132
G1 X102.046 Y94.337 E17.93138
G1 X101.588 Y95.445 E17.99107
G1 X101.220 Y96.168 E18.03147
G1 X100.806 Y96.867 E18.07191
G1 X100.363 Y97.519 E18.11118
G1 X99.865 Y98.161 E18.15161
G1 X99.328 Y98.770 E18.19205
G1 X99.047 Y99.060 E18.21215
G1 X99.272 Y99.379 F9000.000
G1 X98.407 Y100.162 E18.27027 F600.000
G1 X97.749 Y100.673 E18.31176
G1 X97.417 Y100.906 E18.33191
G1 X96.714 Y101.352 E18.37340
G1 X95.988 Y101.752 E18.41466
G1 X95.234 Y102.106 E18.45615
G1 X94.472 Y102.408 E18.49693
G1 X93.680 Y102.665 E18.53842
G1 X92.872 Y102.873 E18.57991
G1 X92.476 Y102.955 E18.60006
G1 X91.648 Y103.086 E18.64179
G1 X91.246 Y103.130 E18.66194
G1 X90.410 Y103.183 E18.70367
G1 X90.005 Y103.189 E18.72383
G1 X89.167 Y103.163 E18.76556
G1 X88.759 Y103.131 E18.78595
G1 X88.352 Y103.086 E18.80634
G1 X87.524 Y102.955 E18.84807
G1 X87.128 Y102.873 E18.86822
G1 X86.320 Y102.665 E18.90971
G1 X85.528 Y102.408 E18.95120
G1 X84.766 Y102.106 E18.99198
G1 X84.012 Y101.752 E19.03347
G1 X83.286 Y101.352 E19.07473
G1 X82.583 Y100.906 E19.11622
G1 X82.251 Y100.673 E19.13637
G1 X81.593 Y100.162 E19.17786
G1 X80.968 Y99.611 E19.21935
G1 X80.389 Y99.032 E19.26013
G1 X79.838 Y98.407 E19.30162
G1 X79.327 Y97.749 E19.34311
G1 X79.094 Y97.417 E19.36327
G1 X78.648 Y96.714 E19.40476
G1 X78.248 Y95.988 E19.44602
G1 X77.902 Y95.253 E19.48645
G1 X77.592 Y94.472 E19.52828
G1 X77.335 Y93.680 E19.56977
G1 X77.127 Y92.872 E19.61126
G1 X77.045 Y92.476 E19.63142
G1 X76.917 Y91.669 E19.67210
G1 X76.869 Y91.241 E19.69356
G1 X76.837 Y90.833 E19.71393
G1 X76.811 Y90.000 E19.75542
G1 X76.836 Y89.188 E19.79586
G1 X76.914 Y88.352 E19.83768
G1 X77.045 Y87.524 E19.87942
G1 X77.127 Y87.128 E19.89957
G1 X77.335 Y86.320 E19.94106
G1 X77.592 Y85.528 E19.98255
G1 X77.737 Y85.145 E20.00294
G1 X77.894 Y84.766 E20.02333
G1 X78.248 Y84.012 E20.06483
G1 X78.648 Y83.286 E20.10609
G1 X79.083 Y82.600 E20.14652
G1 X79.327 Y82.251 E20.16775
G1 X79.838 Y81.593 E20.20921
G1 X80.389 Y80.968 E20.25070
G1 X80.968 Y80.389 E20.29148
G1 X81.593 Y79.838 E20.33297
G1 X82.251 Y79.327 E20.37446
G1 X82.583 Y79.094 E20.39462
G1 X83.286 Y78.648 E20.43611
G1 X84.012 Y78.248 E20.47736
G1 X84.766 Y77.894 E20.51885
G1 X85.528 Y77.592 E20.55963
G1 X86.320 Y77.335 E20.60112
G1 X87.128 Y77.127 E20.64262
G1 X87.524 Y77.045 E20.66277
G1 X88.352 Y76.914 E20.70450
