; generated by Slic3r 1.2.9 on 2018-01-01 at 23:35:07

; external perimeters extrusion width = 0.40mm
; perimeters extrusion width = 0.62mm
; infill extrusion width = 0.33mm
; solid infill extrusion width = 0.62mm
; top infill extrusion width = 0.20mm

M106 S256; Turn on fan to 100% power
M104 S140; turn on extruder temperature at S value
M140 S60; turn on bed temperature at S value
G28; home all axes
M84; disable motors
G1 Z15 F15000; have Z move to 20mm at 15000 mm/min
M190 S55; turn on bed temperature at S value and wait
M140 S55; turn on bed temperature at S value (printing temperature)
M109 S200; turn on extruder temperature at S value and wait (printing temperature)
M104 S200; turn on extruder temperature at S value
G1 Z0 F12000; move Z back to home
G21 ; set units to millimeters
G90 ; use absolute coordinates
M82 ; use absolute distances for extrusion
G92 E0
M106 S255
;Layer change
G1 E-6.00000 F1800.00000
G92 E0
G1 Z0.300 F9000.000
G1 X16.344 Y10.377 F9000.000
G1 E6.00000 F1800.00000
G1 X16.777 Y9.731 E6.03914 F600.000
G1 X17.250 Y9.114 E6.07835
G1 X17.760 Y8.528 E6.11745
G1 X18.310 Y7.972 E6.15685
G1 X18.888 Y7.456 E6.19591
G1 X19.499 Y6.975 E6.23505
G1 X20.142 Y6.533 E6.27436
G1 X20.806 Y6.134 E6.31340
G1 X21.635 Y5.712 E6.36025
G1 X22.351 Y5.408 E6.39943
G1 X23.084 Y5.149 E6.43862
G1 X23.832 Y4.936 E6.47778
G1 X24.593 Y4.771 E6.51702
G1 X25.362 Y4.654 E6.55618
G1 X26.137 Y4.585 E6.59538
G1 X26.840 Y4.564 E6.63080
G1 X159.415 Y4.566 E13.30899
G1 X160.043 Y4.585 E13.34064 F600.000
G1 X160.818 Y4.654 E13.37986
G1 X161.734 Y4.799 E13.42658
G1 X162.348 Y4.936 E13.45823
G1 X163.096 Y5.149 E13.49741
G1 X163.969 Y5.463 E13.54415
G1 X164.545 Y5.712 E13.57580
G1 X165.241 Y6.061 E13.61498
G1 X165.913 Y6.453 E13.65418
G1 X166.534 Y6.870 E13.69188
G1 X167.292 Y7.455 E13.74009
G1 X167.872 Y7.973 E13.77928
G1 X168.317 Y8.418 E13.81093
G1 X168.930 Y9.113 E13.85766
G1 X169.403 Y9.731 E13.89684
G1 X169.756 Y10.251 E13.92851
G1 X170.228 Y11.049 E13.97522
G1 X170.514 Y11.609 E14.00689
G1 X170.827 Y12.321 E14.04608
G1 X171.141 Y13.194 E14.09282
G1 X171.354 Y13.942 E14.13198
G1 X171.491 Y14.556 E14.16365
G1 X171.636 Y15.472 E14.21039
G1 X171.705 Y16.247 E14.24957
G1 X171.726 Y16.950 E14.28500
G1 X171.726 Y72.950 E17.10589
G1 X171.695 Y73.802 E17.14885
G1 X171.636 Y74.428 E17.18050
G1 X171.519 Y75.197 E17.21969
G1 X171.317 Y76.102 E17.26640
G1 X171.085 Y76.876 E17.30708
G1 X170.827 Y77.579 E17.34480
G1 X170.578 Y78.155 E17.37645
G1 X170.157 Y78.982 E17.42318
G1 X169.837 Y79.523 E17.45483
G1 X169.403 Y80.169 E17.49403
G1 X168.930 Y80.787 E17.53323
G1 X168.317 Y81.482 E17.57993
G1 X167.763 Y82.029 E17.61915
G1 X167.291 Y82.445 E17.65082
G1 X166.680 Y82.925 E17.68998
G1 X166.039 Y83.366 E17.72918
G1 X165.241 Y83.839 E17.77591
G1 X164.681 Y84.124 E17.80756
G1 X163.969 Y84.437 E17.84675
G1 X163.095 Y84.752 E17.89350
G1 X162.492 Y84.927 E17.92514
G1 X161.763 Y85.095 E17.96283
G1 X160.966 Y85.227 E18.00353
G1 X160.043 Y85.315 E18.05025
G1 X159.340 Y85.336 E18.08567
G1 X26.840 Y85.336 E24.76009
G1 X26.137 Y85.315 E24.79551
G1 X25.362 Y85.246 E24.83472
G1 X24.593 Y85.129 E24.87388
G1 X23.832 Y84.964 E24.91310
G1 X23.084 Y84.751 E24.95228
G1 X22.351 Y84.492 E24.99147
G1 X21.635 Y84.188 E25.03064
G1 X20.939 Y83.839 E25.06985
G1 X20.266 Y83.446 E25.10911
G1 X19.499 Y82.925 E25.15584
G1 X18.888 Y82.444 E25.19499
G1 X18.310 Y81.928 E25.23404
G1 X17.760 Y81.372 E25.27344
G1 X17.250 Y80.786 E25.31254
G1 X16.777 Y80.169 E25.35175
G1 X16.344 Y79.523 E25.39089
G1 X15.951 Y78.850 E25.43014
G1 X15.603 Y78.157 E25.46922
G1 X15.298 Y77.440 E25.50847
G1 X15.038 Y76.705 E25.54775
G1 X14.826 Y75.957 E25.58689
G1 X14.661 Y75.196 E25.62613
G1 X14.544 Y74.428 E25.66529
G1 X14.476 Y73.654 E25.70441
G1 X14.454 Y72.950 E25.73988
G1 X14.456 Y16.874 E28.56459
G1 X14.485 Y16.098 E28.60371
G1 X14.563 Y15.325 E28.64287
G1 X14.689 Y14.556 E28.68210
G1 X14.863 Y13.799 E28.72125
G1 X15.085 Y13.051 E28.76053
G1 X15.353 Y12.320 E28.79977
G1 X15.666 Y11.610 E28.83886
G1 X15.951 Y11.050 E28.87050
G1 X16.313 Y10.428 E28.90674
G1 E22.90674 F1800.00000
G92 E0
G1 X25.119 Y73.254 F9000.000
G1 E6.00000 F1800.00000
G1 X25.523 Y73.345 E6.02091 F600.000
G1 X25.906 Y73.510 E6.04191
G1 X26.251 Y73.745 E6.06290
G1 X26.552 Y74.046 E6.08437
G1 X26.840 Y74.498 E6.11138
G1 X26.984 Y74.900 E6.13285
G1 X27.049 Y75.312 E6.15386
G1 X27.035 Y75.727 E6.17481
G1 X26.946 Y76.134 E6.19578
G1 X26.779 Y76.516 E6.21679
G1 X26.546 Y76.861 E6.23776
G1 X26.251 Y77.155 E6.25875
G1 X25.914 Y77.384 E6.27925
G1 X25.654 Y77.506 E6.29374
G1 X25.381 Y77.595 E6.30821
G1 X24.978 Y77.659 E6.32873
G1 X24.562 Y77.646 E6.34972
G1 X24.157 Y77.555 E6.37065
G1 X23.774 Y77.390 E6.39166
G1 X23.429 Y77.155 E6.41265
G1 X23.128 Y76.854 E6.43412
G1 X22.840 Y76.402 E6.46112
G1 X22.696 Y76.000 E6.48260
G1 X22.631 Y75.588 E6.50361
G1 X22.645 Y75.173 E6.52456
G1 X22.734 Y74.766 E6.54553
G1 X22.901 Y74.384 E6.56654
G1 X23.134 Y74.039 E6.58751
G1 X23.436 Y73.738 E6.60900
G1 X23.889 Y73.451 E6.63600
G1 X24.290 Y73.306 E6.65750
G1 X24.710 Y73.241 E6.67892 F600.000
G1 X25.059 Y73.252 E6.69646
G1 X25.070 Y73.638 F9000.000
G1 X25.404 Y73.713 E6.71372 F600.000
G1 X25.720 Y73.850 E6.73105
G1 X26.004 Y74.043 E6.74837
G1 X26.250 Y74.289 E6.76586
G1 X26.491 Y74.669 E6.78857
G1 X26.609 Y74.996 E6.80606
G1 X26.663 Y75.336 E6.82338
G1 X26.651 Y75.679 E6.84068
G1 X26.577 Y76.014 E6.85798
G1 X26.440 Y76.330 E6.87531
G1 X26.247 Y76.614 E6.89262
G1 X26.004 Y76.857 E6.90993
G1 X25.723 Y77.048 E6.92706
G1 X25.512 Y77.147 E6.93880
G1 X25.291 Y77.219 E6.95052
G1 X24.954 Y77.272 E6.96768
G1 X24.611 Y77.262 E6.98499
G1 X24.276 Y77.187 E7.00226
G1 X23.960 Y77.050 E7.01960
G1 X23.676 Y76.857 E7.03691
G1 X23.430 Y76.611 E7.05440
G1 X23.189 Y76.231 E7.07711
G1 X23.071 Y75.904 E7.09461
G1 X23.017 Y75.564 E7.11193
G1 X23.029 Y75.221 E7.12923
G1 X23.103 Y74.886 E7.14653
G1 X23.240 Y74.570 E7.16386
G1 X23.433 Y74.286 E7.18116
G1 X23.679 Y74.040 E7.19866
G1 X24.059 Y73.799 E7.22138
G1 X24.386 Y73.681 E7.23887
G1 X24.734 Y73.627 E7.25659 F600.000
G1 X25.010 Y73.636 E7.27049
G1 X25.285 Y73.372 F9000.000
G1 X30.775 Y69.212 F9000.000
G1 X30.381 Y68.636 E7.30567 F600.000
G1 X30.042 Y68.062 E7.33926
G1 X29.739 Y67.468 E7.37282
G1 X29.474 Y66.856 E7.40641
G1 X29.248 Y66.229 E7.44000
G1 X29.062 Y65.589 E7.47358
G1 X28.917 Y64.938 E7.50716
G1 X28.813 Y64.280 E7.54074
G1 X28.750 Y63.616 E7.57430
G1 X28.729 Y62.960 E7.60740
G1 X28.729 Y26.940 E9.42181
G1 X28.750 Y26.284 E9.45490
G1 X28.813 Y25.620 E9.48846
G1 X28.917 Y24.962 E9.52204
G1 X29.062 Y24.311 E9.55562
G1 X29.248 Y23.671 E9.58920
G1 X29.474 Y23.044 E9.62280
G1 X29.739 Y22.432 E9.65638
G1 X30.042 Y21.838 E9.68994
G1 X30.381 Y21.264 E9.72353
G1 X30.756 Y20.713 E9.75710
G1 X31.164 Y20.187 E9.79067
G1 X31.605 Y19.686 E9.82425
G1 X32.077 Y19.215 E9.85786
G1 X32.576 Y18.774 E9.89141
G1 X33.103 Y18.366 E9.92498
G1 X33.655 Y17.991 E9.95858
G1 X34.228 Y17.652 E9.99212
G1 X34.822 Y17.349 E10.02572
G1 X35.434 Y17.084 E10.05932
G1 X36.061 Y16.858 E10.09289
G1 X36.701 Y16.672 E10.12645
G1 X37.352 Y16.527 E10.16003
G1 X38.010 Y16.423 E10.19363
G1 X38.674 Y16.360 E10.22719
G1 X39.330 Y16.339 E10.26029
G1 X94.350 Y16.339 E13.03177 F600.000
G1 X95.006 Y16.360 E13.06487
G1 X95.670 Y16.423 E13.09845
G1 X96.328 Y16.527 E13.13202
G1 X96.979 Y16.672 E13.16560
G1 X97.619 Y16.858 E13.19918
G1 X98.247 Y17.084 E13.23280
G1 X98.885 Y17.363 E13.26786
G1 X99.452 Y17.652 E13.29991
G1 X100.026 Y17.991 E13.33349
G1 X100.577 Y18.366 E13.36707
G1 X101.104 Y18.774 E13.40065
G1 X101.604 Y19.215 E13.43423
G1 X102.075 Y19.686 E13.46781
G1 X102.516 Y20.186 E13.50138
G1 X102.924 Y20.713 E13.53496
G1 X103.299 Y21.264 E13.56854
G1 X103.638 Y21.838 E13.60212
G1 X103.941 Y22.432 E13.63570
G1 X104.206 Y23.044 E13.66928
G1 X104.432 Y23.671 E13.70286
G1 X104.618 Y24.311 E13.73643
G1 X104.763 Y24.962 E13.77001
G1 X104.867 Y25.620 E13.80359
G1 X104.930 Y26.284 E13.83717
G1 X104.951 Y26.940 E13.87027
G1 X104.951 Y62.960 E15.68466
G1 X104.930 Y63.616 E15.71775
G1 X104.867 Y64.280 E15.75133
G1 X104.763 Y64.938 E15.78491
G1 X104.618 Y65.589 E15.81849
G1 X104.432 Y66.229 E15.85207
G1 X104.206 Y66.856 E15.88564
G1 X103.941 Y67.468 E15.91923
G1 X103.638 Y68.062 E15.95280
G1 X103.299 Y68.636 E15.98638
G1 X102.924 Y69.187 E16.01996
G1 X102.516 Y69.714 E16.05354
G1 X102.075 Y70.214 E16.08712
G1 X101.604 Y70.685 E16.12070
G1 X101.104 Y71.126 E16.15427
G1 X100.577 Y71.534 E16.18785
G1 X100.026 Y71.909 E16.22143
G1 X99.452 Y72.248 E16.25501
G1 X98.858 Y72.551 E16.28859
G1 X98.246 Y72.816 E16.32217
G1 X97.619 Y73.042 E16.35575
G1 X96.979 Y73.228 E16.38932
G1 X96.328 Y73.373 E16.42290
G1 X95.670 Y73.477 E16.45648
G1 X95.006 Y73.540 E16.49006
G1 X94.350 Y73.561 E16.52315
G1 X39.330 Y73.561 E19.29464
G1 X38.674 Y73.540 E19.32774
G1 X38.010 Y73.477 E19.36129
G1 X37.352 Y73.373 E19.39490
G1 X36.701 Y73.228 E19.42847
G1 X36.061 Y73.042 E19.46204
G1 X35.434 Y72.816 E19.49561
G1 X34.822 Y72.551 E19.52920
G1 X34.228 Y72.248 E19.56281
G1 X33.655 Y71.909 E19.59635
G1 X33.103 Y71.534 E19.62994
G1 X32.576 Y71.126 E19.66352
G1 X32.077 Y70.685 E19.69706
G1 X31.605 Y70.214 E19.73068
G1 X31.164 Y69.713 E19.76426
G1 X30.812 Y69.260 E19.79319
G1 X31.080 Y68.976 F9000.000
G1 X30.707 Y68.429 E19.82654 F600.000
G1 X30.380 Y67.876 E19.85891
G1 X30.088 Y67.304 E19.89126
G1 X29.833 Y66.714 E19.92362
G1 X29.615 Y66.110 E19.95599
G1 X29.436 Y65.493 E19.98834
G1 X29.296 Y64.866 E20.02070
G1 X29.196 Y64.231 E20.05306
G1 X29.135 Y63.592 E20.08541
G1 X29.115 Y62.954 E20.11759
G1 X29.115 Y26.946 E21.93138
G1 X29.135 Y26.308 E21.96356
G1 X29.196 Y25.669 E21.99591
G1 X29.296 Y25.034 E22.02826
G1 X29.436 Y24.407 E22.06062
G1 X29.615 Y23.790 E22.09298
G1 X29.833 Y23.186 E22.12534
G1 X30.088 Y22.596 E22.15771
G1 X30.380 Y22.024 E22.19006
G1 X30.707 Y21.471 E22.22242
G1 X31.068 Y20.940 E22.25478
G1 X31.462 Y20.432 E22.28713
G1 X31.886 Y19.950 E22.31948
G1 X32.341 Y19.496 E22.35186
G1 X32.822 Y19.071 E22.38420
G1 X33.330 Y18.678 E22.41655
G1 X33.861 Y18.317 E22.44893
G1 X34.414 Y17.990 E22.48125
G1 X34.986 Y17.698 E22.51362
G1 X35.576 Y17.443 E22.54600
G1 X36.180 Y17.225 E22.57835
G1 X36.797 Y17.046 E22.61070
G1 X37.424 Y16.906 E22.64305
G1 X38.059 Y16.806 E22.67543
G1 X38.698 Y16.745 E22.70777
G1 X39.336 Y16.725 E22.73995
G1 X94.344 Y16.725 E25.51083 F600.000
G1 X94.982 Y16.745 E25.54301
G1 X95.622 Y16.806 E25.57536
G1 X96.256 Y16.906 E25.60772
G1 X96.883 Y17.046 E25.64008
G1 X97.500 Y17.225 E25.67244
G1 X98.104 Y17.443 E25.70481
G1 X98.720 Y17.712 E25.73865
G1 X99.266 Y17.990 E25.76950
G1 X99.819 Y18.317 E25.80186
G1 X100.350 Y18.678 E25.83422
G1 X100.858 Y19.071 E25.86658
G1 X101.340 Y19.496 E25.89894
G1 X101.794 Y19.950 E25.93129
G1 X102.219 Y20.432 E25.96365
G1 X102.612 Y20.940 E25.99601
G1 X102.973 Y21.471 E26.02837
G1 X103.300 Y22.024 E26.06073
G1 X103.592 Y22.596 E26.09308
G1 X103.847 Y23.186 E26.12544
G1 X104.065 Y23.790 E26.15780
G1 X104.244 Y24.407 E26.19015
G1 X104.384 Y25.034 E26.22251
G1 X104.485 Y25.668 E26.25487
G1 X104.545 Y26.308 E26.28723
G1 X104.565 Y26.946 E26.31941
G1 X104.565 Y62.954 E28.13319
G1 X104.545 Y63.592 E28.16537
G1 X104.485 Y64.232 E28.19773
G1 X104.384 Y64.866 E28.23009
G1 X104.244 Y65.493 E28.26244
G1 X104.065 Y66.110 E28.29480
G1 X103.847 Y66.714 E28.32716
G1 X103.592 Y67.304 E28.35952
G1 X103.300 Y67.876 E28.39187
G1 X102.973 Y68.429 E28.42423
G1 X102.612 Y68.960 E28.45659
G1 X102.219 Y69.468 E28.48895
G1 X101.794 Y69.950 E28.52130
G1 X101.340 Y70.404 E28.55366
G1 X100.858 Y70.829 E28.58602
G1 X100.350 Y71.222 E28.61837
G1 X99.819 Y71.583 E28.65073
G1 X99.266 Y71.910 E28.68309
G1 X98.694 Y72.202 E28.71545
G1 X98.104 Y72.457 E28.74781
G1 X97.500 Y72.675 E28.78016
G1 X96.883 Y72.854 E28.81252
G1 X96.256 Y72.994 E28.84488
G1 X95.622 Y73.094 E28.87724
G1 X94.982 Y73.155 E28.90959
G1 X94.344 Y73.175 E28.94177
G1 X39.336 Y73.175 E31.71265
G1 X38.698 Y73.155 E31.74483
G1 X38.059 Y73.094 E31.77717
G1 X37.424 Y72.994 E31.80955
G1 X36.797 Y72.854 E31.84190
G1 X36.180 Y72.675 E31.87425
G1 X35.576 Y72.457 E31.90660
G1 X34.986 Y72.202 E31.93898
G1 X34.414 Y71.910 E31.97135
G1 X33.861 Y71.583 E32.00368
G1 X33.330 Y71.222 E32.03605
G1 X32.822 Y70.828 E32.06840
G1 X32.341 Y70.404 E32.10074
G1 X31.886 Y69.950 E32.13312
G1 X31.462 Y69.468 E32.16547
G1 X31.117 Y69.023 E32.19380
G1 X30.682 Y69.014 F9000.000
G1 E26.19380 F1800.00000
G92 E0
G1 X25.255 Y16.624 F9000.000
G1 E6.00000 F1800.00000
G1 X24.840 Y16.663 E6.02100 F600.000
G1 X24.425 Y16.624 E6.04200
G1 X24.025 Y16.508 E6.06298
G1 X23.663 Y16.323 E6.08344
G1 X23.430 Y16.154 E6.09795
G1 X23.221 Y15.957 E6.11241
G1 X22.971 Y15.636 E6.13289
G1 X22.782 Y15.265 E6.15390
G1 X22.665 Y14.864 E6.17491
G1 X22.627 Y14.450 E6.19588
G1 X22.665 Y14.036 E6.21684
G1 X22.782 Y13.635 E6.23785
G1 X22.971 Y13.265 E6.25878
G1 X23.227 Y12.935 E6.27985
G1 X23.539 Y12.659 E6.30082
G1 X23.898 Y12.447 E6.32179
G1 X24.295 Y12.304 E6.34308
G1 X24.781 Y12.237 E6.36779 F600.000
G1 X25.251 Y12.275 E6.39150
G1 X25.655 Y12.392 E6.41272
G1 X26.026 Y12.581 E6.43368
G1 X26.347 Y12.830 E6.45415
G1 X26.544 Y13.040 E6.46865
G1 X26.713 Y13.273 E6.48314
G1 X26.900 Y13.638 E6.50378
G1 X27.029 Y14.100 E6.52799
G1 X27.052 Y14.459 E6.54608
G1 X27.015 Y14.864 E6.56661
G1 X26.898 Y15.265 E6.58762
G1 X26.708 Y15.637 E6.60868
G1 X26.453 Y15.964 E6.62955
G1 X26.250 Y16.154 E6.64358
G1 X26.017 Y16.323 E6.65808
G1 X25.655 Y16.508 E6.67853
G1 X25.313 Y16.607 E6.69650
G1 X25.182 Y16.244 F9000.000
G1 X24.840 Y16.276 E6.71382 F600.000
G1 X24.498 Y16.244 E6.73114
G1 X24.168 Y16.148 E6.74845
G1 X23.865 Y15.993 E6.76556
G1 X23.676 Y15.857 E6.77731
G1 X23.507 Y15.697 E6.78902
G1 X23.298 Y15.429 E6.80615
G1 X23.142 Y15.122 E6.82348
G1 X23.046 Y14.792 E6.84080
G1 X23.014 Y14.450 E6.85811
G1 X23.046 Y14.108 E6.87541
G1 X23.142 Y13.778 E6.89273
G1 X23.297 Y13.473 E6.90998
G1 X23.509 Y13.200 E6.92738
G1 X23.767 Y12.973 E6.94469
G1 X24.063 Y12.798 E6.96199
G1 X24.388 Y12.681 E6.97940
G1 X24.792 Y12.625 E6.99997 F600.000
G1 X25.181 Y12.656 E7.01959
G1 X25.512 Y12.752 E7.03699
G1 X25.818 Y12.908 E7.05428
G1 X26.087 Y13.117 E7.07140
G1 X26.247 Y13.286 E7.08315
G1 X26.383 Y13.475 E7.09488
G1 X26.539 Y13.779 E7.11207
G1 X26.647 Y14.166 E7.13231
G1 X26.666 Y14.453 E7.14682
G1 X26.634 Y14.792 E7.16397
G1 X26.538 Y15.122 E7.18129
G1 X26.382 Y15.429 E7.19863
G1 X26.167 Y15.703 E7.21615
G1 X26.004 Y15.857 E7.22746
G1 X25.815 Y15.993 E7.23921
G1 X25.512 Y16.148 E7.25631
G1 X25.240 Y16.227 E7.27060
G1 X25.059 Y16.565 F9000.000
G1 E1.27060 F1800.00000
G92 E0
G1 X114.829 Y20.639 F9000.000
G1 E6.00000 F1800.00000
G1 X159.051 Y20.639 E8.22756 F600.000
G1 X159.051 Y68.861 E10.65661
G1 X114.829 Y68.861 E12.88416
G1 X114.829 Y20.699 E15.31019
G1 X115.215 Y21.025 F9000.000
G1 X158.665 Y21.025 E17.49890 F600.000
G1 X158.665 Y68.475 E19.88910
G1 X115.215 Y68.475 E22.07781
G1 X115.215 Y21.085 E24.46498
G1 X115.215 Y20.625 F9000.000
G1 E18.46498 F1800.00000
G92 E0
G1 X161.587 Y43.893 F9000.000
G1 E6.00000 F1800.00000
G1 X161.741 Y43.650 E6.01448 F600.000
G1 X161.924 Y43.428 E6.02895
G1 X162.229 Y43.159 E6.04945
G1 X162.588 Y42.947 E6.07044
G1 X162.980 Y42.806 E6.09147
G1 X163.410 Y42.739 E6.11335 F600.000
G1 X163.936 Y42.773 E6.13992
G1 X164.345 Y42.892 E6.16136
G1 X164.716 Y43.081 E6.18235
G1 X165.045 Y43.337 E6.20333
G1 X165.321 Y43.649 E6.22432
G1 X165.533 Y44.008 E6.24530
G1 X165.674 Y44.400 E6.26629
G1 X165.739 Y44.811 E6.28727
G1 X165.726 Y45.227 E6.30825
G1 X165.635 Y45.634 E6.32924
G1 X165.470 Y46.016 E6.35022
G1 X165.241 Y46.353 E6.37072
G1 X165.044 Y46.562 E6.38520
G1 X164.823 Y46.746 E6.39968
G1 X164.472 Y46.953 E6.42018
G1 X164.080 Y47.094 E6.44116
G1 X163.669 Y47.159 E6.46214
G1 X163.252 Y47.146 E6.48318
G1 X162.828 Y47.050 E6.50505
G1 X162.351 Y46.824 E6.53162
G1 X162.015 Y46.563 E6.55307
G1 X161.739 Y46.251 E6.57405
G1 X161.527 Y45.892 E6.59504
G1 X161.386 Y45.500 E6.61602
G1 X161.321 Y45.089 E6.63701
G1 X161.334 Y44.673 E6.65799
G1 X161.425 Y44.266 E6.67898
G1 X161.563 Y43.948 E6.69645
G1 X161.928 Y44.074 F9000.000
G1 X162.053 Y43.877 E6.70818 F600.000
G1 X162.202 Y43.698 E6.71991
