; generated by Slic3r 1.2.9 on 2018-02-01 at 21:22:14

; external perimeters extrusion width = 0.40mm
; perimeters extrusion width = 0.62mm
; infill extrusion width = 0.33mm
; solid infill extrusion width = 0.62mm
; top infill extrusion width = 0.20mm

M106 S256; Turn on fan to 100% power
M104 S140; turn on extruder temperature at S value
M140 S60; turn on bed temperature at S value
G28; home all axes
M84; disable motors
G1 Z15 F15000; have Z move to 20mm at 15000 mm/min
M190 S55; turn on bed temperature at S value and wait
M140 S55; turn on bed temperature at S value (printing temperature)
M109 S200; turn on extruder temperature at S value and wait (printing temperature)
M104 S200; turn on extruder temperature at S value
G1 Z0 F12000; move Z back to home
G21 ; set units to millimeters
G90 ; use absolute coordinates
M82 ; use absolute distances for extrusion
G92 E0
M106 S255
;Layer change
G1 E-6.00000 F1800.00000
G92 E0
G1 Z0.300 F9000.000
G1 X25.215 Y97.655 F9000.000
G1 E6.00000 F1800.00000
G1 X25.734 Y97.535 E6.02623 F600.000
G1 X26.258 Y97.447 E6.05239
G1 X26.787 Y97.392 E6.07858
G1 X27.395 Y97.369 E6.10850
G1 X163.100 Y97.371 E12.78721
G1 X164.013 Y97.428 E12.83225 F600.000
G1 X164.686 Y97.535 E12.86581
G1 X165.573 Y97.762 E12.91084
G1 X166.214 Y97.993 E12.94440
G1 X167.042 Y98.383 E12.98944
G1 X167.629 Y98.730 E13.02299
G1 X168.369 Y99.268 E13.06800
G1 X168.772 Y99.616 E13.09421
G1 X169.254 Y100.099 E13.12779
G1 X169.837 Y100.803 E13.17278
G1 X170.220 Y101.368 E13.20638
G1 X170.661 Y102.169 E13.25138
G1 X170.932 Y102.795 E13.28495
G1 X171.108 Y103.298 E13.31116
G1 X171.335 Y104.184 E13.35619
G1 X171.442 Y104.857 E13.38974
G1 X171.487 Y105.387 E13.41589
G1 X171.501 Y105.845 E13.43846
G1 X171.501 Y166.235 E16.41056
G1 X171.487 Y166.693 E16.43313
G1 X171.442 Y167.223 E16.45929
G1 X171.335 Y167.896 E16.49283
G1 X171.108 Y168.782 E16.53786
G1 X170.877 Y169.424 E16.57144
G1 X170.487 Y170.253 E16.61649
G1 X170.140 Y170.839 E16.65004
G1 X169.602 Y171.579 E16.69505
G1 X169.151 Y172.091 E16.72862
G1 X168.485 Y172.717 E16.77363
G1 X168.067 Y173.047 E16.79984
G1 X167.629 Y173.350 E16.82603
G1 X167.042 Y173.697 E16.85959
G1 X166.214 Y174.087 E16.90462
G1 X165.573 Y174.318 E16.93819
G1 X164.686 Y174.545 E16.98322
G1 X164.013 Y174.652 E17.01677
G1 X163.482 Y174.697 E17.04300
G1 X163.025 Y174.711 E17.06550
G1 X27.395 Y174.711 E23.74054
G1 X26.787 Y174.688 E23.77046
G1 X26.258 Y174.633 E23.79666
G1 X25.734 Y174.545 E23.82281
G1 X25.215 Y174.425 E23.84903
G1 X24.706 Y174.272 E23.87518
G1 X24.206 Y174.087 E23.90145
G1 X23.719 Y173.871 E23.92766
G1 X23.245 Y173.625 E23.95392
G1 X22.791 Y173.350 E23.98002
G1 X22.354 Y173.047 E24.00623
G1 X21.935 Y172.717 E24.03249
G1 X21.541 Y172.363 E24.05854
G1 X21.165 Y171.980 E24.08494
G1 X20.818 Y171.579 E24.11106
G1 X20.496 Y171.156 E24.13722
G1 X20.200 Y170.713 E24.16344
G1 X19.932 Y170.251 E24.18970
G1 X19.696 Y169.777 E24.21579
G1 X19.358 Y168.922 E24.26106
G1 X19.206 Y168.414 E24.28713
G1 X19.084 Y167.896 E24.31330
G1 X18.997 Y167.372 E24.33949
G1 X18.942 Y166.839 E24.36583
G1 X18.919 Y166.235 E24.39558
G1 X18.921 Y105.769 E27.37142
G1 X18.977 Y104.860 E27.41624
G1 X19.056 Y104.331 E27.44259
G1 X19.170 Y103.805 E27.46903
G1 X19.358 Y103.158 E27.50219
G1 X19.544 Y102.654 E27.52863
G1 X19.932 Y101.829 E27.57355
G1 X20.200 Y101.367 E27.59981
G1 X20.583 Y100.803 E27.63336
G1 X21.165 Y100.100 E27.67829
G1 X21.541 Y99.717 E27.70469
G1 X22.050 Y99.268 E27.73808
G1 X22.475 Y98.945 E27.76437
G1 X23.245 Y98.455 E27.80929
G1 X23.719 Y98.209 E27.83555
G1 X24.346 Y97.938 E27.86919
G1 X25.157 Y97.672 E27.91120
G1 E21.91120 F1800.00000
G92 E0
G1 X22.517 Y159.876 F9000.000
G1 E6.00000 F1800.00000
G1 X22.517 Y112.203 E8.34623 F600.000
G1 X66.230 Y112.203 E10.49757
G1 X66.230 Y159.876 E12.84380
G1 X22.577 Y159.876 E14.99218
G1 X22.117 Y159.876 F9000.000
G1 E8.99218 F1800.00000
G92 E0
G1 X163.276 Y136.611 F9000.000
G1 E6.00000 F1800.00000
G1 X163.208 Y136.184 E6.02127 F600.000
G1 X163.222 Y135.752 E6.04254
G1 X163.314 Y135.340 E6.06334
G1 X163.423 Y135.063 E6.07798
G1 X163.562 Y134.810 E6.09219
G1 X163.825 Y134.469 E6.11340
G1 X164.150 Y134.182 E6.13472
G1 X164.522 Y133.962 E6.15599
G1 X164.930 Y133.815 E6.17731
G1 X165.356 Y133.749 E6.19851 F600.000
G1 X165.644 Y133.750 E6.21273
G1 X165.940 Y133.787 E6.22737
G1 X166.345 Y133.905 E6.24816
G1 X166.730 Y134.101 E6.26943
G1 X167.072 Y134.366 E6.29071
G1 X167.358 Y134.690 E6.31198
G1 X167.578 Y135.062 E6.33325
G1 X167.724 Y135.469 E6.35452
G1 X167.790 Y135.886 E6.37532
G1 X167.790 Y136.184 E6.38997
G1 X167.753 Y136.480 E6.40463
G1 X167.635 Y136.885 E6.42543
G1 X167.439 Y137.270 E6.44670
G1 X167.174 Y137.612 E6.46797
G1 X166.850 Y137.898 E6.48924
G1 X166.478 Y138.118 E6.51051
G1 X166.071 Y138.264 E6.53178
G1 X165.644 Y138.332 E6.55305
G1 X165.212 Y138.318 E6.57433
G1 X164.790 Y138.224 E6.59560
G1 X164.393 Y138.052 E6.61692
G1 X164.037 Y137.809 E6.63812
G1 X163.827 Y137.611 E6.65234
G1 X163.637 Y137.381 E6.66698
G1 X163.422 Y137.018 E6.68777
G1 X163.296 Y136.668 E6.70609
G1 X163.651 Y136.515 F9000.000
G1 X163.595 Y136.160 E6.72377 F600.000
G1 X163.606 Y135.801 E6.74146
G1 X163.684 Y135.454 E6.75897
G1 X163.773 Y135.228 E6.77093
G1 X163.886 Y135.022 E6.78249
G1 X164.108 Y134.733 E6.80039
G1 X164.378 Y134.496 E6.81809
G1 X164.687 Y134.313 E6.83578
G1 X165.026 Y134.191 E6.85348
G1 X165.385 Y134.135 E6.87138 F600.000
G1 X165.620 Y134.135 E6.88294
G1 X165.861 Y134.166 E6.89491
G1 X166.203 Y134.265 E6.91241
G1 X166.523 Y134.428 E6.93010
G1 X166.807 Y134.648 E6.94778
G1 X167.044 Y134.918 E6.96546
G1 X167.227 Y135.227 E6.98315
G1 X167.349 Y135.565 E7.00083
G1 X167.405 Y135.917 E7.01834
G1 X167.405 Y136.160 E7.03031
G1 X167.374 Y136.401 E7.04228
G1 X167.275 Y136.743 E7.05979
G1 X167.112 Y137.063 E7.07747
G1 X166.892 Y137.347 E7.09515
G1 X166.622 Y137.584 E7.11284
G1 X166.313 Y137.767 E7.13052
G1 X165.975 Y137.889 E7.14820
G1 X165.620 Y137.945 E7.16589
G1 X165.261 Y137.934 E7.18357
G1 X164.910 Y137.856 E7.20125
G1 X164.580 Y137.713 E7.21895
G1 X164.280 Y137.507 E7.23686
G1 X164.109 Y137.346 E7.24842
G1 X163.954 Y137.159 E7.26038
G1 X163.773 Y136.853 E7.27789
G1 X163.671 Y136.571 E7.29262
G1 X163.308 Y136.407 F9000.000
G1 E1.29262 F1800.00000
G92 E0
G1 X30.490 Y164.082 F9000.000
G1 E6.00000 F1800.00000
G1 X30.569 Y164.582 E6.02490 F600.000
G1 X30.553 Y165.087 E6.04977
G1 X30.442 Y165.579 E6.07463
G1 X30.242 Y166.043 E6.09948
G1 X29.958 Y166.461 E6.12434
G1 X29.612 Y166.807 E6.14842
G1 X29.326 Y167.014 E6.16579
G1 X29.018 Y167.184 E6.18311
G1 X28.558 Y167.349 E6.20720
G1 X28.059 Y167.428 E6.23205
G1 X27.554 Y167.413 E6.25692
G1 X27.061 Y167.302 E6.28176
G1 X26.598 Y167.102 E6.30662
G1 X26.179 Y166.818 E6.33151
G1 X25.822 Y166.461 E6.35637
G1 X25.547 Y166.056 E6.38043
G1 X25.397 Y165.737 E6.39779
G1 X25.288 Y165.402 E6.41515
G1 X25.211 Y164.918 E6.43923
G1 X25.227 Y164.413 E6.46410
G1 X25.338 Y163.921 E6.48896
G1 X25.538 Y163.457 E6.51381
G1 X25.822 Y163.039 E6.53867
G1 X26.168 Y162.693 E6.56275
G1 X26.454 Y162.486 E6.58012
G1 X26.762 Y162.316 E6.59744
G1 X27.224 Y162.150 E6.62160
G1 X27.716 Y162.074 E6.64611 F600.000
G1 X28.059 Y162.074 E6.66300
G1 X28.408 Y162.118 E6.68033
G1 X28.878 Y162.255 E6.70441
G1 X29.328 Y162.484 E6.72925
G1 X29.728 Y162.794 E6.75415
G1 X30.061 Y163.173 E6.77899
G1 X30.318 Y163.606 E6.80377
G1 X30.469 Y164.025 E6.82570
G1 X30.115 Y164.178 F9000.000
G1 X30.182 Y164.606 E6.84700 F600.000
G1 X30.169 Y165.038 E6.86827
G1 X30.074 Y165.460 E6.88954
G1 X29.903 Y165.856 E6.91081
G1 X29.659 Y166.214 E6.93208
G1 X29.361 Y166.513 E6.95287
G1 X29.120 Y166.688 E6.96755
G1 X28.859 Y166.831 E6.98219
G1 X28.461 Y166.974 E7.00299
G1 X28.034 Y167.042 E7.02426
G1 X27.602 Y167.028 E7.04554
G1 X27.181 Y166.934 E7.06679
G1 X26.784 Y166.762 E7.08807
G1 X26.426 Y166.519 E7.10937
G1 X26.121 Y166.214 E7.13063
G1 X25.883 Y165.865 E7.15142
G1 X25.756 Y165.595 E7.16608
G1 X25.664 Y165.312 E7.18075
G1 X25.598 Y164.894 E7.20155
G1 X25.611 Y164.462 E7.22282
G1 X25.706 Y164.040 E7.24409
G1 X25.877 Y163.644 E7.26536
G1 X26.120 Y163.286 E7.28663
G1 X26.419 Y162.987 E7.30742
G1 X26.660 Y162.812 E7.32210
G1 X26.921 Y162.669 E7.33674
G1 X27.320 Y162.525 E7.35758
G1 X27.745 Y162.459 E7.37879 F600.000
G1 X28.035 Y162.460 E7.39302
G1 X28.330 Y162.497 E7.40768
G1 X28.736 Y162.615 E7.42847
G1 X29.120 Y162.811 E7.44972
G1 X29.463 Y163.076 E7.47103
G1 X29.748 Y163.401 E7.49228
G1 X29.967 Y163.772 E7.51350
G1 X30.094 Y164.122 E7.53183
G1 X29.739 Y164.275 F9000.000
G1 X29.796 Y164.630 E7.54953 F600.000
G1 X29.784 Y164.989 E7.56721
G1 X29.706 Y165.340 E7.58490
G1 X29.563 Y165.670 E7.60258
G1 X29.361 Y165.967 E7.62026
G1 X29.110 Y166.218 E7.63777
G1 X28.913 Y166.361 E7.64975
G1 X28.700 Y166.479 E7.66171
G1 X28.365 Y166.599 E7.67922
G1 X28.010 Y166.655 E7.69690
G1 X27.651 Y166.644 E7.71459
G1 X27.300 Y166.566 E7.73226
G1 X26.970 Y166.423 E7.74996
G1 X26.673 Y166.221 E7.76766
G1 X26.419 Y165.967 E7.78534
G1 X26.219 Y165.673 E7.80284
G1 X26.115 Y165.453 E7.81482
G1 X26.040 Y165.221 E7.82679
G1 X25.984 Y164.870 E7.84430
G1 X25.996 Y164.511 E7.86198
G1 X26.074 Y164.160 E7.87967
G1 X26.217 Y163.830 E7.89735
G1 X26.419 Y163.533 E7.91503
G1 X26.670 Y163.282 E7.93254
G1 X26.867 Y163.139 E7.94452
G1 X27.080 Y163.021 E7.95648
G1 X27.415 Y162.901 E7.97400
G1 X27.775 Y162.845 E7.99191 F600.000
G1 X28.010 Y162.845 E8.00349
G1 X28.252 Y162.876 E8.01546
G1 X28.593 Y162.975 E8.03296
G1 X28.913 Y163.138 E8.05064
G1 X29.197 Y163.359 E8.06834
G1 X29.434 Y163.628 E8.08600
G1 X29.617 Y163.937 E8.10367
G1 X29.719 Y164.219 E8.11841
G1 X30.083 Y164.382 F9000.000
G1 E2.11841 F1800.00000
G92 E0
G1 X28.059 Y110.008 F9000.000
G1 E6.00000 F1800.00000
G1 X27.554 Y109.993 E6.02487 F600.000
G1 X27.061 Y109.882 E6.04971
G1 X26.598 Y109.682 E6.07456
G1 X26.179 Y109.398 E6.09946
G1 X25.822 Y109.041 E6.12432
G1 X25.547 Y108.636 E6.14838
G1 X25.397 Y108.317 E6.16574
G1 X25.288 Y107.982 E6.18309
G1 X25.211 Y107.498 E6.20718
G1 X25.227 Y106.993 E6.23205
G1 X25.338 Y106.501 E6.25691
G1 X25.538 Y106.037 E6.28176
G1 X25.822 Y105.619 E6.30661
G1 X26.168 Y105.273 E6.33070
G1 X26.454 Y105.066 E6.34807
G1 X26.762 Y104.896 E6.36539
G1 X27.224 Y104.730 E6.38955
G1 X27.716 Y104.654 E6.41406 F600.000
G1 X28.059 Y104.654 E6.43094
G1 X28.408 Y104.698 E6.44828
G1 X28.878 Y104.835 E6.47236
G1 X29.328 Y105.064 E6.49720
G1 X29.728 Y105.374 E6.52210
G1 X30.061 Y105.753 E6.54694
G1 X30.318 Y106.186 E6.57172
G1 X30.490 Y106.662 E6.59660
G1 X30.569 Y107.162 E6.62150
G1 X30.553 Y107.667 E6.64637
G1 X30.442 Y108.159 E6.67123
G1 X30.242 Y108.623 E6.69608
G1 X29.958 Y109.041 E6.72093
G1 X29.612 Y109.387 E6.74502
G1 X29.326 Y109.594 E6.76239
G1 X29.018 Y109.764 E6.77971
G1 X28.558 Y109.929 E6.80380
G1 X28.118 Y109.999 E6.82570
G1 X28.034 Y109.622 F9000.000
G1 X27.602 Y109.608 E6.84698 F600.000
G1 X27.181 Y109.514 E6.86824
G1 X26.784 Y109.342 E6.88951
G1 X26.426 Y109.099 E6.91081
G1 X26.120 Y108.794 E6.93208
G1 X25.883 Y108.444 E6.95286
G1 X25.756 Y108.175 E6.96752
G1 X25.664 Y107.892 E6.98219
G1 X25.598 Y107.474 E7.00299
G1 X25.611 Y107.042 E7.02427
G1 X25.706 Y106.620 E7.04553
G1 X25.877 Y106.224 E7.06680
G1 X26.120 Y105.866 E7.08807
G1 X26.419 Y105.567 E7.10886
G1 X26.660 Y105.392 E7.12354
G1 X26.921 Y105.249 E7.13818
G1 X27.320 Y105.105 E7.15903
G1 X27.745 Y105.039 E7.18023 F600.000
G1 X28.035 Y105.040 E7.19447
G1 X28.330 Y105.077 E7.20912
G1 X28.736 Y105.195 E7.22991
G1 X29.120 Y105.391 E7.25117
G1 X29.463 Y105.656 E7.27247
G1 X29.748 Y105.981 E7.29372
G1 X29.967 Y106.352 E7.31494
G1 X30.115 Y106.758 E7.33623
G1 X30.182 Y107.186 E7.35753
G1 X30.169 Y107.618 E7.37881
G1 X30.074 Y108.040 E7.40007
G1 X29.903 Y108.436 E7.42134
G1 X29.660 Y108.794 E7.44261
G1 X29.361 Y109.093 E7.46340
G1 X29.120 Y109.268 E7.47808
G1 X28.859 Y109.411 E7.49272
G1 X28.461 Y109.554 E7.51352
G1 X28.094 Y109.612 E7.53184
G1 X28.010 Y109.235 F9000.000
G1 X27.651 Y109.224 E7.54953 F600.000
G1 X27.300 Y109.146 E7.56720
G1 X26.970 Y109.003 E7.58489
G1 X26.673 Y108.801 E7.60259
G1 X26.419 Y108.547 E7.62027
G1 X26.219 Y108.253 E7.63778
G1 X26.115 Y108.033 E7.64975
G1 X26.040 Y107.801 E7.66172
G1 X25.984 Y107.450 E7.67923
G1 X25.996 Y107.091 E7.69692
G1 X26.074 Y106.740 E7.71460
G1 X26.217 Y106.410 E7.73228
G1 X26.419 Y106.113 E7.74997
G1 X26.670 Y105.862 E7.76747
G1 X26.867 Y105.719 E7.77946
G1 X27.080 Y105.601 E7.79142
G1 X27.415 Y105.481 E7.80894
G1 X27.775 Y105.425 E7.82685 F600.000
G1 X28.010 Y105.425 E7.83843
G1 X28.252 Y105.456 E7.85040
G1 X28.593 Y105.555 E7.86790
G1 X28.913 Y105.718 E7.88557
G1 X29.197 Y105.939 E7.90327
G1 X29.434 Y106.208 E7.92094
G1 X29.617 Y106.517 E7.93860
G1 X29.739 Y106.855 E7.95630
G1 X29.796 Y107.210 E7.97399
G1 X29.784 Y107.569 E7.99168
G1 X29.706 Y107.920 E8.00936
G1 X29.563 Y108.250 E8.02704
G1 X29.361 Y108.547 E8.04473
G1 X29.110 Y108.798 E8.06223
G1 X28.913 Y108.941 E8.07422
G1 X28.700 Y109.059 E8.08618
G1 X28.365 Y109.179 E8.10368
G1 X28.069 Y109.226 E8.11841
G1 X27.840 Y109.552 F9000.000
G1 E2.11841 F1800.00000
G92 E0
G1 X76.400 Y116.470 F9000.000
G1 E6.00000 F1800.00000
G1 X76.514 Y115.747 E6.03600 F600.000
G1 X76.767 Y115.044 E6.07278
G1 X77.148 Y114.401 E6.10957
G1 X77.642 Y113.841 E6.14634
G1 X78.232 Y113.382 E6.18312
G1 X78.898 Y113.043 E6.21990
G1 X79.616 Y112.835 E6.25669
G1 X80.313 Y112.769 E6.29114
G1 X155.631 Y112.769 E9.99794 F600.000
G1 X156.097 Y112.798 E10.02092
G1 X156.602 Y112.894 E10.04622
G1 X157.276 Y113.137 E10.08145
G1 X157.726 Y113.385 E10.10675
G1 X158.130 Y113.678 E10.13128
G1 X158.493 Y114.019 E10.15579
G1 X158.820 Y114.414 E10.18108
G1 X159.182 Y115.025 E10.21600
G1 X159.374 Y115.508 E10.24159
G1 X159.498 Y115.992 E10.26616
G1 X159.560 Y116.486 E10.29067
G1 X159.566 Y147.472 E11.81566
G1 X159.502 Y148.153 E11.84934
G1 X159.374 Y148.651 E11.87465
G1 X159.191 Y149.115 E11.89917
G1 X158.950 Y149.551 E11.92370
G1 X158.648 Y149.967 E11.94900
G1 X158.142 Y150.473 E11.98422
G1 X157.726 Y150.775 E12.00952
G1 X157.289 Y151.016 E12.03408
G1 X156.805 Y151.207 E12.05968
G1 X156.113 Y151.361 E12.09459
G1 X155.631 Y151.391 E12.11833
G1 X80.313 Y151.391 E15.82513
G1 X79.632 Y151.327 E15.85881
G1 X79.134 Y151.199 E15.88411
G1 X78.670 Y151.016 E15.90863
G1 X78.233 Y150.775 E15.93320
G1 X77.813 Y150.469 E15.95879
G1 X77.312 Y149.967 E15.99370
G1 X77.010 Y149.551 E16.01899
G1 X76.769 Y149.115 E16.04351
G1 X76.586 Y148.651 E16.06804
G1 X76.462 Y148.168 E16.09257
G1 X76.400 Y147.674 E16.11709
G1 X76.400 Y116.530 E17.64985
G1 X76.785 Y116.500 F9000.000
G1 X76.889 Y115.844 E17.68257 F600.000
G1 X77.118 Y115.209 E17.71576
G1 X77.461 Y114.629 E17.74896
G1 X77.907 Y114.123 E17.78214
G1 X78.440 Y113.709 E17.81534
G1 X79.041 Y113.403 E17.84853
G1 X79.689 Y113.215 E17.88172
G1 X80.331 Y113.154 E17.91349
G1 X155.619 Y113.154 E21.61880 F600.000
G1 X156.049 Y113.181 E21.63998
G1 X156.500 Y113.267 E21.66260
G1 X157.117 Y113.489 E21.69484
G1 X157.519 Y113.711 E21.71745
G1 X157.883 Y113.975 E21.73959
G1 X158.211 Y114.283 E21.76172
G1 X158.504 Y114.637 E21.78433
G1 X158.835 Y115.195 E21.81627
G1 X159.006 Y115.628 E21.83917
G1 X159.118 Y116.064 E21.86133
G1 X159.175 Y116.510 E21.88346
G1 X159.181 Y147.454 E23.40636
G1 X159.121 Y148.087 E23.43765
G1 X159.007 Y148.532 E23.46027
G1 X158.841 Y148.950 E23.48240
G1 X158.624 Y149.344 E23.50455
G1 X158.354 Y149.716 E23.52716
G1 X157.891 Y150.179 E23.55939
G1 X157.519 Y150.449 E23.58201
G1 X157.125 Y150.666 E23.60417
G1 X156.692 Y150.837 E23.62707
G1 X156.058 Y150.978 E23.65901
G1 X155.619 Y151.006 E23.68066
G1 X80.331 Y151.006 E27.38597
G1 X79.698 Y150.946 E27.41726
G1 X79.253 Y150.832 E27.43987
G1 X78.835 Y150.666 E27.46201
G1 X78.440 Y150.449 E27.48417
G1 X78.064 Y150.175 E27.50707
G1 X77.606 Y149.716 E27.53901
G1 X77.336 Y149.344 E27.56161
G1 X77.119 Y148.950 E27.58375
G1 X76.953 Y148.532 E27.60589
G1 X76.842 Y148.096 E27.62803
G1 X76.785 Y147.650 E27.65016
G1 X76.785 Y116.560 E29.18024
G1 X77.171 Y116.531 F9000.000
G1 X77.264 Y115.940 E29.20967 F600.000
G1 X77.468 Y115.374 E29.23927
G1 X77.774 Y114.856 E29.26888
G1 X78.172 Y114.405 E29.29848
G1 X78.647 Y114.037 E29.32808
