; generated by Slic3r 1.2.9 on 2018-01-31 at 16:16:23

; external perimeters extrusion width = 0.40mm
; perimeters extrusion width = 0.62mm
; infill extrusion width = 0.33mm
; solid infill extrusion width = 0.62mm
; top infill extrusion width = 0.20mm

M106 S256; Turn on fan to 100% power
M104 S140; turn on extruder temperature at S value
M140 S60; turn on bed temperature at S value
G28; home all axes
M84; disable motors
G1 Z15 F15000; have Z move to 20mm at 15000 mm/min
M190 S55; turn on bed temperature at S value and wait
M140 S55; turn on bed temperature at S value (printing temperature)
M109 S200; turn on extruder temperature at S value and wait (printing temperature)
M104 S200; turn on extruder temperature at S value
G1 Z0 F12000; move Z back to home
G21 ; set units to millimeters
G90 ; use absolute coordinates
M82 ; use absolute distances for extrusion
G92 E0
M106 S255
;Layer change
G1 E-6.00000 F1800.00000
G92 E0
G1 Z0.300 F9000.000
G1 X18.661 Y86.719 F9000.000
G1 E6.00000 F1800.00000
G1 X19.332 Y86.613 E6.03459 F600.000
G1 X19.860 Y86.568 E6.06159
G1 X20.315 Y86.555 E6.08479
G1 X155.060 Y86.556 E12.95243
G1 X155.968 Y86.613 E12.99880 F600.000
G1 X156.639 Y86.719 E13.03342
G1 X157.520 Y86.946 E13.07978
G1 X158.159 Y87.176 E13.11440
G1 X158.983 Y87.563 E13.16079
G1 X159.567 Y87.909 E13.19539
G1 X160.303 Y88.443 E13.24173
G1 X160.703 Y88.790 E13.26874
G1 X161.184 Y89.271 E13.30338
G1 X161.763 Y89.971 E13.34972
G1 X162.145 Y90.534 E13.38436
G1 X162.583 Y91.330 E13.43070
G1 X162.798 Y91.815 E13.45772
G1 X163.028 Y92.454 E13.49234
G1 X163.255 Y93.335 E13.53871
G1 X163.361 Y94.006 E13.57332
G1 X163.406 Y94.533 E13.60026
G1 X163.419 Y94.988 E13.62351
G1 X163.419 Y154.951 E16.67966
G1 X163.406 Y155.407 E16.70290
G1 X163.361 Y155.934 E16.72985
G1 X163.255 Y156.605 E16.76447
G1 X163.028 Y157.486 E16.81083
G1 X162.798 Y158.125 E16.84545
G1 X162.411 Y158.949 E16.89185
G1 X162.065 Y159.533 E16.92646
G1 X161.531 Y160.269 E16.97280
G1 X161.081 Y160.779 E17.00744
G1 X160.703 Y161.150 E17.03442
G1 X160.303 Y161.497 E17.06144
G1 X159.567 Y162.031 E17.10778
G1 X158.983 Y162.377 E17.14238
G1 X158.159 Y162.764 E17.18877
G1 X157.520 Y162.994 E17.22338
G1 X156.639 Y163.221 E17.26975
G1 X155.968 Y163.327 E17.30437
G1 X155.440 Y163.372 E17.33140
G1 X154.986 Y163.385 E17.35456
G1 X20.315 Y163.385 E24.21840
G1 X19.710 Y163.363 E24.24924
G1 X19.183 Y163.308 E24.27624
G1 X18.661 Y163.221 E24.30318
G1 X18.145 Y163.100 E24.33020
G1 X17.639 Y162.948 E24.35715
G1 X17.141 Y162.764 E24.38422
G1 X16.656 Y162.550 E24.41123
G1 X16.185 Y162.304 E24.43829
G1 X15.733 Y162.032 E24.46518
G1 X15.298 Y161.730 E24.49219
G1 X14.881 Y161.401 E24.51925
G1 X14.489 Y161.049 E24.54610
G1 X14.115 Y160.668 E24.57331
G1 X13.770 Y160.269 E24.60022
G1 X13.449 Y159.848 E24.62718
G1 X13.155 Y159.407 E24.65420
G1 X12.889 Y158.948 E24.68126
G1 X12.653 Y158.476 E24.70813
G1 X12.317 Y157.625 E24.75476
G1 X12.166 Y157.120 E24.78162
G1 X12.045 Y156.605 E24.80859
G1 X11.958 Y156.083 E24.83557
G1 X11.903 Y155.553 E24.86272
G1 X11.881 Y154.951 E24.89339
G1 X11.881 Y94.988 E27.94955
G1 X11.894 Y94.533 E27.97279
G1 X11.958 Y93.857 E28.00738
G1 X12.050 Y93.312 E28.03555
G1 X12.272 Y92.455 E28.08067
G1 X12.502 Y91.813 E28.11542
G1 X12.889 Y90.992 E28.16167
G1 X13.155 Y90.533 E28.18873
G1 X13.449 Y90.092 E28.21575
G1 X13.864 Y89.557 E28.25026
G1 X14.220 Y89.160 E28.27745
G1 X14.881 Y88.539 E28.32365
G1 X15.298 Y88.210 E28.35072
G1 X15.859 Y87.829 E28.38527
G1 X16.317 Y87.563 E28.41230
G1 X17.141 Y87.176 E28.45868
G1 X17.780 Y86.946 E28.49331
G1 X18.603 Y86.732 E28.53663
G1 E22.53663 F1800.00000
G92 E0
G1 X25.798 Y155.690 F9000.000
G1 E6.00000 F1800.00000
G1 X25.373 Y155.757 E6.02191 F600.000
G1 X24.943 Y155.743 E6.04383
G1 X24.524 Y155.650 E6.06573
G1 X24.129 Y155.479 E6.08765
G1 X23.773 Y155.237 E6.10959
G1 X23.469 Y154.933 E6.13151
G1 X23.233 Y154.586 E6.15291
G1 X23.107 Y154.318 E6.16803
G1 X23.015 Y154.036 E6.18314
G1 X22.949 Y153.620 E6.20456
G1 X22.963 Y153.190 E6.22648
G1 X23.057 Y152.771 E6.24839
G1 X23.227 Y152.376 E6.27031
G1 X23.469 Y152.021 E6.29222
G1 X23.766 Y151.724 E6.31364
G1 X24.006 Y151.549 E6.32876
G1 X24.266 Y151.407 E6.34385
G1 X24.662 Y151.264 E6.36532
G1 X25.086 Y151.198 E6.38717 F600.000
G1 X25.373 Y151.199 E6.40183
G1 X25.667 Y151.236 E6.41693
G1 X26.071 Y151.353 E6.43834
G1 X26.454 Y151.548 E6.46024
G1 X26.794 Y151.812 E6.48219
G1 X27.077 Y152.135 E6.50408
G1 X27.296 Y152.504 E6.52595
G1 X27.443 Y152.908 E6.54788
G1 X27.510 Y153.334 E6.56982
G1 X27.496 Y153.763 E6.59174
G1 X27.402 Y154.183 E6.61366
G1 X27.232 Y154.578 E6.63557
G1 X26.990 Y154.933 E6.65748
G1 X26.693 Y155.230 E6.67890
G1 X26.453 Y155.405 E6.69402
G1 X26.193 Y155.547 E6.70911
G1 X25.854 Y155.669 E6.72747
G1 X25.702 Y155.315 F9000.000
G1 X25.349 Y155.370 E6.74567 F600.000
G1 X24.992 Y155.359 E6.76388
G1 X24.644 Y155.281 E6.78206
G1 X24.316 Y155.139 E6.80027
G1 X24.020 Y154.939 E6.81849
G1 X23.768 Y154.686 E6.83668
G1 X23.569 Y154.394 E6.85470
G1 X23.466 Y154.175 E6.86702
G1 X23.391 Y153.945 E6.87934
G1 X23.336 Y153.596 E6.89737
G1 X23.347 Y153.239 E6.91557
G1 X23.425 Y152.891 E6.93376
G1 X23.567 Y152.563 E6.95196
G1 X23.768 Y152.268 E6.97016
G1 X24.017 Y152.018 E6.98817
G1 X24.213 Y151.876 E7.00051
G1 X24.425 Y151.759 E7.01282
G1 X24.758 Y151.639 E7.03085
G1 X25.115 Y151.584 E7.04928 F600.000
G1 X25.349 Y151.584 E7.06120
G1 X25.589 Y151.614 E7.07352
G1 X25.928 Y151.713 E7.09153
G1 X26.246 Y151.875 E7.10972
G1 X26.529 Y152.094 E7.12794
G1 X26.764 Y152.362 E7.14611
G1 X26.946 Y152.669 E7.16429
G1 X27.067 Y153.005 E7.18251
G1 X27.123 Y153.358 E7.20072
G1 X27.112 Y153.715 E7.21892
G1 X27.034 Y154.063 E7.23712
G1 X26.892 Y154.391 E7.25531
G1 X26.691 Y154.686 E7.27351
G1 X26.442 Y154.936 E7.29152
G1 X26.246 Y155.078 E7.30386
G1 X26.034 Y155.195 E7.31617
G1 X25.758 Y155.294 E7.33113
G1 X25.595 Y155.655 F9000.000
G1 E1.33113 F1800.00000
G92 E0
G1 X15.575 Y148.779 F9000.000
G1 E6.00000 F1800.00000
G1 X15.575 Y101.161 E8.42701 F600.000
G1 X59.262 Y101.161 E10.65361
G1 X59.262 Y148.779 E13.08062
G1 X15.635 Y148.779 E15.30417
G1 X15.961 Y148.394 F9000.000
G1 X15.961 Y101.546 E17.69187 F600.000
G1 X58.877 Y101.546 E19.87917
G1 X58.877 Y148.394 E22.26687
G1 X16.021 Y148.394 E24.45111
G1 X15.561 Y148.394 F9000.000
G1 E18.45111 F1800.00000
G92 E0
G1 X24.943 Y98.729 F9000.000
G1 E6.00000 F1800.00000
G1 X24.524 Y98.636 E6.02190 F600.000
G1 X24.129 Y98.465 E6.04382
G1 X23.773 Y98.223 E6.06576
G1 X23.469 Y97.919 E6.08767
G1 X23.233 Y97.572 E6.10908
G1 X23.107 Y97.304 E6.12419
G1 X23.015 Y97.022 E6.13930
G1 X22.949 Y96.606 E6.16073
G1 X22.963 Y96.176 E6.18265
G1 X23.057 Y95.757 E6.20456
G1 X23.227 Y95.362 E6.22647
G1 X23.469 Y95.007 E6.24838
G1 X23.766 Y94.710 E6.26980
G1 X24.006 Y94.535 E6.28493
G1 X24.266 Y94.393 E6.30001
G1 X24.662 Y94.250 E6.32148
G1 X25.086 Y94.184 E6.34333 F600.000
G1 X25.373 Y94.185 E6.35799
G1 X25.667 Y94.222 E6.37309
G1 X26.071 Y94.339 E6.39451
G1 X26.454 Y94.534 E6.41641
G1 X26.794 Y94.798 E6.43836
G1 X27.077 Y95.121 E6.46025
G1 X27.296 Y95.490 E6.48211
G1 X27.443 Y95.894 E6.50404
G1 X27.510 Y96.320 E6.52599
G1 X27.496 Y96.750 E6.54791
G1 X27.402 Y97.169 E6.56982
G1 X27.232 Y97.564 E6.59173
G1 X26.990 Y97.919 E6.61364
G1 X26.693 Y98.216 E6.63506
G1 X26.453 Y98.391 E6.65019
G1 X26.193 Y98.533 E6.66527
G1 X25.798 Y98.676 E6.68670
G1 X25.373 Y98.743 E6.70861
G1 X25.003 Y98.731 E6.72747
G1 X24.992 Y98.345 F9000.000
G1 X24.644 Y98.267 E6.74566 F600.000
G1 X24.316 Y98.125 E6.76387
G1 X24.020 Y97.925 E6.78209
G1 X23.768 Y97.672 E6.80028
G1 X23.569 Y97.380 E6.81829
G1 X23.466 Y97.161 E6.83062
G1 X23.391 Y96.931 E6.84294
G1 X23.336 Y96.582 E6.86096
G1 X23.347 Y96.225 E6.87916
G1 X23.425 Y95.877 E6.89736
G1 X23.567 Y95.549 E6.91556
G1 X23.768 Y95.254 E6.93376
G1 X24.017 Y95.004 E6.95177
G1 X24.213 Y94.862 E6.96410
G1 X24.425 Y94.745 E6.97641
G1 X24.758 Y94.625 E6.99445
G1 X25.115 Y94.570 E7.01288 F600.000
G1 X25.349 Y94.570 E7.02479
G1 X25.589 Y94.600 E7.03712
G1 X25.928 Y94.699 E7.05512
G1 X26.246 Y94.861 E7.07331
G1 X26.529 Y95.080 E7.09153
G1 X26.764 Y95.348 E7.10971
G1 X26.946 Y95.655 E7.12789
G1 X27.067 Y95.991 E7.14610
G1 X27.123 Y96.344 E7.16431
G1 X27.112 Y96.701 E7.18251
G1 X27.034 Y97.049 E7.20071
G1 X26.892 Y97.377 E7.21891
G1 X26.691 Y97.672 E7.23711
G1 X26.442 Y97.922 E7.25512
G1 X26.246 Y98.064 E7.26746
G1 X26.034 Y98.181 E7.27977
G1 X25.702 Y98.301 E7.29778
G1 X25.349 Y98.356 E7.31598
G1 X25.052 Y98.347 E7.33113
G1 X24.767 Y98.622 F9000.000
G1 E1.33113 F1800.00000
G92 E0
G1 X69.381 Y105.381 F9000.000
G1 E6.00000 F1800.00000
G1 X69.455 Y104.916 E6.02400 F600.000
G1 X69.682 Y104.285 E6.05816
G1 X70.023 Y103.708 E6.09234
G1 X70.466 Y103.205 E6.12651
G1 X70.996 Y102.794 E6.16069
G1 X71.594 Y102.489 E6.19486
G1 X72.238 Y102.302 E6.22904
G1 X72.876 Y102.242 E6.26173
G1 X147.632 Y102.242 E10.07185 F600.000
G1 X148.059 Y102.269 E10.09366
G1 X148.508 Y102.354 E10.11694
G1 X149.121 Y102.575 E10.15013
G1 X149.521 Y102.795 E10.17342
G1 X149.883 Y103.058 E10.19621
G1 X150.209 Y103.364 E10.21900
G1 X150.500 Y103.716 E10.24228
G1 X150.831 Y104.276 E10.27547
G1 X151.000 Y104.701 E10.29875
G1 X151.111 Y105.134 E10.32155
G1 X151.167 Y105.578 E10.34433
G1 X151.173 Y136.303 E11.91032
G1 X151.113 Y136.932 E11.94253
G1 X151.000 Y137.375 E11.96582
G1 X150.835 Y137.791 E11.98861
G1 X150.620 Y138.183 E12.01140
G1 X150.351 Y138.552 E12.03468
G1 X149.891 Y139.012 E12.06787
G1 X149.521 Y139.281 E12.09115
G1 X149.129 Y139.496 E12.11394
G1 X148.713 Y139.661 E12.13673
G1 X148.271 Y139.775 E12.16002
G1 X147.642 Y139.834 E12.19222
G1 X72.876 Y139.834 E16.00283
G1 X72.247 Y139.775 E16.03504
G1 X71.805 Y139.661 E16.05832
G1 X71.389 Y139.496 E16.08111
G1 X70.997 Y139.281 E16.10390
G1 X70.627 Y139.012 E16.12719
G1 X70.167 Y138.552 E16.16037
G1 X69.898 Y138.183 E16.18366
G1 X69.683 Y137.791 E16.20645
G1 X69.518 Y137.375 E16.22924
G1 X69.407 Y136.942 E16.25203
G1 X69.351 Y136.498 E16.27482
G1 X69.351 Y105.568 E17.85124
G1 X69.372 Y105.440 E17.85786
G1 X69.762 Y105.441 F9000.000
G1 X69.830 Y105.012 E17.88000 F600.000
G1 X70.032 Y104.450 E17.91046
G1 X70.336 Y103.935 E17.94092
G1 X70.732 Y103.487 E17.97137
G1 X71.204 Y103.121 E18.00183
G1 X71.736 Y102.849 E18.03229
G1 X72.310 Y102.683 E18.06275
G1 X72.894 Y102.627 E18.09266
G1 X147.620 Y102.627 E21.90123 F600.000
G1 X148.011 Y102.652 E21.92119
G1 X148.406 Y102.727 E21.94169
G1 X148.961 Y102.927 E21.97178
G1 X149.314 Y103.121 E21.99229
G1 X149.637 Y103.356 E22.01261
G1 X149.927 Y103.628 E22.03292
G1 X150.183 Y103.938 E22.05342
G1 X150.484 Y104.447 E22.08352
G1 X150.632 Y104.820 E22.10401
G1 X150.731 Y105.207 E22.12434
G1 X150.781 Y105.602 E22.14465
G1 X150.787 Y136.285 E23.70848
G1 X150.732 Y136.866 E23.73821
G1 X150.632 Y137.255 E23.75871
G1 X150.485 Y137.626 E23.77903
G1 X150.293 Y137.975 E23.79935
G1 X150.057 Y138.301 E23.81985
G1 X149.639 Y138.718 E23.84994
G1 X149.314 Y138.955 E23.87044
G1 X148.965 Y139.147 E23.89076
G1 X148.594 Y139.294 E23.91108
G1 X148.204 Y139.394 E23.93158
G1 X147.624 Y139.449 E23.96131
G1 X72.894 Y139.449 E27.77007
G1 X72.314 Y139.394 E27.79980
G1 X71.924 Y139.294 E27.82029
G1 X71.553 Y139.147 E27.84061
G1 X71.204 Y138.955 E27.86093
G1 X70.879 Y138.718 E27.88144
G1 X70.461 Y138.301 E27.91152
G1 X70.225 Y137.975 E27.93203
G1 X70.033 Y137.626 E27.95235
G1 X69.886 Y137.255 E27.97266
G1 X69.787 Y136.869 E27.99299
G1 X69.737 Y136.474 E28.01330
G1 X69.737 Y105.599 E29.58693
G1 X69.752 Y105.500 E29.59201
G1 X69.451 Y105.189 F9000.000
G1 E23.59201 F1800.00000
G92 E0
G1 X155.209 Y124.539 F9000.000
G1 E6.00000 F1800.00000
G1 X155.268 Y124.273 E6.01388 F600.000
G1 X155.377 Y123.998 E6.02897
G1 X155.515 Y123.746 E6.04361
G1 X155.777 Y123.407 E6.06546
G1 X156.100 Y123.122 E6.08743
G1 X156.470 Y122.903 E6.10934
G1 X156.876 Y122.757 E6.13130
G1 X157.299 Y122.691 E6.15315 F600.000
G1 X157.587 Y122.692 E6.16779
G1 X157.880 Y122.729 E6.18288
G1 X158.284 Y122.846 E6.20430
G1 X158.667 Y123.041 E6.22622
G1 X159.007 Y123.305 E6.24813
G1 X159.291 Y123.627 E6.27004
G1 X159.510 Y123.997 E6.29196
G1 X159.656 Y124.402 E6.31387
G1 X159.723 Y124.827 E6.33579
G1 X159.709 Y125.256 E6.35770
G1 X159.618 Y125.667 E6.37912
G1 X159.509 Y125.942 E6.39421
G1 X159.371 Y126.194 E6.40885
G1 X159.109 Y126.533 E6.43070
G1 X158.786 Y126.818 E6.45266
G1 X158.416 Y127.037 E6.47458
G1 X158.011 Y127.183 E6.49649
G1 X157.586 Y127.250 E6.51841
G1 X157.157 Y127.236 E6.54032
G1 X156.737 Y127.143 E6.56224
G1 X156.342 Y126.972 E6.58415
G1 X155.987 Y126.730 E6.60607
G1 X155.690 Y126.433 E6.62749
G1 X155.516 Y126.194 E6.64257
G1 X155.377 Y125.942 E6.65722
G1 X155.230 Y125.539 E6.67906
G1 X155.163 Y125.113 E6.70103
G1 X155.177 Y124.684 E6.72294
G1 X155.196 Y124.598 E6.72742
G1 X155.585 Y124.623 F9000.000
G1 X155.638 Y124.387 E6.73976 F600.000
G1 X155.727 Y124.163 E6.75207
G1 X155.839 Y123.958 E6.76397
G1 X156.060 Y123.672 E6.78240
G1 X156.328 Y123.435 E6.80061
G1 X156.635 Y123.253 E6.81881
G1 X156.972 Y123.132 E6.83703
G1 X157.329 Y123.077 E6.85546 F600.000
G1 X157.562 Y123.077 E6.86735
G1 X157.802 Y123.107 E6.87966
G1 X158.141 Y123.206 E6.89768
G1 X158.460 Y123.368 E6.91588
G1 X158.742 Y123.587 E6.93408
G1 X158.978 Y123.855 E6.95228
G1 X159.160 Y124.162 E6.97048
G1 X159.281 Y124.498 E6.98868
G1 X159.336 Y124.851 E7.00687
G1 X159.325 Y125.208 E7.02507
G1 X159.248 Y125.553 E7.04309
G1 X159.159 Y125.777 E7.05540
G1 X159.047 Y125.982 E7.06730
G1 X158.826 Y126.268 E7.08573
G1 X158.558 Y126.505 E7.10394
G1 X158.251 Y126.687 E7.12214
G1 X157.915 Y126.807 E7.14034
G1 X157.562 Y126.863 E7.15854
G1 X157.205 Y126.852 E7.17674
G1 X156.857 Y126.774 E7.19494
G1 X156.529 Y126.632 E7.21314
G1 X156.234 Y126.432 E7.23134
G1 X155.984 Y126.182 E7.24935
G1 X155.842 Y125.986 E7.26166
G1 X155.729 Y125.782 E7.27356
G1 X155.606 Y125.442 E7.29199
G1 X155.550 Y125.089 E7.31020
G1 X155.572 Y124.682 E7.33099
G1 X155.399 Y124.468 F9000.000
G1 E1.33099 F1800.00000
G92 E0
G1 X160.417 Y124.624 F9000.000
G1 E6.00000 F1800.00000
G1 X160.411 Y155.293 E7.56308 F600.000
G1 X160.325 Y155.970 E7.59788
G1 X160.156 Y156.631 E7.63268
G1 X159.904 Y157.266 E7.66747
G1 X159.571 Y157.873 E7.70276
G1 X159.390 Y158.139 E7.71919
G1 X158.948 Y158.673 E7.75447
G1 X158.451 Y159.140 E7.78927
G1 X157.898 Y159.541 E7.82406
G1 X157.292 Y159.875 E7.85935
G1 X156.996 Y160.003 E7.87578
G1 X156.337 Y160.217 E7.91106
G1 X155.667 Y160.345 E7.94585
G1 X154.966 Y160.389 E7.98163
G1 X20.334 Y160.389 E14.84350
G1 X19.624 Y160.344 E14.87977
G1 X19.297 Y160.292 E14.89662
G1 X18.951 Y160.214 E14.91473
G1 X18.304 Y160.003 E14.94938
G1 X18.008 Y159.875 E14.96582
G1 X17.402 Y159.541 E15.00110
G1 X16.849 Y159.140 E15.03591
G1 X16.352 Y158.673 E15.07069
G1 X15.911 Y158.139 E15.10597
G1 X15.729 Y157.873 E15.12241
G1 X15.396 Y157.266 E15.15768
G1 X15.145 Y156.631 E15.19250
G1 X14.977 Y155.982 E15.22665
G1 X14.921 Y155.641 E15.24425
G1 X14.877 Y154.932 E15.28045
G1 X14.889 Y94.647 E18.35304
G1 X14.974 Y93.970 E18.38783
G1 X15.145 Y93.309 E18.42263
G1 X15.396 Y92.674 E18.45743
G1 X15.729 Y92.067 E18.49270
G1 X15.911 Y91.801 E18.50914
G1 X16.352 Y91.267 E18.54442
G1 X16.849 Y90.800 E18.57920
G1 X17.402 Y90.399 E18.61401
G1 X18.008 Y90.065 E18.64928
G1 X18.304 Y89.937 E18.66571
G1 X18.963 Y89.723 E18.70101
G1 X19.633 Y89.595 E18.73581
G1 X20.334 Y89.551 E18.77158
G1 X155.314 Y89.562 E25.65117
G1 X155.658 Y89.594 E25.66880 F600.000
G1 X156.337 Y89.723 E25.70403
G1 X156.996 Y89.937 E25.73932
G1 X157.292 Y90.065 E25.75575
G1 X157.907 Y90.403 E25.79152
G1 X158.444 Y90.793 E25.82534
G1 X158.948 Y91.267 E25.86063
G1 X159.390 Y91.801 E25.89591
G1 X159.571 Y92.067 E25.91234
G1 X159.909 Y92.682 E25.94812
G1 X160.041 Y92.987 E25.96504
G1 X160.153 Y93.299 E25.98196
G1 X160.328 Y93.979 E26.01773
G1 X160.378 Y94.298 E26.03416
G1 X160.423 Y95.008 E26.07042
G1 X160.417 Y124.564 E27.57686
G1 X160.803 Y124.624 F9000.000
G1 X160.797 Y155.317 E29.14117 F600.000
G1 X160.705 Y156.043 E29.17845
G1 X160.523 Y156.751 E29.21571
G1 X160.254 Y157.431 E29.25298
G1 X159.900 Y158.075 E29.29043
G1 X159.698 Y158.371 E29.30871
G1 X159.230 Y158.937 E29.34616
