; generated by Slic3r 1.2.9 on 2018-01-23 at 22:53:36

; external perimeters extrusion width = 0.40mm
; perimeters extrusion width = 0.62mm
; infill extrusion width = 0.33mm
; solid infill extrusion width = 0.62mm
; top infill extrusion width = 0.20mm

M106 S256; Turn on fan to 100% power
M104 S140; turn on extruder temperature at S value
M140 S60; turn on bed temperature at S value
G28; home all axes
M84; disable motors
G1 Z15 F15000; have Z move to 20mm at 15000 mm/min
M190 S55; turn on bed temperature at S value and wait
M140 S55; turn on bed temperature at S value (printing temperature)
M109 S200; turn on extruder temperature at S value and wait (printing temperature)
M104 S200; turn on extruder temperature at S value
G1 Z0 F12000; move Z back to home
G21 ; set units to millimeters
G90 ; use absolute coordinates
M82 ; use absolute distances for extrusion
G92 E0
M106 S255
;Layer change
G1 E-6.00000 F1800.00000
G92 E0
G1 Z0.300 F9000.000
G1 X13.490 Y93.084 F9000.000
G1 E6.00000 F1800.00000
G1 X162.790 Y93.084 E13.60943 F600.000
G1 X164.100 Y93.476 E13.67910 F600.000
G1 X164.979 Y94.522 E13.74877
G1 X165.176 Y95.470 E13.79810
G1 X165.176 Y169.570 E17.57478
G1 X164.477 Y171.257 E17.66784
G1 X164.327 Y171.407 E17.67866
G1 X162.626 Y172.106 E17.77236
G1 X13.476 Y171.256 E25.37427
G1 X12.169 Y170.857 E25.44394
G1 X11.295 Y169.805 E25.51360
G1 X11.104 Y168.870 E25.56225
G1 X11.104 Y95.470 E29.30326
G1 X11.496 Y94.160 E29.37293
G1 X12.542 Y93.281 E29.44260
G1 X13.431 Y93.097 E29.48887
G1 E23.48887 F1800.00000
G92 E0
G1 X21.192 Y166.374 F9000.000
G1 E6.00000 F1800.00000
G1 X20.780 Y166.439 E6.02129 F600.000
G1 X20.361 Y166.426 E6.04263
G1 X19.962 Y166.337 E6.06348
G1 X19.693 Y166.230 E6.07820
G1 X19.440 Y166.091 E6.09292
G1 X19.118 Y165.841 E6.11371
G1 X18.841 Y165.527 E6.13505
G1 X18.628 Y165.166 E6.15643
G1 X18.487 Y164.773 E6.17770
G1 X18.421 Y164.360 E6.19903
G1 X18.435 Y163.941 E6.22039
G1 X18.526 Y163.533 E6.24167
G1 X18.691 Y163.149 E6.26298
G1 X18.927 Y162.802 E6.28435
G1 X19.216 Y162.514 E6.30519
G1 X19.449 Y162.344 E6.31985
G1 X19.702 Y162.205 E6.33460
G1 X20.088 Y162.066 E6.35548
G1 X20.500 Y162.001 E6.37678 F600.000
G1 X20.919 Y162.014 E6.39811
G1 X21.318 Y162.103 E6.41896
G1 X21.587 Y162.210 E6.43368
G1 X21.840 Y162.349 E6.44840
G1 X22.162 Y162.599 E6.46919
G1 X22.439 Y162.913 E6.49054
G1 X22.652 Y163.274 E6.51191
G1 X22.793 Y163.667 E6.53319
G1 X22.859 Y164.080 E6.55451
G1 X22.845 Y164.499 E6.57587
G1 X22.754 Y164.907 E6.59715
G1 X22.589 Y165.291 E6.61846
G1 X22.353 Y165.638 E6.63983
G1 X22.064 Y165.926 E6.66068
G1 X21.831 Y166.096 E6.67533
G1 X21.578 Y166.235 E6.69008
G1 X21.249 Y166.353 E6.70791
G1 X21.096 Y165.998 F9000.000
G1 X20.755 Y166.052 E6.72550 F600.000
G1 X20.410 Y166.042 E6.74312
G1 X20.076 Y165.967 E6.76056
G1 X19.858 Y165.881 E6.77249
G1 X19.653 Y165.768 E6.78442
G1 X19.383 Y165.558 E6.80183
G1 X19.154 Y165.299 E6.81946
G1 X18.978 Y165.001 E6.83708
G1 X18.862 Y164.677 E6.85467
G1 X18.807 Y164.335 E6.87228
G1 X18.819 Y163.990 E6.88991
G1 X18.894 Y163.653 E6.90750
G1 X19.031 Y163.336 E6.92510
G1 X19.225 Y163.050 E6.94272
G1 X19.467 Y162.808 E6.96017
G1 X19.656 Y162.670 E6.97207
G1 X19.861 Y162.557 E6.98401
G1 X20.184 Y162.442 E7.00148
G1 X20.525 Y162.388 E7.01907 F600.000
G1 X20.870 Y162.398 E7.03669
G1 X21.204 Y162.473 E7.05413
G1 X21.422 Y162.559 E7.06607
G1 X21.627 Y162.672 E7.07799
G1 X21.897 Y162.882 E7.09540
G1 X22.126 Y163.141 E7.11303
G1 X22.302 Y163.439 E7.13065
G1 X22.418 Y163.763 E7.14824
G1 X22.473 Y164.105 E7.16586
G1 X22.461 Y164.450 E7.18348
G1 X22.386 Y164.787 E7.20107
G1 X22.249 Y165.104 E7.21868
G1 X22.055 Y165.390 E7.23630
G1 X21.813 Y165.632 E7.25375
G1 X21.624 Y165.770 E7.26564
G1 X21.419 Y165.883 E7.27758
G1 X21.153 Y165.978 E7.29200
G1 X20.993 Y166.328 F9000.000
G1 X35.529 Y164.581 F9000.000
G1 X35.529 Y163.163 E7.36425 F600.000
G1 X36.409 Y162.861 E7.41165
G1 X37.829 Y164.581 E7.52533
G1 X35.589 Y164.581 E7.63949
G1 X35.915 Y164.195 F9000.000
G1 X35.915 Y163.438 E7.67806 F600.000
G1 X36.282 Y163.312 E7.69782
G1 X37.011 Y164.195 E7.75616
G1 X35.975 Y164.195 E7.80895
G1 X35.515 Y164.195 F9000.000
G1 E1.80895 F1800.00000
G92 E0
G1 X38.365 Y162.139 F9000.000
G1 E6.00000 F1800.00000
G1 X38.158 Y161.833 E6.01883 F600.000
G1 X37.988 Y161.405 E6.04230
G1 X37.931 Y161.041 E6.06111
G1 X37.942 Y160.671 E6.07993
G1 X38.056 Y160.224 E6.10346
G1 X38.224 Y159.895 E6.12230
G1 X38.443 Y159.612 E6.14053
G1 X38.715 Y159.372 E6.15901
G1 X39.025 Y159.189 E6.17736
G1 X39.365 Y159.067 E6.19579
G1 X39.722 Y159.010 E6.21423 F600.000
G1 X40.080 Y159.022 E6.23246
G1 X40.432 Y159.100 E6.25083
G1 X40.762 Y159.243 E6.26916
G1 X41.070 Y159.453 E6.28815
G1 X41.384 Y159.788 E6.31154
G1 X41.571 Y160.106 E6.33036
G1 X41.693 Y160.444 E6.34870
G1 X41.749 Y160.799 E6.36702
G1 X41.739 Y161.160 E6.38539
G1 X41.659 Y161.512 E6.40378
G1 X41.517 Y161.841 E6.42207
G1 X41.315 Y162.139 E6.44042
G1 X41.053 Y162.401 E6.45929
G1 X40.664 Y162.648 E6.48278
G1 X40.315 Y162.773 E6.50167
G1 X39.961 Y162.830 E6.51997
G1 X39.600 Y162.818 E6.53835
G1 X39.248 Y162.740 E6.55673
G1 X38.919 Y162.597 E6.57504
G1 X38.620 Y162.395 E6.59340
G1 X38.407 Y162.182 E6.60875
G1 X38.664 Y161.893 F9000.000
G1 X38.501 Y161.652 E6.62356 F600.000
G1 X38.363 Y161.303 E6.64270
G1 X38.317 Y161.016 E6.65750
G1 X38.326 Y160.726 E6.67231
G1 X38.419 Y160.361 E6.69147
G1 X38.551 Y160.102 E6.70628
G1 X38.726 Y159.877 E6.72080
G1 X38.943 Y159.686 E6.73557
G1 X39.190 Y159.539 E6.75019
G1 X39.461 Y159.442 E6.76489
G1 X39.746 Y159.397 E6.77961 F600.000
G1 X40.031 Y159.406 E6.79414
G1 X40.312 Y159.469 E6.80879
G1 X40.575 Y159.583 E6.82340
G1 X40.818 Y159.748 E6.83837
G1 X41.073 Y160.020 E6.85740
G1 X41.221 Y160.270 E6.87220
G1 X41.318 Y160.541 E6.88684
G1 X41.363 Y160.824 E6.90146
G1 X41.354 Y161.111 E6.91610
G1 X41.291 Y161.392 E6.93076
G1 X41.177 Y161.655 E6.94537
G1 X41.016 Y161.893 E6.96000
G1 X40.811 Y162.098 E6.97483
G1 X40.494 Y162.300 E6.99397
G1 X40.219 Y162.398 E7.00883
G1 X39.936 Y162.443 E7.02343
G1 X39.649 Y162.434 E7.03809
G1 X39.368 Y162.371 E7.05274
G1 X39.105 Y162.257 E7.06735
G1 X38.867 Y162.096 E7.08201
G1 X38.706 Y161.935 E7.09361
G1 X38.376 Y161.932 F9000.000
G1 E1.09361 F1800.00000
G92 E0
G1 X39.961 Y105.430 F9000.000
G1 E6.00000 F1800.00000
G1 X39.600 Y105.418 E6.01837 F600.000
G1 X39.248 Y105.340 E6.03675
G1 X38.919 Y105.197 E6.05506
G1 X38.620 Y104.995 E6.07343
G1 X38.365 Y104.739 E6.09183
G1 X38.158 Y104.433 E6.11067
G1 X37.988 Y104.005 E6.13414
G1 X37.931 Y103.641 E6.15294
G1 X37.942 Y103.271 E6.17177
G1 X38.056 Y102.824 E6.19529
G1 X38.224 Y102.495 E6.21414
G1 X38.445 Y102.210 E6.23252
G1 X38.715 Y101.972 E6.25087
G1 X39.025 Y101.789 E6.26919
G1 X39.365 Y101.667 E6.28762
G1 X39.722 Y101.610 E6.30606 F600.000
G1 X40.080 Y101.622 E6.32429
G1 X40.432 Y101.700 E6.34266
G1 X40.761 Y101.843 E6.36097
G1 X41.060 Y102.045 E6.37934
G1 X41.315 Y102.301 E6.39774
G1 X41.522 Y102.607 E6.41658
G1 X41.692 Y103.035 E6.44005
G1 X41.749 Y103.399 E6.45885
G1 X41.739 Y103.760 E6.47722
G1 X41.659 Y104.112 E6.49562
G1 X41.517 Y104.441 E6.51390
G1 X41.315 Y104.739 E6.53225
G1 X41.053 Y105.001 E6.55113
G1 X40.664 Y105.248 E6.57462
G1 X40.315 Y105.373 E6.59351
G1 X40.020 Y105.420 E6.60875
G1 X39.936 Y105.043 F9000.000
G1 X39.649 Y105.034 E6.62341 F600.000
G1 X39.368 Y104.971 E6.63807
G1 X39.105 Y104.857 E6.65267
G1 X38.867 Y104.696 E6.66733
G1 X38.664 Y104.493 E6.68199
G1 X38.501 Y104.252 E6.69680
G1 X38.363 Y103.903 E6.71593
G1 X38.317 Y103.616 E6.73074
G1 X38.326 Y103.326 E6.74555
G1 X38.419 Y102.961 E6.76471
G1 X38.551 Y102.702 E6.77953
G1 X38.727 Y102.475 E6.79417
G1 X38.943 Y102.285 E6.80882
G1 X39.190 Y102.139 E6.82343
G1 X39.461 Y102.042 E6.83812
G1 X39.746 Y101.997 E6.85285 F600.000
G1 X40.031 Y102.006 E6.86738
G1 X40.312 Y102.069 E6.88203
G1 X40.575 Y102.183 E6.89663
G1 X40.813 Y102.344 E6.91129
G1 X41.016 Y102.547 E6.92595
G1 X41.179 Y102.788 E6.94076
G1 X41.317 Y103.137 E6.95989
G1 X41.363 Y103.424 E6.97470
G1 X41.354 Y103.711 E6.98934
G1 X41.291 Y103.992 E7.00400
G1 X41.177 Y104.255 E7.01861
G1 X41.016 Y104.493 E7.03324
G1 X40.811 Y104.698 E7.04807
G1 X40.494 Y104.900 E7.06721
G1 X40.219 Y104.998 E7.08207
G1 X39.995 Y105.034 E7.09361
G1 X39.800 Y105.296 F9000.000
G1 E1.09361 F1800.00000
G92 E0
G1 X36.409 Y101.579 F9000.000
G1 E6.00000 F1800.00000
G1 X35.529 Y101.277 E6.04740 F600.000
G1 X35.529 Y99.859 E6.11965
G1 X37.829 Y99.859 E6.23687
G1 X36.447 Y101.533 E6.34749
G1 X36.282 Y101.128 F9000.000
G1 X35.915 Y101.002 E6.36725 F600.000
G1 X35.915 Y100.245 E6.40582
G1 X37.011 Y100.245 E6.46166
G1 X36.320 Y101.081 E6.51695
G1 X36.113 Y101.477 F9000.000
G1 X22.845 Y100.499 F9000.000
G1 X22.754 Y100.907 E6.53824 F600.000
G1 X22.589 Y101.291 E6.55955
G1 X22.353 Y101.638 E6.58092
G1 X22.066 Y101.924 E6.60159
G1 X21.853 Y102.083 E6.61514
G1 X21.579 Y102.235 E6.63113
G1 X21.192 Y102.374 E6.65205
G1 X20.780 Y102.439 E6.67335
G1 X20.361 Y102.426 E6.69468
G1 X19.962 Y102.337 E6.71553
G1 X19.693 Y102.230 E6.73025
G1 X19.440 Y102.091 E6.74497
G1 X19.118 Y101.841 E6.76577
G1 X18.841 Y101.527 E6.78711
G1 X18.628 Y101.166 E6.80848
G1 X18.487 Y100.773 E6.82976
G1 X18.421 Y100.360 E6.85108
G1 X18.435 Y99.931 E6.87293
G1 X18.568 Y99.410 E6.90036
G1 X18.763 Y99.029 E6.92217
G1 X19.019 Y98.698 E6.94348
G1 X19.334 Y98.421 E6.96484
G1 X19.693 Y98.208 E6.98613
G1 X20.089 Y98.066 E7.00757
G1 X20.519 Y97.999 E7.02977 F600.000
G1 X21.048 Y98.033 E7.05679
G1 X21.459 Y98.153 E7.07859
G1 X21.832 Y98.343 E7.09993
G1 X22.162 Y98.599 E7.12122
G1 X22.439 Y98.913 E7.14256
G1 X22.652 Y99.274 E7.16394
G1 X22.793 Y99.667 E7.18521
G1 X22.859 Y100.080 E7.20654
G1 X22.847 Y100.439 E7.22484
G1 X22.461 Y100.450 F9000.000
G1 X22.386 Y100.787 E7.24243 F600.000
G1 X22.249 Y101.104 E7.26003
G1 X22.055 Y101.390 E7.27766
G1 X21.813 Y101.631 E7.29504
G1 X21.643 Y101.758 E7.30586
G1 X21.419 Y101.882 E7.31893
G1 X21.096 Y101.998 E7.33642
G1 X20.755 Y102.052 E7.35401
G1 X20.410 Y102.042 E7.37163
G1 X20.076 Y101.967 E7.38907
G1 X19.858 Y101.881 E7.40100
G1 X19.653 Y101.768 E7.41293
G1 X19.383 Y101.558 E7.43034
G1 X19.154 Y101.299 E7.44797
G1 X18.978 Y101.001 E7.46559
G1 X18.862 Y100.677 E7.48318
G1 X18.807 Y100.335 E7.50079
G1 X18.819 Y99.986 E7.51859
G1 X18.931 Y99.547 E7.54169
G1 X19.090 Y99.236 E7.55949
G1 X19.301 Y98.963 E7.57708
G1 X19.561 Y98.735 E7.59472
G1 X19.858 Y98.559 E7.61229
G1 X20.184 Y98.442 E7.62997
G1 X20.536 Y98.387 E7.64814 F600.000
G1 X20.981 Y98.416 E7.67085
G1 X21.316 Y98.513 E7.68864
G1 X21.624 Y98.670 E7.70625
G1 X21.897 Y98.882 E7.72384
G1 X22.126 Y99.141 E7.74147
G1 X22.302 Y99.439 E7.75910
G1 X22.418 Y99.763 E7.77668
G1 X22.473 Y100.105 E7.79430
G1 X22.463 Y100.390 E7.80886
G1 X22.729 Y100.668 F9000.000
G1 E1.80886 F1800.00000
G92 E0
G1 X158.751 Y127.795 F9000.000
G1 E6.00000 F1800.00000
G1 X157.776 Y128.049 E6.05135 F600.000
G1 X157.533 Y128.136 E6.06448
G1 X157.017 Y128.379 E6.09355
G1 X156.797 Y128.509 E6.10662
G1 X156.335 Y128.844 E6.13569
G1 X156.143 Y129.014 E6.14877
G1 X155.757 Y129.425 E6.17748
G1 X155.589 Y129.640 E6.19141
G1 X155.440 Y129.860 E6.20496
G1 X155.173 Y130.345 E6.23318
G1 X154.963 Y130.873 E6.26212
G1 X154.892 Y131.119 E6.27518
G1 X154.786 Y131.670 E6.30376
G1 X154.751 Y132.230 E6.33233
G1 X154.760 Y132.496 E6.34590
G1 X154.785 Y132.761 E6.35947
G1 X154.888 Y133.304 E6.38768
G1 X155.060 Y133.836 E6.41614
G1 X155.295 Y134.334 E6.44422
G1 X155.591 Y134.802 E6.47244
G1 X155.753 Y135.010 E6.48588
G1 X156.143 Y135.426 E6.51493
G1 X156.335 Y135.595 E6.52800
G1 X156.796 Y135.930 E6.55705
G1 X157.023 Y136.064 E6.57050
G1 X157.533 Y136.304 E6.59921
G1 X157.776 Y136.391 E6.61234
G1 X158.751 Y136.646 E6.66372
G1 X158.745 Y142.457 E6.95990
G1 X158.641 Y143.109 E6.99356
G1 X158.495 Y143.559 E7.01765
G1 X158.198 Y144.142 E7.05102
G1 X157.923 Y144.522 E7.07493
G1 X157.612 Y144.853 E7.09809
G1 X157.250 Y145.152 E7.12199
G1 X156.687 Y145.485 E7.15536
G1 X156.256 Y145.655 E7.17896
G1 X155.807 Y145.770 E7.20257
G1 X155.169 Y145.831 E7.23526
G1 X75.111 Y145.831 E11.31559
G1 X74.463 Y145.769 E11.34878
G1 X73.819 Y145.582 E11.38295
G1 X73.400 Y145.385 E11.40656
G1 X73.009 Y145.137 E11.43017
G1 X72.513 Y144.700 E11.46385
G1 X72.218 Y144.343 E11.48745
G1 X71.970 Y143.952 E11.51106
G1 X71.707 Y143.346 E11.54474
G1 X71.592 Y142.897 E11.56835
G1 X71.535 Y142.447 E11.59146
G1 X71.529 Y111.191 E13.18448
G1 X71.590 Y110.553 E13.21717
G1 X71.705 Y110.104 E13.24079
G1 X71.875 Y109.673 E13.26440
G1 X72.217 Y109.096 E13.29857
G1 X72.667 Y108.586 E13.33323
G1 X73.204 Y108.169 E13.36789
G1 X73.810 Y107.860 E13.40255
G1 X74.463 Y107.671 E13.43722
G1 X75.111 Y107.609 E13.47041
G1 X155.169 Y107.609 E17.55073
G1 X155.817 Y107.671 E17.58392
G1 X156.461 Y107.858 E17.61809
G1 X156.880 Y108.055 E17.64170
G1 X157.263 Y108.298 E17.66484
G1 X157.624 Y108.598 E17.68875
G1 X158.057 Y109.089 E17.72211
G1 X158.305 Y109.480 E17.74571
G1 X158.498 Y109.890 E17.76883
G1 X158.638 Y110.322 E17.79195
G1 X158.723 Y110.767 E17.81507
G1 X158.751 Y111.201 E17.83720
G1 X158.751 Y127.735 E18.67989
G1 X158.365 Y127.497 F9000.000
G1 X157.662 Y127.680 E18.71694 F600.000
G1 X157.386 Y127.779 E18.73188
G1 X156.837 Y128.038 E18.76281
G1 X156.585 Y128.187 E18.77773
G1 X156.094 Y128.543 E18.80865
G1 X155.874 Y128.737 E18.82358
G1 X155.463 Y129.174 E18.85414
G1 X155.277 Y129.413 E18.86962
G1 X155.110 Y129.659 E18.88472
G1 X154.823 Y130.181 E18.91509
G1 X154.598 Y130.748 E18.94621
G1 X154.516 Y131.029 E18.96113
G1 X154.403 Y131.622 E18.99187
G1 X154.365 Y132.224 E19.02261
G1 X154.375 Y132.520 E19.03772
G1 X154.402 Y132.815 E19.05283
G1 X154.514 Y133.400 E19.08319
G1 X154.701 Y133.978 E19.11413
G1 X154.956 Y134.520 E19.14468
G1 X155.275 Y135.023 E19.17505
G1 X155.459 Y135.261 E19.19036
G1 X155.874 Y135.703 E19.22127
G1 X156.094 Y135.897 E19.23620
G1 X156.584 Y136.253 E19.26711
G1 X156.843 Y136.406 E19.28242
G1 X157.386 Y136.661 E19.31297
G1 X157.662 Y136.760 E19.32792
G1 X158.365 Y136.943 E19.36498
G1 X158.359 Y142.426 E19.64442
G1 X158.265 Y143.019 E19.67500
G1 X158.138 Y143.411 E19.69600
G1 X157.868 Y143.940 E19.72629
G1 X157.625 Y144.276 E19.74740
G1 X157.348 Y144.571 E19.76806
G1 X157.028 Y144.835 E19.78918
G1 X156.517 Y145.137 E19.81947
G1 X156.137 Y145.288 E19.84029
G1 X155.741 Y145.389 E19.86112
G1 X155.151 Y145.445 E19.89134
G1 X75.129 Y145.445 E23.96981
G1 X74.536 Y145.389 E24.00021
G1 X73.956 Y145.220 E24.03098
G1 X73.586 Y145.046 E24.05181
G1 X73.241 Y144.828 E24.07263
G1 X72.791 Y144.431 E24.10322
G1 X72.531 Y144.116 E24.12404
G1 X72.312 Y143.771 E24.14486
G1 X72.073 Y143.220 E24.17545
G1 X71.972 Y142.824 E24.19628
G1 X71.921 Y142.423 E24.21692
G1 X71.915 Y111.209 E25.80777
G1 X71.971 Y110.619 E25.83799
G1 X72.072 Y110.223 E25.85882
G1 X72.223 Y109.843 E25.87965
G1 X72.530 Y109.324 E25.91042
G1 X72.932 Y108.868 E25.94136
G1 X73.411 Y108.496 E25.97231
G1 X73.952 Y108.221 E26.00325
G1 X74.536 Y108.051 E26.03420
G1 X75.129 Y107.995 E26.06460
G1 X155.151 Y107.995 E30.14308
G1 X155.744 Y108.051 E30.17348
G1 X156.324 Y108.220 E30.20425
G1 X156.694 Y108.394 E30.22507
G1 X157.036 Y108.611 E30.24572
G1 X157.355 Y108.875 E30.26684
G1 X157.748 Y109.321 E30.29713
G1 X157.966 Y109.666 E30.31795
G1 X158.139 Y110.033 E30.33859
G1 X158.264 Y110.418 E30.35924
G1 X158.340 Y110.816 E30.37989
G1 X158.365 Y111.213 E30.40017
G1 X158.365 Y127.437 E31.22704
G1 X158.433 Y127.891 F9000.000
G1 X158.760 Y130.040 F9000.000
G1 X159.019 Y129.999 E31.24042 F600.000
G1 X159.548 Y130.033 E31.26742
G1 X159.958 Y130.153 E31.28922
G1 X160.331 Y130.343 E31.31055
G1 X160.662 Y130.599 E31.33187
G1 X160.939 Y130.913 E31.35321
G1 X161.152 Y131.273 E31.37453
G1 X161.293 Y131.667 E31.39586
G1 X161.359 Y132.080 E31.41719
G1 X161.346 Y132.499 E31.43852
G1 X161.255 Y132.907 E31.45984
G1 X161.085 Y133.299 E31.48164
G1 X160.774 Y133.729 E31.50865
G1 X160.448 Y134.018 E31.53088
G1 X160.087 Y134.232 E31.55226
G1 X159.693 Y134.373 E31.57359
G1 X159.280 Y134.439 E31.59491
G1 X158.860 Y134.426 E31.61629
G1 X158.435 Y134.329 E31.63853
G1 X157.956 Y134.103 E31.66553
G1 X157.618 Y133.841 E31.68733
G1 X157.341 Y133.527 E31.70866
