; generated by Slic3r 1.2.9 on 2017-07-05 at 13:12:54

; external perimeters extrusion width = 0.40mm
; perimeters extrusion width = 0.62mm
; infill extrusion width = 0.33mm
; solid infill extrusion width = 0.62mm
; top infill extrusion width = 0.20mm

M106 S256; Turn on fan to 100% power
M104 S140; turn on extruder temperature at S value
M140 S60; turn on bed temperature at S value
G28; home all axes
M84; disable motors
G1 Z15 F15000; have Z move to 20mm at 15000 mm/min
M190 S55; turn on bed temperature at S value and wait
M140 S55; turn on bed temperature at S value (printing temperature)
M109 S200; turn on extruder temperature at S value and wait (printing temperature)
M104 S200; turn on extruder temperature at S value
G1 Z0 F12000; move Z back to home
G21 ; set units to millimeters
G90 ; use absolute coordinates
M82 ; use absolute distances for extrusion
G92 E0
M106 S255
;Layer change
G1 E-6.00000 F1800.00000
G92 E0
G1 Z0.300 F9000.000
G1 X50.458 Y19.261 F9000.000
G1 E6.00000 F1800.00000
G1 X50.762 Y18.545 E6.03874 F600.000
G1 X51.111 Y17.849 E6.07747
G1 X51.584 Y17.051 E6.12367
G1 X52.025 Y16.410 E6.16241
G1 X52.410 Y15.913 E6.19370
G1 X52.921 Y15.327 E6.23241
G1 X53.468 Y14.773 E6.27115
G1 X54.048 Y14.255 E6.30991
G1 X54.660 Y13.775 E6.34862
G1 X55.301 Y13.334 E6.38737
G1 X55.968 Y12.933 E6.42611
G1 X56.659 Y12.576 E6.46484
G1 X57.371 Y12.263 E6.50359
G1 X58.102 Y11.995 E6.54231
G1 X58.848 Y11.773 E6.58106
G1 X59.606 Y11.599 E6.61979
G1 X60.522 Y11.454 E6.66599
G1 X61.297 Y11.385 E6.70472
G1 X62.000 Y11.364 E6.73973
G1 X118.075 Y11.366 E9.53165
G1 X118.703 Y11.385 E9.56292 F600.000
G1 X119.478 Y11.454 E9.60166
G1 X120.247 Y11.571 E9.64040
G1 X121.007 Y11.736 E9.67914
G1 X121.898 Y11.995 E9.72533
G1 X122.628 Y12.263 E9.76406
G1 X123.205 Y12.512 E9.79534
G1 X124.032 Y12.933 E9.84153
G1 X124.699 Y13.333 E9.88027
G1 X125.219 Y13.687 E9.91156
G1 X125.952 Y14.255 E9.95773
G1 X126.532 Y14.773 E9.99648
G1 X126.977 Y15.218 E10.02777
G1 X127.590 Y15.913 E10.07395
G1 X127.975 Y16.410 E10.10524
G1 X128.416 Y17.051 E10.14398
G1 X128.889 Y17.849 E10.19017
G1 X129.174 Y18.409 E10.22145
G1 X129.487 Y19.121 E10.26018
G1 X129.802 Y19.994 E10.30639
G1 X130.014 Y20.742 E10.34511
G1 X130.151 Y21.356 E10.37639
G1 X130.296 Y22.272 E10.42257
G1 X130.365 Y23.047 E10.46133
G1 X130.386 Y23.750 E10.49634
G1 X130.386 Y156.250 E17.09338
G1 X130.355 Y157.103 E17.13587
G1 X130.277 Y157.876 E17.17454
G1 X130.179 Y158.497 E17.20584
G1 X130.014 Y159.258 E17.24462
G1 X129.755 Y160.148 E17.29079
G1 X129.542 Y160.739 E17.32208
G1 X129.238 Y161.455 E17.36080
G1 X128.816 Y162.284 E17.40709
G1 X128.417 Y162.948 E17.44568
G1 X128.064 Y163.468 E17.47699
G1 X127.589 Y164.087 E17.51580
G1 X126.978 Y164.780 E17.56182
G1 X126.422 Y165.330 E17.60077
G1 X125.836 Y165.840 E17.63941
G1 X125.340 Y166.225 E17.67069
G1 X124.574 Y166.746 E17.71683
G1 X123.900 Y167.139 E17.75565
G1 X123.340 Y167.424 E17.78693
G1 X122.490 Y167.792 E17.83307
G1 X121.755 Y168.052 E17.87188
G1 X121.151 Y168.227 E17.90317
G1 X120.394 Y168.401 E17.94187
G1 X119.478 Y168.546 E17.98806
G1 X118.704 Y168.614 E18.02672
G1 X118.000 Y168.636 E18.06180
G1 X62.000 Y168.636 E20.84998
G1 X61.296 Y168.614 E20.88504
G1 X60.523 Y168.546 E20.92370
G1 X59.754 Y168.429 E20.96241
G1 X58.993 Y168.264 E21.00119
G1 X58.245 Y168.052 E21.03988
G1 X57.510 Y167.792 E21.07871
G1 X56.660 Y167.424 E21.12485
G1 X55.968 Y167.066 E21.16364
G1 X55.301 Y166.666 E21.20233
G1 X54.660 Y166.225 E21.24109
G1 X54.049 Y165.745 E21.27975
G1 X53.466 Y165.225 E21.31865
G1 X52.921 Y164.673 E21.35729
G1 X52.411 Y164.087 E21.39598
G1 X51.936 Y163.468 E21.43481
G1 X51.504 Y162.824 E21.47344
G1 X51.111 Y162.151 E21.51224
G1 X50.762 Y161.455 E21.55100
G1 X50.458 Y160.739 E21.58972
G1 X50.199 Y160.006 E21.62846
G1 X50.023 Y159.402 E21.65973
G1 X49.849 Y158.645 E21.69845
G1 X49.704 Y157.728 E21.74465
G1 X49.635 Y156.953 E21.78340
G1 X49.614 Y156.250 E21.81841
G1 X49.614 Y23.750 E28.41545
G1 X49.645 Y22.897 E28.45793
G1 X49.723 Y22.124 E28.49664
G1 X49.821 Y21.503 E28.52793
G1 X50.023 Y20.598 E28.57412
G1 X50.198 Y19.995 E28.60539
G1 X50.437 Y19.317 E28.64116
G1 E22.64116 F1800.00000
G92 E0
G1 X120.050 Y155.892 F9000.000
G1 E6.00000 F1800.00000
G1 X120.494 Y155.849 E6.02221 F600.000
G1 X120.948 Y155.892 E6.04491
G1 X121.384 Y156.017 E6.06746
G1 X121.786 Y156.223 E6.08998
G1 X122.143 Y156.499 E6.11246
G1 X122.442 Y156.839 E6.13500
G1 X122.672 Y157.228 E6.15749
G1 X122.831 Y157.668 E6.18077
G1 X122.904 Y158.250 E6.20997
G1 X122.831 Y158.832 E6.23918
G1 X122.672 Y159.272 E6.26246
G1 X122.442 Y159.661 E6.28495
G1 X122.143 Y160.001 E6.30749
G1 X121.786 Y160.277 E6.32997
G1 X121.384 Y160.483 E6.35249
G1 X120.949 Y160.608 E6.37499
G1 X120.500 Y160.651 E6.39746
G1 X120.051 Y160.608 E6.41993
G1 X119.616 Y160.483 E6.44243
G1 X119.214 Y160.277 E6.46495
G1 X118.857 Y160.001 E6.48743
G1 X118.558 Y159.661 E6.50997
G1 X118.328 Y159.272 E6.53246
G1 X118.169 Y158.832 E6.55574
G1 X118.096 Y158.250 E6.58495
G1 X118.169 Y157.668 E6.61415
G1 X118.328 Y157.228 E6.63743
G1 X118.558 Y156.839 E6.65992
G1 X118.857 Y156.499 E6.68246
G1 X119.214 Y156.223 E6.70494
G1 X119.616 Y156.017 E6.72746
G1 X119.993 Y155.909 E6.74695
G1 X120.123 Y156.273 F9000.000
G1 X120.495 Y156.237 E6.76556 F600.000
G1 X120.876 Y156.272 E6.78463
G1 X121.241 Y156.378 E6.80353
G1 X121.579 Y156.550 E6.82242
G1 X121.878 Y156.782 E6.84127
G1 X122.129 Y157.067 E6.86017
G1 X122.322 Y157.393 E6.87903
G1 X122.453 Y157.759 E6.89838
G1 X122.515 Y158.250 E6.92304
G1 X122.453 Y158.741 E6.94770
G1 X122.322 Y159.107 E6.96705
G1 X122.129 Y159.433 E6.98591
G1 X121.878 Y159.718 E7.00482
G1 X121.579 Y159.950 E7.02367
G1 X121.241 Y160.122 E7.04255
G1 X120.877 Y160.227 E7.06142
G1 X120.500 Y160.263 E7.08027
G1 X120.123 Y160.227 E7.09912
G1 X119.759 Y160.122 E7.11799
G1 X119.421 Y159.950 E7.13687
G1 X119.122 Y159.718 E7.15572
G1 X118.871 Y159.433 E7.17462
G1 X118.678 Y159.107 E7.19349
G1 X118.547 Y158.741 E7.21284
G1 X118.485 Y158.250 E7.23749
G1 X118.547 Y157.759 E7.26215
G1 X118.678 Y157.393 E7.28150
G1 X118.871 Y157.067 E7.30037
G1 X119.122 Y156.782 E7.31927
G1 X119.421 Y156.550 E7.33812
G1 X119.759 Y156.378 E7.35700
G1 X120.065 Y156.289 E7.37287
G1 X120.195 Y156.653 F9000.000
G1 X120.496 Y156.624 E7.38788 F600.000
G1 X120.804 Y156.653 E7.40332
G1 X121.099 Y156.738 E7.41857
G1 X121.371 Y156.877 E7.43382
G1 X121.613 Y157.064 E7.44904
G1 X121.816 Y157.294 E7.46430
G1 X121.971 Y157.558 E7.47954
G1 X122.076 Y157.849 E7.49496
G1 X122.127 Y158.250 E7.51507
G1 X122.076 Y158.651 E7.53519
G1 X121.971 Y158.942 E7.55061
G1 X121.816 Y159.206 E7.56585
G1 X121.613 Y159.436 E7.58111
G1 X121.371 Y159.623 E7.59633
G1 X121.099 Y159.762 E7.61158
G1 X120.805 Y159.847 E7.62681
G1 X120.500 Y159.876 E7.64204
G1 X120.195 Y159.847 E7.65727
G1 X119.901 Y159.762 E7.67251
G1 X119.629 Y159.623 E7.68776
G1 X119.387 Y159.436 E7.70298
G1 X119.184 Y159.206 E7.71824
G1 X119.029 Y158.942 E7.73348
G1 X118.924 Y158.651 E7.74889
G1 X118.873 Y158.250 E7.76901
G1 X118.924 Y157.849 E7.78913
G1 X119.029 Y157.558 E7.80454
G1 X119.184 Y157.294 E7.81978
G1 X119.387 Y157.064 E7.83504
G1 X119.629 Y156.877 E7.85026
G1 X119.901 Y156.738 E7.86551
G1 X120.138 Y156.670 E7.87776
G1 X120.303 Y156.371 F9000.000
G1 X61.904 Y158.250 F9000.000
G1 X61.831 Y158.832 E7.90696 F600.000
G1 X61.672 Y159.272 E7.93024
G1 X61.442 Y159.661 E7.95273
G1 X61.143 Y160.001 E7.97528
G1 X60.786 Y160.277 E7.99775
G1 X60.384 Y160.483 E8.02027
G1 X59.949 Y160.608 E8.04277
G1 X59.500 Y160.651 E8.06524
G1 X59.051 Y160.608 E8.08771
G1 X58.616 Y160.483 E8.11021
G1 X58.214 Y160.277 E8.13273
G1 X57.857 Y160.001 E8.15521
G1 X57.558 Y159.661 E8.17776
G1 X57.328 Y159.272 E8.20024
G1 X57.169 Y158.832 E8.22352
G1 X57.096 Y158.250 E8.25273
G1 X57.169 Y157.668 E8.28193
G1 X57.328 Y157.228 E8.30521
G1 X57.558 Y156.839 E8.32770
G1 X57.857 Y156.499 E8.35025
G1 X58.214 Y156.223 E8.37272
G1 X58.616 Y156.017 E8.39524
G1 X59.050 Y155.892 E8.41772
G1 X59.494 Y155.849 E8.43993 F600.000
G1 X59.948 Y155.892 E8.46263
G1 X60.384 Y156.017 E8.48518
G1 X60.786 Y156.223 E8.50770
G1 X61.143 Y156.499 E8.53018
G1 X61.442 Y156.839 E8.55272
G1 X61.672 Y157.228 E8.57521
G1 X61.831 Y157.668 E8.59849
G1 X61.897 Y158.190 E8.62471
G1 X61.515 Y158.250 F9000.000
G1 X61.453 Y158.741 E8.64937 F600.000
G1 X61.322 Y159.107 E8.66872
G1 X61.129 Y159.433 E8.68758
G1 X60.878 Y159.718 E8.70648
G1 X60.579 Y159.950 E8.72533
G1 X60.241 Y160.122 E8.74422
G1 X59.877 Y160.227 E8.76309
G1 X59.500 Y160.263 E8.78194
G1 X59.123 Y160.227 E8.80078
G1 X58.759 Y160.122 E8.81965
G1 X58.421 Y159.950 E8.83854
G1 X58.122 Y159.718 E8.85739
G1 X57.871 Y159.433 E8.87629
G1 X57.678 Y159.107 E8.89515
G1 X57.547 Y158.741 E8.91450
G1 X57.485 Y158.250 E8.93916
G1 X57.547 Y157.759 E8.96382
G1 X57.678 Y157.393 E8.98317
G1 X57.871 Y157.067 E9.00203
G1 X58.122 Y156.782 E9.02094
G1 X58.421 Y156.550 E9.03979
G1 X58.759 Y156.378 E9.05867
G1 X59.123 Y156.273 E9.07753
G1 X59.495 Y156.237 E9.09614 F600.000
G1 X59.876 Y156.272 E9.11521
G1 X60.241 Y156.378 E9.13411
G1 X60.579 Y156.550 E9.15299
G1 X60.878 Y156.782 E9.17184
G1 X61.129 Y157.067 E9.19074
G1 X61.322 Y157.393 E9.20961
G1 X61.453 Y157.759 E9.22896
G1 X61.508 Y158.190 E9.25063
G1 X61.127 Y158.250 F9000.000
G1 X61.076 Y158.651 E9.27074 F600.000
G1 X60.971 Y158.942 E9.28616
G1 X60.816 Y159.206 E9.30140
G1 X60.613 Y159.436 E9.31666
G1 X60.371 Y159.623 E9.33188
G1 X60.099 Y159.762 E9.34713
G1 X59.805 Y159.847 E9.36237
G1 X59.500 Y159.876 E9.37760
G1 X59.195 Y159.847 E9.39283
G1 X58.901 Y159.762 E9.40806
G1 X58.629 Y159.623 E9.42331
G1 X58.387 Y159.436 E9.43853
G1 X58.184 Y159.206 E9.45379
G1 X58.029 Y158.942 E9.46903
G1 X57.924 Y158.651 E9.48445
G1 X57.873 Y158.250 E9.50456
G1 X57.924 Y157.849 E9.52468
G1 X58.029 Y157.558 E9.54010
G1 X58.184 Y157.294 E9.55534
G1 X58.387 Y157.064 E9.57060
G1 X58.629 Y156.877 E9.58582
G1 X58.901 Y156.738 E9.60107
G1 X59.195 Y156.653 E9.61630
G1 X59.496 Y156.624 E9.63131 F600.000
G1 X59.804 Y156.653 E9.64675
G1 X60.099 Y156.738 E9.66200
G1 X60.371 Y156.877 E9.67725
G1 X60.613 Y157.064 E9.69247
G1 X60.816 Y157.294 E9.70772
G1 X60.971 Y157.558 E9.72297
G1 X61.076 Y157.849 E9.73838
G1 X61.119 Y158.190 E9.75551
G1 X61.465 Y158.464 F9000.000
G1 X65.497 Y152.616 F9000.000
G1 X64.991 Y152.223 E9.78743 F600.000
G1 X64.472 Y151.767 E9.82183
G1 X63.983 Y151.277 E9.85627
G1 X63.527 Y150.760 E9.89062
G1 X63.103 Y150.214 E9.92502
G1 X62.715 Y149.642 E9.95942
G1 X62.364 Y149.048 E9.99378
G1 X62.050 Y148.432 E10.02821
G1 X61.775 Y147.798 E10.06262
G1 X61.541 Y147.148 E10.09701
G1 X61.349 Y146.485 E10.13139
G1 X61.198 Y145.811 E10.16579
G1 X61.090 Y145.128 E10.20021
G1 X61.025 Y144.441 E10.23458
G1 X61.004 Y143.766 E10.26820
G1 X61.004 Y88.734 E13.00815
G1 X61.025 Y88.059 E13.04177
G1 X61.090 Y87.372 E13.07617
G1 X61.198 Y86.689 E13.11056
G1 X61.349 Y86.015 E13.14496
G1 X61.541 Y85.352 E13.17935
G1 X61.775 Y84.702 E13.21375
G1 X62.050 Y84.068 E13.24815
G1 X62.363 Y83.452 E13.28254
G1 X62.715 Y82.858 E13.31694
G1 X63.103 Y82.286 E13.35134
G1 X63.527 Y81.740 E13.38573
G1 X63.984 Y81.222 E13.42012
G1 X64.472 Y80.734 E13.45452
G1 X64.990 Y80.277 E13.48892
G1 X65.536 Y79.853 E13.52331
G1 X66.108 Y79.465 E13.55771
G1 X66.702 Y79.113 E13.59211
G1 X67.318 Y78.800 E13.62650
G1 X67.952 Y78.525 E13.66090
G1 X68.602 Y78.291 E13.69529
G1 X69.265 Y78.099 E13.72969
G1 X69.939 Y77.948 E13.76408
G1 X70.622 Y77.840 E13.79848
G1 X71.310 Y77.775 E13.83288
G1 X71.984 Y77.754 E13.86649
G1 X108.016 Y77.754 E15.66045 F600.000
G1 X108.690 Y77.775 E15.69407
G1 X109.378 Y77.840 E15.72846
G1 X110.061 Y77.948 E15.76286
G1 X110.735 Y78.099 E15.79726
G1 X111.398 Y78.291 E15.83165
G1 X112.048 Y78.525 E15.86605
G1 X112.682 Y78.800 E15.90045
G1 X113.298 Y79.113 E15.93484
G1 X113.892 Y79.465 E15.96924
G1 X114.438 Y79.836 E16.00210
G1 X115.008 Y80.276 E16.03796
G1 X115.528 Y80.734 E16.07242
G1 X116.016 Y81.222 E16.10682
G1 X116.473 Y81.740 E16.14121
G1 X116.897 Y82.286 E16.17561
G1 X117.285 Y82.858 E16.21001
G1 X117.637 Y83.452 E16.24440
G1 X117.950 Y84.068 E16.27880
G1 X118.225 Y84.702 E16.31320
G1 X118.459 Y85.352 E16.34759
G1 X118.651 Y86.015 E16.38198
G1 X118.802 Y86.689 E16.41638
G1 X118.910 Y87.372 E16.45078
G1 X118.975 Y88.059 E16.48517
G1 X118.996 Y88.734 E16.51879
G1 X118.996 Y143.766 E19.25874
G1 X118.975 Y144.441 E19.29237
G1 X118.910 Y145.128 E19.32674
G1 X118.802 Y145.811 E19.36116
G1 X118.651 Y146.485 E19.39555
G1 X118.459 Y147.148 E19.42993
G1 X118.225 Y147.798 E19.46432
G1 X117.950 Y148.432 E19.49873
G1 X117.636 Y149.048 E19.53316
G1 X117.285 Y149.642 E19.56752
G1 X116.897 Y150.214 E19.60193
G1 X116.473 Y150.760 E19.63632
G1 X116.017 Y151.277 E19.67068
G1 X115.528 Y151.767 E19.70511
G1 X115.009 Y152.223 E19.73952
G1 X114.464 Y152.646 E19.77390
G1 X113.892 Y153.035 E19.80828
G1 X113.298 Y153.386 E19.84269
G1 X112.682 Y153.700 E19.87707
G1 X112.049 Y153.975 E19.91146
G1 X111.398 Y154.209 E19.94588
G1 X110.735 Y154.401 E19.98029
G1 X110.060 Y154.552 E20.01468
G1 X109.378 Y154.660 E20.04908
G1 X108.691 Y154.725 E20.08346
G1 X108.016 Y154.746 E20.11707
G1 X71.984 Y154.746 E21.91105
G1 X71.309 Y154.725 E21.94466
G1 X70.622 Y154.660 E21.97904
G1 X69.940 Y154.552 E22.01343
G1 X69.265 Y154.401 E22.04783
G1 X68.602 Y154.209 E22.08223
G1 X67.951 Y153.975 E22.11666
G1 X67.318 Y153.700 E22.15105
G1 X66.702 Y153.386 E22.18543
G1 X66.108 Y153.035 E22.21983
G1 X65.545 Y152.652 E22.25370
G1 X65.734 Y152.311 F9000.000
G1 X65.237 Y151.926 E22.28502 F600.000
G1 X64.736 Y151.485 E22.31821
G1 X64.265 Y151.013 E22.35143
G1 X63.824 Y150.514 E22.38459
G1 X63.416 Y149.987 E22.41777
G1 X63.041 Y149.435 E22.45098
G1 X62.702 Y148.862 E22.48413
G1 X62.399 Y148.268 E22.51735
G1 X62.134 Y147.656 E22.55055
G1 X61.908 Y147.029 E22.58373
G1 X61.722 Y146.389 E22.61691
G1 X61.577 Y145.738 E22.65010
G1 X61.473 Y145.080 E22.68331
G1 X61.410 Y144.416 E22.71647
G1 X61.389 Y143.760 E22.74919
G1 X61.389 Y88.740 E25.48854
G1 X61.410 Y88.084 E25.52125
G1 X61.473 Y87.420 E25.55444
G1 X61.577 Y86.762 E25.58763
G1 X61.722 Y86.111 E25.62082
G1 X61.908 Y85.471 E25.65401
G1 X62.134 Y84.844 E25.68720
G1 X62.399 Y84.232 E25.72039
G1 X62.702 Y83.638 E25.75357
G1 X63.041 Y83.064 E25.78677
G1 X63.416 Y82.513 E25.81996
G1 X63.824 Y81.986 E25.85314
G1 X64.265 Y81.486 E25.88633
G1 X64.736 Y81.015 E25.91952
G1 X65.236 Y80.574 E25.95271
G1 X65.763 Y80.166 E25.98590
G1 X66.314 Y79.791 E26.01909
G1 X66.888 Y79.452 E26.05228
G1 X67.482 Y79.149 E26.08547
G1 X68.094 Y78.884 E26.11866
G1 X68.721 Y78.658 E26.15185
G1 X69.361 Y78.472 E26.18504
G1 X70.012 Y78.327 E26.21822
G1 X70.670 Y78.223 E26.25142
G1 X71.334 Y78.160 E26.28460
G1 X71.990 Y78.139 E26.31732
G1 X108.010 Y78.139 E28.11067 F600.000
G1 X108.666 Y78.160 E28.14338
G1 X109.330 Y78.223 E28.17657
G1 X109.988 Y78.327 E28.20976
G1 X110.639 Y78.472 E28.24295
G1 X111.279 Y78.658 E28.27614
G1 X111.906 Y78.884 E28.30933
G1 X112.518 Y79.149 E28.34252
G1 X113.112 Y79.452 E28.37571
G1 X113.686 Y79.791 E28.40890
G1 X114.212 Y80.149 E28.44058
G1 X114.763 Y80.574 E28.47523
G1 X115.264 Y81.015 E28.50846
G1 X115.735 Y81.486 E28.54165
G1 X116.176 Y81.986 E28.57484
G1 X116.584 Y82.513 E28.60803
G1 X116.959 Y83.064 E28.64122
G1 X117.298 Y83.638 E28.67441
G1 X117.601 Y84.232 E28.70760
G1 X117.866 Y84.844 E28.74079
G1 X118.092 Y85.471 E28.77398
G1 X118.278 Y86.111 E28.80716
G1 X118.423 Y86.762 E28.84036
G1 X118.527 Y87.420 E28.87354
G1 X118.590 Y88.084 E28.90673
G1 X118.611 Y88.740 E28.93944
G1 X118.611 Y143.760 E31.67879
G1 X118.590 Y144.416 E31.71151
G1 X118.527 Y145.080 E31.74468
G1 X118.423 Y145.738 E31.77789
G1 X118.278 Y146.389 E31.81108
G1 X118.092 Y147.029 E31.84425
G1 X117.866 Y147.656 E31.87743
G1 X117.601 Y148.268 E31.91064
G1 X117.298 Y148.862 E31.94385
G1 X116.959 Y149.435 E31.97701
G1 X116.584 Y149.987 E32.01021
G1 X116.176 Y150.514 E32.04340
G1 X115.735 Y151.013 E32.07656
G1 X115.264 Y151.485 E32.10978
G1 X114.763 Y151.926 E32.14297
G1 X114.237 Y152.334 E32.17615
G1 X113.686 Y152.709 E32.20933
G1 X113.112 Y153.048 E32.24253
G1 X112.518 Y153.351 E32.27570
G1 X111.906 Y153.616 E32.30890
