; generated by Slic3r 1.2.9 on 2020-01-13 at 22:01:00

; external perimeters extrusion width = 0.40mm
; perimeters extrusion width = 0.62mm
; infill extrusion width = 0.33mm
; solid infill extrusion width = 0.62mm
; top infill extrusion width = 0.20mm

M106 S256; Turn on fan to 100% power
M104 S140; turn on extruder temperature at S value
M140 S60; turn on bed temperature at S value
G28; home all axes
M84; disable motors
G1 Z15 F15000; have Z move to 20mm at 15000 mm/min
M190 S55; turn on bed temperature at S value and wait
M140 S55; turn on bed temperature at S value (printing temperature)
M109 S200; turn on extruder temperature at S value and wait (printing temperature)
M104 S200; turn on extruder temperature at S value
G1 Z0 F12000; move Z back to home
G21 ; set units to millimeters
G90 ; use absolute coordinates
M82 ; use absolute distances for extrusion
G92 E0
M106 S255
;Layer change
G1 E-6.00000 F1800.00000
G92 E0
G1 Z0.300 F9000.000
G1 X33.739 Y19.315 F9000.000
G1 E6.00000 F1800.00000
G1 X33.989 Y18.883 E6.02454 F600.000
G1 X34.698 Y17.906 E6.08396
G1 X35.060 Y17.498 E6.11081
G1 X35.992 Y16.658 E6.17254
G1 X36.395 Y16.365 E6.19709
G1 X37.482 Y15.738 E6.25882
G1 X37.937 Y15.535 E6.28336
G1 X39.130 Y15.148 E6.34510
G1 X39.618 Y15.044 E6.36964
G1 X41.088 Y14.900 E6.44231
G1 X128.615 Y13.900 E10.75026
G1 X175.115 Y13.900 E13.03876
G1 X176.425 Y14.291 E13.10603
G1 X177.447 Y15.784 E13.19508 F600.000
G1 X186.316 Y57.036 E15.27171
G1 X186.488 Y58.536 E15.34600
G1 X186.488 Y59.034 E15.37053
G1 X186.316 Y60.534 E15.44482
G1 X177.447 Y101.787 E17.52145
G1 X176.789 Y102.985 E17.58873
G1 X175.617 Y103.617 E17.65427
G1 X84.776 Y123.184 E22.22756
G1 X84.003 Y123.348 E22.26645
G1 X83.507 Y123.400 E22.29100
G1 X34.723 Y123.400 E24.69191
G1 X34.227 Y123.348 E24.71645
G1 X33.460 Y123.185 E24.75504
G1 X32.986 Y123.031 E24.77958
G1 X32.270 Y122.712 E24.81817
G1 X31.838 Y122.463 E24.84271
G1 X31.204 Y122.002 E24.88129
G1 X30.833 Y121.668 E24.90584
G1 X30.308 Y121.086 E24.94442
G1 X30.015 Y120.682 E24.96896
G1 X29.623 Y120.003 E25.00754
G1 X29.420 Y119.548 E25.03209
G1 X29.178 Y118.802 E25.07068
G1 X29.074 Y118.314 E25.09522
G1 X28.992 Y117.535 E25.13381
G1 X28.981 Y117.190 E25.15077
G1 X32.731 Y23.190 E29.78066
G1 X32.766 Y22.533 E29.81304
G1 X32.814 Y22.162 E29.83146
G1 X33.075 Y20.935 E29.89320
G1 X33.229 Y20.461 E29.91774
G1 X33.715 Y19.370 E29.97652
G1 E23.97652 F1800.00000
G92 E0
G1 X74.857 Y114.835 F9000.000
G1 E6.00000 F1800.00000
G1 X75.373 Y114.835 E6.02535 F600.000
G1 X75.876 Y114.942 E6.05071
G1 X76.347 Y115.151 E6.07606
G1 X76.764 Y115.454 E6.10141
G1 X77.108 Y115.837 E6.12676
G1 X77.366 Y116.283 E6.15211
G1 X77.525 Y116.773 E6.17747
G1 X77.579 Y117.285 E6.20281
G1 X77.525 Y117.797 E6.22816
G1 X77.366 Y118.287 E6.25352
G1 X77.108 Y118.734 E6.27887
G1 X76.764 Y119.116 E6.30422
G1 X76.347 Y119.419 E6.32957
G1 X75.876 Y119.629 E6.35492
G1 X75.373 Y119.736 E6.38027
G1 X74.857 Y119.736 E6.40562
G1 X74.354 Y119.629 E6.43098
G1 X73.883 Y119.419 E6.45633
G1 X73.466 Y119.116 E6.48168
G1 X73.122 Y118.734 E6.50703
G1 X72.864 Y118.287 E6.53238
G1 X72.705 Y117.797 E6.55774
G1 X72.651 Y117.285 E6.58308
G1 X72.705 Y116.773 E6.60843
G1 X72.864 Y116.283 E6.63379
G1 X73.122 Y115.837 E6.65914
G1 X73.466 Y115.454 E6.68449
G1 X73.883 Y115.151 E6.70984
G1 X74.354 Y114.942 E6.73519
G1 X74.799 Y114.847 E6.75759
G1 X74.898 Y115.220 F9000.000
G1 X75.332 Y115.220 E6.77895 F600.000
G1 X75.757 Y115.311 E6.80032
G1 X76.153 Y115.487 E6.82168
G1 X76.504 Y115.742 E6.84304
G1 X76.795 Y116.065 E6.86440
G1 X77.012 Y116.441 E6.88576
G1 X77.146 Y116.854 E6.90713
G1 X77.191 Y117.285 E6.92849
G1 X77.146 Y117.717 E6.94985
G1 X77.012 Y118.130 E6.97121
G1 X76.795 Y118.506 E6.99258
G1 X76.504 Y118.828 E7.01394
G1 X76.153 Y119.083 E7.03530
G1 X75.757 Y119.260 E7.05666
G1 X75.332 Y119.350 E7.07802
G1 X74.898 Y119.350 E7.09939
G1 X74.473 Y119.260 E7.12075
G1 X74.077 Y119.083 E7.14211
G1 X73.726 Y118.828 E7.16347
G1 X73.435 Y118.506 E7.18483
G1 X73.218 Y118.130 E7.20619
G1 X73.084 Y117.717 E7.22756
G1 X73.039 Y117.285 E7.24892
G1 X73.084 Y116.854 E7.27028
G1 X73.218 Y116.441 E7.29164
G1 X73.435 Y116.065 E7.31301
G1 X73.726 Y115.742 E7.33437
G1 X74.077 Y115.487 E7.35573
G1 X74.473 Y115.311 E7.37709
G1 X74.839 Y115.233 E7.39550
G1 X75.073 Y114.861 F9000.000
G1 X74.679 Y114.189 F9000.000
G1 X74.787 Y114.166 E7.40095 F600.000
G1 X75.495 Y114.177 E7.43580
G1 X76.084 Y114.303 E7.46543 F600.000
G1 X76.683 Y114.569 E7.49770
G1 X77.213 Y114.955 E7.52996
G1 X77.652 Y115.442 E7.56223
G1 X77.980 Y116.010 E7.59450
G1 X78.183 Y116.633 E7.62676
G1 X78.251 Y117.285 E7.65903
G1 X78.183 Y117.937 E7.69129
G1 X77.980 Y118.561 E7.72356
G1 X77.652 Y119.129 E7.75582
G1 X77.213 Y119.616 E7.78809
G1 X76.683 Y120.001 E7.82036
G1 X76.084 Y120.268 E7.85262
G1 X75.443 Y120.404 E7.88489
G1 X74.787 Y120.404 E7.91715
G1 X74.146 Y120.268 E7.94942
G1 X73.547 Y120.001 E7.98169
G1 X73.017 Y119.616 E8.01395
G1 X72.578 Y119.129 E8.04622
G1 X72.250 Y118.561 E8.07848
G1 X72.047 Y117.937 E8.11075
G1 X71.979 Y117.285 E8.14301
G1 X72.047 Y116.633 E8.17528
G1 X72.250 Y116.010 E8.20755
G1 X72.578 Y115.442 E8.23981
G1 X73.017 Y114.955 E8.27208
G1 X73.547 Y114.569 E8.30434
G1 X74.146 Y114.303 E8.33661
G1 X74.620 Y114.202 E8.36047
G1 X74.599 Y113.812 F9000.000
G1 X74.747 Y113.781 E8.36792 F600.000
G1 X75.483 Y113.781 E8.40417
G1 X75.575 Y113.800 E8.40880
G1 X76.204 Y113.934 E8.44043 F600.000
G1 X76.877 Y114.234 E8.47668
G1 X77.473 Y114.667 E8.51294
G1 X77.966 Y115.214 E8.54919
G1 X78.334 Y115.852 E8.58545
G1 X78.562 Y116.553 E8.62170
G1 X78.639 Y117.285 E8.65796
G1 X78.562 Y118.018 E8.69422
G1 X78.334 Y118.719 E8.73047
G1 X77.966 Y119.356 E8.76673
G1 X77.473 Y119.904 E8.80298
G1 X76.877 Y120.337 E8.83924
G1 X76.204 Y120.637 E8.87549
G1 X75.483 Y120.790 E8.91175
G1 X74.747 Y120.790 E8.94800
G1 X74.026 Y120.637 E8.98426
G1 X73.353 Y120.337 E9.02051
G1 X72.757 Y119.904 E9.05677
G1 X72.264 Y119.356 E9.09302
G1 X71.896 Y118.719 E9.12928
G1 X71.668 Y118.018 E9.16553
G1 X71.591 Y117.285 E9.20179
G1 X71.668 Y116.553 E9.23805
G1 X71.896 Y115.852 E9.27430
G1 X72.264 Y115.214 E9.31056
G1 X72.757 Y114.667 E9.34681
G1 X73.353 Y114.234 E9.38307
G1 X74.026 Y113.934 E9.41932
G1 X74.540 Y113.825 E9.44517
G1 X74.700 Y113.925 F9000.000
G1 X74.748 Y114.516 F9000.000
G1 X74.837 Y114.501 E9.45480 F600.000
G1 X75.408 Y114.501 E9.51564
G1 X75.994 Y114.628 E9.57963
G1 X76.515 Y114.861 E9.64045
G1 X76.977 Y115.196 E9.70129
G1 X77.388 Y115.652 E9.76681
G1 X77.673 Y116.147 E9.82766
G1 X77.849 Y116.689 E9.88851
G1 X77.915 Y117.285 E9.95247
G1 X77.853 Y117.867 E10.01489
G1 X77.678 Y118.410 E10.07572
G1 X77.370 Y118.942 E10.14126
G1 X76.988 Y119.366 E10.20209
G1 X76.527 Y119.701 E10.26292
G1 X75.980 Y119.948 E10.32690
G1 X75.408 Y120.070 E10.38932
G1 X74.837 Y120.070 E10.45016
G1 X74.250 Y119.948 E10.51413
G1 X73.715 Y119.710 E10.57654
G1 X73.253 Y119.375 E10.63738
G1 X72.850 Y118.931 E10.70136
G1 X72.552 Y118.410 E10.76533
G1 X72.377 Y117.867 E10.82617
G1 X72.315 Y117.285 E10.88859
G1 X72.377 Y116.703 E10.95101 F600.000
G1 X72.552 Y116.160 E11.01185
G1 X72.860 Y115.628 E11.07738
G1 X73.242 Y115.205 E11.13821
G1 X73.715 Y114.861 E11.20063
G1 X74.250 Y114.623 E11.26305
G1 X74.690 Y114.529 E11.31100
G1 E5.31100 F1800.00000
G92 E0
G1 X80.799 Y116.482 F9000.000
G1 E6.00000 F1800.00000
G1 X80.864 Y116.283 E6.01029 F600.000
G1 X81.122 Y115.837 E6.03564
G1 X81.466 Y115.454 E6.06099
G1 X81.883 Y115.151 E6.08634
G1 X82.354 Y114.942 E6.11169
G1 X82.857 Y114.835 E6.13704
G1 X83.373 Y114.835 E6.16239 F600.000
G1 X83.876 Y114.942 E6.18775
G1 X84.347 Y115.151 E6.21310
G1 X84.764 Y115.454 E6.23845
G1 X85.108 Y115.837 E6.26380
G1 X85.366 Y116.283 E6.28915
G1 X85.525 Y116.773 E6.31451
G1 X85.579 Y117.285 E6.33985
G1 X85.525 Y117.797 E6.36520
G1 X85.366 Y118.287 E6.39056
G1 X85.108 Y118.734 E6.41591
G1 X84.764 Y119.116 E6.44126
G1 X84.347 Y119.419 E6.46661
G1 X83.876 Y119.629 E6.49196
G1 X83.373 Y119.736 E6.51731
G1 X82.857 Y119.736 E6.54267
G1 X82.353 Y119.629 E6.56802
G1 X81.883 Y119.419 E6.59337
G1 X81.466 Y119.116 E6.61872
G1 X81.122 Y118.734 E6.64407
G1 X80.864 Y118.287 E6.66942
G1 X80.705 Y117.797 E6.69478
G1 X80.651 Y117.285 E6.72013
G1 X80.705 Y116.773 E6.74547
G1 X80.781 Y116.539 E6.75759
G1 X81.166 Y116.601 F9000.000
G1 X81.218 Y116.441 E6.76588 F600.000
G1 X81.435 Y116.065 E6.78724
G1 X81.726 Y115.742 E6.80860
G1 X82.077 Y115.487 E6.82996
G1 X82.473 Y115.311 E6.85133
G1 X82.898 Y115.220 E6.87269
G1 X83.332 Y115.220 E6.89405 F600.000
G1 X83.757 Y115.311 E6.91542
G1 X84.153 Y115.487 E6.93678
G1 X84.504 Y115.742 E6.95814
G1 X84.795 Y116.065 E6.97950
G1 X85.012 Y116.441 E7.00086
G1 X85.146 Y116.854 E7.02223
G1 X85.191 Y117.285 E7.04359
G1 X85.146 Y117.717 E7.06495
G1 X85.012 Y118.130 E7.08631
G1 X84.795 Y118.506 E7.10767
G1 X84.504 Y118.828 E7.12903
G1 X84.153 Y119.083 E7.15039
G1 X83.757 Y119.260 E7.17176
G1 X83.332 Y119.350 E7.19312
G1 X82.898 Y119.350 E7.21448
G1 X82.473 Y119.260 E7.23585
G1 X82.077 Y119.083 E7.25721
G1 X81.726 Y118.828 E7.27857
G1 X81.435 Y118.506 E7.29993
G1 X81.218 Y118.130 E7.32129
G1 X81.084 Y117.717 E7.34266
G1 X81.039 Y117.285 E7.36402
G1 X81.084 Y116.854 E7.38538
G1 X81.148 Y116.658 E7.39550
G1 X81.053 Y116.476 F9000.000
G1 X80.164 Y116.275 F9000.000
G1 X80.250 Y116.010 E7.40924 F600.000
G1 X80.578 Y115.442 E7.44150
G1 X81.017 Y114.955 E7.47377
G1 X81.547 Y114.569 E7.50604
G1 X82.146 Y114.303 E7.53830
G1 X82.787 Y114.166 E7.57057
G1 X83.495 Y114.177 E7.60541
G1 X84.084 Y114.303 E7.63504 F600.000
G1 X84.683 Y114.569 E7.66731
G1 X85.213 Y114.955 E7.69957
G1 X85.652 Y115.442 E7.73184
G1 X85.980 Y116.010 E7.76411
G1 X86.183 Y116.633 E7.79637
G1 X86.251 Y117.285 E7.82864
G1 X86.183 Y117.937 E7.86091
G1 X85.980 Y118.561 E7.89317
G1 X85.652 Y119.129 E7.92544
G1 X85.213 Y119.616 E7.95771
G1 X84.683 Y120.001 E7.98997
G1 X84.084 Y120.268 E8.02224
G1 X83.443 Y120.404 E8.05450
G1 X82.787 Y120.404 E8.08677
G1 X82.146 Y120.268 E8.11903
G1 X81.547 Y120.001 E8.15130
G1 X81.017 Y119.616 E8.18356
G1 X80.578 Y119.129 E8.21583
G1 X80.250 Y118.561 E8.24810
G1 X80.047 Y117.937 E8.28036
G1 X79.979 Y117.285 E8.31263
G1 X80.047 Y116.633 E8.34490
G1 X80.145 Y116.332 E8.36047
G1 X79.797 Y116.156 F9000.000
G1 X79.896 Y115.852 E8.37620 F600.000
G1 X80.264 Y115.214 E8.41246
G1 X80.757 Y114.667 E8.44871
G1 X81.353 Y114.234 E8.48497
G1 X82.026 Y113.934 E8.52122
G1 X82.747 Y113.781 E8.55748
G1 X83.483 Y113.781 E8.59373
G1 X83.575 Y113.800 E8.59836
G1 X84.204 Y113.934 E8.62999 F600.000
G1 X84.877 Y114.234 E8.66624
G1 X85.473 Y114.667 E8.70250
G1 X85.966 Y115.214 E8.73875
G1 X86.334 Y115.852 E8.77501
G1 X86.562 Y116.553 E8.81126
G1 X86.639 Y117.285 E8.84752
G1 X86.562 Y118.018 E8.88378
G1 X86.334 Y118.719 E8.92003
G1 X85.966 Y119.356 E8.95628
G1 X85.473 Y119.904 E8.99254
G1 X84.877 Y120.337 E9.02880
G1 X84.204 Y120.637 E9.06505
G1 X83.483 Y120.790 E9.10130
G1 X82.747 Y120.790 E9.13756
G1 X82.026 Y120.637 E9.17382
G1 X81.353 Y120.337 E9.21007
G1 X80.757 Y119.904 E9.24632
G1 X80.264 Y119.356 E9.28258
G1 X79.896 Y118.719 E9.31884
G1 X79.668 Y118.018 E9.35509
G1 X79.591 Y117.285 E9.39135
G1 X79.668 Y116.553 E9.42760
G1 X79.779 Y116.213 E9.44517
G1 X80.110 Y116.090 F9000.000
G1 X80.482 Y116.378 F9000.000
G1 X80.557 Y116.147 E9.47119 F600.000
G1 X80.850 Y115.640 E9.53361
G1 X81.242 Y115.205 E9.59603
G1 X81.715 Y114.861 E9.65845
G1 X82.250 Y114.623 E9.72087
G1 X82.822 Y114.501 E9.78328
G1 X83.408 Y114.501 E9.84570
G1 X83.980 Y114.623 E9.90811
G1 X84.515 Y114.861 E9.97053
G1 X84.988 Y115.205 E10.03295
G1 X85.380 Y115.640 E10.09537
G1 X85.666 Y116.133 E10.15621
G1 X85.855 Y116.718 E10.22175
G1 X85.915 Y117.285 E10.28257
G1 X85.853 Y117.867 E10.34500
G1 X85.673 Y118.424 E10.40741
G1 X85.388 Y118.918 E10.46826
G1 X84.976 Y119.375 E10.53378
G1 X84.515 Y119.710 E10.59462
G1 X83.980 Y119.948 E10.65704
G1 X83.408 Y120.070 E10.71945
G1 X82.822 Y120.070 E10.78187
G1 X82.250 Y119.948 E10.84428
G1 X81.715 Y119.710 E10.90670
G1 X81.242 Y119.366 E10.96912
G1 X80.860 Y118.942 E11.02996
G1 X80.552 Y118.410 E11.09549
G1 X80.377 Y117.867 E11.15632
G1 X80.315 Y117.285 E11.21875
G1 X80.377 Y116.703 E11.28117 F600.000
G1 X80.463 Y116.435 E11.31117
G1 E5.31117 F1800.00000
G92 E0
G1 X69.579 Y117.285 F9000.000
G1 E6.00000 F1800.00000
G1 X69.525 Y117.797 E6.02535 F600.000
G1 X69.366 Y118.287 E6.05070
G1 X69.108 Y118.734 E6.07606
G1 X68.764 Y119.116 E6.10141
G1 X68.347 Y119.419 E6.12675
G1 X67.876 Y119.629 E6.15210
G1 X67.373 Y119.736 E6.17746
G1 X66.857 Y119.736 E6.20281
G1 X66.353 Y119.629 E6.22817
G1 X65.883 Y119.419 E6.25352
G1 X65.466 Y119.116 E6.27886
G1 X65.122 Y118.734 E6.30422
G1 X64.864 Y118.287 E6.32957
G1 X64.705 Y117.797 E6.35492
G1 X64.651 Y117.285 E6.38027
G1 X64.705 Y116.773 E6.40562
G1 X64.864 Y116.283 E6.43098
G1 X65.122 Y115.837 E6.45633
G1 X65.466 Y115.454 E6.48168
G1 X65.883 Y115.151 E6.50703
G1 X66.354 Y114.942 E6.53238
G1 X66.857 Y114.835 E6.55773
G1 X67.373 Y114.835 E6.58308 F600.000
G1 X67.876 Y114.942 E6.60844
G1 X68.347 Y115.151 E6.63379
G1 X68.764 Y115.454 E6.65914
G1 X69.108 Y115.837 E6.68449
G1 X69.366 Y116.283 E6.70984
G1 X69.525 Y116.773 E6.73520
G1 X69.573 Y117.226 E6.75759
G1 X69.191 Y117.285 F9000.000
G1 X69.146 Y117.717 E6.77895 F600.000
G1 X69.012 Y118.130 E6.80032
G1 X68.795 Y118.506 E6.82168
G1 X68.504 Y118.828 E6.84304
G1 X68.153 Y119.083 E6.86440
G1 X67.757 Y119.260 E6.88576
G1 X67.332 Y119.350 E6.90712
G1 X66.898 Y119.350 E6.92849
G1 X66.473 Y119.260 E6.94985
G1 X66.077 Y119.083 E6.97121
G1 X65.726 Y118.828 E6.99257
G1 X65.435 Y118.506 E7.01393
G1 X65.218 Y118.130 E7.03530
G1 X65.084 Y117.717 E7.05666
G1 X65.039 Y117.285 E7.07802
G1 X65.084 Y116.854 E7.09938
G1 X65.218 Y116.441 E7.12075
G1 X65.435 Y116.065 E7.14211
G1 X65.726 Y115.742 E7.16347
G1 X66.077 Y115.487 E7.18483
G1 X66.473 Y115.311 E7.20619
G1 X66.898 Y115.220 E7.22756
G1 X67.332 Y115.220 E7.24892 F600.000
G1 X67.757 Y115.311 E7.27028
G1 X68.153 Y115.487 E7.29164
G1 X68.504 Y115.742 E7.31300
G1 X68.795 Y116.065 E7.33437
G1 X69.012 Y116.441 E7.35573
G1 X69.146 Y116.854 E7.37709
G1 X69.185 Y117.226 E7.39550
G1 X69.530 Y117.497 F9000.000
G1 X70.239 Y117.395 F9000.000
G1 X70.183 Y117.937 E7.42232 F600.000
G1 X69.980 Y118.561 E7.45458
G1 X69.652 Y119.129 E7.48685
G1 X69.213 Y119.616 E7.51912
G1 X68.683 Y120.001 E7.55138
G1 X68.084 Y120.268 E7.58365
G1 X67.443 Y120.404 E7.61591
G1 X66.787 Y120.404 E7.64818
G1 X66.146 Y120.268 E7.68044
G1 X65.547 Y120.001 E7.71271
G1 X65.017 Y119.616 E7.74497
G1 X64.578 Y119.129 E7.77724
G1 X64.250 Y118.561 E7.80951
G1 X64.047 Y117.937 E7.84177
G1 X63.979 Y117.285 E7.87404
G1 X64.047 Y116.633 E7.90631
G1 X64.250 Y116.010 E7.93857
G1 X64.578 Y115.442 E7.97084
G1 X65.017 Y114.955 E8.00310
G1 X65.547 Y114.569 E8.03537
G1 X66.146 Y114.303 E8.06764
G1 X66.787 Y114.166 E8.09990
G1 X67.495 Y114.177 E8.13474
G1 X68.084 Y114.303 E8.16438 F600.000
G1 X68.683 Y114.569 E8.19664
G1 X69.213 Y114.955 E8.22891
G1 X69.652 Y115.442 E8.26118
G1 X69.980 Y116.010 E8.29344
G1 X70.183 Y116.633 E8.32571
G1 X70.246 Y117.336 E8.36042
G1 X70.623 Y117.436 F9000.000
G1 X70.562 Y118.018 E8.38923 F600.000
G1 X70.334 Y118.719 E8.42549
G1 X69.966 Y119.356 E8.46174
G1 X69.473 Y119.904 E8.49800
G1 X68.877 Y120.337 E8.53425
G1 X68.204 Y120.637 E8.57051
G1 X67.483 Y120.790 E8.60676
G1 X66.747 Y120.790 E8.64302
G1 X66.026 Y120.637 E8.67927
G1 X65.353 Y120.337 E8.71553
G1 X64.757 Y119.904 E8.75178
G1 X64.264 Y119.356 E8.78804
G1 X63.896 Y118.719 E8.82429
G1 X63.668 Y118.018 E8.86055
G1 X63.591 Y117.285 E8.89681
G1 X63.668 Y116.553 E8.93306
G1 X63.896 Y115.852 E8.96932
G1 X64.264 Y115.214 E9.00557
G1 X64.757 Y114.667 E9.04183
G1 X65.353 Y114.234 E9.07808
G1 X66.026 Y113.934 E9.11434
G1 X66.747 Y113.781 E9.15059
G1 X67.483 Y113.781 E9.18685
G1 X67.575 Y113.800 E9.19147
G1 X68.204 Y113.934 E9.22310 F600.000
G1 X68.877 Y114.234 E9.25936
G1 X69.473 Y114.667 E9.29561
G1 X69.966 Y115.214 E9.33187
G1 X70.334 Y115.852 E9.36812
G1 X70.562 Y116.553 E9.40438
G1 X70.639 Y117.285 E9.44063
G1 X70.629 Y117.376 E9.44512
G1 X70.258 Y117.598 F9000.000
G1 X69.907 Y117.360 F9000.000
