; generated by Slic3r 1.2.9 on 2019-08-29 at 21:39:01

; external perimeters extrusion width = 0.40mm
; perimeters extrusion width = 0.62mm
; infill extrusion width = 0.33mm
; solid infill extrusion width = 0.62mm
; top infill extrusion width = 0.20mm
; support material extrusion width = 0.40mm

M106 S256; Turn on fan to 100% power
M104 S140; turn on extruder temperature at S value
M140 S60; turn on bed temperature at S value
G28; home all axes
M84; disable motors
G1 Z15 F15000; have Z move to 20mm at 15000 mm/min
M190 S55; turn on bed temperature at S value and wait
M140 S55; turn on bed temperature at S value (printing temperature)
M109 S200; turn on extruder temperature at S value and wait (printing temperature)
M104 S200; turn on extruder temperature at S value
G1 Z0 F12000; move Z back to home
G21 ; set units to millimeters
G90 ; use absolute coordinates
M82 ; use absolute distances for extrusion
G92 E0
M106 S255
;Layer change
G1 E-6.00000 F1800.00000
G92 E0
G1 Z0.300 F9000.000
G1 X40.994 Y10.840 F9000.000
G1 E6.00000 F1800.00000
G1 X41.386 Y9.530 E6.06574 F600.000
G1 X42.432 Y8.651 E6.13149
G1 X43.380 Y8.454 E6.17804
G1 X118.380 Y8.454 E9.78528
G1 X118.959 Y8.526 E9.81332
G1 X150.959 Y16.526 E11.39978 F600.000
G1 X152.134 Y17.223 E11.46552
G1 X152.766 Y18.840 E11.54901
G1 X152.766 Y53.840 E13.23239
G1 X151.918 Y55.663 E13.32909
G1 X119.918 Y82.663 E15.34284
G1 X118.380 Y83.226 E15.42162
G1 X43.380 Y83.226 E19.02886
G1 X42.070 Y82.834 E19.09461
G1 X41.191 Y81.788 E19.16035
G1 X40.994 Y80.840 E19.20690
G1 X40.994 Y10.900 E22.57078
G1 E16.57078 F1800.00000
G92 E0
G1 X66.384 Y19.844 F9000.000
G1 E6.00000 F1800.00000
G1 X108.376 Y19.844 E8.01969 F600.000
G1 X108.376 Y71.836 E10.52036
G1 X66.384 Y71.836 E12.54005
G1 X66.384 Y19.904 E15.03782
G1 X66.769 Y20.229 F9000.000
G1 X107.991 Y20.229 E17.02043 F600.000
G1 X107.991 Y71.451 E19.48399
G1 X66.769 Y71.451 E21.46659
G1 X66.769 Y20.289 E23.92727
G1 X67.155 Y20.615 F9000.000
G1 X107.605 Y20.615 E25.87278 F600.000
G1 X107.605 Y71.065 E28.29925
G1 X67.155 Y71.065 E30.24476
G1 X67.155 Y20.675 E32.66835
G1 X67.155 Y20.215 F9000.000
G1 E26.66835 F1800.00000
G92 E0
G1 X116.384 Y25.844 F9000.000
G1 E6.00000 F1800.00000
G1 X140.376 Y25.844 E7.15396 F600.000
G1 X140.376 Y47.836 E8.21172
G1 X116.384 Y47.836 E9.36568
G1 X116.384 Y25.904 E10.42055
G1 X116.769 Y26.229 F9000.000
G1 X139.991 Y26.229 E11.53741 F600.000
G1 X139.991 Y47.451 E12.55808
G1 X116.769 Y47.451 E13.67495
G1 X116.769 Y26.289 E14.69273
G1 X117.155 Y26.615 F9000.000
G1 X139.605 Y26.615 E15.77250 F600.000
G1 X139.605 Y47.065 E16.75607
G1 X117.155 Y47.065 E17.83584
G1 X117.155 Y26.675 E18.81653
G1 X117.155 Y26.215 F9000.000
G1 X117.384 Y19.836 F9000.000
G1 X149.384 Y19.836 E20.35562 F600.000
G1 X149.384 Y52.844 E21.94317
G1 X117.384 Y52.844 E23.48226
G1 X117.384 Y79.844 E24.78087
G1 X44.376 Y79.844 E28.29228
G1 X44.376 Y11.836 E31.56321
G1 X117.384 Y11.836 E35.07462
G1 X117.384 Y19.776 E35.45651
G1 X117.769 Y19.451 F9000.000
G1 X149.769 Y19.451 E36.99560 F600.000
G1 X149.769 Y53.229 E38.62024
G1 X117.769 Y53.229 E40.15933
G1 X117.769 Y80.229 E41.45794
G1 X43.991 Y80.229 E45.00645
G1 X43.991 Y11.451 E48.31447
G1 X117.769 Y11.451 E51.86298
G1 X117.769 Y19.391 E52.24487
G1 X118.155 Y19.065 F9000.000
G1 X150.155 Y19.065 E53.78396 F600.000
G1 X150.155 Y53.615 E55.44569
G1 X118.155 Y53.615 E56.98478
G1 X118.155 Y80.615 E58.28339
G1 X43.605 Y80.615 E61.86899
G1 X43.605 Y11.065 E65.21411
G1 X118.155 Y11.065 E68.79971
G1 X118.155 Y19.005 E69.18160
G1 X118.155 Y19.465 F9000.000
G1 X117.100 Y19.487 F9000.000
G1 X109.733 Y12.120 E69.68398 F600.000
G1 X110.279 Y12.120 E69.71035
G1 X117.100 Y18.941 E70.17545
G1 X117.100 Y18.394 E70.20182
G1 X110.826 Y12.120 E70.62964
G1 X111.373 Y12.120 E70.65600
G1 X117.100 Y17.847 E71.04654
G1 X117.100 Y17.300 E71.07290
G1 X111.920 Y12.120 E71.42616
G1 X112.466 Y12.120 E71.45253
G1 X117.100 Y16.754 E71.76850
G1 X117.100 Y16.207 E71.79486
G1 X113.013 Y12.120 E72.07356
G1 X113.560 Y12.120 E72.09992
G1 X117.100 Y15.660 E72.34133
G1 X117.100 Y15.114 E72.36770
G1 X114.106 Y12.120 E72.57182
G1 X114.653 Y12.120 E72.59819
G1 X117.100 Y14.567 E72.76503
G1 X117.100 Y14.020 E72.79140
G1 X115.200 Y12.120 E72.92096
G1 X115.747 Y12.120 E72.94732
G1 X117.100 Y13.473 E73.03960
G1 X117.100 Y12.927 E73.06597
G1 X116.293 Y12.120 E73.12097
G1 X116.840 Y12.120 E73.14733
G1 X117.100 Y12.380 E73.16505
G1 X108.660 Y19.795 F9000.000
G1 X116.100 Y27.235 E73.67238 F600.000
G1 X116.100 Y27.782 E73.69875
G1 X108.660 Y20.342 E74.20609
G1 X108.660 Y20.889 E74.23245
G1 X116.100 Y28.329 E74.73979
G1 X116.100 Y28.875 E74.76615
G1 X108.660 Y21.435 E75.27349
G1 X108.660 Y21.982 E75.29985
G1 X116.100 Y29.422 E75.80719
G1 X116.100 Y29.969 E75.83356
G1 X108.660 Y22.529 E76.34090
G1 X108.660 Y23.076 E76.36726
G1 X116.100 Y30.515 E76.87460
G1 X116.100 Y31.062 E76.90096
G1 X108.660 Y23.622 E77.40830
G1 X108.660 Y24.169 E77.43466
G1 X116.100 Y31.609 E77.94200
G1 X116.100 Y32.156 E77.96836
G1 X108.660 Y24.716 E78.47570
G1 X108.660 Y25.262 E78.50207
G1 X116.100 Y32.702 E79.00941
G1 X116.100 Y33.249 E79.03577
G1 X108.660 Y25.809 E79.54311
G1 X108.660 Y26.356 E79.56947
G1 X116.100 Y33.796 E80.07681
G1 X116.100 Y34.343 E80.10317
G1 X108.660 Y26.903 E80.61051
G1 X108.660 Y27.449 E80.63687
G1 X116.100 Y34.889 E81.14421
G1 X116.100 Y35.436 E81.17058
G1 X108.660 Y27.996 E81.67791
G1 X108.660 Y28.543 E81.70428
G1 X116.100 Y35.983 E82.21162
G1 X116.100 Y36.530 E82.23798
G1 X108.660 Y29.090 E82.74532
G1 X108.660 Y29.636 E82.77168
G1 X116.100 Y37.076 E83.27902
G1 X116.100 Y37.623 E83.30538
G1 X108.660 Y30.183 E83.81272
G1 X108.660 Y30.730 E83.83909
G1 X116.100 Y38.170 E84.34642
G1 X116.100 Y38.716 E84.37279
G1 X108.660 Y31.277 E84.88013
G1 X108.660 Y31.823 E84.90649
G1 X116.100 Y39.263 E85.41383
G1 X116.100 Y39.810 E85.44019
G1 X108.660 Y32.370 E85.94753
G1 X108.660 Y32.917 E85.97389
G1 X116.100 Y40.357 E86.48123
G1 X116.100 Y40.903 E86.50760
G1 X108.660 Y33.463 E87.01493
G1 X108.660 Y34.010 E87.04130
G1 X116.100 Y41.450 E87.54864
G1 X116.100 Y41.997 E87.57500
G1 X108.660 Y34.557 E88.08234
G1 X108.660 Y35.104 E88.10870
G1 X116.100 Y42.544 E88.61604
G1 X116.100 Y43.090 E88.64240
G1 X108.660 Y35.650 E89.14974
G1 X108.660 Y36.197 E89.17611
G1 X116.100 Y43.637 E89.68344
G1 X116.100 Y44.184 E89.70981
G1 X108.660 Y36.744 E90.21715
G1 X108.660 Y37.291 E90.24351
G1 X116.100 Y44.730 E90.75085
G1 X116.100 Y45.277 E90.77721
G1 X108.660 Y37.837 E91.28455
G1 X108.660 Y38.384 E91.31091
G1 X116.100 Y45.824 E91.81825
G1 X116.100 Y46.371 E91.84462
G1 X108.660 Y38.931 E92.35195
G1 X108.660 Y39.477 E92.37832
G1 X116.100 Y46.917 E92.88566
G1 X116.100 Y47.464 E92.91202
G1 X108.660 Y40.024 E93.41936
G1 X108.660 Y40.571 E93.44572
G1 X116.100 Y48.011 E93.95306
G1 X117.369 Y52.560 F9000.000
G1 X108.660 Y43.851 E94.54691 F600.000
G1 X108.660 Y43.305 E94.57328
G1 X117.915 Y52.560 E95.20441
G1 X118.462 Y52.560 E95.23077
G1 X108.660 Y42.758 E95.89919
G1 X108.660 Y42.211 E95.92556
G1 X119.009 Y52.560 E96.63126
G1 X119.556 Y52.560 E96.65762
G1 X108.660 Y41.664 E97.40060
G1 X108.660 Y41.118 E97.42696
G1 X120.102 Y52.560 E98.20723
G1 X120.649 Y52.560 E98.23359
G1 X116.209 Y48.120 E98.53636
G1 X116.756 Y48.120 E98.56272
G1 X121.196 Y52.560 E98.86548
G1 X121.743 Y52.560 E98.89185
G1 X117.303 Y48.120 E99.19461
G1 X117.849 Y48.120 E99.22097
G1 X122.289 Y52.560 E99.52374
G1 X122.836 Y52.560 E99.55010
G1 X118.396 Y48.120 E99.85287
G1 X118.943 Y48.120 E99.87923
G1 X123.383 Y52.560 E100.18200
G1 X123.929 Y52.560 E100.20836
G1 X119.490 Y48.120 E100.51112
G1 X120.036 Y48.120 E100.53749
G1 X124.476 Y52.560 E100.84025
G1 X125.023 Y52.560 E100.86661
G1 X120.583 Y48.120 E101.16938
G1 X121.130 Y48.120 E101.19574
G1 X125.570 Y52.560 E101.49851
G1 X126.116 Y52.560 E101.52487
G1 X121.676 Y48.120 E101.82763
G1 X122.223 Y48.120 E101.85400
G1 X126.663 Y52.560 E102.15676
G1 X127.210 Y52.560 E102.18312
G1 X122.770 Y48.120 E102.48589
G1 X123.317 Y48.120 E102.51225
G1 X127.757 Y52.560 E102.81502
G1 X128.303 Y52.560 E102.84138
G1 X123.863 Y48.120 E103.14414
G1 X124.410 Y48.120 E103.17051
G1 X128.850 Y52.560 E103.47327
G1 X129.397 Y52.560 E103.49963
G1 X124.957 Y48.120 E103.80240
G1 X125.504 Y48.120 E103.82876
G1 X129.943 Y52.560 E104.13153
G1 X130.490 Y52.560 E104.15789
G1 X126.050 Y48.120 E104.46066
G1 X126.597 Y48.120 E104.48702
G1 X131.037 Y52.560 E104.78978
G1 X131.584 Y52.560 E104.81615
G1 X127.144 Y48.120 E105.11891
G1 X127.690 Y48.120 E105.14527
G1 X132.130 Y52.560 E105.44804
G1 X132.677 Y52.560 E105.47440
G1 X128.237 Y48.120 E105.77717
G1 X128.784 Y48.120 E105.80353
G1 X133.224 Y52.560 E106.10629
G1 X133.771 Y52.560 E106.13266
G1 X129.331 Y48.120 E106.43542
G1 X129.877 Y48.120 E106.46178
G1 X134.317 Y52.560 E106.76455
G1 X134.864 Y52.560 E106.79091
G1 X130.424 Y48.120 E107.09368
G1 X130.971 Y48.120 E107.12004
G1 X135.411 Y52.560 E107.42280
G1 X135.958 Y52.560 E107.44917
G1 X131.518 Y48.120 E107.75193
G1 X132.064 Y48.120 E107.77830
G1 X136.504 Y52.560 E108.08106
G1 X137.051 Y52.560 E108.10742
G1 X132.611 Y48.120 E108.41019
G1 X133.158 Y48.120 E108.43655
G1 X137.598 Y52.560 E108.73932
G1 X138.144 Y52.560 E108.76568
G1 X133.705 Y48.120 E109.06844
G1 X134.251 Y48.120 E109.09481
G1 X138.691 Y52.560 E109.39757
G1 X139.238 Y52.560 E109.42393
G1 X134.798 Y48.120 E109.72670
G1 X135.345 Y48.120 E109.75306
G1 X139.785 Y52.560 E110.05583
G1 X140.331 Y52.560 E110.08219
G1 X135.891 Y48.120 E110.38495
G1 X136.438 Y48.120 E110.41132
G1 X140.878 Y52.560 E110.71408
G1 X141.425 Y52.560 E110.74044
G1 X136.985 Y48.120 E111.04321
G1 X137.532 Y48.120 E111.06957
G1 X141.972 Y52.560 E111.37234
G1 X142.518 Y52.560 E111.39870
G1 X138.078 Y48.120 E111.70146
G1 X138.625 Y48.120 E111.72783
G1 X143.065 Y52.560 E112.03059
G1 X143.612 Y52.560 E112.05696
G1 X139.172 Y48.120 E112.35972
G1 X139.719 Y48.120 E112.38608
G1 X144.159 Y52.560 E112.68885
G1 X144.705 Y52.560 E112.71521
G1 X140.265 Y48.120 E113.01798
G1 X140.660 Y47.968 F9000.000
G1 X145.252 Y52.560 E113.33111 F600.000
G1 X145.799 Y52.560 E113.35747
G1 X140.660 Y47.421 E113.70788
G1 X140.660 Y46.875 E113.73425
G1 X146.345 Y52.560 E114.12194
G1 X146.892 Y52.560 E114.14831
G1 X140.660 Y46.328 E114.57328
G1 X140.660 Y45.781 E114.59965
G1 X147.439 Y52.560 E115.06191
G1 X147.986 Y52.560 E115.08827
G1 X140.660 Y45.234 E115.58781
G1 X140.660 Y44.688 E115.61418
G1 X148.532 Y52.560 E116.15100
G1 X149.070 Y52.550 E116.17691
G1 X140.660 Y44.141 E116.75036
G1 X140.660 Y43.594 E116.77673
G1 X149.100 Y52.034 E117.35226
G1 X149.100 Y51.487 E117.37862
G1 X140.660 Y43.047 E117.95415
G1 X140.660 Y42.501 E117.98051
G1 X149.100 Y50.941 E118.55604
G1 X149.100 Y50.394 E118.58241
G1 X140.660 Y41.954 E119.15794
G1 X140.660 Y41.407 E119.18430
G1 X149.100 Y49.847 E119.75983
G1 X149.100 Y49.300 E119.78619
G1 X140.660 Y40.860 E120.36172
G1 X140.660 Y40.314 E120.38809
G1 X149.100 Y48.754 E120.96362
G1 X149.100 Y48.207 E120.98998
G1 X140.660 Y39.767 E121.56551
G1 X140.660 Y39.220 E121.59187
G1 X149.100 Y47.660 E122.16740
G1 X149.100 Y47.114 E122.19377
G1 X140.660 Y38.674 E122.76930
G1 X140.660 Y38.127 E122.79566
G1 X149.100 Y46.567 E123.37119
G1 X149.100 Y46.020 E123.39755
G1 X140.660 Y37.580 E123.97308
G1 X140.660 Y37.033 E123.99945
G1 X149.100 Y45.473 E124.57498
G1 X149.100 Y44.927 E124.60134
G1 X140.660 Y36.487 E125.17687
G1 X140.660 Y35.940 E125.20323
G1 X149.100 Y44.380 E125.77876
G1 X149.100 Y43.833 E125.80513
G1 X140.660 Y35.393 E126.38066
G1 X140.660 Y34.846 E126.40702
G1 X149.100 Y43.286 E126.98255
G1 X149.100 Y42.740 E127.00891
G1 X140.660 Y34.300 E127.58445
G1 X140.660 Y33.753 E127.61081
G1 X149.100 Y42.193 E128.18634
G1 X149.100 Y41.646 E128.21270
G1 X140.660 Y33.206 E128.78823
G1 X140.660 Y32.660 E128.81459
G1 X149.100 Y41.099 E129.39013
G1 X149.100 Y40.553 E129.41649
G1 X140.660 Y32.113 E129.99202
G1 X140.660 Y31.566 E130.01838
G1 X149.100 Y40.006 E130.59391
G1 X149.100 Y39.459 E130.62028
G1 X140.660 Y31.019 E131.19581
G1 X140.660 Y30.473 E131.22217
G1 X149.100 Y38.913 E131.79770
G1 X149.100 Y38.366 E131.82406
G1 X140.660 Y29.926 E132.39959
G1 X140.660 Y29.379 E132.42596
G1 X149.100 Y37.819 E133.00149
G1 X149.100 Y37.272 E133.02785
G1 X140.660 Y28.832 E133.60338
G1 X140.660 Y28.286 E133.62974
G1 X149.100 Y36.726 E134.20527
G1 X149.100 Y36.179 E134.23164
G1 X140.660 Y27.739 E134.80717
G1 X140.660 Y27.192 E134.83353
G1 X149.100 Y35.632 E135.40906
G1 X149.100 Y35.085 E135.43542
G1 X140.660 Y26.645 E136.01095
G1 X140.660 Y26.099 E136.03732
G1 X149.100 Y34.539 E136.61285
G1 X149.100 Y33.992 E136.63921
G1 X135.228 Y20.120 E137.58515
G1 X135.775 Y20.120 E137.61152
G1 X149.100 Y33.445 E138.52018
G1 X149.100 Y32.898 E138.54654
G1 X136.322 Y20.120 E139.41792
G1 X136.868 Y20.120 E139.44429
G1 X149.100 Y32.352 E140.27838
G1 X149.100 Y31.805 E140.30475
G1 X137.415 Y20.120 E141.10156
G1 X137.962 Y20.120 E141.12792
G1 X149.100 Y31.258 E141.88746
G1 X149.100 Y30.712 E141.91382
G1 X138.508 Y20.120 E142.63607
G1 X139.055 Y20.120 E142.66243
G1 X149.100 Y30.165 E143.34740
G1 X149.100 Y29.618 E143.37376
G1 X139.602 Y20.120 E144.02145
G1 X140.149 Y20.120 E144.04781
G1 X149.100 Y29.071 E144.65821
G1 X149.100 Y28.525 E144.68458
G1 X140.695 Y20.120 E145.25770
G1 X141.242 Y20.120 E145.28406
G1 X149.100 Y27.978 E145.81990
G1 X149.100 Y27.431 E145.84626
G1 X141.789 Y20.120 E146.34482
G1 X142.336 Y20.120 E146.37118
G1 X149.100 Y26.884 E146.83245
G1 X149.100 Y26.338 E146.85881
G1 X142.882 Y20.120 E147.28280
G1 X143.429 Y20.120 E147.30917
G1 X149.100 Y25.791 E147.69588
G1 X149.100 Y25.244 E147.72224
G1 X143.976 Y20.120 E148.07166
G1 X144.523 Y20.120 E148.09803
G1 X149.100 Y24.697 E148.41017
G1 X149.100 Y24.151 E148.43653
G1 X145.069 Y20.120 E148.71139
G1 X145.616 Y20.120 E148.73776
G1 X149.100 Y23.604 E148.97534
G1 X149.100 Y23.057 E149.00170
G1 X146.163 Y20.120 E149.20199
G1 X146.709 Y20.120 E149.22836
G1 X149.100 Y22.511 E149.39137
G1 X149.100 Y21.964 E149.41773
G1 X147.256 Y20.120 E149.54346
G1 X147.803 Y20.120 E149.56983
G1 X149.100 Y21.417 E149.65828
G1 X149.100 Y20.870 E149.68464
G1 X148.350 Y20.120 E149.73581
G1 X148.896 Y20.120 E149.76217
G1 X149.100 Y20.324 E149.77605
G1 X140.121 Y25.560 F9000.000
G1 X134.681 Y20.120 E150.14701 F600.000
G1 X134.135 Y20.120 E150.17337
G1 X139.575 Y25.560 E150.54433
G1 X139.028 Y25.560 E150.57069
G1 X133.588 Y20.120 E150.94165
G1 X133.041 Y20.120 E150.96801
G1 X138.481 Y25.560 E151.33897
G1 X137.934 Y25.560 E151.36533
G1 X132.494 Y20.120 E151.73629
G1 X131.948 Y20.120 E151.76265
G1 X137.388 Y25.560 E152.13360
G1 X136.841 Y25.560 E152.15997
G1 X131.401 Y20.120 E152.53092
G1 X130.854 Y20.120 E152.55729
G1 X136.294 Y25.560 E152.92824
G1 X135.747 Y25.560 E152.95461
G1 X130.307 Y20.120 E153.32556
G1 X129.761 Y20.120 E153.35192
G1 X135.201 Y25.560 E153.72288
G1 X134.654 Y25.560 E153.74924
G1 X129.214 Y20.120 E154.12020
G1 X128.667 Y20.120 E154.14656
G1 X134.107 Y25.560 E154.51752
G1 X133.560 Y25.560 E154.54388
G1 X128.121 Y20.120 E154.91484
G1 X127.574 Y20.120 E154.94120
G1 X133.014 Y25.560 E155.31216
G1 X132.467 Y25.560 E155.33852
G1 X127.027 Y20.120 E155.70948
G1 X126.480 Y20.120 E155.73584
G1 X131.920 Y25.560 E156.10680
G1 X131.374 Y25.560 E156.13316
G1 X125.934 Y20.120 E156.50411
G1 X125.387 Y20.120 E156.53048
G1 X130.827 Y25.560 E156.90143
G1 X130.280 Y25.560 E156.92780
G1 X124.840 Y20.120 E157.29875
G1 X124.293 Y20.120 E157.32512
G1 X129.733 Y25.560 E157.69607
G1 X129.187 Y25.560 E157.72244
G1 X123.747 Y20.120 E158.09339
G1 X123.200 Y20.120 E158.11975
G1 X128.640 Y25.560 E158.49071
G1 X128.093 Y25.560 E158.51707
G1 X122.653 Y20.120 E158.88803
G1 X122.106 Y20.120 E158.91439
G1 X127.546 Y25.560 E159.28535
G1 X127.000 Y25.560 E159.31171
G1 X121.560 Y20.120 E159.68267
G1 X121.013 Y20.120 E159.70903
G1 X126.453 Y25.560 E160.07999
G1 X125.906 Y25.560 E160.10635
G1 X120.466 Y20.120 E160.47731
G1 X119.920 Y20.120 E160.50367
G1 X125.359 Y25.560 E160.87463
G1 X124.813 Y25.560 E160.90099
G1 X119.373 Y20.120 E161.27194
G1 X118.826 Y20.120 E161.29831
G1 X124.266 Y25.560 E161.66926
G1 X123.719 Y25.560 E161.69563
G1 X118.279 Y20.120 E162.06658
