; generated by Slic3r 1.2.9 on 2020-01-16 at 23:11:35

; external perimeters extrusion width = 0.40mm
; perimeters extrusion width = 0.62mm
; infill extrusion width = 0.33mm
; solid infill extrusion width = 0.62mm
; top infill extrusion width = 0.20mm

M106 S256; Turn on fan to 100% power
M104 S140; turn on extruder temperature at S value
M140 S60; turn on bed temperature at S value
G28; home all axes
M84; disable motors
G1 Z15 F15000; have Z move to 20mm at 15000 mm/min
M190 S55; turn on bed temperature at S value and wait
M140 S55; turn on bed temperature at S value (printing temperature)
M109 S200; turn on extruder temperature at S value and wait (printing temperature)
M104 S200; turn on extruder temperature at S value
G1 Z0 F12000; move Z back to home
G21 ; set units to millimeters
G90 ; use absolute coordinates
M82 ; use absolute distances for extrusion
G92 E0
M106 S255
;Layer change
G1 E-6.00000 F1800.00000
G92 E0
G1 Z0.300 F9000.000
G1 X75.763 Y46.165 F9000.000
G1 E6.00000 F1800.00000
G1 X97.096 Y11.167 E8.01721 F600.000
G1 X97.370 Y10.784 E8.04038
G1 X97.610 Y10.497 E8.05881
G1 X97.940 Y10.161 E8.08197
G1 X98.223 Y9.915 E8.10039
G1 X98.601 Y9.635 E8.12356
G1 X98.919 Y9.437 E8.14198
G1 X99.336 Y9.220 E8.16515
G1 X99.681 Y9.073 E8.18356
G1 X100.127 Y8.924 E8.20674
G1 X100.491 Y8.833 E8.22517
G1 X100.955 Y8.756 E8.24834
G1 X101.328 Y8.723 E8.26676
G1 X101.799 Y8.719 E8.28993
G1 X102.172 Y8.745 E8.30836
G1 X102.638 Y8.815 E8.33153 F600.000
G1 X103.003 Y8.899 E8.34996
G1 X103.452 Y9.041 E8.37313
G1 X111.477 Y11.622 E8.78802
G1 X112.239 Y11.929 E8.82846
G1 X112.573 Y12.099 E8.84689
G1 X113.108 Y12.427 E8.87777
G1 X113.411 Y12.647 E8.89620
G1 X113.888 Y13.055 E8.92710
G1 X114.152 Y13.319 E8.94551
G1 X114.560 Y13.797 E8.97641
G1 X114.780 Y14.100 E8.99483
G1 X115.108 Y14.635 E9.02573
G1 X149.551 Y81.639 E12.73350
G1 X149.828 Y82.334 E12.77036
G1 X149.932 Y82.694 E12.78876
G1 X150.026 Y83.156 E12.81195
G1 X150.072 Y83.530 E12.83053
G1 X150.092 Y84.001 E12.85369
G1 X150.079 Y84.371 E12.87191
G1 X150.026 Y84.838 E12.89508
G1 X149.954 Y85.208 E12.91362
G1 X149.828 Y85.662 E12.93680
G1 X149.700 Y86.012 E12.95513
G1 X149.505 Y86.440 E12.97829
G1 X149.323 Y86.769 E12.99678
G1 X149.063 Y87.161 E13.01996
G1 X148.833 Y87.456 E13.03834
G1 X148.515 Y87.803 E13.06151
G1 X148.242 Y88.058 E13.07989
G1 X147.874 Y88.351 E13.10304
G1 X147.563 Y88.561 E13.12154
G1 X147.152 Y88.793 E13.14473
G1 X146.814 Y88.951 E13.16310
G1 X146.373 Y89.116 E13.18629
G1 X146.013 Y89.219 E13.20471
G1 X145.552 Y89.313 E13.22787
G1 X145.181 Y89.358 E13.24627
G1 X144.619 Y89.381 E13.27393
G1 X58.619 Y89.881 E17.50649
G1 X57.868 Y89.812 E17.54364
G1 X57.500 Y89.741 E17.56205
G1 X57.047 Y89.615 E17.58522
G1 X56.695 Y89.487 E17.60365
G1 X56.266 Y89.292 E17.62682
G1 X55.939 Y89.111 E17.64524
G1 X55.546 Y88.850 E17.66842
G1 X55.252 Y88.620 E17.68681
G1 X54.904 Y88.302 E17.70999
G1 X54.649 Y88.028 E17.72843
G1 X54.356 Y87.660 E17.75161
G1 X54.147 Y87.350 E17.77001
G1 X53.926 Y86.960 E17.79202
G1 X53.757 Y86.601 E17.81160
G1 X53.592 Y86.160 E17.83477
G1 X53.489 Y85.800 E17.85321
G1 X53.395 Y85.338 E17.87638
G1 X53.349 Y84.967 E17.89477
G1 X53.329 Y84.497 E17.91795
G1 X53.342 Y84.122 E17.93638
G1 X53.395 Y83.655 E17.95955
G1 X53.466 Y83.287 E17.97797
G1 X53.592 Y82.834 E18.00114
G1 X53.720 Y82.482 E18.01957
G1 X53.915 Y82.053 E18.04273
G1 X54.049 Y81.802 E18.05677
G1 X75.732 Y46.216 E20.10760
G1 E14.10760 F1800.00000
G92 E0
G1 X60.592 Y83.764 F9000.000
G1 E6.00000 F1800.00000
G1 X60.657 Y83.939 E6.00918 F600.000
G1 X60.721 Y84.250 E6.02482
G1 X60.735 Y84.569 E6.04051
G1 X60.695 Y84.898 E6.05684
G1 X60.614 Y85.190 E6.07174
G1 X60.482 Y85.479 E6.08739
G1 X60.306 Y85.744 E6.10304
G1 X60.092 Y85.979 E6.11868
G1 X59.843 Y86.177 E6.13432
G1 X59.566 Y86.333 E6.14997
G1 X59.268 Y86.445 E6.16561
G1 X58.957 Y86.508 E6.18125
G1 X58.639 Y86.522 E6.19690
G1 X58.324 Y86.486 E6.21254
G1 X58.017 Y86.401 E6.22818
G1 X57.728 Y86.269 E6.24383
G1 X57.463 Y86.093 E6.25947
G1 X57.229 Y85.879 E6.27511
G1 X57.031 Y85.630 E6.29076
G1 X56.874 Y85.353 E6.30641
G1 X56.763 Y85.056 E6.32205
G1 X56.699 Y84.744 E6.33769
G1 X56.686 Y84.426 E6.35338
G1 X56.726 Y84.096 E6.36971
G1 X56.807 Y83.804 E6.38461
G1 X56.938 Y83.515 E6.40026
G1 X57.114 Y83.250 E6.41590
G1 X57.329 Y83.016 E6.43154
G1 X57.577 Y82.818 E6.44719
G1 X57.854 Y82.661 E6.46284
G1 X58.152 Y82.550 E6.47848
G1 X58.463 Y82.487 E6.49412
G1 X58.766 Y82.473 E6.50903 F600.000
G1 X59.096 Y82.509 E6.52536
G1 X59.403 Y82.594 E6.54104
G1 X59.692 Y82.726 E6.55669
G1 X59.957 Y82.901 E6.57234
G1 X60.192 Y83.116 E6.58798
G1 X60.389 Y83.365 E6.60362
G1 X60.571 Y83.708 E6.62274
G1 X60.777 Y83.788 F9000.000
G1 E0.62274 F1800.00000
G92 E0
G1 X100.567 Y15.834 F9000.000
G1 E6.00000 F1800.00000
G1 X100.308 Y15.649 E6.01564 F600.000
G1 X100.081 Y15.426 E6.03129
G1 X99.892 Y15.171 E6.04693
G1 X99.745 Y14.889 E6.06258
G1 X99.645 Y14.587 E6.07822
G1 X99.592 Y14.274 E6.09386
G1 X99.589 Y13.956 E6.10951
G1 X99.636 Y13.642 E6.12515
G1 X99.732 Y13.338 E6.14080
G1 X99.874 Y13.054 E6.15644
G1 X100.058 Y12.795 E6.17208
G1 X100.281 Y12.568 E6.18773
G1 X100.537 Y12.379 E6.20337
G1 X100.819 Y12.233 E6.21902
G1 X101.120 Y12.132 E6.23465
G1 X101.434 Y12.079 E6.25030
G1 X101.736 Y12.077 E6.26521 F600.000
G1 X102.065 Y12.123 E6.28154
G1 X102.369 Y12.219 E6.29723
G1 X102.653 Y12.361 E6.31287
G1 X102.912 Y12.545 E6.32851
G1 X103.139 Y12.768 E6.34416
G1 X103.328 Y13.024 E6.35980
G1 X103.475 Y13.306 E6.37545
G1 X103.576 Y13.607 E6.39109
G1 X103.628 Y13.921 E6.40673
G1 X103.631 Y14.239 E6.42238
G1 X103.584 Y14.553 E6.43802
G1 X103.488 Y14.856 E6.45367
G1 X103.346 Y15.141 E6.46931
G1 X103.162 Y15.399 E6.48495
G1 X102.939 Y15.626 E6.50060
G1 X102.684 Y15.815 E6.51624
G1 X102.402 Y15.962 E6.53189
G1 X102.100 Y16.063 E6.54753
G1 X101.787 Y16.115 E6.56317
G1 X101.469 Y16.118 E6.57882
G1 X101.154 Y16.071 E6.59446
G1 X100.851 Y15.975 E6.61011
G1 X100.620 Y15.860 E6.62280
G1 X100.285 Y15.980 F9000.000
G1 E0.62280 F1800.00000
G92 E0
G1 X107.698 Y16.087 F9000.000
G1 E6.00000 F1800.00000
G1 X109.179 Y15.661 E6.07585 F600.000
G1 X109.510 Y15.635 E6.09217
G1 X109.833 Y15.660 E6.10810
G1 X110.147 Y15.736 E6.12403
G1 X110.446 Y15.859 E6.13996
G1 X110.722 Y16.029 E6.15589
G1 X110.968 Y16.239 E6.17182
G1 X111.179 Y16.485 E6.18774
G1 X111.348 Y16.761 E6.20368
G1 X111.472 Y17.060 E6.21961
G1 X111.547 Y17.375 E6.23553
G1 X111.573 Y17.697 E6.25146
G1 X111.547 Y18.020 E6.26739
G1 X111.472 Y18.334 E6.28331
G1 X111.348 Y18.634 E6.29924
G1 X111.179 Y18.910 E6.31517
G1 X110.969 Y19.156 E6.33110
G1 X110.722 Y19.366 E6.34702
G1 X110.446 Y19.535 E6.36296
G1 X110.147 Y19.659 E6.37889
G1 X109.833 Y19.734 E6.39481
G1 X109.510 Y19.760 E6.41074
G1 X109.187 Y19.734 E6.42667
G1 X108.873 Y19.659 E6.44259
G1 X108.574 Y19.535 E6.45852
G1 X108.298 Y19.366 E6.47446
G1 X108.052 Y19.156 E6.49038
G1 X107.527 Y18.542 E6.53013
G1 X108.807 Y17.017 E6.62810
G1 X107.744 Y16.125 E6.69635
G1 X108.501 Y16.257 F9000.000
G1 X109.249 Y16.042 E6.73463 F600.000
G1 X109.510 Y16.022 E6.74754
G1 X109.772 Y16.042 E6.76048
G1 X110.028 Y16.104 E6.77342
G1 X110.271 Y16.204 E6.78636
G1 X110.495 Y16.342 E6.79930
G1 X110.695 Y16.512 E6.81224
G1 X110.866 Y16.712 E6.82518
G1 X111.003 Y16.936 E6.83813
G1 X111.104 Y17.179 E6.85107
G1 X111.165 Y17.435 E6.86401
G1 X111.186 Y17.697 E6.87695
G1 X111.165 Y17.959 E6.88989
G1 X111.104 Y18.215 E6.90283
G1 X111.003 Y18.458 E6.91577
G1 X110.866 Y18.682 E6.92871
G1 X110.695 Y18.882 E6.94165
G1 X110.495 Y19.053 E6.95459
G1 X110.271 Y19.190 E6.96754
G1 X110.028 Y19.291 E6.98048
G1 X109.772 Y19.352 E6.99342
G1 X109.510 Y19.373 E7.00636
G1 X109.248 Y19.352 E7.01930
G1 X108.992 Y19.291 E7.03224
G1 X108.749 Y19.190 E7.04518
G1 X108.525 Y19.053 E7.05812
G1 X108.325 Y18.882 E7.07106
G1 X108.032 Y18.539 E7.09325
G1 X109.350 Y16.969 E7.19413
G1 X108.547 Y16.296 E7.24570
G1 X108.317 Y15.902 F9000.000
G1 X77.463 Y66.901 F9000.000
G1 X77.650 Y67.016 E7.25649 F600.000
G1 X77.942 Y67.265 E7.27539
G1 X78.192 Y67.557 E7.29431
G1 X78.393 Y67.885 E7.31323
G1 X78.540 Y68.241 E7.33215
G1 X78.629 Y68.614 E7.35105
G1 X78.659 Y68.997 E7.36997
G1 X78.629 Y69.380 E7.38889
G1 X78.540 Y69.754 E7.40779
G1 X78.393 Y70.109 E7.42671
G1 X78.192 Y70.437 E7.44564
G1 X77.942 Y70.729 E7.46455
G1 X77.650 Y70.979 E7.48346
G1 X77.322 Y71.180 E7.50239
G1 X76.967 Y71.327 E7.52131
G1 X76.593 Y71.416 E7.54021
G1 X76.210 Y71.447 E7.55913
G1 X75.827 Y71.416 E7.57804
G1 X75.453 Y71.327 E7.59695
G1 X75.098 Y71.180 E7.61587
G1 X74.770 Y70.979 E7.63479
G1 X74.478 Y70.729 E7.65370
G1 X74.229 Y70.437 E7.67261
G1 X74.028 Y70.109 E7.69154
G1 X73.881 Y69.754 E7.71046
G1 X73.791 Y69.380 E7.72936
G1 X73.761 Y68.997 E7.74828
G1 X73.791 Y68.614 E7.76720
G1 X73.881 Y68.241 E7.78610
G1 X74.028 Y67.885 E7.80502
G1 X74.229 Y67.557 E7.82395
G1 X74.478 Y67.265 E7.84286
G1 X74.770 Y67.016 E7.86177
G1 X75.098 Y66.815 E7.88070
G1 X75.453 Y66.668 E7.89961
G1 X75.827 Y66.578 E7.91852
G1 X76.210 Y66.548 E7.93744 F600.000
G1 X76.593 Y66.578 E7.95635
G1 X76.967 Y66.668 E7.97526
G1 X77.322 Y66.815 E7.99418
G1 X77.412 Y66.870 E7.99936
G1 X77.262 Y67.230 F9000.000
G1 X77.422 Y67.329 E8.00866 F600.000
G1 X77.668 Y67.539 E8.02458
G1 X77.879 Y67.785 E8.04051
G1 X78.048 Y68.061 E8.05644
G1 X78.172 Y68.360 E8.07237
G1 X78.247 Y68.675 E8.08829
G1 X78.273 Y68.997 E8.10422
G1 X78.247 Y69.320 E8.12015
G1 X78.172 Y69.635 E8.13607
G1 X78.048 Y69.934 E8.15200
G1 X77.879 Y70.210 E8.16794
G1 X77.668 Y70.456 E8.18386
G1 X77.422 Y70.666 E8.19979
G1 X77.146 Y70.835 E8.21572
G1 X76.847 Y70.959 E8.23165
G1 X76.533 Y71.034 E8.24758
G1 X76.210 Y71.060 E8.26350
G1 X75.887 Y71.034 E8.27943
G1 X75.573 Y70.959 E8.29535
G1 X75.274 Y70.835 E8.31128
G1 X74.998 Y70.666 E8.32722
G1 X74.752 Y70.456 E8.34314
G1 X74.542 Y70.210 E8.35907
G1 X74.372 Y69.934 E8.37500
G1 X74.249 Y69.634 E8.39093
G1 X74.173 Y69.320 E8.40686
G1 X74.148 Y68.997 E8.42279
G1 X74.173 Y68.675 E8.43871
G1 X74.249 Y68.360 E8.45464
G1 X74.372 Y68.061 E8.47057
G1 X74.542 Y67.785 E8.48650
G1 X74.752 Y67.539 E8.50243
G1 X74.998 Y67.329 E8.51835
G1 X75.274 Y67.159 E8.53429
G1 X75.573 Y67.036 E8.55022
G1 X75.887 Y66.960 E8.56614
G1 X76.210 Y66.935 E8.58207 F600.000
G1 X76.533 Y66.960 E8.59799
G1 X76.847 Y67.036 E8.61392
G1 X77.210 Y67.199 E8.63350
G1 X77.060 Y67.559 F9000.000
G1 X77.195 Y67.642 E8.64130 F600.000
G1 X77.395 Y67.812 E8.65424
G1 X77.566 Y68.012 E8.66718
G1 X77.703 Y68.236 E8.68012
G1 X77.804 Y68.479 E8.69306
G1 X77.865 Y68.735 E8.70600
G1 X77.886 Y68.997 E8.71894
G1 X77.865 Y69.259 E8.73188
G1 X77.804 Y69.515 E8.74482
G1 X77.703 Y69.758 E8.75776
G1 X77.566 Y69.982 E8.77071
G1 X77.395 Y70.182 E8.78365
G1 X77.195 Y70.353 E8.79659
G1 X76.971 Y70.490 E8.80953
G1 X76.728 Y70.591 E8.82247
G1 X76.472 Y70.652 E8.83541
G1 X76.210 Y70.673 E8.84835
G1 X75.948 Y70.652 E8.86129
G1 X75.692 Y70.591 E8.87423
G1 X75.449 Y70.490 E8.88717
G1 X75.225 Y70.353 E8.90012
G1 X75.025 Y70.182 E8.91306
G1 X74.854 Y69.982 E8.92600
G1 X74.717 Y69.758 E8.93894
G1 X74.616 Y69.515 E8.95188
G1 X74.555 Y69.259 E8.96482
G1 X74.534 Y68.997 E8.97776
G1 X74.555 Y68.735 E8.99070
G1 X74.616 Y68.479 E9.00364
G1 X74.717 Y68.237 E9.01658
G1 X74.854 Y68.012 E9.02953
G1 X75.025 Y67.812 E9.04247
G1 X75.225 Y67.642 E9.05541
G1 X75.449 Y67.504 E9.06835
G1 X75.692 Y67.404 E9.08129
G1 X75.948 Y67.342 E9.09423
G1 X76.210 Y67.322 E9.10717 F600.000
G1 X76.472 Y67.342 E9.12011
G1 X76.728 Y67.404 E9.13305
G1 X77.009 Y67.527 E9.14816
G1 X77.196 Y67.478 F9000.000
G1 E3.14816 F1800.00000
G92 E0
G1 X73.016 Y70.906 F9000.000
G1 E6.00000 F1800.00000
G1 X73.256 Y70.326 E6.03087 F600.000
G1 X73.603 Y70.892 E6.06351
G1 X73.931 Y71.276 E6.08839
G1 X74.330 Y71.617 E6.11420
G1 X62.013 Y83.102 E6.94301
G1 X61.672 Y82.499 E6.97711
G1 X61.323 Y82.060 E7.00470
G1 X60.910 Y81.682 E7.03229
G1 X60.332 Y81.299 E7.06639
G1 X72.301 Y70.138 E7.87179
G1 X72.975 Y70.862 E7.92047
G1 X72.889 Y70.204 F9000.000
G1 X73.230 Y69.382 E7.96430 F600.000
G1 X73.398 Y69.395 E7.97257
G1 X73.513 Y69.873 E7.99680
G1 X73.683 Y70.285 E8.01871
G1 X73.916 Y70.664 E8.04063
G1 X74.205 Y71.003 E8.06252
G1 X74.543 Y71.292 E8.08442
G1 X74.966 Y71.551 E8.10884
G1 X61.813 Y83.816 E8.99395
G1 X61.773 Y83.619 E9.00385
G1 X61.598 Y83.151 E9.02846
G1 X61.351 Y82.716 E9.05307
G1 X61.040 Y82.324 E9.07768
G1 X60.672 Y81.987 E9.10227
G1 X60.255 Y81.711 E9.12689
G1 X59.800 Y81.503 E9.15149
G1 X59.606 Y81.449 E9.16140
G1 X72.320 Y69.593 E10.01697
G1 X72.848 Y70.160 E10.05512
G1 E4.05512 F1800.00000
G92 E0
G1 X121.961 Y67.897 F9000.000
G1 E6.00000 F1800.00000
G1 X121.991 Y67.514 E6.01892 F600.000
G1 X122.081 Y67.141 E6.03782
G1 X122.228 Y66.785 E6.05674
G1 X122.429 Y66.457 E6.07567
G1 X122.678 Y66.165 E6.09458
G1 X122.970 Y65.916 E6.11349
G1 X123.298 Y65.715 E6.13241
G1 X123.653 Y65.568 E6.15133
G1 X124.027 Y65.478 E6.17024
G1 X124.400 Y65.449 E6.18866 F600.000
G1 X124.791 Y65.478 E6.20794
G1 X125.167 Y65.568 E6.22697
G1 X125.522 Y65.715 E6.24589
G1 X125.850 Y65.916 E6.26481
G1 X126.142 Y66.165 E6.28373
G1 X126.392 Y66.457 E6.30264
G1 X126.593 Y66.785 E6.32156
G1 X126.740 Y67.141 E6.34048
G1 X126.829 Y67.514 E6.35939
G1 X126.859 Y67.897 E6.37830
G1 X126.829 Y68.280 E6.39722
G1 X126.742 Y68.645 E6.41566
G1 X126.594 Y69.007 E6.43492
G1 X126.392 Y69.337 E6.45397
G1 X126.142 Y69.629 E6.47288
G1 X125.850 Y69.879 E6.49179
G1 X125.521 Y70.080 E6.51078
G1 X125.161 Y70.228 E6.52991
G1 X124.793 Y70.316 E6.54853
G1 X124.410 Y70.347 E6.56745
G1 X124.027 Y70.316 E6.58637
G1 X123.653 Y70.227 E6.60528
G1 X123.298 Y70.080 E6.62419
G1 X122.970 Y69.879 E6.64312
G1 X122.678 Y69.629 E6.66203
G1 X122.429 Y69.337 E6.68094
G1 X122.228 Y69.009 E6.69987
G1 X122.081 Y68.654 E6.71878
G1 X121.991 Y68.280 E6.73769
G1 X121.965 Y67.957 E6.75365
G1 X122.348 Y67.897 F9000.000
G1 X122.373 Y67.575 E6.76958 F600.000
G1 X122.449 Y67.260 E6.78551
G1 X122.572 Y66.961 E6.80144
G1 X122.742 Y66.685 E6.81737
G1 X122.952 Y66.439 E6.83330
G1 X123.198 Y66.229 E6.84922
G1 X123.474 Y66.059 E6.86516
G1 X123.773 Y65.936 E6.88108
G1 X124.087 Y65.860 E6.89701
G1 X124.401 Y65.835 E6.91249 F600.000
G1 X124.731 Y65.860 E6.92878
G1 X125.047 Y65.936 E6.94478
G1 X125.346 Y66.059 E6.96071
G1 X125.622 Y66.229 E6.97665
G1 X125.869 Y66.439 E6.99257
G1 X126.079 Y66.685 E7.00850
G1 X126.248 Y66.961 E7.02443
G1 X126.372 Y67.260 E7.04036
G1 X126.447 Y67.575 E7.05628
G1 X126.473 Y67.897 E7.07221
G1 X126.447 Y68.220 E7.08814
G1 X126.374 Y68.526 E7.10364
G1 X126.249 Y68.832 E7.11992
G1 X126.079 Y69.110 E7.13593
G1 X125.868 Y69.356 E7.15185
G1 X125.622 Y69.566 E7.16778
G1 X125.346 Y69.735 E7.18375
G1 X125.042 Y69.860 E7.19989
G1 X124.733 Y69.934 E7.21556
G1 X124.410 Y69.960 E7.23149
G1 X124.087 Y69.934 E7.24742
G1 X123.773 Y69.859 E7.26334
G1 X123.474 Y69.735 E7.27927
G1 X123.198 Y69.566 E7.29520
G1 X122.952 Y69.356 E7.31113
G1 X122.742 Y69.110 E7.32706
G1 X122.572 Y68.834 E7.34299
G1 X122.449 Y68.535 E7.35892
G1 X122.373 Y68.220 E7.37484
G1 X122.352 Y67.957 E7.38782
G1 X122.734 Y67.897 F9000.000
G1 X122.755 Y67.635 E7.40076 F600.000
G1 X122.816 Y67.379 E7.41370
G1 X122.917 Y67.136 E7.42664
G1 X123.054 Y66.912 E7.43958
G1 X123.225 Y66.712 E7.45252
G1 X123.425 Y66.542 E7.46546
G1 X123.649 Y66.404 E7.47841
G1 X123.892 Y66.304 E7.49135
G1 X124.148 Y66.242 E7.50429
G1 X124.402 Y66.222 E7.51683 F600.000
G1 X124.672 Y66.242 E7.53013
G1 X124.928 Y66.304 E7.54310
G1 X125.171 Y66.404 E7.55604
G1 X125.395 Y66.542 E7.56899
G1 X125.595 Y66.712 E7.58193
G1 X125.766 Y66.912 E7.59487
G1 X125.903 Y67.137 E7.60781
G1 X126.004 Y67.379 E7.62075
G1 X126.065 Y67.635 E7.63369
G1 X126.086 Y67.897 E7.64663
G1 X126.065 Y68.159 E7.65957
G1 X126.006 Y68.408 E7.67213
G1 X125.903 Y68.658 E7.68542
G1 X125.766 Y68.882 E7.69839
G1 X125.595 Y69.082 E7.71133
G1 X125.395 Y69.253 E7.72427
G1 X125.171 Y69.391 E7.73723
G1 X124.924 Y69.492 E7.75038
G1 X124.672 Y69.552 E7.76309
G1 X124.410 Y69.573 E7.77603
G1 X124.148 Y69.552 E7.78898
G1 X123.892 Y69.491 E7.80192
G1 X123.649 Y69.390 E7.81486
G1 X123.425 Y69.253 E7.82780
G1 X123.225 Y69.082 E7.84074
G1 X123.054 Y68.882 E7.85368
G1 X122.917 Y68.658 E7.86662
G1 X122.816 Y68.415 E7.87956
