; generated by Slic3r 1.2.9 on 2020-01-22 at 12:03:53

; external perimeters extrusion width = 0.40mm
; perimeters extrusion width = 0.62mm
; infill extrusion width = 0.33mm
; solid infill extrusion width = 0.62mm
; top infill extrusion width = 0.20mm

M106 S256; Turn on fan to 100% power
M104 S140; turn on extruder temperature at S value
M140 S60; turn on bed temperature at S value
G28; home all axes
M84; disable motors
G1 Z15 F15000; have Z move to 20mm at 15000 mm/min
M190 S55; turn on bed temperature at S value and wait
M140 S55; turn on bed temperature at S value (printing temperature)
M109 S200; turn on extruder temperature at S value and wait (printing temperature)
M104 S200; turn on extruder temperature at S value
G1 Z0 F12000; move Z back to home
G21 ; set units to millimeters
G90 ; use absolute coordinates
M82 ; use absolute distances for extrusion
G92 E0
M106 S255
;Layer change
G1 E-6.00000 F1800.00000
G92 E0
G1 Z0.300 F9000.000
G1 X41.014 Y13.326 F9000.000
G1 E6.00000 F1800.00000
G1 X41.325 Y12.567 E6.04035 F600.000
G1 X41.495 Y12.234 E6.05878
G1 X41.905 Y11.565 E6.09739
G1 X42.125 Y11.262 E6.11581
G1 X42.634 Y10.666 E6.15443
G1 X42.899 Y10.401 E6.17284
G1 X43.496 Y9.891 E6.21146
G1 X43.799 Y9.671 E6.22989
G1 X44.468 Y9.261 E6.26851
G1 X44.801 Y9.091 E6.28691
G1 X45.526 Y8.791 E6.32553
G1 X45.882 Y8.675 E6.34397
G1 X46.645 Y8.492 E6.38258
G1 X47.014 Y8.434 E6.40099
G1 X47.797 Y8.372 E6.43961
G1 X168.171 Y7.872 E12.36389
G1 X168.953 Y7.934 E12.40251 F600.000
G1 X169.323 Y7.992 E12.42091
G1 X170.086 Y8.175 E12.45953
G1 X170.442 Y8.291 E12.47796
G1 X171.167 Y8.591 E12.51658
G1 X171.500 Y8.761 E12.53500
G1 X172.215 Y9.200 E12.57627
G1 X183.559 Y16.509 E13.24042
G1 X183.817 Y16.701 E13.25624
G1 X184.294 Y17.109 E13.28712
G1 X184.557 Y17.372 E13.30546
G1 X184.966 Y17.849 E13.33637
G1 X185.186 Y18.152 E13.35480
G1 X185.514 Y18.688 E13.38570
G1 X185.684 Y19.022 E13.40418
G1 X185.924 Y19.602 E13.43506
G1 X186.039 Y19.956 E13.45337
G1 X186.186 Y20.566 E13.48427
G1 X186.245 Y20.939 E13.50283
G1 X186.300 Y21.836 E13.54708
G1 X185.199 Y52.436 E15.05404
G1 X185.143 Y53.166 E15.09007
G1 X185.085 Y53.531 E15.10826
G1 X184.939 Y54.141 E15.13915
G1 X174.990 Y86.088 E16.78588
G1 X174.587 Y87.049 E16.83718
G1 X174.410 Y87.381 E16.85565
G1 X173.988 Y88.042 E16.89427
G1 X173.764 Y88.340 E16.91265
G1 X173.243 Y88.928 E16.95129
G1 X172.975 Y89.187 E16.96963
G1 X172.370 Y89.686 E17.00824
G1 X172.063 Y89.902 E17.02669
G1 X171.387 Y90.300 E17.06532
G1 X171.050 Y90.464 E17.08374
G1 X170.320 Y90.752 E17.12236
G1 X169.962 Y90.861 E17.14078
G1 X169.196 Y91.031 E17.17939
G1 X168.826 Y91.083 E17.19779
G1 X168.043 Y91.131 E17.23642
G1 X82.784 Y90.835 E21.43247
G1 X47.936 Y90.136 E23.14784
G1 X47.015 Y90.067 E23.19332
G1 X46.645 Y90.009 E23.21173
G1 X45.882 Y89.825 E23.25035
G1 X45.526 Y89.710 E23.26878
G1 X44.801 Y89.409 E23.30740
G1 X44.468 Y89.240 E23.32580
G1 X43.799 Y88.830 E23.36442
G1 X43.496 Y88.609 E23.38286
G1 X42.899 Y88.100 E23.42147
G1 X42.634 Y87.835 E23.43989
G1 X42.125 Y87.239 E23.47851
G1 X41.905 Y86.936 E23.49692
G1 X41.495 Y86.267 E23.53553
G1 X41.325 Y85.933 E23.55396
G1 X41.025 Y85.208 E23.59258
G1 X40.909 Y84.852 E23.61100
G1 X40.726 Y84.090 E23.64961
G1 X40.667 Y83.720 E23.66804
G1 X40.606 Y82.937 E23.70666
G1 X40.598 Y15.750 E27.01327
G1 X40.667 Y14.781 E27.06110
G1 X40.726 Y14.411 E27.07953
G1 X40.909 Y13.648 E27.11814
G1 X40.995 Y13.383 E27.13186
G1 E21.13186 F1800.00000
G92 E0
G1 X82.920 Y83.388 F9000.000
G1 E6.00000 F1800.00000
G1 X83.242 Y83.419 E6.01593 F600.000
G1 X83.556 Y83.500 E6.03186
G1 X83.852 Y83.629 E6.04779
G1 X84.125 Y83.803 E6.06371
G1 X84.368 Y84.018 E6.07964
G1 X84.574 Y84.267 E6.09557
G1 X84.738 Y84.546 E6.11151
G1 X84.856 Y84.847 E6.12743
G1 X84.926 Y85.163 E6.14335
G1 X84.946 Y85.486 E6.15928
G1 X84.915 Y85.809 E6.17521
G1 X84.834 Y86.122 E6.19114
G1 X84.705 Y86.419 E6.20707
G1 X84.531 Y86.692 E6.22300
G1 X84.317 Y86.934 E6.23892
G1 X84.067 Y87.140 E6.25485
G1 X83.788 Y87.304 E6.27079
G1 X83.487 Y87.423 E6.28671
G1 X83.171 Y87.493 E6.30263
G1 X82.848 Y87.513 E6.31856
G1 X82.526 Y87.482 E6.33450
G1 X82.212 Y87.401 E6.35043
G1 X81.916 Y87.271 E6.36635
G1 X81.643 Y87.098 E6.38228
G1 X81.400 Y86.883 E6.39820
G1 X81.194 Y86.633 E6.41413
G1 X81.030 Y86.354 E6.43007
G1 X80.912 Y86.053 E6.44600
G1 X80.842 Y85.738 E6.46192
G1 X80.822 Y85.414 E6.47785
G1 X80.853 Y85.092 E6.49378
G1 X80.934 Y84.779 E6.50971
G1 X81.063 Y84.482 E6.52563
G1 X81.237 Y84.209 E6.54156
G1 X81.451 Y83.967 E6.55748
G1 X81.701 Y83.761 E6.57342
G1 X81.980 Y83.597 E6.58936
G1 X82.281 Y83.478 E6.60528
G1 X82.597 Y83.408 E6.62120
G1 X82.860 Y83.392 E6.63418 F600.000
G1 X82.913 Y83.775 F9000.000
G1 X83.175 Y83.800 E6.64712 F600.000
G1 X83.430 Y83.866 E6.66006
G1 X83.671 Y83.971 E6.67300
G1 X83.892 Y84.112 E6.68594
G1 X84.089 Y84.286 E6.69888
G1 X84.257 Y84.489 E6.71182
G1 X84.390 Y84.716 E6.72477
G1 X84.486 Y84.961 E6.73771
G1 X84.543 Y85.217 E6.75065
G1 X84.559 Y85.480 E6.76359
G1 X84.534 Y85.741 E6.77653
G1 X84.468 Y85.996 E6.78947
G1 X84.364 Y86.237 E6.80241
G1 X84.222 Y86.459 E6.81535
G1 X84.048 Y86.656 E6.82829
G1 X83.845 Y86.823 E6.84123
G1 X83.619 Y86.957 E6.85418
G1 X83.374 Y87.053 E6.86712
G1 X83.117 Y87.110 E6.88005
G1 X82.855 Y87.126 E6.89300
G1 X82.593 Y87.101 E6.90594
G1 X82.338 Y87.035 E6.91888
G1 X82.097 Y86.930 E6.93182
G1 X81.876 Y86.789 E6.94476
G1 X81.679 Y86.614 E6.95770
G1 X81.511 Y86.412 E6.97064
G1 X81.378 Y86.185 E6.98359
G1 X81.282 Y85.940 E6.99653
G1 X81.225 Y85.684 E7.00947
G1 X81.209 Y85.421 E7.02241
G1 X81.234 Y85.159 E7.03535
G1 X81.300 Y84.905 E7.04829
G1 X81.404 Y84.664 E7.06123
G1 X81.546 Y84.442 E7.07417
G1 X81.720 Y84.245 E7.08711
G1 X81.923 Y84.078 E7.10005
G1 X82.149 Y83.944 E7.11300
G1 X82.394 Y83.848 E7.12594
G1 X82.651 Y83.791 E7.13887
G1 X82.853 Y83.779 E7.14886 F600.000
G1 X83.055 Y83.553 F9000.000
G1 E1.14886 F1800.00000
G92 E0
G1 X157.922 Y85.414 F9000.000
G1 E6.00000 F1800.00000
G1 X157.953 Y85.092 E6.01594 F600.000
G1 X158.034 Y84.779 E6.03187
G1 X158.163 Y84.482 E6.04779
G1 X158.337 Y84.209 E6.06371
G1 X158.551 Y83.967 E6.07963
G1 X158.800 Y83.761 E6.09552
G1 X159.080 Y83.596 E6.11149
G1 X159.381 Y83.478 E6.12743
G1 X159.697 Y83.408 E6.14333
G1 X160.020 Y83.388 E6.15926 F600.000
G1 X160.342 Y83.419 E6.17522
G1 X160.655 Y83.500 E6.19113
G1 X160.952 Y83.629 E6.20707
G1 X161.226 Y83.803 E6.22302
G1 X161.468 Y84.018 E6.23892
G1 X161.674 Y84.268 E6.25488
G1 X161.837 Y84.546 E6.27077
G1 X161.957 Y84.847 E6.28669
G1 X162.027 Y85.164 E6.30265
G1 X162.046 Y85.486 E6.31857
G1 X162.015 Y85.809 E6.33451
G1 X161.934 Y86.122 E6.35045
G1 X161.805 Y86.419 E6.36636
G1 X161.631 Y86.692 E6.38228
G1 X161.417 Y86.934 E6.39820
G1 X161.168 Y87.140 E6.41409
G1 X160.888 Y87.304 E6.43006
G1 X160.587 Y87.423 E6.44600
G1 X160.271 Y87.493 E6.46191
G1 X159.948 Y87.513 E6.47783
G1 X159.626 Y87.482 E6.49379
G1 X159.313 Y87.401 E6.50970
G1 X159.016 Y87.272 E6.52564
G1 X158.742 Y87.097 E6.54159
G1 X158.500 Y86.883 E6.55750
G1 X158.294 Y86.633 E6.57345
G1 X158.131 Y86.355 E6.58934
G1 X158.011 Y86.054 E6.60527
G1 X157.941 Y85.737 E6.62122
G1 X157.925 Y85.474 E6.63419
G1 X158.308 Y85.421 F9000.000
G1 X158.334 Y85.159 E6.64714 F600.000
G1 X158.400 Y84.905 E6.66008
G1 X158.505 Y84.664 E6.67302
G1 X158.646 Y84.442 E6.68595
G1 X158.820 Y84.245 E6.69890
G1 X159.022 Y84.078 E6.71181
G1 X159.249 Y83.944 E6.72477
G1 X159.494 Y83.848 E6.73772
G1 X159.751 Y83.791 E6.75065
G1 X160.013 Y83.775 E6.76358 F600.000
G1 X160.275 Y83.800 E6.77655
G1 X160.529 Y83.866 E6.78948
G1 X160.771 Y83.971 E6.80243
G1 X160.993 Y84.112 E6.81539
G1 X161.189 Y84.286 E6.82831
G1 X161.357 Y84.489 E6.84126
G1 X161.490 Y84.716 E6.85418
G1 X161.587 Y84.960 E6.86713
G1 X161.644 Y85.217 E6.88008
G1 X161.660 Y85.480 E6.89302
G1 X161.634 Y85.742 E6.90597
G1 X161.568 Y85.996 E6.91891
G1 X161.463 Y86.237 E6.93185
G1 X161.322 Y86.459 E6.94478
G1 X161.148 Y86.656 E6.95772
G1 X160.946 Y86.823 E6.97064
G1 X160.719 Y86.957 E6.98359
G1 X160.474 Y87.053 E6.99654
G1 X160.217 Y87.110 E7.00947
G1 X159.955 Y87.126 E7.02241
G1 X159.693 Y87.101 E7.03538
G1 X159.439 Y87.035 E7.04831
G1 X159.197 Y86.930 E7.06126
G1 X158.975 Y86.789 E7.07421
G1 X158.779 Y86.614 E7.08714
G1 X158.611 Y86.411 E7.10009
G1 X158.478 Y86.185 E7.11301
G1 X158.381 Y85.940 E7.12596
G1 X158.325 Y85.684 E7.13891
G1 X158.312 Y85.481 E7.14889
G1 X158.086 Y85.280 F9000.000
G1 E1.14889 F1800.00000
G92 E0
G1 X146.007 Y77.885 F9000.000
G1 E6.00000 F1800.00000
G1 X145.802 Y78.219 E6.01929 F600.000
G1 X145.547 Y78.518 E6.03860
G1 X145.249 Y78.772 E6.05791
G1 X144.914 Y78.977 E6.07720
G1 X144.557 Y79.125 E6.09622
G1 X144.172 Y79.219 E6.11574
G1 X143.780 Y79.250 E6.13511
G1 X143.389 Y79.219 E6.15440
G1 X143.007 Y79.127 E6.17370
G1 X142.645 Y78.977 E6.19301
G1 X142.311 Y78.772 E6.21231
G1 X142.012 Y78.518 E6.23161
G1 X141.758 Y78.219 E6.25092
G1 X141.553 Y77.885 E6.27021
G1 X141.403 Y77.523 E6.28952
G1 X141.311 Y77.141 E6.30882
G1 X141.280 Y76.750 E6.32812
G1 X141.311 Y76.358 E6.34750
G1 X141.405 Y75.973 E6.36701
G1 X141.553 Y75.616 E6.38602
G1 X141.758 Y75.281 E6.40532
G1 X142.012 Y74.983 E6.42463
G1 X142.311 Y74.728 E6.44393
G1 X142.645 Y74.524 E6.46323
G1 X143.007 Y74.373 E6.48254
G1 X143.389 Y74.282 E6.50184
G1 X143.774 Y74.252 E6.52085 F600.000
G1 X144.169 Y74.282 E6.54036
G1 X144.552 Y74.373 E6.55973
G1 X144.914 Y74.524 E6.57904
G1 X145.249 Y74.728 E6.59833
G1 X145.547 Y74.983 E6.61764
G1 X145.802 Y75.281 E6.63694
G1 X146.007 Y75.616 E6.65624
G1 X146.157 Y75.978 E6.67555
G1 X146.248 Y76.359 E6.69484
G1 X146.279 Y76.750 E6.71415
G1 X146.248 Y77.143 E6.73352
G1 X146.154 Y77.528 E6.75303
G1 X146.030 Y77.830 E6.76910
G1 X145.662 Y77.709 F9000.000
G1 X145.489 Y77.992 E6.78541 F600.000
G1 X145.274 Y78.244 E6.80173
G1 X145.021 Y78.459 E6.81804
G1 X144.739 Y78.633 E6.83435
G1 X144.437 Y78.758 E6.85041
G1 X144.111 Y78.837 E6.86694
G1 X143.780 Y78.863 E6.88330
G1 X143.449 Y78.837 E6.89961
G1 X143.127 Y78.760 E6.91592
G1 X142.821 Y78.633 E6.93224
G1 X142.538 Y78.459 E6.94855
G1 X142.286 Y78.244 E6.96487
G1 X142.071 Y77.992 E6.98118
G1 X141.897 Y77.709 E6.99749
G1 X141.771 Y77.403 E7.01381
G1 X141.693 Y77.081 E7.03012
G1 X141.667 Y76.750 E7.04644
G1 X141.693 Y76.419 E7.06280
G1 X141.773 Y76.093 E7.07932
G1 X141.897 Y75.791 E7.09538
G1 X142.071 Y75.509 E7.11169
G1 X142.286 Y75.257 E7.12801
G1 X142.538 Y75.041 E7.14432
G1 X142.821 Y74.868 E7.16063
G1 X143.127 Y74.741 E7.17695
G1 X143.449 Y74.664 E7.19327
G1 X143.774 Y74.638 E7.20932 F600.000
G1 X144.109 Y74.664 E7.22584
G1 X144.432 Y74.741 E7.24220
G1 X144.739 Y74.868 E7.25852
G1 X145.021 Y75.041 E7.27483
G1 X145.274 Y75.257 E7.29115
G1 X145.489 Y75.509 E7.30746
G1 X145.662 Y75.791 E7.32377
G1 X145.789 Y76.098 E7.34009
G1 X145.866 Y76.420 E7.35640
G1 X145.892 Y76.750 E7.37272
G1 X145.866 Y77.082 E7.38908
G1 X145.787 Y77.408 E7.40560
G1 X145.685 Y77.654 E7.41871
G1 X145.317 Y77.534 F9000.000
G1 X145.176 Y77.765 E7.43204 F600.000
G1 X145.000 Y77.971 E7.44536
G1 X144.794 Y78.147 E7.45869
G1 X144.563 Y78.288 E7.47202
G1 X144.317 Y78.390 E7.48511
G1 X144.050 Y78.455 E7.49865
G1 X143.780 Y78.476 E7.51200
G1 X143.510 Y78.455 E7.52532
G1 X143.246 Y78.392 E7.53865
G1 X142.996 Y78.288 E7.55198
G1 X142.765 Y78.146 E7.56530
G1 X142.559 Y77.971 E7.57863
G1 X142.384 Y77.765 E7.59196
G1 X142.242 Y77.534 E7.60528
G1 X142.138 Y77.284 E7.61861
G1 X142.075 Y77.020 E7.63194
G1 X142.054 Y76.750 E7.64527
G1 X142.075 Y76.480 E7.65861
G1 X142.140 Y76.213 E7.67215
G1 X142.242 Y75.967 E7.68525
G1 X142.384 Y75.736 E7.69857
G1 X142.559 Y75.530 E7.71190
G1 X142.765 Y75.354 E7.72523
G1 X142.996 Y75.213 E7.73855
G1 X143.246 Y75.109 E7.75188
G1 X143.510 Y75.046 E7.76521
G1 X143.775 Y75.025 E7.77830 F600.000
G1 X144.049 Y75.046 E7.79184
G1 X144.313 Y75.109 E7.80518
G1 X144.563 Y75.213 E7.81851
G1 X144.794 Y75.354 E7.83184
G1 X145.000 Y75.530 E7.84517
G1 X145.176 Y75.736 E7.85849
G1 X145.317 Y75.967 E7.87182
G1 X145.421 Y76.217 E7.88515
G1 X145.484 Y76.480 E7.89847
G1 X145.505 Y76.750 E7.91180
G1 X145.484 Y77.021 E7.92515
G1 X145.419 Y77.288 E7.93869
G1 X145.340 Y77.478 E7.94883
G1 X145.459 Y77.765 F9000.000
G1 X176.208 Y52.852 F9000.000
G1 X175.983 Y53.397 E7.97786 F600.000
G1 X175.662 Y53.922 E8.00815
G1 X175.262 Y54.390 E8.03843
G1 X174.817 Y54.770 E8.06723
G1 X149.177 Y72.627 E9.60498
G1 X148.695 Y72.922 E9.63280
G1 X148.126 Y73.158 E9.66311
G1 X147.528 Y73.301 E9.69337
G1 X146.915 Y73.350 E9.72363
G1 X146.302 Y73.301 E9.75390
G1 X145.704 Y73.158 E9.78417
G1 X145.135 Y72.922 E9.81444
G1 X144.611 Y72.601 E9.84471
G1 X144.143 Y72.202 E9.87497
G1 X143.744 Y71.734 E9.90525
G1 X143.423 Y71.210 E9.93551
G1 X143.187 Y70.642 E9.96578
G1 X143.044 Y70.043 E9.99605
G1 X142.998 Y69.466 E10.02458
G1 X143.291 Y31.792 E11.87872
G1 X143.336 Y31.222 E11.90687
G1 X143.480 Y30.624 E11.93713
G1 X143.715 Y30.056 E11.96740
G1 X144.036 Y29.532 E11.99767
G1 X144.436 Y29.064 E12.02794
G1 X144.903 Y28.665 E12.05821
G1 X145.428 Y28.343 E12.08847
G1 X145.996 Y28.108 E12.11874
G1 X146.585 Y27.967 E12.14855
G1 X173.265 Y25.362 E13.46784
G1 X173.904 Y25.409 E13.49941
G1 X174.506 Y25.553 E13.52984
G1 X175.074 Y25.788 E13.56010
G1 X175.598 Y26.110 E13.59038
G1 X176.066 Y26.509 E13.62062
G1 X176.466 Y26.977 E13.65091
G1 X176.787 Y27.502 E13.68120
G1 X177.021 Y28.070 E13.71145
G1 X177.165 Y28.667 E13.74169
G1 X177.212 Y29.259 E13.77091
G1 X176.424 Y51.153 E14.84912
G1 X176.594 Y51.205 E14.85790
G1 X176.793 Y50.881 E14.87657
G1 X177.048 Y50.583 E14.89587
G1 X177.346 Y50.328 E14.91518
G1 X177.680 Y50.124 E14.93448
G1 X178.042 Y49.973 E14.95375
G1 X178.424 Y49.882 E14.97308
G1 X178.809 Y49.852 E14.99211
G1 X179.204 Y49.882 E15.01159
G1 X179.586 Y49.973 E15.03094
G1 X179.950 Y50.124 E15.05030
G1 X180.284 Y50.329 E15.06960
G1 X180.581 Y50.583 E15.08885
G1 X180.836 Y50.881 E15.10816
G1 X181.041 Y51.216 E15.12748
G1 X181.191 Y51.578 E15.14677
G1 X181.283 Y51.958 E15.16601
G1 X181.315 Y52.350 E15.18538
G1 X181.283 Y52.743 E15.20474
G1 X181.191 Y53.123 E15.22398
G1 X181.041 Y53.485 E15.24328
G1 X180.836 Y53.820 E15.26260
G1 X180.581 Y54.118 E15.28190
G1 X180.284 Y54.372 E15.30116
G1 X179.950 Y54.577 E15.32045
G1 X179.586 Y54.728 E15.33982
G1 X179.205 Y54.819 E15.35910
G1 X178.815 Y54.850 E15.37836
G1 X178.424 Y54.819 E15.39768
G1 X178.042 Y54.727 E15.41701
G1 X177.680 Y54.577 E15.43628
G1 X177.346 Y54.373 E15.45557
G1 X177.048 Y54.118 E15.47488
G1 X176.793 Y53.820 E15.49419
G1 X176.588 Y53.485 E15.51351
G1 X176.438 Y53.123 E15.53280
G1 X176.376 Y52.865 E15.54584
G1 X176.268 Y52.857 E15.55116
G1 X175.850 Y52.710 F9000.000
G1 X175.638 Y53.222 E15.57842 F600.000
G1 X175.349 Y53.695 E15.60571
G1 X174.988 Y54.116 E15.63301
G1 X174.581 Y54.464 E15.65938
G1 X148.965 Y72.304 E17.19564
G1 X148.519 Y72.578 E17.22141
G1 X148.006 Y72.790 E17.24873
G1 X147.467 Y72.919 E17.27601
G1 X146.915 Y72.963 E17.30328
G1 X146.362 Y72.919 E17.33056
G1 X145.823 Y72.790 E17.35784
G1 X145.311 Y72.578 E17.38513
G1 X144.839 Y72.288 E17.41240
G1 X144.417 Y71.928 E17.43968
G1 X144.057 Y71.507 E17.46697
G1 X143.767 Y71.034 E17.49425
G1 X143.555 Y70.522 E17.52153
G1 X143.426 Y69.983 E17.54881
G1 X143.384 Y69.452 E17.57502
G1 X143.677 Y31.809 E19.42768
G1 X143.718 Y31.283 E19.45366
G1 X143.848 Y30.744 E19.48094
G1 X144.060 Y30.232 E19.50822
G1 X144.349 Y29.759 E19.53550
G1 X144.709 Y29.337 E19.56278
G1 X145.131 Y28.978 E19.59006
G1 X145.603 Y28.688 E19.61734
G1 X146.116 Y28.476 E19.64462
G1 X146.649 Y28.348 E19.67162
G1 X173.269 Y25.749 E20.98798 F600.000
G1 X173.845 Y25.791 E21.01638
G1 X174.386 Y25.921 E21.04377
G1 X174.898 Y26.133 E21.07104
G1 X175.371 Y26.423 E21.09834
G1 X175.792 Y26.782 E21.12559
G1 X176.153 Y27.204 E21.15290
G1 X176.442 Y27.677 E21.18018
G1 X176.654 Y28.189 E21.20745
G1 X176.783 Y28.728 E21.23471
G1 X176.825 Y29.267 E21.26135
G1 X176.020 Y51.653 E22.36380
G1 X175.979 Y52.171 E22.38935
G1 X175.864 Y52.651 E22.41367
G1 X175.482 Y52.590 F9000.000
G1 X175.293 Y53.046 E22.43795 F600.000
G1 X175.036 Y53.467 E22.46224
G1 X174.715 Y53.843 E22.48655
G1 X174.345 Y54.159 E22.51050
G1 X148.754 Y71.981 E24.04527
G1 X148.344 Y72.233 E24.06899
