; generated by Slic3r 1.2.9 on 2020-01-16 at 23:12:24

; external perimeters extrusion width = 0.40mm
; perimeters extrusion width = 0.62mm
; infill extrusion width = 0.33mm
; solid infill extrusion width = 0.62mm
; top infill extrusion width = 0.20mm

M106 S256; Turn on fan to 100% power
M104 S140; turn on extruder temperature at S value
M140 S60; turn on bed temperature at S value
G28; home all axes
M84; disable motors
G1 Z15 F15000; have Z move to 20mm at 15000 mm/min
M190 S55; turn on bed temperature at S value and wait
M140 S55; turn on bed temperature at S value (printing temperature)
M109 S200; turn on extruder temperature at S value and wait (printing temperature)
M104 S200; turn on extruder temperature at S value
G1 Z0 F12000; move Z back to home
G21 ; set units to millimeters
G90 ; use absolute coordinates
M82 ; use absolute distances for extrusion
G92 E0
M106 S255
;Layer change
G1 E-6.00000 F1800.00000
G92 E0
G1 Z0.300 F9000.000
G1 X26.555 Y21.962 F9000.000
G1 E6.00000 F1800.00000
G1 X27.065 Y21.365 E6.03861 F600.000
G1 X27.330 Y21.101 E6.05703
G1 X27.926 Y20.591 E6.09565
G1 X28.229 Y20.371 E6.11408
G1 X28.898 Y19.961 E6.15269
G1 X29.231 Y19.791 E6.17110
G1 X29.956 Y19.491 E6.20972
G1 X30.313 Y19.375 E6.22816
G1 X31.076 Y19.192 E6.26677
G1 X31.445 Y19.133 E6.28518
G1 X32.319 Y19.066 E6.32833
G1 X107.319 Y16.066 E10.02241
G1 X165.192 Y16.072 E12.87065
G1 X165.818 Y16.121 E12.90155 F600.000
G1 X166.189 Y16.180 E12.92001
G1 X166.799 Y16.326 E12.95089
G1 X167.154 Y16.442 E12.96928
G1 X167.734 Y16.682 E13.00017
G1 X168.068 Y16.852 E13.01861
G1 X168.603 Y17.180 E13.04949
G1 X168.907 Y17.400 E13.06795
G1 X169.384 Y17.808 E13.09883
G1 X169.647 Y18.072 E13.11717
G1 X170.055 Y18.549 E13.14807
G1 X170.275 Y18.852 E13.16651
G1 X170.603 Y19.387 E13.19742
G1 X170.774 Y19.721 E13.21585
G1 X171.014 Y20.302 E13.24677
G1 X171.129 Y20.655 E13.26508
G1 X171.276 Y21.266 E13.29598
G1 X171.335 Y21.638 E13.31453
G1 X171.390 Y22.536 E13.35882
G1 X170.283 Y53.136 E14.86579
G1 X170.228 Y53.862 E14.90162
G1 X170.169 Y54.234 E14.92016
G1 X170.022 Y54.845 E14.95109
G1 X169.933 Y55.131 E14.96582
G1 X155.482 Y93.272 E16.97313
G1 X155.251 Y93.811 E17.00200
G1 X155.075 Y94.140 E17.02037
G1 X154.822 Y94.537 E17.04354
G1 X154.597 Y94.836 E17.06196
G1 X154.285 Y95.189 E17.08513
G1 X154.018 Y95.447 E17.10340
G1 X153.654 Y95.748 E17.12666
G1 X153.345 Y95.964 E17.14519
G1 X152.939 Y96.202 E17.16837
G1 X152.604 Y96.366 E17.18671
G1 X152.166 Y96.539 E17.20991
G1 X151.811 Y96.647 E17.22815
G1 X151.349 Y96.750 E17.25144
G1 X150.978 Y96.802 E17.26989
G1 X32.556 Y103.831 E23.10831
G1 X32.227 Y103.828 E23.12449
G1 X31.445 Y103.767 E23.16310
G1 X31.076 Y103.708 E23.18150
G1 X30.313 Y103.525 E23.22012
G1 X29.956 Y103.409 E23.23856
G1 X29.231 Y103.109 E23.27718
G1 X28.898 Y102.939 E23.29557
G1 X28.229 Y102.529 E23.33420
G1 X27.926 Y102.309 E23.35264
G1 X27.330 Y101.799 E23.39125
G1 X27.065 Y101.535 E23.40967
G1 X26.555 Y100.938 E23.44828
G1 X26.335 Y100.635 E23.46670
G1 X25.925 Y99.967 E23.50531
G1 X25.755 Y99.633 E23.52374
G1 X25.455 Y98.908 E23.56236
G1 X25.340 Y98.552 E23.58078
G1 X25.163 Y97.818 E23.61794
G1 X25.098 Y97.419 E23.63781
G1 X25.036 Y96.637 E23.67643
G1 X25.029 Y26.450 E27.13069
G1 X25.098 Y25.481 E27.17852
G1 X25.156 Y25.111 E27.19694
G1 X25.340 Y24.348 E27.23556
G1 X25.455 Y23.992 E27.25398
G1 X25.755 Y23.267 E27.29259
G1 X25.925 Y22.933 E27.31103
G1 X26.335 Y22.264 E27.34964
G1 X26.520 Y22.010 E27.36510
G1 E21.36510 F1800.00000
G92 E0
G1 X64.127 Y89.408 F9000.000
G1 E6.00000 F1800.00000
G1 X64.450 Y89.388 E6.01593 F600.000
G1 X64.773 Y89.419 E6.03187
G1 X65.086 Y89.500 E6.04779
G1 X65.383 Y89.629 E6.06372
G1 X65.656 Y89.803 E6.07965
G1 X65.898 Y90.017 E6.09557
G1 X66.104 Y90.267 E6.11151
G1 X66.268 Y90.546 E6.12744
G1 X66.387 Y90.847 E6.14336
G1 X66.457 Y91.163 E6.15928
G1 X66.477 Y91.486 E6.17521
G1 X66.446 Y91.808 E6.19115
G1 X66.365 Y92.122 E6.20708
G1 X66.236 Y92.418 E6.22300
G1 X66.062 Y92.691 E6.23893
G1 X65.847 Y92.934 E6.25485
G1 X65.598 Y93.140 E6.27078
G1 X65.318 Y93.304 E6.28672
G1 X65.017 Y93.422 E6.30264
G1 X64.702 Y93.492 E6.31856
G1 X64.379 Y93.512 E6.33450
G1 X64.056 Y93.481 E6.35043
G1 X63.743 Y93.400 E6.36636
G1 X63.446 Y93.271 E6.38228
G1 X63.173 Y93.097 E6.39821
G1 X62.931 Y92.883 E6.41413
G1 X62.725 Y92.633 E6.43007
G1 X62.561 Y92.354 E6.44600
G1 X62.442 Y92.053 E6.46193
G1 X62.372 Y91.737 E6.47785
G1 X62.352 Y91.414 E6.49378
G1 X62.383 Y91.092 E6.50971
G1 X62.464 Y90.778 E6.52564
G1 X62.593 Y90.482 E6.54157
G1 X62.767 Y90.209 E6.55749
G1 X62.982 Y89.966 E6.57341
G1 X63.231 Y89.760 E6.58935
G1 X63.510 Y89.596 E6.60529
G1 X63.812 Y89.478 E6.62121
G1 X64.069 Y89.421 E6.63418
G1 X64.181 Y89.791 F9000.000
G1 X64.444 Y89.775 E6.64712 F600.000
G1 X64.706 Y89.800 E6.66006
G1 X64.960 Y89.866 E6.67300
G1 X65.201 Y89.970 E6.68594
G1 X65.423 Y90.112 E6.69888
G1 X65.620 Y90.286 E6.71182
G1 X65.787 Y90.489 E6.72477
G1 X65.921 Y90.715 E6.73771
G1 X66.017 Y90.960 E6.75065
G1 X66.074 Y91.217 E6.76359
G1 X66.090 Y91.479 E6.77653
G1 X66.065 Y91.741 E6.78947
G1 X65.999 Y91.996 E6.80241
G1 X65.894 Y92.237 E6.81535
G1 X65.753 Y92.458 E6.82829
G1 X65.579 Y92.655 E6.84123
G1 X65.376 Y92.823 E6.85418
G1 X65.149 Y92.956 E6.86712
G1 X64.904 Y93.052 E6.88006
G1 X64.648 Y93.109 E6.89300
G1 X64.385 Y93.125 E6.90594
G1 X64.123 Y93.100 E6.91888
G1 X63.869 Y93.034 E6.93182
G1 X63.628 Y92.930 E6.94476
G1 X63.406 Y92.788 E6.95770
G1 X63.209 Y92.614 E6.97064
G1 X63.042 Y92.411 E6.98358
G1 X62.908 Y92.185 E6.99653
G1 X62.812 Y91.940 E7.00947
G1 X62.755 Y91.683 E7.02241
G1 X62.739 Y91.421 E7.03535
G1 X62.764 Y91.159 E7.04829
G1 X62.830 Y90.904 E7.06123
G1 X62.935 Y90.663 E7.07417
G1 X63.076 Y90.442 E7.08711
G1 X63.250 Y90.245 E7.10005
G1 X63.453 Y90.077 E7.11299
G1 X63.680 Y89.944 E7.12594
G1 X63.925 Y89.848 E7.13888
G1 X64.123 Y89.804 E7.14886
G1 X64.286 Y89.549 F9000.000
G1 E1.14886 F1800.00000
G92 E0
G1 X106.202 Y23.119 F9000.000
G1 E6.00000 F1800.00000
G1 X105.956 Y22.908 E6.01593 F600.000
G1 X105.746 Y22.662 E6.03185
G1 X105.577 Y22.386 E6.04779
G1 X105.453 Y22.087 E6.06371
G1 X105.377 Y21.773 E6.07964
G1 X105.352 Y21.450 E6.09557
G1 X105.377 Y21.127 E6.11149
G1 X105.453 Y20.813 E6.12742
G1 X105.577 Y20.514 E6.14335
G1 X105.746 Y20.238 E6.15928
G1 X105.956 Y19.992 E6.17521
G1 X106.202 Y19.781 E6.19113
G1 X106.478 Y19.612 E6.20707
G1 X106.777 Y19.488 E6.22300
G1 X107.092 Y19.413 E6.23892
G1 X107.414 Y19.387 E6.25485 F600.000
G1 X107.737 Y19.413 E6.27078
G1 X108.052 Y19.488 E6.28670
G1 X108.351 Y19.612 E6.30263
G1 X108.627 Y19.781 E6.31856
G1 X108.873 Y19.992 E6.33449
G1 X109.083 Y20.238 E6.35041
G1 X109.252 Y20.514 E6.36635
G1 X109.376 Y20.813 E6.38228
G1 X109.452 Y21.127 E6.39820
G1 X109.477 Y21.450 E6.41413
G1 X109.452 Y21.773 E6.43006
G1 X109.376 Y22.087 E6.44598
G1 X109.252 Y22.386 E6.46191
G1 X109.083 Y22.662 E6.47785
G1 X108.873 Y22.908 E6.49377
G1 X108.627 Y23.119 E6.50970
G1 X108.351 Y23.288 E6.52563
G1 X108.052 Y23.412 E6.54156
G1 X107.737 Y23.487 E6.55748
G1 X107.414 Y23.513 E6.57341
G1 X107.092 Y23.487 E6.58934
G1 X106.777 Y23.412 E6.60526
G1 X106.478 Y23.288 E6.62119
G1 X106.253 Y23.150 E6.63418
G1 X106.430 Y22.806 F9000.000
G1 X106.230 Y22.635 E6.64712 F600.000
G1 X106.059 Y22.435 E6.66005
G1 X105.921 Y22.211 E6.67300
G1 X105.821 Y21.968 E6.68594
G1 X105.759 Y21.712 E6.69888
G1 X105.739 Y21.450 E6.71182
G1 X105.759 Y21.188 E6.72476
G1 X105.821 Y20.932 E6.73770
G1 X105.921 Y20.689 E6.75064
G1 X106.059 Y20.465 E6.76358
G1 X106.230 Y20.265 E6.77652
G1 X106.430 Y20.094 E6.78946
G1 X106.654 Y19.957 E6.80241
G1 X106.897 Y19.856 E6.81535
G1 X107.152 Y19.795 E6.82829
G1 X107.414 Y19.774 E6.84123 F600.000
G1 X107.677 Y19.795 E6.85417
G1 X107.932 Y19.856 E6.86711
G1 X108.175 Y19.957 E6.88005
G1 X108.399 Y20.094 E6.89299
G1 X108.599 Y20.265 E6.90593
G1 X108.770 Y20.465 E6.91887
G1 X108.908 Y20.689 E6.93182
G1 X109.008 Y20.932 E6.94476
G1 X109.070 Y21.188 E6.95770
G1 X109.090 Y21.450 E6.97064
G1 X109.070 Y21.712 E6.98358
G1 X109.008 Y21.968 E6.99652
G1 X108.908 Y22.211 E7.00946
G1 X108.770 Y22.435 E7.02240
G1 X108.599 Y22.635 E7.03534
G1 X108.399 Y22.806 E7.04828
G1 X108.175 Y22.943 E7.06123
G1 X107.932 Y23.044 E7.07417
G1 X107.677 Y23.105 E7.08711
G1 X107.414 Y23.126 E7.10005
G1 X107.152 Y23.105 E7.11299
G1 X106.897 Y23.044 E7.12593
G1 X106.654 Y22.943 E7.13887
G1 X106.481 Y22.837 E7.14886
G1 X106.187 Y22.906 F9000.000
G1 E1.14886 F1800.00000
G92 E0
G1 X127.916 Y75.073 F9000.000
G1 E6.00000 F1800.00000
G1 X128.298 Y74.981 E6.01930 F600.000
G1 X128.683 Y74.951 E6.03831 F600.000
G1 X129.078 Y74.981 E6.05783
G1 X129.461 Y75.073 E6.07719
G1 X129.823 Y75.223 E6.09650
G1 X130.158 Y75.428 E6.11580
G1 X130.456 Y75.683 E6.13510
G1 X130.711 Y75.981 E6.15441
G1 X130.916 Y76.315 E6.17370
G1 X131.066 Y76.678 E6.19301
G1 X131.157 Y77.059 E6.21231
G1 X131.188 Y77.450 E6.23161
G1 X131.157 Y77.842 E6.25099
G1 X131.063 Y78.228 E6.27049
G1 X130.916 Y78.585 E6.28951
G1 X130.711 Y78.919 E6.30881
G1 X130.456 Y79.217 E6.32812
G1 X130.158 Y79.472 E6.34742
G1 X129.823 Y79.677 E6.36672
G1 X129.466 Y79.825 E6.38574
G1 X129.081 Y79.918 E6.40525
G1 X128.689 Y79.949 E6.42462
G1 X128.298 Y79.919 E6.44392
G1 X127.916 Y79.827 E6.46322
G1 X127.554 Y79.677 E6.48253
G1 X127.220 Y79.472 E6.50182
G1 X126.921 Y79.217 E6.52113
G1 X126.667 Y78.919 E6.54043
G1 X126.462 Y78.585 E6.55973
G1 X126.312 Y78.222 E6.57904
G1 X126.220 Y77.841 E6.59833
G1 X126.189 Y77.450 E6.61764
G1 X126.220 Y77.058 E6.63701
G1 X126.314 Y76.672 E6.65652
G1 X126.462 Y76.315 E6.67554
G1 X126.667 Y75.981 E6.69484
G1 X126.921 Y75.683 E6.71414
G1 X127.220 Y75.428 E6.73345
G1 X127.554 Y75.223 E6.75274
G1 X127.861 Y75.096 E6.76910
G1 X128.036 Y75.441 F9000.000
G1 X128.358 Y75.364 E6.78541 F600.000
G1 X128.683 Y75.338 E6.80146 F600.000
G1 X129.018 Y75.363 E6.81800
G1 X129.341 Y75.441 E6.83435
G1 X129.648 Y75.568 E6.85067
G1 X129.930 Y75.741 E6.86698
G1 X130.182 Y75.956 E6.88329
G1 X130.398 Y76.208 E6.89961
G1 X130.571 Y76.491 E6.91592
G1 X130.698 Y76.797 E6.93224
G1 X130.775 Y77.119 E6.94855
G1 X130.801 Y77.450 E6.96487
G1 X130.775 Y77.781 E6.98123
G1 X130.696 Y78.108 E6.99775
G1 X130.571 Y78.409 E7.01381
G1 X130.398 Y78.692 E7.03012
G1 X130.182 Y78.944 E7.04644
G1 X129.930 Y79.159 E7.06275
G1 X129.648 Y79.332 E7.07906
G1 X129.346 Y79.457 E7.09512
G1 X129.020 Y79.536 E7.11164
G1 X128.689 Y79.563 E7.12800
G1 X128.358 Y79.536 E7.14431
G1 X128.036 Y79.459 E7.16063
G1 X127.730 Y79.332 E7.17695
G1 X127.447 Y79.159 E7.19326
G1 X127.195 Y78.944 E7.20957
G1 X126.980 Y78.692 E7.22589
G1 X126.806 Y78.409 E7.24220
G1 X126.680 Y78.103 E7.25852
G1 X126.602 Y77.781 E7.27483
G1 X126.576 Y77.450 E7.29115
G1 X126.602 Y77.119 E7.30751
G1 X126.682 Y76.792 E7.32403
G1 X126.806 Y76.491 E7.34009
G1 X126.980 Y76.208 E7.35640
G1 X127.195 Y75.956 E7.37272
G1 X127.447 Y75.741 E7.38903
G1 X127.730 Y75.568 E7.40534
G1 X127.981 Y75.464 E7.41871
G1 X128.155 Y75.809 F9000.000
G1 X128.419 Y75.746 E7.43204 F600.000
G1 X128.684 Y75.725 E7.44513 F600.000
G1 X128.958 Y75.746 E7.45867
G1 X129.222 Y75.809 E7.47201
G1 X129.472 Y75.912 E7.48534
G1 X129.703 Y76.054 E7.49867
G1 X129.909 Y76.230 E7.51199
G1 X130.085 Y76.436 E7.52532
G1 X130.226 Y76.667 E7.53865
G1 X130.330 Y76.917 E7.55198
G1 X130.393 Y77.180 E7.56530
G1 X130.414 Y77.450 E7.57863
G1 X130.393 Y77.720 E7.59198
G1 X130.328 Y77.988 E7.60551
G1 X130.226 Y78.233 E7.61861
G1 X130.085 Y78.464 E7.63194
G1 X129.909 Y78.670 E7.64526
G1 X129.703 Y78.846 E7.65859
G1 X129.472 Y78.988 E7.67192
G1 X129.226 Y79.089 E7.68501
G1 X128.959 Y79.154 E7.69855
G1 X128.689 Y79.176 E7.71190
G1 X128.419 Y79.154 E7.72522
G1 X128.155 Y79.091 E7.73855
G1 X127.905 Y78.988 E7.75188
G1 X127.674 Y78.846 E7.76521
G1 X127.468 Y78.670 E7.77853
G1 X127.293 Y78.464 E7.79186
G1 X127.151 Y78.233 E7.80519
G1 X127.047 Y77.983 E7.81852
G1 X126.984 Y77.720 E7.83184
G1 X126.963 Y77.450 E7.84517
G1 X126.984 Y77.180 E7.85851
G1 X127.049 Y76.912 E7.87205
G1 X127.151 Y76.667 E7.88515
G1 X127.293 Y76.436 E7.89847
G1 X127.468 Y76.230 E7.91180
G1 X127.674 Y76.054 E7.92513
G1 X127.905 Y75.912 E7.93845
G1 X128.100 Y75.832 E7.94883
G1 X128.219 Y75.545 F9000.000
G1 E1.94883 F1800.00000
G92 E0
G1 X136.411 Y28.174 F9000.000
G1 E6.00000 F1800.00000
G1 X136.411 Y31.411 E6.15927 F600.000
G1 X136.463 Y32.076 E6.19210
G1 X136.610 Y32.687 E6.22302
G1 X136.850 Y33.266 E6.25390
G1 X137.178 Y33.802 E6.28480
G1 X137.585 Y34.279 E6.31568
G1 X138.063 Y34.687 E6.34658
G1 X138.598 Y35.015 E6.37748
G1 X139.178 Y35.255 E6.40838
G1 X139.789 Y35.401 E6.43928
G1 X140.414 Y35.451 E6.47017
G1 X141.040 Y35.401 E6.50106
G1 X141.651 Y35.255 E6.53196
G1 X142.231 Y35.015 E6.56286
G1 X142.766 Y34.687 E6.59377
G1 X143.244 Y34.279 E6.62466
G1 X143.651 Y33.802 E6.65554
G1 X143.979 Y33.266 E6.68644
G1 X144.219 Y32.687 E6.71732
G1 X144.366 Y32.076 E6.74824
G1 X144.418 Y31.411 E6.78108
G1 X144.418 Y27.394 E6.97877
G1 X158.177 Y26.062 E7.65906
G1 X158.816 Y26.108 E7.69061
G1 X159.417 Y26.252 E7.72104
G1 X159.985 Y26.488 E7.75130
G1 X160.510 Y26.809 E7.78158
G1 X160.977 Y27.209 E7.81182
G1 X161.377 Y27.676 E7.84211
G1 X161.698 Y28.201 E7.87240
G1 X161.933 Y28.769 E7.90265
G1 X162.076 Y29.367 E7.93289
G1 X162.123 Y29.959 E7.96212
G1 X161.316 Y52.278 E9.06129
G1 X161.505 Y52.319 E9.07081
G1 X161.672 Y51.915 E9.09233
G1 X161.877 Y51.581 E9.11165
G1 X162.132 Y51.283 E9.13096
G1 X162.430 Y51.028 E9.15021
G1 X162.763 Y50.823 E9.16950
G1 X163.127 Y50.673 E9.18887
G1 X163.508 Y50.581 E9.20815
G1 X163.893 Y50.551 E9.22713
G1 X164.288 Y50.581 E9.24666
G1 X164.672 Y50.673 E9.26606
G1 X165.033 Y50.823 E9.28533
G1 X165.368 Y51.028 E9.30462
G1 X165.666 Y51.283 E9.32393
G1 X165.921 Y51.581 E9.34324
G1 X166.126 Y51.915 E9.36256
G1 X166.276 Y52.278 E9.38185
G1 X166.368 Y52.660 E9.40120
G1 X166.398 Y53.051 E9.42052
G1 X166.366 Y53.446 E9.44000
G1 X166.276 Y53.822 E9.45905
G1 X166.126 Y54.185 E9.47835
G1 X165.921 Y54.519 E9.49767
G1 X165.666 Y54.817 E9.51697
G1 X165.368 Y55.072 E9.53628
G1 X165.033 Y55.277 E9.55558
G1 X164.672 Y55.427 E9.57484
G1 X164.290 Y55.519 E9.59417
G1 X163.898 Y55.549 E9.61349
G1 X163.508 Y55.519 E9.63275
G1 X163.133 Y55.428 E9.65175
G1 X162.765 Y55.278 E9.67133
G1 X162.430 Y55.072 E9.69069
G1 X162.132 Y54.817 E9.70995
G1 X161.877 Y54.519 E9.72925
G1 X161.672 Y54.185 E9.74857
G1 X161.522 Y53.822 E9.76787
G1 X161.431 Y53.442 E9.78711
G1 X161.410 Y53.182 E9.79995
G1 X161.213 Y53.167 E9.80966
G1 X161.126 Y53.530 E9.82804
G1 X160.890 Y54.098 E9.85830
G1 X160.569 Y54.622 E9.88854
G1 X160.169 Y55.089 E9.91882
G1 X159.723 Y55.470 E9.94767
G1 X133.955 Y73.327 E11.49060
G1 X133.474 Y73.622 E11.51837
G1 X132.905 Y73.858 E11.54868
G1 X132.308 Y74.001 E11.57891
G1 X131.695 Y74.049 E11.60918
G1 X131.082 Y74.001 E11.63945
G1 X130.483 Y73.858 E11.66972
G1 X129.915 Y73.622 E11.69999
G1 X129.391 Y73.301 E11.73025
G1 X128.923 Y72.901 E11.76052
G1 X128.524 Y72.434 E11.79079
G1 X128.202 Y71.909 E11.82106
G1 X127.967 Y71.341 E11.85133
G1 X127.824 Y70.743 E11.88160
G1 X127.778 Y70.165 E11.91013
G1 X128.072 Y32.492 E13.76427
G1 X128.117 Y31.922 E13.79242
G1 X128.261 Y31.324 E13.82268
G1 X128.496 Y30.756 E13.85296
G1 X128.818 Y30.231 E13.88322
G1 X129.217 Y29.764 E13.91349
G1 X129.685 Y29.364 E13.94376
G1 X130.209 Y29.043 E13.97402
G1 X130.777 Y28.807 E14.00429
G1 X131.366 Y28.666 E14.03410
G1 X136.351 Y28.180 E14.28059
G1 X136.025 Y28.599 F9000.000
G1 X136.025 Y31.426 E14.41969 F600.000
G1 X136.081 Y32.136 E14.45476
G1 X136.242 Y32.806 E14.48866
G1 X136.505 Y33.442 E14.52253
G1 X136.865 Y34.029 E14.55642
G1 X137.312 Y34.552 E14.59028
G1 X137.835 Y35.000 E14.62417
G1 X138.423 Y35.359 E14.65806
G1 X139.059 Y35.623 E14.69195
G1 X139.728 Y35.783 E14.72584
G1 X140.414 Y35.837 E14.75971
G1 X141.101 Y35.783 E14.79359
G1 X141.770 Y35.623 E14.82748
G1 X142.406 Y35.359 E14.86137
G1 X142.994 Y35.000 E14.89525
G1 X143.517 Y34.552 E14.92914
G1 X143.964 Y34.029 E14.96301
G1 X144.324 Y33.442 E14.99689
G1 X144.587 Y32.806 E15.03077
G1 X144.748 Y32.136 E15.06466
G1 X144.804 Y31.426 E15.09974
G1 X144.804 Y27.744 E15.28096
G1 X158.181 Y26.449 E15.94240
G1 X158.757 Y26.491 E15.97079
