; generated by Slic3r 1.2.9 on 2019-09-21 at 22:03:44

; external perimeters extrusion width = 0.40mm
; perimeters extrusion width = 0.62mm
; infill extrusion width = 0.33mm
; solid infill extrusion width = 0.62mm
; top infill extrusion width = 0.20mm
; support material extrusion width = 0.40mm

M106 S256; Turn on fan to 100% power
M104 S140; turn on extruder temperature at S value
M140 S60; turn on bed temperature at S value
G28; home all axes
M84; disable motors
G1 Z15 F15000; have Z move to 20mm at 15000 mm/min
M190 S55; turn on bed temperature at S value and wait
M140 S55; turn on bed temperature at S value (printing temperature)
M109 S200; turn on extruder temperature at S value and wait (printing temperature)
M104 S200; turn on extruder temperature at S value
G1 Z0 F12000; move Z back to home
G21 ; set units to millimeters
G90 ; use absolute coordinates
M82 ; use absolute distances for extrusion
G92 E0
M106 S255
;Layer change
G1 E-6.00000 F1800.00000
G92 E0
G1 Z0.300 F9000.000
G1 X29.436 Y9.900 F9000.000
G1 E6.00000 F1800.00000
G1 X30.482 Y9.021 E6.06574 F600.000
G1 X31.430 Y8.824 E6.11229
G1 X176.430 Y8.824 E13.08630
G1 X177.740 Y9.216 E13.15204
G1 X178.619 Y10.262 E13.21779 F600.000
G1 X178.816 Y11.210 E13.26434
G1 X178.816 Y111.210 E18.07400
G1 X178.424 Y112.520 E18.13974
G1 X177.378 Y113.399 E18.20549
G1 X176.430 Y113.596 E18.25204
G1 X31.430 Y113.596 E25.22604
G1 X30.120 Y113.204 E25.29179
G1 X29.241 Y112.158 E25.35753
G1 X29.044 Y111.210 E25.40408
G1 X29.044 Y11.210 E30.21374
G1 X29.419 Y9.958 E30.27660
G1 E24.27660 F1800.00000
G92 E0
G1 X35.041 Y105.329 F9000.000
G1 E6.00000 F1800.00000
G1 X35.593 Y105.610 E6.02977 F600.000
G1 X36.030 Y106.048 E6.05953
G1 X36.311 Y106.599 E6.08928
G1 X36.408 Y107.210 E6.11904
G1 X36.311 Y107.821 E6.14881
G1 X36.030 Y108.372 E6.17855
G1 X35.593 Y108.810 E6.20831
G1 X35.041 Y109.091 E6.23808
G1 X34.430 Y109.188 E6.26785
G1 X33.819 Y109.091 E6.29762
G1 X33.267 Y108.810 E6.32740
G1 X32.830 Y108.372 E6.35716
G1 X32.549 Y107.821 E6.38690
G1 X32.452 Y107.210 E6.41667
G1 X32.549 Y106.599 E6.44643
G1 X32.830 Y106.048 E6.47617
G1 X33.268 Y105.609 E6.50602
G1 X33.847 Y105.324 E6.53705
G1 X34.430 Y105.232 E6.56542 F600.000
G1 X34.982 Y105.320 E6.59230
G1 X35.352 Y105.077 F9000.000
G1 X34.430 Y17.188 F9000.000
G1 X33.819 Y17.091 E6.62207 F600.000
G1 X33.267 Y16.810 E6.65184
G1 X32.830 Y16.372 E6.68161
G1 X32.549 Y15.821 E6.71135
G1 X32.452 Y15.210 E6.74111
G1 X32.549 Y14.599 E6.77088
G1 X32.830 Y14.048 E6.80062
G1 X33.268 Y13.609 E6.83047
G1 X33.847 Y13.324 E6.86149
G1 X34.430 Y13.232 E6.88986 F600.000
G1 X35.041 Y13.329 E6.91963
G1 X35.593 Y13.610 E6.94940
G1 X36.030 Y14.048 E6.97917
G1 X36.311 Y14.599 E7.00891
G1 X36.413 Y15.243 E7.04027
G1 X36.310 Y15.823 E7.06862
G1 X36.030 Y16.372 E7.09826
G1 X35.593 Y16.810 E7.12802
G1 X35.041 Y17.091 E7.15779
G1 X34.489 Y17.178 E7.18468
G1 X34.212 Y17.523 F9000.000
G1 E1.18468 F1800.00000
G92 E0
G1 X169.193 Y105.594 F9000.000
G1 E6.00000 F1800.00000
G1 X169.814 Y104.973 E6.04224 F600.000
G1 X170.612 Y104.581 E6.08501
G1 X171.430 Y104.451 E6.12484 F600.000
G1 X172.282 Y104.586 E6.16635
G1 X173.052 Y104.978 E6.20787
G1 X173.662 Y105.589 E6.24938
G1 X174.054 Y106.357 E6.29089
G1 X174.189 Y107.210 E6.33240
G1 X174.054 Y108.063 E6.37392
G1 X173.662 Y108.831 E6.41543
G1 X173.052 Y109.442 E6.45694
G1 X172.282 Y109.834 E6.49845
G1 X171.423 Y109.970 E6.54033
G1 X170.546 Y109.818 E6.58309
G1 X169.808 Y109.442 E6.62293
G1 X169.198 Y108.831 E6.66444
G1 X168.806 Y108.062 E6.70595
G1 X168.671 Y107.210 E6.74746
G1 X168.801 Y106.392 E6.78730
G1 X169.166 Y105.648 E6.82718
G1 X169.511 Y105.821 F9000.000
G1 X170.041 Y105.291 E6.86326 F600.000
G1 X170.730 Y104.953 E6.90016
G1 X171.430 Y104.842 E6.93425 F600.000
G1 X172.162 Y104.958 E6.96989
G1 X172.822 Y105.294 E7.00553
G1 X173.346 Y105.818 E7.04117
G1 X173.682 Y106.478 E7.07680
G1 X173.798 Y107.210 E7.11244
G1 X173.682 Y107.942 E7.14808
G1 X173.346 Y108.602 E7.18371
G1 X172.822 Y109.126 E7.21935
G1 X172.162 Y109.462 E7.25499
G1 X171.425 Y109.579 E7.29085
G1 X170.670 Y109.448 E7.32774
G1 X170.038 Y109.126 E7.36184
G1 X169.514 Y108.602 E7.39748
G1 X169.178 Y107.942 E7.43311
G1 X169.062 Y107.210 E7.46875
G1 X169.173 Y106.510 E7.50285
G1 X169.484 Y105.875 E7.53686
G1 X169.829 Y106.049 F9000.000
G1 X170.269 Y105.609 E7.56678 F600.000
G1 X170.848 Y105.324 E7.59780
G1 X171.430 Y105.232 E7.62616 F600.000
G1 X172.041 Y105.329 E7.65592
G1 X172.593 Y105.610 E7.68569
G1 X173.030 Y106.047 E7.71545
G1 X173.311 Y106.599 E7.74521
G1 X173.408 Y107.210 E7.77497
G1 X173.311 Y107.821 E7.80474
G1 X173.030 Y108.372 E7.83450
G1 X172.593 Y108.810 E7.86426
G1 X172.041 Y109.091 E7.89402
G1 X171.428 Y109.188 E7.92387
G1 X170.793 Y109.078 E7.95488
G1 X170.267 Y108.810 E7.98325
G1 X169.830 Y108.372 E8.01301
G1 X169.549 Y107.821 E8.04277
G1 X169.452 Y107.210 E8.07253
G1 X169.544 Y106.628 E8.10090
G1 X169.802 Y106.103 E8.12903
G1 X169.684 Y105.676 F9000.000
G1 X99.189 Y107.210 F9000.000
G1 X99.053 Y108.070 E8.17090 F600.000
G1 X98.637 Y108.856 E8.21367
G1 X98.051 Y109.442 E8.25350
G1 X97.282 Y109.834 E8.29502
G1 X96.430 Y109.969 E8.33653
G1 X95.578 Y109.834 E8.37804
G1 X94.808 Y109.442 E8.41955
G1 X94.198 Y108.832 E8.46107
G1 X93.806 Y108.062 E8.50258
G1 X93.671 Y107.210 E8.54409
G1 X93.806 Y106.358 E8.58560
G1 X94.198 Y105.588 E8.62712
G1 X94.814 Y104.973 E8.66899
G1 X95.612 Y104.581 E8.71176
G1 X96.430 Y104.451 E8.75159 F600.000
G1 X97.282 Y104.586 E8.79311
G1 X98.051 Y104.978 E8.83462
G1 X98.662 Y105.588 E8.87613
G1 X99.054 Y106.358 E8.91764
G1 X99.179 Y107.151 E8.95627
G1 X98.798 Y107.210 F9000.000
G1 X98.682 Y107.946 E8.99213 F600.000
G1 X98.323 Y108.625 E9.02902
G1 X97.822 Y109.126 E9.06312
G1 X97.162 Y109.462 E9.09876
G1 X96.430 Y109.578 E9.13440
G1 X95.698 Y109.462 E9.17003
G1 X95.038 Y109.126 E9.20567
G1 X94.514 Y108.602 E9.24131
G1 X94.178 Y107.942 E9.27695
G1 X94.062 Y107.210 E9.31258
G1 X94.178 Y106.478 E9.34822
G1 X94.514 Y105.818 E9.38386
G1 X95.041 Y105.291 E9.41972
G1 X95.730 Y104.953 E9.45661
G1 X96.430 Y104.842 E9.49071 F600.000
G1 X97.162 Y104.958 E9.52635
G1 X97.822 Y105.294 E9.56198
G1 X98.346 Y105.818 E9.59762
G1 X98.682 Y106.478 E9.63326
G1 X98.789 Y107.151 E9.66601
G1 X98.408 Y107.210 F9000.000
G1 X98.311 Y107.823 E9.69585 F600.000
G1 X98.010 Y108.393 E9.72687
G1 X97.593 Y108.810 E9.75524
G1 X97.041 Y109.091 E9.78500
G1 X96.430 Y109.188 E9.81476
G1 X95.819 Y109.091 E9.84452
G1 X95.267 Y108.810 E9.87428
G1 X94.830 Y108.373 E9.90405
G1 X94.549 Y107.821 E9.93381
G1 X94.452 Y107.210 E9.96357
G1 X94.549 Y106.599 E9.99333
G1 X94.830 Y106.047 E10.02309
G1 X95.269 Y105.609 E10.05294
G1 X95.848 Y105.324 E10.08396
G1 X96.430 Y105.232 E10.11232 F600.000
G1 X97.041 Y105.329 E10.14208
G1 X97.593 Y105.610 E10.17184
G1 X98.030 Y106.047 E10.20161
G1 X98.311 Y106.599 E10.23137
G1 X98.398 Y107.151 E10.25825
G1 X98.743 Y107.428 F9000.000
G1 E4.25825 F1800.00000
G92 E0
G1 X89.614 Y105.569 F9000.000
G1 E6.00000 F1800.00000
G1 X88.989 Y106.796 E6.06620 F600.000
G1 X88.016 Y107.769 E6.13239
G1 X86.789 Y108.394 E6.19860
G1 X85.539 Y108.592 E6.25950
G1 X45.321 Y108.592 E8.19382
G1 X44.071 Y108.394 E8.25473
G1 X42.845 Y107.769 E8.32090
G1 X41.871 Y106.796 E8.38710
G1 X41.246 Y105.569 E8.45331
G1 X41.048 Y104.319 E8.51420
G1 X41.048 Y68.101 E10.25615
G1 X41.246 Y66.851 E10.31705
G1 X41.871 Y65.624 E10.38325
G1 X42.845 Y64.651 E10.44945
G1 X44.071 Y64.026 E10.51563
G1 X45.321 Y63.828 E10.57653
G1 X85.539 Y63.828 E12.51086 F600.000
G1 X86.789 Y64.026 E12.57175
G1 X88.016 Y64.651 E12.63796
G1 X88.989 Y65.624 E12.70415
G1 X89.614 Y66.851 E12.77035
G1 X89.812 Y68.101 E12.83125
G1 X89.812 Y104.319 E14.57319
G1 X89.623 Y105.510 E14.63120
G1 X89.242 Y105.449 F9000.000
G1 X88.673 Y106.566 E14.69153 F600.000
G1 X87.786 Y107.453 E14.75185
G1 X86.669 Y108.022 E14.81218
G1 X85.508 Y108.206 E14.86868
G1 X45.352 Y108.206 E16.80008
G1 X44.191 Y108.022 E16.85659
G1 X43.074 Y107.453 E16.91689
G1 X42.187 Y106.566 E16.97722
G1 X41.618 Y105.449 E17.03755
G1 X41.434 Y104.288 E17.09405
G1 X41.434 Y68.132 E18.83307
G1 X41.618 Y66.971 E18.88958
G1 X42.187 Y65.854 E18.94990
G1 X43.074 Y64.967 E19.01023
G1 X44.191 Y64.398 E19.07053
G1 X45.352 Y64.214 E19.12704
G1 X85.508 Y64.214 E21.05844 F600.000
G1 X86.669 Y64.397 E21.11494
G1 X87.786 Y64.967 E21.17527
G1 X88.673 Y65.854 E21.23559
G1 X89.242 Y66.971 E21.29591
G1 X89.426 Y68.132 E21.35242
G1 X89.426 Y104.288 E23.09144
G1 X89.252 Y105.389 E23.14505
G1 X88.871 Y105.328 F9000.000
G1 X88.357 Y106.337 E23.19951 F600.000
G1 X87.557 Y107.137 E23.25395
G1 X86.548 Y107.651 E23.30840
G1 X85.478 Y107.821 E23.36050
G1 X45.382 Y107.821 E25.28899
G1 X44.312 Y107.651 E25.34110
G1 X43.304 Y107.137 E25.39553
G1 X42.503 Y106.337 E25.44998
G1 X41.989 Y105.328 E25.50443
G1 X41.819 Y104.258 E25.55653
G1 X41.819 Y68.162 E27.29264
G1 X41.989 Y67.092 E27.34475
G1 X42.503 Y66.083 E27.39919
G1 X43.304 Y65.283 E27.45365
G1 X44.312 Y64.769 E27.50808
G1 X45.382 Y64.599 E27.56019
G1 X85.478 Y64.599 E29.48867 F600.000
G1 X86.548 Y64.769 E29.54077
G1 X87.557 Y65.283 E29.59523
G1 X88.357 Y66.083 E29.64967
G1 X88.871 Y67.092 E29.70412
G1 X89.041 Y68.162 E29.75623
G1 X89.041 Y104.258 E31.49233
G1 X88.881 Y105.269 E31.54155
G1 X88.500 Y105.207 F9000.000
G1 X88.041 Y106.107 E31.59012 F600.000
G1 X87.327 Y106.821 E31.63869
G1 X86.427 Y107.280 E31.68727
G1 X85.448 Y107.435 E31.73497
G1 X45.412 Y107.435 E33.66054
G1 X44.433 Y107.280 E33.70825
G1 X43.533 Y106.821 E33.75681
G1 X42.819 Y106.107 E33.80538
G1 X42.360 Y105.207 E33.85396
G1 X42.205 Y104.228 E33.90167
G1 X42.205 Y68.192 E35.63485
G1 X42.360 Y67.212 E35.68256
G1 X42.819 Y66.313 E35.73113
G1 X43.533 Y65.599 E35.77971
G1 X44.433 Y65.140 E35.82827
G1 X45.412 Y64.985 E35.87598
G1 X85.448 Y64.985 E37.80154 F600.000
G1 X86.427 Y65.140 E37.84925
G1 X87.327 Y65.599 E37.89783
G1 X88.041 Y66.313 E37.94639
G1 X88.500 Y67.212 E37.99497
G1 X88.655 Y68.192 E38.04268
G1 X88.655 Y104.228 E39.77586
G1 X88.509 Y105.148 E39.82068
G1 X88.752 Y105.518 F9000.000
G1 E33.82068 F1800.00000
G92 E0
G1 X85.539 Y58.592 F9000.000
G1 E6.00000 F1800.00000
G1 X45.321 Y58.592 E7.93432 F600.000
G1 X44.071 Y58.394 E7.99523
G1 X42.845 Y57.769 E8.06140
G1 X41.871 Y56.796 E8.12761
G1 X41.246 Y55.569 E8.19381
G1 X41.048 Y54.319 E8.25471
G1 X41.048 Y18.101 E9.99666
G1 X41.246 Y16.851 E10.05756
G1 X41.871 Y15.624 E10.12375
G1 X42.845 Y14.651 E10.18996
G1 X44.071 Y14.026 E10.25613
G1 X45.321 Y13.828 E10.31704
G1 X85.539 Y13.828 E12.25136 F600.000
G1 X86.789 Y14.026 E12.31226
G1 X88.016 Y14.651 E12.37846
G1 X88.989 Y15.624 E12.44466
G1 X89.614 Y16.851 E12.51085
G1 X89.812 Y18.101 E12.57176
G1 X89.812 Y54.319 E14.31369
G1 X89.614 Y55.569 E14.37460
G1 X88.989 Y56.796 E14.44080
G1 X88.016 Y57.769 E14.50699
G1 X86.789 Y58.394 E14.57319
G1 X85.598 Y58.582 E14.63120
G1 X85.508 Y58.206 F9000.000
G1 X45.352 Y58.206 E16.56261 F600.000
G1 X44.191 Y58.022 E16.61911
G1 X43.074 Y57.453 E16.67942
G1 X42.187 Y56.566 E16.73975
G1 X41.618 Y55.449 E16.80007
G1 X41.434 Y54.288 E16.85657
G1 X41.434 Y18.132 E18.59560
G1 X41.618 Y16.971 E18.65210
G1 X42.187 Y15.854 E18.71242
G1 X43.074 Y14.967 E18.77276
G1 X44.191 Y14.398 E18.83306
G1 X45.352 Y14.214 E18.88956
G1 X85.508 Y14.214 E20.82097 F600.000
G1 X86.669 Y14.398 E20.87747
G1 X87.786 Y14.967 E20.93780
G1 X88.673 Y15.854 E20.99812
G1 X89.242 Y16.971 E21.05844
G1 X89.426 Y18.132 E21.11494
G1 X89.426 Y54.288 E22.85396
G1 X89.242 Y55.449 E22.91047
G1 X88.673 Y56.566 E22.97079
G1 X87.786 Y57.453 E23.03111
G1 X86.669 Y58.022 E23.09144
G1 X85.568 Y58.197 E23.14505
G1 X85.478 Y57.821 F9000.000
G1 X45.382 Y57.821 E25.07354 F600.000
G1 X44.312 Y57.651 E25.12564
G1 X43.304 Y57.137 E25.18007
G1 X42.503 Y56.337 E25.23453
G1 X41.989 Y55.328 E25.28898
G1 X41.819 Y54.258 E25.34109
G1 X41.819 Y18.162 E27.07719
G1 X41.989 Y17.092 E27.12930
G1 X42.503 Y16.083 E27.18374
G1 X43.304 Y15.283 E27.23820
G1 X44.312 Y14.769 E27.29263
G1 X45.382 Y14.599 E27.34474
G1 X85.478 Y14.599 E29.27322 F600.000
G1 X86.548 Y14.769 E29.32532
G1 X87.557 Y15.283 E29.37978
G1 X88.357 Y16.083 E29.43422
G1 X88.871 Y17.092 E29.48867
G1 X89.041 Y18.162 E29.54078
G1 X89.041 Y54.258 E31.27687
G1 X88.871 Y55.328 E31.32898
G1 X88.357 Y56.337 E31.38343
G1 X87.557 Y57.137 E31.43788
G1 X86.548 Y57.651 E31.49233
G1 X85.537 Y57.811 E31.54155
G1 X85.448 Y57.435 F9000.000
G1 X45.412 Y57.435 E33.46711 F600.000
G1 X44.433 Y57.280 E33.51482
G1 X43.533 Y56.821 E33.56338
G1 X42.819 Y56.107 E33.61196
G1 X42.360 Y55.207 E33.66053
G1 X42.205 Y54.228 E33.70824
G1 X42.205 Y18.192 E35.44142
G1 X42.360 Y17.213 E35.48913
G1 X42.819 Y16.313 E35.53770
G1 X43.533 Y15.599 E35.58628
G1 X44.433 Y15.140 E35.63484
G1 X45.412 Y14.985 E35.68255
G1 X85.448 Y14.985 E37.60812 F600.000
G1 X86.427 Y15.140 E37.65582
G1 X87.327 Y15.599 E37.70440
G1 X88.041 Y16.313 E37.75297
G1 X88.500 Y17.213 E37.80154
G1 X88.655 Y18.192 E37.84925
G1 X88.655 Y54.228 E39.58243
G1 X88.500 Y55.207 E39.63014
G1 X88.041 Y56.107 E39.67872
G1 X87.327 Y56.821 E39.72728
G1 X86.427 Y57.280 E39.77586
G1 X85.507 Y57.426 E39.82068
G1 X85.266 Y57.791 F9000.000
G1 X116.048 Y57.328 F9000.000
G1 X116.048 Y20.601 E41.58712 F600.000
G1 X116.246 Y19.351 E41.64802
G1 X116.871 Y18.124 E41.71422
G1 X117.844 Y17.151 E41.78041
G1 X119.071 Y16.526 E41.84661
G1 X120.321 Y16.328 E41.90751
G1 X149.539 Y16.328 E43.31278
G1 X150.789 Y16.526 E43.37368
G1 X152.016 Y17.151 E43.43988
G1 X152.989 Y18.124 E43.50607
G1 X153.614 Y19.351 E43.57227
G1 X153.812 Y20.601 E43.63317
G1 X153.812 Y57.328 E45.39961
G1 X165.539 Y57.328 E45.96363
G1 X166.789 Y57.526 E46.02454
G1 X168.016 Y58.151 E46.09073
G1 X168.989 Y59.124 E46.15693
G1 X169.614 Y60.351 E46.22313
G1 X169.812 Y61.601 E46.28403
G1 X169.812 Y90.819 E47.68929
G1 X169.614 Y92.069 E47.75019
G1 X168.989 Y93.296 E47.81640
G1 X168.016 Y94.269 E47.88258
G1 X166.789 Y94.894 E47.94878
G1 X165.539 Y95.092 E48.00969
G1 X105.321 Y95.092 E50.90594
G1 X104.071 Y94.894 E50.96684
G1 X102.844 Y94.269 E51.03304
G1 X101.871 Y93.296 E51.09923
G1 X101.246 Y92.069 E51.16544
G1 X101.048 Y90.819 E51.22633
G1 X101.048 Y61.601 E52.63160
G1 X101.246 Y60.351 E52.69250
G1 X101.871 Y59.124 E52.75870
G1 X102.844 Y58.151 E52.82489
G1 X104.071 Y57.526 E52.89110
G1 X105.321 Y57.328 E52.95199
G1 X115.988 Y57.328 E53.46503
G1 X116.434 Y57.714 F9000.000
G1 X116.434 Y20.632 E55.24856 F600.000
G1 X116.618 Y19.471 E55.30506
G1 X117.187 Y18.354 E55.36538
G1 X118.074 Y17.467 E55.42571
G1 X119.191 Y16.898 E55.48603
G1 X120.352 Y16.714 E55.54253
G1 X149.508 Y16.714 E56.94488
G1 X150.669 Y16.898 E57.00138
G1 X151.786 Y17.467 E57.06170
G1 X152.673 Y18.354 E57.12203
G1 X153.242 Y19.471 E57.18235
G1 X153.426 Y20.632 E57.23885
G1 X153.426 Y57.714 E59.02238
G1 X165.508 Y57.714 E59.60349
G1 X166.669 Y57.898 E59.65999
G1 X167.786 Y58.467 E59.72031
G1 X168.673 Y59.354 E59.78064
G1 X169.242 Y60.471 E59.84096
G1 X169.426 Y61.632 E59.89746
G1 X169.426 Y90.788 E61.29981
G1 X169.242 Y91.949 E61.35631
G1 X168.673 Y93.066 E61.41664
G1 X167.786 Y93.953 E61.47695
G1 X166.669 Y94.522 E61.53727
G1 X165.508 Y94.706 E61.59378
G1 X105.352 Y94.706 E64.48712
G1 X104.191 Y94.522 E64.54362
G1 X103.074 Y93.953 E64.60395
G1 X102.187 Y93.066 E64.66426
G1 X101.618 Y91.949 E64.72459
G1 X101.434 Y90.788 E64.78109
G1 X101.434 Y61.632 E66.18343
G1 X101.618 Y60.471 E66.23994
G1 X102.187 Y59.354 E66.30026
G1 X103.074 Y58.467 E66.36058
G1 X104.191 Y57.897 E66.42091
G1 X105.352 Y57.714 E66.47741
G1 X116.374 Y57.714 E67.00754
G1 X116.819 Y58.099 F9000.000
G1 X116.819 Y20.662 E68.80815 F600.000
G1 X116.989 Y19.592 E68.86026
G1 X117.503 Y18.583 E68.91470
G1 X118.303 Y17.783 E68.96915
G1 X119.312 Y17.269 E69.02360
G1 X120.382 Y17.099 E69.07571
G1 X149.478 Y17.099 E70.47513
G1 X150.548 Y17.269 E70.52724
G1 X151.557 Y17.783 E70.58169
G1 X152.357 Y18.583 E70.63613
G1 X152.871 Y19.592 E70.69058
G1 X153.041 Y20.662 E70.74269
G1 X153.041 Y58.099 E72.54330
G1 X165.478 Y58.099 E73.14150
G1 X166.548 Y58.269 E73.19360
G1 X167.557 Y58.783 E73.24805
G1 X168.357 Y59.583 E73.30250
G1 X168.871 Y60.592 E73.35694
G1 X169.041 Y61.662 E73.40905
G1 X169.041 Y90.758 E74.80848
