; generated by Slic3r 1.2.9 on 2019-09-18 at 12:10:45

; external perimeters extrusion width = 0.40mm
; perimeters extrusion width = 0.62mm
; infill extrusion width = 0.33mm
; solid infill extrusion width = 0.62mm
; top infill extrusion width = 0.20mm
; support material extrusion width = 0.40mm

M106 S256; Turn on fan to 100% power
M104 S140; turn on extruder temperature at S value
M140 S60; turn on bed temperature at S value
G28; home all axes
M84; disable motors
G1 Z15 F15000; have Z move to 20mm at 15000 mm/min
M190 S55; turn on bed temperature at S value and wait
M140 S55; turn on bed temperature at S value (printing temperature)
M109 S200; turn on extruder temperature at S value and wait (printing temperature)
M104 S200; turn on extruder temperature at S value
G1 Z0 F12000; move Z back to home
G21 ; set units to millimeters
G90 ; use absolute coordinates
M82 ; use absolute distances for extrusion
G92 E0
M106 S255
;Layer change
G1 E-6.00000 F1800.00000
G92 E0
G1 Z0.300 F9000.000
G1 X43.706 Y16.760 F9000.000
G1 E6.00000 F1800.00000
G1 X44.752 Y15.881 E6.06574 F600.000
G1 X45.700 Y15.684 E6.11229
G1 X120.700 Y15.684 E9.71954
G1 X121.194 Y15.736 E9.74345
G1 X154.194 Y22.726 E11.36585 F600.000
G1 X155.394 Y23.381 E11.43159
G1 X156.086 Y25.060 E11.51894
G1 X156.086 Y61.070 E13.25090
G1 X155.694 Y62.380 E13.31664
G1 X155.211 Y62.916 E13.35138
G1 X122.211 Y89.916 E15.40212
G1 X120.700 Y90.456 E15.47927
G1 X45.700 Y90.456 E19.08651
G1 X44.390 Y90.064 E19.15226
G1 X43.511 Y89.018 E19.21800
G1 X43.314 Y88.070 E19.26455
G1 X43.314 Y18.070 E22.63131
G1 X43.689 Y16.818 E22.69417
G1 E16.69417 F1800.00000
G92 E0
G1 X68.318 Y26.688 F9000.000
G1 E6.00000 F1800.00000
G1 X111.082 Y26.688 E8.05679 F600.000
G1 X111.082 Y79.452 E10.59454
G1 X68.318 Y79.452 E12.65133
G1 X68.318 Y26.748 E15.18620
G1 X68.704 Y27.074 F9000.000
G1 X110.696 Y27.074 E17.20589 F600.000
G1 X110.696 Y79.066 E19.70655
G1 X68.704 Y79.066 E21.72625
G1 X68.704 Y27.134 E24.22402
G1 X69.089 Y27.459 F9000.000
G1 X110.311 Y27.459 E26.20662 F600.000
G1 X110.311 Y78.681 E28.67019
G1 X69.089 Y78.681 E30.65279
G1 X69.089 Y27.519 E33.11347
G1 X69.475 Y27.845 F9000.000
G1 X109.925 Y27.845 E35.05898 F600.000
G1 X109.925 Y78.295 E37.48545
G1 X69.475 Y78.295 E39.43096
G1 X69.475 Y27.905 E41.85455
G1 X69.475 Y27.445 F9000.000
G1 E35.85455 F1800.00000
G92 E0
G1 X118.318 Y32.688 F9000.000
G1 E6.00000 F1800.00000
G1 X143.082 Y32.688 E7.19105 F600.000
G1 X143.082 Y55.452 E8.28591
G1 X118.318 Y55.452 E9.47696
G1 X118.318 Y32.748 E10.56893
G1 X118.704 Y33.074 F9000.000
G1 X142.696 Y33.074 E11.72288 F600.000
G1 X142.696 Y55.066 E12.78065
G1 X118.704 Y55.066 E13.93460
G1 X118.704 Y33.134 E14.98948
G1 X119.089 Y33.459 F9000.000
G1 X142.311 Y33.459 E16.10634 F600.000
G1 X142.311 Y54.681 E17.12701
G1 X119.089 Y54.681 E18.24387
G1 X119.089 Y33.519 E19.26166
G1 X119.475 Y33.845 F9000.000
G1 X141.925 Y33.845 E20.34143 F600.000
G1 X141.925 Y54.295 E21.32500
G1 X119.475 Y54.295 E22.40477
G1 X119.475 Y33.905 E23.38546
G1 X119.475 Y33.445 F9000.000
G1 X119.318 Y26.442 F9000.000
G1 X152.318 Y26.442 E24.97265 F600.000
G1 X152.318 Y59.688 E26.57168
G1 X119.318 Y59.688 E28.15887
G1 X119.318 Y86.688 E29.45747
G1 X47.082 Y86.688 E32.93179
G1 X47.082 Y19.452 E36.16563
G1 X119.318 Y19.452 E39.63995
G1 X119.318 Y26.382 E39.97325
G1 X119.704 Y26.056 F9000.000
G1 X152.704 Y26.056 E41.56044 F600.000
G1 X152.704 Y60.074 E43.19657
G1 X119.704 Y60.074 E44.78376
G1 X119.704 Y87.074 E46.08236
G1 X46.696 Y87.074 E49.59378
G1 X46.696 Y19.066 E52.86471
G1 X119.704 Y19.066 E56.37612
G1 X119.704 Y25.996 E56.70943
G1 X120.089 Y25.671 F9000.000
G1 X153.089 Y25.671 E58.29661 F600.000
G1 X153.089 Y60.459 E59.96984
G1 X120.089 Y60.459 E61.55702
G1 X120.089 Y87.459 E62.85563
G1 X46.311 Y87.459 E66.40414
G1 X46.311 Y18.681 E69.71216
G1 X120.089 Y18.681 E73.26067
G1 X120.089 Y25.611 E73.59398
G1 X120.475 Y25.285 F9000.000
G1 X153.475 Y25.285 E75.18116 F600.000
G1 X153.475 Y60.845 E76.89148
G1 X120.475 Y60.845 E78.47866
G1 X120.475 Y87.845 E79.77727
G1 X45.925 Y87.845 E83.36287
G1 X45.925 Y18.295 E86.70799
G1 X120.475 Y18.295 E90.29359
G1 X120.475 Y25.225 E90.62690
G1 X120.475 Y25.685 F9000.000
G1 X118.610 Y19.736 F9000.000
G1 X119.034 Y20.160 E90.65580 F600.000
G1 X119.034 Y20.706 E90.68214
G1 X118.064 Y19.736 E90.74829
G1 X117.517 Y19.736 E90.77463
G1 X119.034 Y21.253 E90.87802
G1 X119.034 Y21.799 E90.90436
G1 X116.971 Y19.736 E91.04500
G1 X116.424 Y19.736 E91.07134
G1 X119.034 Y22.346 E91.24923
G1 X119.034 Y22.892 E91.27557
G1 X115.878 Y19.736 E91.49070
G1 X115.331 Y19.736 E91.51704
G1 X119.034 Y23.439 E91.76942
G1 X119.034 Y23.985 E91.79576
G1 X114.785 Y19.736 E92.08539
G1 X114.239 Y19.736 E92.11172
G1 X119.034 Y24.531 E92.43860
G1 X119.034 Y25.078 E92.46494
G1 X113.692 Y19.736 E92.82906
G1 X113.146 Y19.736 E92.85540
G1 X119.034 Y25.624 E93.25676
G1 X119.034 Y26.171 E93.28310
G1 X112.599 Y19.736 E93.72171
G1 X112.053 Y19.736 E93.74805
G1 X124.721 Y32.404 E94.61153
G1 X125.268 Y32.404 E94.63787
G1 X119.589 Y26.726 E95.02492
G1 X120.136 Y26.726 E95.05126
G1 X125.814 Y32.404 E95.43831
G1 X126.361 Y32.404 E95.46465
G1 X120.682 Y26.726 E95.85170
G1 X121.229 Y26.726 E95.87803
G1 X126.907 Y32.404 E96.26509
G1 X127.454 Y32.404 E96.29142
G1 X121.775 Y26.726 E96.67847
G1 X122.321 Y26.726 E96.70481
G1 X128.000 Y32.404 E97.09186
G1 X128.547 Y32.404 E97.11820
G1 X122.868 Y26.726 E97.50525
G1 X123.414 Y26.726 E97.53159
G1 X129.093 Y32.404 E97.91864
G1 X129.640 Y32.404 E97.94498
G1 X123.961 Y26.726 E98.33203
G1 X124.507 Y26.726 E98.35836
G1 X130.186 Y32.404 E98.74542
G1 X130.733 Y32.404 E98.77175
G1 X125.054 Y26.726 E99.15880
G1 X125.600 Y26.726 E99.18514
G1 X131.279 Y32.404 E99.57219
G1 X131.825 Y32.404 E99.59853
G1 X126.147 Y26.726 E99.98558
G1 X126.693 Y26.726 E100.01192
G1 X132.372 Y32.404 E100.39897
G1 X132.918 Y32.404 E100.42531
G1 X127.240 Y26.726 E100.81236
G1 X127.786 Y26.726 E100.83870
G1 X133.465 Y32.404 E101.22575
G1 X134.011 Y32.404 E101.25208
G1 X128.333 Y26.726 E101.63914
G1 X128.879 Y26.726 E101.66547
G1 X134.558 Y32.404 E102.05252
G1 X135.104 Y32.404 E102.07886
G1 X129.426 Y26.726 E102.46591
G1 X129.972 Y26.726 E102.49225
G1 X135.651 Y32.404 E102.87930
G1 X136.197 Y32.404 E102.90564
G1 X130.518 Y26.726 E103.29269
G1 X131.065 Y26.726 E103.31903
G1 X136.744 Y32.404 E103.70608
G1 X137.290 Y32.404 E103.73242
G1 X131.611 Y26.726 E104.11947
G1 X132.158 Y26.726 E104.14580
G1 X137.837 Y32.404 E104.53286
G1 X138.383 Y32.404 E104.55919
G1 X132.704 Y26.726 E104.94624
G1 X133.251 Y26.726 E104.97258
G1 X138.930 Y32.404 E105.35963
G1 X139.476 Y32.404 E105.38597
G1 X133.797 Y26.726 E105.77302
G1 X134.344 Y26.726 E105.79936
G1 X140.022 Y32.404 E106.18641
G1 X140.569 Y32.404 E106.21275
G1 X134.890 Y26.726 E106.59980
G1 X135.437 Y26.726 E106.62613
G1 X141.115 Y32.404 E107.01319
G1 X141.662 Y32.404 E107.03952
G1 X135.983 Y26.726 E107.42657
G1 X136.530 Y26.726 E107.45291
G1 X142.208 Y32.404 E107.83996
G1 X142.755 Y32.404 E107.86630
G1 X137.076 Y26.726 E108.25335
G1 X137.623 Y26.726 E108.27969
G1 X152.034 Y41.137 E109.26197
G1 X152.034 Y40.591 E109.28831
G1 X138.169 Y26.726 E110.23335
G1 X138.716 Y26.726 E110.25969
G1 X152.034 Y40.044 E111.16748
G1 X152.034 Y39.498 E111.19381
G1 X139.262 Y26.726 E112.06436
G1 X139.808 Y26.726 E112.09070
G1 X152.034 Y38.952 E112.92400
G1 X152.034 Y38.405 E112.95033
G1 X140.355 Y26.726 E113.74639
G1 X140.901 Y26.726 E113.77272
G1 X152.034 Y37.859 E114.53153
G1 X152.034 Y37.312 E114.55787
G1 X141.448 Y26.726 E115.27943
G1 X141.994 Y26.726 E115.30576
G1 X152.034 Y36.766 E115.99008
G1 X152.034 Y36.219 E116.01641
G1 X142.541 Y26.726 E116.66348
G1 X143.087 Y26.726 E116.68982
G1 X152.034 Y35.673 E117.29964
G1 X152.034 Y35.126 E117.32597
G1 X143.634 Y26.726 E117.89855
G1 X144.180 Y26.726 E117.92489
G1 X152.034 Y34.580 E118.46021
G1 X152.034 Y34.033 E118.48655
G1 X144.727 Y26.726 E118.98463
G1 X145.273 Y26.726 E119.01097
G1 X152.034 Y33.487 E119.47180
G1 X152.034 Y32.940 E119.49814
G1 X145.820 Y26.726 E119.92173
G1 X146.366 Y26.726 E119.94806
G1 X152.034 Y32.394 E120.33441
G1 X152.034 Y31.847 E120.36074
G1 X146.913 Y26.726 E120.70984
G1 X147.459 Y26.726 E120.73618
G1 X152.034 Y31.301 E121.04802
G1 X152.034 Y30.755 E121.07436
G1 X148.005 Y26.726 E121.34896
G1 X148.552 Y26.726 E121.37530
G1 X152.034 Y30.208 E121.61266
G1 X152.034 Y29.662 E121.63899
G1 X149.098 Y26.726 E121.83910
G1 X149.645 Y26.726 E121.86544
G1 X152.034 Y29.115 E122.02830
G1 X152.034 Y28.569 E122.05464
G1 X150.191 Y26.726 E122.18026
G1 X150.738 Y26.726 E122.20660
G1 X152.034 Y28.022 E122.29497
G1 X152.034 Y27.476 E122.32130
G1 X151.284 Y26.726 E122.37243
G1 X151.831 Y26.726 E122.39876
G1 X152.034 Y26.929 E122.41264
G1 X152.034 Y41.684 F9000.000
G1 X143.366 Y33.015 E123.00349 F600.000
G1 X143.366 Y33.562 E123.02982
G1 X152.034 Y42.230 E123.62067
G1 X152.034 Y42.777 E123.64701
G1 X143.366 Y34.108 E124.23785
G1 X143.366 Y34.655 E124.26419
G1 X152.034 Y43.323 E124.85503
G1 X152.034 Y43.870 E124.88137
G1 X143.366 Y35.201 E125.47222
G1 X143.366 Y35.748 E125.49855
G1 X152.034 Y44.416 E126.08940
G1 X152.034 Y44.963 E126.11573
G1 X143.366 Y36.294 E126.70658
G1 X143.366 Y36.840 E126.73292
G1 X152.034 Y45.509 E127.32376
G1 X152.034 Y46.056 E127.35010
G1 X143.366 Y37.387 E127.94094
G1 X143.366 Y37.933 E127.96728
G1 X152.034 Y46.602 E128.55813
G1 X152.034 Y47.149 E128.58446
G1 X143.366 Y38.480 E129.17531
G1 X143.366 Y39.026 E129.20165
G1 X152.034 Y47.695 E129.79249
G1 X152.034 Y48.242 E129.81883
G1 X143.366 Y39.573 E130.40967
G1 X143.366 Y40.119 E130.43601
G1 X152.034 Y48.788 E131.02685
G1 X152.034 Y49.334 E131.05319
G1 X143.366 Y40.666 E131.64404
G1 X143.366 Y41.212 E131.67037
G1 X152.034 Y49.881 E132.26122
G1 X152.034 Y50.427 E132.28756
G1 X143.366 Y41.759 E132.87840
G1 X143.366 Y42.305 E132.90474
G1 X152.034 Y50.974 E133.49558
G1 X152.034 Y51.520 E133.52192
G1 X143.366 Y42.852 E134.11277
G1 X143.366 Y43.398 E134.13910
G1 X152.034 Y52.067 E134.72995
G1 X152.034 Y52.613 E134.75628
G1 X143.366 Y43.945 E135.34713
G1 X143.366 Y44.491 E135.37347
G1 X152.034 Y53.160 E135.96431
G1 X152.034 Y53.706 E135.99065
G1 X143.366 Y45.037 E136.58149
G1 X143.366 Y45.584 E136.60783
G1 X152.034 Y54.253 E137.19868
G1 X152.034 Y54.799 E137.22501
G1 X143.366 Y46.130 E137.81586
G1 X143.366 Y46.677 E137.84220
G1 X152.034 Y55.346 E138.43304
G1 X152.034 Y55.892 E138.45938
G1 X143.366 Y47.223 E139.05022
G1 X143.366 Y47.770 E139.07656
G1 X152.034 Y56.439 E139.66740
G1 X152.034 Y56.985 E139.69374
G1 X143.366 Y48.316 E140.28459
G1 X143.366 Y48.863 E140.31092
G1 X152.034 Y57.531 E140.90177
G1 X152.034 Y58.078 E140.92811
G1 X143.366 Y49.409 E141.51895
G1 X143.366 Y49.956 E141.54529
G1 X152.034 Y58.624 E142.13613
G1 X152.034 Y59.171 E142.16247
G1 X143.366 Y50.502 E142.75332
G1 X143.366 Y51.049 E142.77965
G1 X151.721 Y59.404 E143.34916
G1 X151.175 Y59.404 E143.37550
G1 X143.366 Y51.595 E143.90777
G1 X143.366 Y52.142 E143.93410
G1 X150.628 Y59.404 E144.42912
G1 X150.082 Y59.404 E144.45546
G1 X143.366 Y52.688 E144.91323
G1 X143.366 Y53.235 E144.93957
G1 X149.535 Y59.404 E145.36010
G1 X148.989 Y59.404 E145.38644
G1 X143.366 Y53.781 E145.76972
G1 X143.366 Y54.327 E145.79605
G1 X148.443 Y59.404 E146.14209
G1 X147.896 Y59.404 E146.16842
G1 X143.366 Y54.874 E146.47721
G1 X143.366 Y55.420 E146.50355
G1 X147.350 Y59.404 E146.77509
G1 X146.803 Y59.404 E146.80143
G1 X143.134 Y55.736 E147.05148
G1 X142.588 Y55.736 E147.07782
G1 X146.257 Y59.404 E147.32787
G1 X145.710 Y59.404 E147.35421
G1 X142.042 Y55.736 E147.60426
G1 X141.495 Y55.736 E147.63060
G1 X145.164 Y59.404 E147.88065
G1 X144.617 Y59.404 E147.90698
G1 X140.949 Y55.736 E148.15704
G1 X140.402 Y55.736 E148.18337
G1 X144.071 Y59.404 E148.43343
G1 X143.524 Y59.404 E148.45976
G1 X139.856 Y55.736 E148.70982
G1 X139.309 Y55.736 E148.73615
G1 X142.978 Y59.404 E148.98621
G1 X142.431 Y59.404 E149.01254
G1 X138.763 Y55.736 E149.26260
G1 X138.216 Y55.736 E149.28893
G1 X141.885 Y59.404 E149.53899
G1 X141.338 Y59.404 E149.56532
G1 X137.670 Y55.736 E149.81538
G1 X137.123 Y55.736 E149.84171
G1 X140.792 Y59.404 E150.09177
G1 X140.246 Y59.404 E150.11810
G1 X136.577 Y55.736 E150.36815
G1 X136.030 Y55.736 E150.39449
G1 X139.699 Y59.404 E150.64454
G1 X139.153 Y59.404 E150.67088
G1 X135.484 Y55.736 E150.92093
G1 X134.937 Y55.736 E150.94727
G1 X138.606 Y59.404 E151.19732
G1 X138.060 Y59.404 E151.22366
G1 X134.391 Y55.736 E151.47371
G1 X133.845 Y55.736 E151.50005
G1 X137.513 Y59.404 E151.75010
G1 X136.967 Y59.404 E151.77644
G1 X133.298 Y55.736 E152.02649
G1 X132.752 Y55.736 E152.05283
G1 X136.420 Y59.404 E152.30288
G1 X135.874 Y59.404 E152.32922
G1 X132.205 Y55.736 E152.57927
G1 X131.659 Y55.736 E152.60561
G1 X135.327 Y59.404 E152.85566
G1 X134.781 Y59.404 E152.88200
G1 X131.112 Y55.736 E153.13205
G1 X130.566 Y55.736 E153.15839
G1 X134.234 Y59.404 E153.40844
G1 X133.688 Y59.404 E153.43478
G1 X130.019 Y55.736 E153.68483
G1 X129.473 Y55.736 E153.71117
G1 X133.141 Y59.404 E153.96122
G1 X132.595 Y59.404 E153.98756
G1 X128.926 Y55.736 E154.23761
G1 X128.380 Y55.736 E154.26395
G1 X132.049 Y59.404 E154.51400
G1 X131.502 Y59.404 E154.54034
G1 X127.833 Y55.736 E154.79039
G1 X127.287 Y55.736 E154.81673
G1 X130.956 Y59.404 E155.06678
G1 X130.409 Y59.404 E155.09312
G1 X126.740 Y55.736 E155.34317
G1 X126.194 Y55.736 E155.36951
G1 X129.863 Y59.404 E155.61956
G1 X129.316 Y59.404 E155.64590
G1 X125.647 Y55.736 E155.89595
G1 X125.101 Y55.736 E155.92229
G1 X128.770 Y59.404 E156.17234
G1 X128.223 Y59.404 E156.19868
G1 X124.555 Y55.736 E156.44873
G1 X124.008 Y55.736 E156.47507
G1 X127.677 Y59.404 E156.72512
G1 X127.130 Y59.404 E156.75146
G1 X123.462 Y55.736 E157.00151
G1 X122.915 Y55.736 E157.02784
G1 X126.584 Y59.404 E157.27790
G1 X126.037 Y59.404 E157.30423
G1 X122.369 Y55.736 E157.55429
G1 X121.822 Y55.736 E157.58062
G1 X125.491 Y59.404 E157.83068
G1 X124.944 Y59.404 E157.85701
G1 X121.276 Y55.736 E158.10707
G1 X120.729 Y55.736 E158.13340
G1 X124.398 Y59.404 E158.38346
G1 X123.851 Y59.404 E158.40979
G1 X120.183 Y55.736 E158.65985
G1 X119.636 Y55.736 E158.68618
G1 X123.305 Y59.404 E158.93624
G1 X122.759 Y59.404 E158.96257
G1 X119.090 Y55.736 E159.21263
G1 X118.543 Y55.736 E159.23896
G1 X122.212 Y59.404 E159.48901
G1 X121.666 Y59.404 E159.51535
G1 X111.366 Y49.104 E160.21738
G1 X111.366 Y49.651 E160.24372
G1 X121.119 Y59.404 E160.90850
G1 X120.573 Y59.404 E160.93484
G1 X111.366 Y50.197 E161.56238
G1 X111.366 Y50.744 E161.58872
G1 X120.026 Y59.404 E162.17901
G1 X119.480 Y59.404 E162.20534
G1 X111.366 Y51.290 E162.75839
G1 X111.366 Y51.837 E162.78473
G1 X119.034 Y59.505 E163.30741
G1 X119.034 Y60.052 E163.33375
G1 X111.366 Y52.383 E163.85644
G1 X111.366 Y52.930 E163.88277
G1 X119.034 Y60.598 E164.40546
G1 X119.034 Y61.145 E164.43180
G1 X111.366 Y53.476 E164.95448
G1 X111.366 Y54.023 E164.98082
G1 X119.034 Y61.691 E165.50351
G1 X119.034 Y62.238 E165.52984
G1 X111.366 Y54.569 E166.05253
G1 X111.366 Y55.116 E166.07887
G1 X119.034 Y62.784 E166.60155
G1 X119.034 Y63.331 E166.62789
G1 X111.366 Y55.662 E167.15058
G1 X111.366 Y56.208 E167.17692
G1 X119.034 Y63.877 E167.69960
G1 X119.034 Y64.424 E167.72594
G1 X111.366 Y56.755 E168.24863
G1 X111.366 Y57.301 E168.27496
G1 X119.034 Y64.970 E168.79765
G1 X119.034 Y65.517 E168.82399
G1 X111.366 Y57.848 E169.34667
G1 X111.366 Y58.394 E169.37301
G1 X119.034 Y66.063 E169.89570
G1 X119.034 Y66.609 E169.92203
G1 X111.366 Y58.941 E170.44472
G1 X111.366 Y59.487 E170.47106
G1 X119.034 Y67.156 E170.99374
G1 X119.034 Y67.702 E171.02008
G1 X111.366 Y60.034 E171.54277
G1 X111.366 Y60.580 E171.56911
G1 X119.034 Y68.249 E172.09179
G1 X119.034 Y68.795 E172.11813
G1 X111.366 Y61.127 E172.64082
G1 X111.366 Y61.673 E172.66715
G1 X119.034 Y69.342 E173.18984
G1 X119.034 Y69.888 E173.21618
G1 X111.366 Y62.220 E173.73886
G1 X111.366 Y62.766 E173.76520
G1 X119.034 Y70.435 E174.28789
G1 X119.034 Y70.981 E174.31422
G1 X111.366 Y63.313 E174.83691
G1 X111.366 Y63.859 E174.86325
G1 X119.034 Y71.528 E175.38593
G1 X119.034 Y72.074 E175.41227
G1 X111.366 Y64.405 E175.93496
G1 X111.366 Y64.952 E175.96129
G1 X119.034 Y72.621 E176.48398
G1 X119.034 Y73.167 E176.51032
