; generated by Slic3r 1.2.9 on 2019-09-26 at 21:25:05

; external perimeters extrusion width = 0.40mm
; perimeters extrusion width = 0.62mm
; infill extrusion width = 0.33mm
; solid infill extrusion width = 0.62mm
; top infill extrusion width = 0.20mm
; support material extrusion width = 0.40mm

M106 S256; Turn on fan to 100% power
M104 S140; turn on extruder temperature at S value
M140 S60; turn on bed temperature at S value
G28; home all axes
M84; disable motors
G1 Z15 F15000; have Z move to 20mm at 15000 mm/min
M190 S55; turn on bed temperature at S value and wait
M140 S55; turn on bed temperature at S value (printing temperature)
M109 S200; turn on extruder temperature at S value and wait (printing temperature)
M104 S200; turn on extruder temperature at S value
G1 Z0 F12000; move Z back to home
G21 ; set units to millimeters
G90 ; use absolute coordinates
M82 ; use absolute distances for extrusion
G92 E0
M106 S255
;Layer change
G1 E-6.00000 F1800.00000
G92 E0
G1 Z0.300 F9000.000
G1 X49.629 Y22.212 F9000.000
G1 E6.00000 F1800.00000
G1 X50.339 Y20.818 E6.07524 F600.000
G1 X50.778 Y20.214 E6.11114
G1 X51.884 Y19.108 E6.18638
G1 X52.488 Y18.669 E6.22227
G1 X53.882 Y17.959 E6.29751
G1 X54.592 Y17.728 E6.33341
G1 X56.137 Y17.484 E6.40865
G1 X56.510 Y17.454 E6.42666
G1 X146.510 Y17.454 E10.75535
G1 X146.883 Y17.484 E10.77336
G1 X148.428 Y17.728 E10.84859 F600.000
G1 X149.138 Y17.959 E10.88449
G1 X150.532 Y18.669 E10.95973
G1 X151.136 Y19.108 E10.99564
G1 X152.242 Y20.214 E11.07088
G1 X152.681 Y20.818 E11.10678
G1 X153.391 Y22.212 E11.18202
G1 X153.621 Y22.921 E11.21788
G1 X153.866 Y24.466 E11.29313
G1 X153.896 Y24.840 E11.31115
G1 X153.896 Y99.840 E14.91839
G1 X153.866 Y100.214 E14.93642
G1 X153.621 Y101.759 E15.01166
G1 X153.391 Y102.468 E15.04753
G1 X152.681 Y103.862 E15.12276
G1 X152.242 Y104.466 E15.15866
G1 X151.136 Y105.572 E15.23390
G1 X150.532 Y106.011 E15.26981
G1 X149.138 Y106.721 E15.34506
G1 X148.428 Y106.952 E15.38095
G1 X146.883 Y107.196 E15.45619
G1 X146.510 Y107.226 E15.47419
G1 X56.510 Y107.226 E19.80288
G1 X56.137 Y107.196 E19.82088
G1 X54.592 Y106.952 E19.89613
G1 X53.882 Y106.721 E19.93203
G1 X52.488 Y106.011 E20.00727
G1 X51.884 Y105.572 E20.04316
G1 X50.778 Y104.466 E20.11841
G1 X50.339 Y103.862 E20.15430
G1 X49.629 Y102.468 E20.22954
G1 X49.398 Y101.758 E20.26544
G1 X49.154 Y100.213 E20.34069
G1 X49.124 Y99.840 E20.35869
G1 X49.124 Y24.840 E23.96593
G1 X49.154 Y24.467 E23.98393
G1 X49.398 Y22.922 E24.05918
G1 X49.611 Y22.269 E24.09219
G1 E18.09219 F1800.00000
G92 E0
G1 X145.613 Y86.729 F9000.000
G1 E6.00000 F1800.00000
G1 X146.513 Y86.270 E6.04856 F600.000
G1 X147.496 Y86.114 E6.09646 F600.000
G1 X148.507 Y86.270 E6.14564
G1 X149.407 Y86.729 E6.19423
G1 X150.121 Y87.443 E6.24281
G1 X150.580 Y88.343 E6.29138
G1 X150.738 Y89.340 E6.33995
G1 X150.580 Y90.337 E6.38852
G1 X150.121 Y91.237 E6.43710
G1 X149.407 Y91.951 E6.48567
G1 X148.507 Y92.410 E6.53423
G1 X147.510 Y92.568 E6.58280
G1 X146.513 Y92.410 E6.63137
G1 X145.613 Y91.951 E6.67993
G1 X144.899 Y91.237 E6.72851
G1 X144.440 Y90.337 E6.77708
G1 X144.282 Y89.340 E6.82565
G1 X144.440 Y88.343 E6.87423
G1 X144.899 Y87.443 E6.92280
G1 X145.571 Y86.771 E6.96849
G1 X145.592 Y86.329 F9000.000
G1 E0.96849 F1800.00000
G92 E0
G1 X147.510 Y37.568 F9000.000
G1 E6.00000 F1800.00000
G1 X146.513 Y37.410 E6.04857 F600.000
G1 X145.613 Y36.951 E6.09713
G1 X144.899 Y36.237 E6.14571
G1 X144.440 Y35.338 E6.19428
G1 X144.282 Y34.340 E6.24285
G1 X144.440 Y33.342 E6.29143
G1 X144.899 Y32.443 E6.34000
G1 X145.613 Y31.729 E6.38858
G1 X146.513 Y31.270 E6.43714
G1 X147.428 Y31.125 E6.48174
G1 X147.510 Y31.112 E6.48571 F600.000
G1 X148.507 Y31.270 E6.53428
G1 X149.407 Y31.729 E6.58283
G1 X150.121 Y32.443 E6.63142
G1 X150.580 Y33.342 E6.67999
G1 X150.738 Y34.340 E6.72856
G1 X150.580 Y35.338 E6.77716
G1 X150.110 Y36.248 E6.82641
G1 X149.407 Y36.951 E6.87425
G1 X148.507 Y37.410 E6.92281
G1 X147.569 Y37.558 E6.96850
G1 X147.292 Y37.903 F9000.000
G1 E0.96850 F1800.00000
G92 E0
G1 X137.673 Y24.440 F9000.000
G1 E6.00000 F1800.00000
G1 X137.121 Y24.721 E6.02977 F600.000
G1 X136.510 Y24.818 E6.05954
G1 X135.899 Y24.721 E6.08931
G1 X135.347 Y24.440 E6.11908
G1 X134.910 Y24.002 E6.14885
G1 X134.629 Y23.451 E6.17859
G1 X134.532 Y22.840 E6.20835
G1 X134.629 Y22.229 E6.23812
G1 X134.910 Y21.678 E6.26786
G1 X135.347 Y21.240 E6.29762
G1 X135.899 Y20.959 E6.32739
G1 X136.481 Y20.867 E6.35576 F600.000
G1 X137.120 Y20.958 E6.38679
G1 X137.673 Y21.240 E6.41664
G1 X138.110 Y21.678 E6.44641
G1 X138.391 Y22.229 E6.47615
G1 X138.488 Y22.840 E6.50591
G1 X138.391 Y23.451 E6.53568
G1 X138.110 Y24.002 E6.56542
G1 X137.715 Y24.398 E6.59230
G1 X137.694 Y24.840 F9000.000
G1 E0.59230 F1800.00000
G92 E0
G1 X68.488 Y22.840 F9000.000
G1 E6.00000 F1800.00000
G1 X68.391 Y23.451 E6.02976 F600.000
G1 X68.110 Y24.003 E6.05952
G1 X67.672 Y24.440 E6.08929
G1 X67.121 Y24.721 E6.11905
G1 X66.510 Y24.818 E6.14881
G1 X65.899 Y24.721 E6.17857
G1 X65.348 Y24.440 E6.20833
G1 X64.910 Y24.003 E6.23810
G1 X64.629 Y23.451 E6.26786
G1 X64.532 Y22.840 E6.29762
G1 X64.629 Y22.229 E6.32738
G1 X64.910 Y21.677 E6.35714
G1 X65.348 Y21.240 E6.38690
G1 X65.899 Y20.959 E6.41666
G1 X66.481 Y20.867 E6.44503 F600.000
G1 X67.120 Y20.958 E6.47605
G1 X67.672 Y21.240 E6.50589
G1 X68.110 Y21.677 E6.53565
G1 X68.391 Y22.229 E6.56541
G1 X68.478 Y22.781 E6.59229
G1 X68.823 Y23.058 F9000.000
G1 X105.698 Y40.601 F9000.000
G1 X106.267 Y39.484 E6.65261 F600.000
G1 X107.154 Y38.597 E6.71293
G1 X108.271 Y38.027 E6.77326
G1 X109.432 Y37.844 E6.82976
G1 X143.588 Y37.844 E8.47258 F600.000
G1 X144.749 Y38.028 E8.52909
G1 X145.866 Y38.597 E8.58939
G1 X146.753 Y39.484 E8.64972
G1 X147.322 Y40.601 E8.71004
G1 X147.506 Y41.762 E8.76655
G1 X147.506 Y79.918 E10.60177
G1 X147.322 Y81.079 E10.65827
G1 X146.753 Y82.196 E10.71859
G1 X145.866 Y83.083 E10.77892
G1 X144.749 Y83.652 E10.83923
G1 X143.588 Y83.836 E10.89573
G1 X109.432 Y83.836 E12.53856
G1 X108.271 Y83.653 E12.59506
G1 X107.154 Y83.083 E12.65539
G1 X106.267 Y82.196 E12.71570
G1 X105.698 Y81.079 E12.77603
G1 X105.514 Y79.918 E12.83253
G1 X105.514 Y41.762 E14.66774
G1 X105.688 Y40.660 E14.72137
G1 X106.069 Y40.722 F9000.000
G1 X106.583 Y39.713 E14.77581 F600.000
G1 X107.383 Y38.913 E14.83026
G1 X108.392 Y38.399 E14.88471
G1 X109.462 Y38.229 E14.93681
G1 X143.558 Y38.229 E16.57672 F600.000
G1 X144.628 Y38.399 E16.62883
G1 X145.636 Y38.913 E16.68326
G1 X146.437 Y39.713 E16.73771
G1 X146.951 Y40.722 E16.79216
G1 X147.121 Y41.792 E16.84427
G1 X147.121 Y79.888 E18.67656
G1 X146.951 Y80.958 E18.72867
G1 X146.437 Y81.967 E18.78312
G1 X145.636 Y82.767 E18.83757
G1 X144.628 Y83.281 E18.89201
G1 X143.558 Y83.451 E18.94411
G1 X109.462 Y83.451 E20.58402
G1 X108.392 Y83.281 E20.63612
G1 X107.383 Y82.767 E20.69057
G1 X106.583 Y81.967 E20.74502
G1 X106.069 Y80.958 E20.79946
G1 X105.899 Y79.888 E20.85157
G1 X105.899 Y41.792 E22.68387
G1 X106.059 Y40.781 E22.73309
G1 X106.440 Y40.842 F9000.000
G1 X106.899 Y39.943 E22.78166 F600.000
G1 X107.613 Y39.229 E22.83023
G1 X108.513 Y38.770 E22.87881
G1 X109.492 Y38.615 E22.92651
G1 X143.528 Y38.615 E24.56350 F600.000
G1 X144.507 Y38.770 E24.61121
G1 X145.407 Y39.229 E24.65976
G1 X146.121 Y39.943 E24.70835
G1 X146.580 Y40.842 E24.75692
G1 X146.735 Y41.822 E24.80463
G1 X146.735 Y79.858 E26.63400
G1 X146.580 Y80.837 E26.68172
G1 X146.121 Y81.737 E26.73029
G1 X145.407 Y82.451 E26.77887
G1 X144.507 Y82.910 E26.82743
G1 X143.528 Y83.065 E26.87513
G1 X109.492 Y83.065 E28.51212
G1 X108.513 Y82.910 E28.55983
G1 X107.613 Y82.451 E28.60840
G1 X106.899 Y81.737 E28.65697
G1 X106.440 Y80.837 E28.70554
G1 X106.285 Y79.858 E28.75326
G1 X106.285 Y41.822 E30.58263
G1 X106.431 Y40.902 E30.62746
G1 X106.188 Y40.532 F9000.000
G1 E24.62746 F1800.00000
G92 E0
G1 X68.361 Y97.292 F9000.000
G1 E6.00000 F1800.00000
G1 X69.058 Y97.989 E6.04739 F600.000
G1 X69.505 Y98.867 E6.09477
G1 X69.659 Y99.840 E6.14216
G1 X69.505 Y100.813 E6.18955
G1 X69.058 Y101.691 E6.23693
G1 X68.361 Y102.388 E6.28432
G1 X67.483 Y102.835 E6.33171
G1 X66.510 Y102.989 E6.37910
G1 X65.527 Y102.833 E6.42699
G1 X64.632 Y102.361 E6.47563
G1 X63.962 Y101.691 E6.52120
G1 X63.515 Y100.813 E6.56858
G1 X63.361 Y99.840 E6.61597
G1 X63.515 Y98.867 E6.66336
G1 X63.962 Y97.989 E6.71074
G1 X64.659 Y97.292 E6.75813
G1 X65.537 Y96.845 E6.80552
G1 X66.473 Y96.697 E6.85109 F600.000
G1 X67.474 Y96.840 E6.89973
G1 X68.308 Y97.265 E6.94474
G1 X68.132 Y97.608 F9000.000
G1 X68.742 Y98.219 E6.98626 F600.000
G1 X69.134 Y98.988 E7.02776
G1 X69.269 Y99.840 E7.06928
G1 X69.134 Y100.692 E7.11079
G1 X68.742 Y101.461 E7.15230
G1 X68.132 Y102.072 E7.19381
G1 X67.362 Y102.464 E7.23532
G1 X66.510 Y102.599 E7.27684
G1 X65.650 Y102.463 E7.31871
G1 X64.864 Y102.047 E7.36148
G1 X64.278 Y101.461 E7.40132
G1 X63.886 Y100.692 E7.44282
G1 X63.751 Y99.840 E7.48434
G1 X63.886 Y98.988 E7.52585
G1 X64.278 Y98.219 E7.56736
G1 X64.888 Y97.608 E7.60887
G1 X65.658 Y97.216 E7.65038
G1 X66.476 Y97.087 E7.69022 F600.000
G1 X67.356 Y97.213 E7.73299
G1 X68.078 Y97.581 E7.77198
G1 X67.902 Y97.924 F9000.000
G1 X68.426 Y98.448 E7.80762 F600.000
G1 X68.762 Y99.108 E7.84325
G1 X68.878 Y99.840 E7.87889
G1 X68.762 Y100.572 E7.91453
G1 X68.426 Y101.232 E7.95016
G1 X67.902 Y101.756 E7.98580
G1 X67.242 Y102.092 E8.02144
G1 X66.510 Y102.208 E8.05707
G1 X65.774 Y102.092 E8.09293
G1 X65.095 Y101.733 E8.12983
G1 X64.594 Y101.232 E8.16393
G1 X64.258 Y100.572 E8.19956
G1 X64.142 Y99.840 E8.23520
G1 X64.258 Y99.108 E8.27084
G1 X64.594 Y98.448 E8.30647
G1 X65.118 Y97.924 E8.34211
G1 X65.778 Y97.588 E8.37775
G1 X66.478 Y97.477 E8.41184 F600.000
G1 X67.238 Y97.586 E8.44874
G1 X67.849 Y97.897 E8.48171
G1 X67.673 Y98.240 F9000.000
G1 X68.110 Y98.678 E8.51148 F600.000
G1 X68.391 Y99.229 E8.54123
G1 X68.488 Y99.840 E8.57100
G1 X68.391 Y100.451 E8.60076
G1 X68.110 Y101.002 E8.63052
G1 X67.673 Y101.440 E8.66028
G1 X67.121 Y101.721 E8.69004
G1 X66.510 Y101.818 E8.71981
G1 X65.897 Y101.721 E8.74965
G1 X65.327 Y101.420 E8.78067
G1 X64.910 Y101.002 E8.80903
G1 X64.629 Y100.451 E8.83879
G1 X64.532 Y99.840 E8.86856
G1 X64.629 Y99.229 E8.89832
G1 X64.910 Y98.678 E8.92808
G1 X65.347 Y98.240 E8.95784
G1 X65.899 Y97.959 E8.98760
G1 X66.481 Y97.867 E9.01597 F600.000
G1 X67.120 Y97.958 E9.04698
G1 X67.619 Y98.213 E9.07394
G1 X68.046 Y98.097 F9000.000
G1 X133.361 Y99.840 F9000.000
G1 X133.516 Y98.867 E9.12132 F600.000
G1 X133.962 Y97.990 E9.16866
G1 X134.659 Y97.292 E9.21608
G1 X135.537 Y96.845 E9.26349
G1 X136.473 Y96.697 E9.30906 F600.000
G1 X137.474 Y96.840 E9.35771
G1 X138.361 Y97.292 E9.40562
G1 X139.058 Y97.990 E9.45304
G1 X139.504 Y98.867 E9.50038
G1 X139.659 Y99.840 E9.54776
G1 X139.504 Y100.813 E9.59514
G1 X139.058 Y101.690 E9.64248
G1 X138.361 Y102.388 E9.68990
G1 X137.483 Y102.835 E9.73731
G1 X136.510 Y102.989 E9.78470
G1 X135.537 Y102.835 E9.83209
G1 X134.659 Y102.388 E9.87950
G1 X133.962 Y101.690 E9.92691
G1 X133.516 Y100.813 E9.97425
G1 X133.370 Y99.899 E10.01875
G1 X133.751 Y99.840 F9000.000
G1 X133.887 Y98.988 E10.06026 F600.000
G1 X134.278 Y98.219 E10.10173
G1 X134.888 Y97.608 E10.14327
G1 X135.657 Y97.216 E10.18480
G1 X136.476 Y97.087 E10.22464 F600.000
G1 X137.356 Y97.213 E10.26741
G1 X138.132 Y97.608 E10.30930
G1 X138.742 Y98.219 E10.35083
G1 X139.133 Y98.988 E10.39231
G1 X139.269 Y99.840 E10.43382
G1 X139.133 Y100.692 E10.47533
G1 X138.742 Y101.461 E10.51680
G1 X138.132 Y102.072 E10.55833
G1 X137.363 Y102.464 E10.59986
G1 X136.510 Y102.599 E10.64138
G1 X135.657 Y102.464 E10.68290
G1 X134.888 Y102.072 E10.72443
G1 X134.278 Y101.461 E10.76596
G1 X133.887 Y100.692 E10.80743
G1 X133.761 Y99.899 E10.84606
G1 X134.142 Y99.840 F9000.000
G1 X134.258 Y99.108 E10.88169 F600.000
G1 X134.594 Y98.448 E10.91730
G1 X135.118 Y97.924 E10.95295
G1 X135.778 Y97.588 E10.98860
G1 X136.478 Y97.477 E11.02271 F600.000
G1 X137.238 Y97.586 E11.05961
G1 X137.902 Y97.924 E11.09548
G1 X138.426 Y98.448 E11.13113
G1 X138.762 Y99.108 E11.16674
G1 X138.878 Y99.840 E11.20237
G1 X138.762 Y100.572 E11.23801
G1 X138.426 Y101.232 E11.27362
G1 X137.902 Y101.756 E11.30927
G1 X137.242 Y102.092 E11.34492
G1 X136.510 Y102.208 E11.38056
G1 X135.778 Y102.092 E11.41620
G1 X135.118 Y101.756 E11.45185
G1 X134.594 Y101.232 E11.48750
G1 X134.258 Y100.572 E11.52311
G1 X134.151 Y99.899 E11.55586
G1 X134.532 Y99.840 F9000.000
G1 X134.629 Y99.229 E11.58563 F600.000
G1 X134.910 Y98.678 E11.61537
G1 X135.347 Y98.240 E11.64513
G1 X135.899 Y97.959 E11.67490
G1 X136.481 Y97.867 E11.70327 F600.000
G1 X137.120 Y97.958 E11.73430
G1 X137.673 Y98.240 E11.76416
G1 X138.110 Y98.678 E11.79392
G1 X138.391 Y99.229 E11.82366
G1 X138.488 Y99.840 E11.85342
G1 X138.391 Y100.451 E11.88319
G1 X138.110 Y101.002 E11.91293
G1 X137.673 Y101.440 E11.94269
G1 X137.121 Y101.721 E11.97247
G1 X136.510 Y101.818 E12.00224
G1 X135.899 Y101.721 E12.03201
G1 X135.347 Y101.440 E12.06178
G1 X134.910 Y101.002 E12.09154
G1 X134.629 Y100.451 E12.12128
G1 X134.542 Y99.899 E12.14816
G1 X134.197 Y99.622 F9000.000
G1 E6.14816 F1800.00000
G92 E0
G1 X150.128 Y92.882 F9000.000
G1 E6.00000 F1800.00000
G1 X150.128 Y99.731 E6.32941 F600.000
G1 X149.934 Y100.953 E6.38890
G1 X149.423 Y101.957 E6.44309
G1 X148.627 Y102.753 E6.49727
G1 X147.623 Y103.265 E6.55146
G1 X146.401 Y103.458 E6.61094
G1 X56.619 Y103.458 E10.92917
G1 X55.397 Y103.265 E10.98865
G1 X54.393 Y102.753 E11.04284
G1 X53.597 Y101.957 E11.09703
G1 X53.085 Y100.953 E11.15121
G1 X52.892 Y99.731 E11.21069
G1 X52.892 Y92.882 E11.54010
G1 X54.151 Y93.524 E11.60805
G1 X55.510 Y93.739 E11.67425
G1 X56.869 Y93.524 E11.74045
G1 X58.096 Y92.899 E11.80665
G1 X59.069 Y91.926 E11.87284
G1 X59.694 Y90.699 E11.93904
G1 X59.909 Y89.340 E12.00524
G1 X59.694 Y87.981 E12.07143
G1 X59.069 Y86.754 E12.13763
G1 X58.096 Y85.781 E12.20382
G1 X56.867 Y85.155 E12.27017
G1 X55.494 Y84.943 E12.33698
G1 X54.151 Y85.156 E12.40239
G1 X52.892 Y85.798 E12.47034
G1 X52.892 Y37.882 E14.77489
G1 X54.151 Y38.524 E14.84284
G1 X55.510 Y38.739 E14.90904
G1 X56.377 Y38.602 E14.95128
G1 X56.454 Y38.751 E14.95936
G1 X55.951 Y39.254 E14.99356
G1 X55.326 Y40.481 E15.05976
G1 X55.128 Y41.731 E15.12066
G1 X55.128 Y79.949 E16.95879
G1 X55.326 Y81.199 E17.01969
G1 X55.951 Y82.426 E17.08589
G1 X56.924 Y83.399 E17.15209
G1 X58.151 Y84.024 E17.21828
G1 X59.401 Y84.222 E17.27919
G1 X93.619 Y84.222 E18.92493
G1 X94.869 Y84.024 E18.98583
G1 X96.096 Y83.399 E19.05203
G1 X97.069 Y82.426 E19.11822
G1 X97.694 Y81.199 E19.18442
G1 X97.892 Y79.949 E19.24533
G1 X97.892 Y41.731 E21.08346
G1 X97.694 Y40.481 E21.14436
G1 X97.069 Y39.254 E21.21056
G1 X96.096 Y38.281 E21.27675
G1 X94.869 Y37.656 E21.34296
G1 X93.619 Y37.458 E21.40385
G1 X59.401 Y37.458 E23.04960
G1 X58.643 Y37.578 E23.08654
G1 X58.566 Y37.429 E23.09463
G1 X59.069 Y36.926 E23.12883
G1 X59.694 Y35.699 E23.19502
G1 X59.909 Y34.340 E23.26122
G1 X59.694 Y32.981 E23.32742
G1 X59.069 Y31.754 E23.39362
G1 X58.096 Y30.781 E23.45981
G1 X56.869 Y30.156 E23.52601
G1 X55.510 Y29.941 E23.59221
G1 X54.151 Y30.156 E23.65841
G1 X52.892 Y30.798 E23.72635
G1 X52.892 Y24.949 E24.00766
G1 X53.085 Y23.727 E24.06714
G1 X53.597 Y22.723 E24.12133
G1 X54.393 Y21.927 E24.17551
G1 X55.397 Y21.415 E24.22970
G1 X56.619 Y21.222 E24.28918
G1 X63.843 Y21.223 E24.63665
G1 X63.515 Y21.867 E24.67142
G1 X63.361 Y22.840 E24.71880
G1 X63.515 Y23.813 E24.76619
G1 X63.962 Y24.691 E24.81357
G1 X64.659 Y25.388 E24.86096
G1 X65.537 Y25.835 E24.90835
G1 X66.510 Y25.989 E24.95574
G1 X67.483 Y25.835 E25.00313
G1 X68.361 Y25.388 E25.05051
G1 X69.058 Y24.691 E25.09790
G1 X69.505 Y23.813 E25.14529
G1 X69.659 Y22.840 E25.19267
G1 X69.505 Y21.867 E25.24006
G1 X69.177 Y21.224 E25.27478
G1 X133.838 Y21.232 E28.38476
G1 X133.516 Y21.867 E28.41900
G1 X133.361 Y22.840 E28.46639
G1 X133.516 Y23.813 E28.51377
G1 X133.962 Y24.690 E28.56111
G1 X134.659 Y25.388 E28.60853
G1 X135.537 Y25.835 E28.65593
G1 X136.510 Y25.989 E28.70332
G1 X137.483 Y25.835 E28.75071
G1 X138.361 Y25.388 E28.79812
G1 X139.058 Y24.690 E28.84554
G1 X139.505 Y23.813 E28.89288
G1 X139.659 Y22.840 E28.94026
G1 X139.504 Y21.867 E28.98764
G1 X139.182 Y21.233 E29.02185
G1 X146.478 Y21.234 E29.37277
