; generated by Slic3r 1.2.9 on 2019-09-25 at 22:59:28

; external perimeters extrusion width = 0.40mm
; perimeters extrusion width = 0.62mm
; infill extrusion width = 0.33mm
; solid infill extrusion width = 0.62mm
; top infill extrusion width = 0.20mm
; support material extrusion width = 0.40mm

M106 S256; Turn on fan to 100% power
M104 S140; turn on extruder temperature at S value
M140 S60; turn on bed temperature at S value
G28; home all axes
M84; disable motors
G1 Z15 F15000; have Z move to 20mm at 15000 mm/min
M190 S55; turn on bed temperature at S value and wait
M140 S55; turn on bed temperature at S value (printing temperature)
M109 S200; turn on extruder temperature at S value and wait (printing temperature)
M104 S200; turn on extruder temperature at S value
G1 Z0 F12000; move Z back to home
G21 ; set units to millimeters
G90 ; use absolute coordinates
M82 ; use absolute distances for extrusion
G92 E0
M106 S255
;Layer change
G1 E-6.00000 F1800.00000
G92 E0
G1 Z0.300 F9000.000
G1 X111.247 Y19.770 F9000.000
G1 E6.00000 F1800.00000
G1 X111.638 Y18.460 E6.06574 F600.000
G1 X112.684 Y17.581 E6.13149
G1 X113.632 Y17.384 E6.17804
G1 X139.827 Y17.384 E7.43793
G1 X141.137 Y17.776 E7.50367
G1 X142.016 Y18.822 E7.56942 F600.000
G1 X142.213 Y19.770 E7.61597
G1 X142.213 Y39.770 E8.57790
G1 X141.821 Y41.080 E8.64364
G1 X140.775 Y41.959 E8.70939
G1 X139.827 Y42.156 E8.75594
G1 X113.632 Y42.156 E10.01583
G1 X112.323 Y41.764 E10.08157
G1 X111.443 Y40.718 E10.14732
G1 X111.247 Y39.770 E10.19387
G1 X111.247 Y19.830 E11.15291
G1 E5.15291 F1800.00000
G92 E0
G1 X138.445 Y38.388 F9000.000
G1 E6.00000 F1800.00000
G1 X132.014 Y38.388 E6.30932 F600.000
G1 X132.014 Y21.152 E7.13833
G1 X138.445 Y21.152 E7.44765
G1 X138.445 Y38.328 E8.27377
G1 X138.831 Y38.774 F9000.000
G1 X131.628 Y38.774 E8.62019 F600.000
G1 X131.628 Y20.766 E9.48629
G1 X138.831 Y20.766 E9.83270
G1 X138.831 Y38.714 E10.69592
G1 X139.217 Y39.159 F9000.000
G1 X131.243 Y39.159 E11.07943 F600.000
G1 X131.243 Y20.381 E11.98262
G1 X139.217 Y20.381 E12.36613
G1 X139.217 Y39.099 E13.26644
G1 X139.602 Y39.545 F9000.000
G1 X130.857 Y39.545 E13.68704 F600.000
G1 X130.857 Y19.995 E14.62733
G1 X139.602 Y19.995 E15.04793
G1 X139.602 Y39.485 E15.98534
G1 X139.256 Y39.345 F9000.000
G1 X132.298 Y37.901 F9000.000
G1 X132.501 Y38.104 E15.99938 F600.000
G1 X133.055 Y38.104 E16.02636
G1 X132.298 Y37.348 E16.07857
G1 X132.298 Y36.795 E16.10555
G1 X133.608 Y38.104 E16.19592
G1 X134.161 Y38.104 E16.22290
G1 X132.298 Y36.241 E16.35143
G1 X132.298 Y35.688 E16.37841
G1 X134.714 Y38.104 E16.54509
G1 X135.267 Y38.104 E16.57208
G1 X132.298 Y35.135 E16.77692
G1 X132.298 Y34.582 E16.80391
G1 X135.820 Y38.104 E17.04691
G1 X136.373 Y38.104 E17.07389
G1 X132.298 Y34.029 E17.35506
G1 X132.298 Y33.476 E17.38204
G1 X136.926 Y38.104 E17.70137
G1 X137.480 Y38.104 E17.72835
G1 X132.298 Y32.923 E18.08584
G1 X132.298 Y32.369 E18.11282
G1 X138.033 Y38.104 E18.50846
G1 X138.162 Y37.680 E18.53010
G1 X132.298 Y31.816 E18.93463
G1 X132.298 Y31.263 E18.96161
G1 X138.162 Y37.127 E19.36614
G1 X138.162 Y36.574 E19.39313
G1 X132.298 Y30.710 E19.79766
G1 X132.298 Y30.157 E19.82464
G1 X138.162 Y36.021 E20.22917
G1 X138.162 Y35.467 E20.25615
G1 X132.298 Y29.604 E20.66068
G1 X132.298 Y29.051 E20.68767
G1 X138.162 Y34.914 E21.09220
G1 X138.162 Y34.361 E21.11918
G1 X132.298 Y28.498 E21.52371
G1 X132.298 Y27.944 E21.55070
G1 X138.162 Y33.808 E21.95523
G1 X138.162 Y33.255 E21.98221
G1 X132.298 Y27.391 E22.38674
G1 X132.298 Y26.838 E22.41372
G1 X138.162 Y32.702 E22.81825
G1 X138.162 Y32.149 E22.84524
G1 X132.298 Y26.285 E23.24977
G1 X132.298 Y25.732 E23.27675
G1 X138.162 Y31.596 E23.68128
G1 X138.162 Y31.042 E23.70827
G1 X132.298 Y25.179 E24.11280
G1 X132.298 Y24.626 E24.13978
G1 X138.162 Y30.489 E24.54431
G1 X138.162 Y29.936 E24.57129
G1 X132.298 Y24.073 E24.97583
G1 X132.298 Y23.519 E25.00281
G1 X138.162 Y29.383 E25.40734
G1 X138.162 Y28.830 E25.43432
G1 X132.298 Y22.966 E25.83885
G1 X132.298 Y22.413 E25.86584
G1 X138.162 Y28.277 E26.27037
G1 X138.162 Y27.724 E26.29735
G1 X132.298 Y21.860 E26.70188
G1 X132.427 Y21.436 E26.72352
G1 X138.162 Y27.171 E27.11916
G1 X138.162 Y26.617 E27.14615
G1 X132.980 Y21.436 E27.50363
G1 X133.533 Y21.436 E27.53062
G1 X138.162 Y26.064 E27.84994
G1 X138.162 Y25.511 E27.87693
G1 X134.086 Y21.436 E28.15809
G1 X134.639 Y21.436 E28.18508
G1 X138.162 Y24.958 E28.42808
G1 X138.162 Y24.405 E28.45507
G1 X135.192 Y21.436 E28.65991
G1 X135.745 Y21.436 E28.68690
G1 X138.162 Y23.852 E28.85358
G1 X138.162 Y23.299 E28.88057
G1 X136.299 Y21.436 E29.00909
G1 X136.852 Y21.436 E29.03608
G1 X138.162 Y22.746 E29.12644
G1 X138.162 Y22.192 E29.15343
G1 X137.405 Y21.436 E29.20563
G1 X137.958 Y21.436 E29.23262
G1 X138.162 Y21.639 E29.24666
G1 E23.24666 F1800.00000
G92 E0
G1 X121.445 Y38.388 F9000.000
G1 E6.00000 F1800.00000
G1 X115.014 Y38.388 E6.30932 F600.000
G1 X115.014 Y21.152 E7.13833
G1 X121.445 Y21.152 E7.44765
G1 X121.445 Y38.328 E8.27377
G1 X121.831 Y38.774 F9000.000
G1 X114.628 Y38.774 E8.62019 F600.000
G1 X114.628 Y20.766 E9.48629
G1 X121.831 Y20.766 E9.83271
G1 X121.831 Y38.714 E10.69592
G1 X122.217 Y39.159 F9000.000
G1 X114.243 Y39.159 E11.07943 F600.000
G1 X114.243 Y20.381 E11.98262
G1 X122.217 Y20.381 E12.36614
G1 X122.217 Y39.099 E13.26644
G1 X122.602 Y39.545 F9000.000
G1 X113.857 Y39.545 E13.68705 F600.000
G1 X113.857 Y19.995 E14.62734
G1 X122.602 Y19.995 E15.04794
G1 X122.602 Y39.485 E15.98534
G1 X122.256 Y39.345 F9000.000
G1 X115.298 Y37.901 F9000.000
G1 X115.501 Y38.104 E15.99939 F600.000
G1 X116.055 Y38.104 E16.02637
G1 X115.298 Y37.348 E16.07858
G1 X115.298 Y36.795 E16.10556
G1 X116.608 Y38.104 E16.19592
G1 X117.161 Y38.104 E16.22291
G1 X115.298 Y36.241 E16.35143
G1 X115.298 Y35.688 E16.37842
G1 X117.714 Y38.104 E16.54510
G1 X118.267 Y38.104 E16.57208
G1 X115.298 Y35.135 E16.77693
G1 X115.298 Y34.582 E16.80391
G1 X118.820 Y38.104 E17.04692
G1 X119.373 Y38.104 E17.07390
G1 X115.298 Y34.029 E17.35507
G1 X115.298 Y33.476 E17.38205
G1 X119.926 Y38.104 E17.70138
G1 X120.480 Y38.104 E17.72836
G1 X115.298 Y32.923 E18.08584
G1 X115.298 Y32.369 E18.11283
G1 X121.033 Y38.104 E18.50847
G1 X121.162 Y37.680 E18.53011
G1 X115.298 Y31.816 E18.93464
G1 X115.298 Y31.263 E18.96162
G1 X121.162 Y37.127 E19.36615
G1 X121.162 Y36.574 E19.39314
G1 X115.298 Y30.710 E19.79767
G1 X115.298 Y30.157 E19.82465
G1 X121.162 Y36.021 E20.22918
G1 X121.162 Y35.468 E20.25617
G1 X115.298 Y29.604 E20.66070
G1 X115.298 Y29.051 E20.68768
G1 X121.162 Y34.914 E21.09222
G1 X121.162 Y34.361 E21.11920
G1 X115.298 Y28.498 E21.52373
G1 X115.298 Y27.944 E21.55071
G1 X121.162 Y33.808 E21.95525
G1 X121.162 Y33.255 E21.98223
G1 X115.298 Y27.391 E22.38676
G1 X115.298 Y26.838 E22.41375
G1 X121.162 Y32.702 E22.81828
G1 X121.162 Y32.149 E22.84526
G1 X115.298 Y26.285 E23.24979
G1 X115.298 Y25.732 E23.27678
G1 X121.162 Y31.596 E23.68131
G1 X121.162 Y31.042 E23.70829
G1 X115.298 Y25.179 E24.11282
G1 X115.298 Y24.626 E24.13981
G1 X121.162 Y30.489 E24.54434
G1 X121.162 Y29.936 E24.57132
G1 X115.298 Y24.073 E24.97586
G1 X115.298 Y23.519 E25.00284
G1 X121.162 Y29.383 E25.40737
G1 X121.162 Y28.830 E25.43435
G1 X115.298 Y22.966 E25.83889
G1 X115.298 Y22.413 E25.86587
G1 X121.162 Y28.277 E26.27040
G1 X121.162 Y27.724 E26.29739
G1 X115.298 Y21.860 E26.70192
G1 X115.427 Y21.436 E26.72355
G1 X121.162 Y27.171 E27.11920
G1 X121.162 Y26.617 E27.14618
G1 X115.980 Y21.436 E27.50367
G1 X116.533 Y21.436 E27.53065
G1 X121.162 Y26.064 E27.84998
G1 X121.162 Y25.511 E27.87696
G1 X117.086 Y21.436 E28.15813
G1 X117.639 Y21.436 E28.18511
G1 X121.162 Y24.958 E28.42812
G1 X121.162 Y24.405 E28.45510
G1 X118.192 Y21.436 E28.65995
G1 X118.745 Y21.436 E28.68694
G1 X121.162 Y23.852 E28.85362
G1 X121.162 Y23.299 E28.88061
G1 X119.299 Y21.436 E29.00913
G1 X119.852 Y21.436 E29.03612
G1 X121.162 Y22.746 E29.12648
G1 X121.162 Y22.192 E29.15347
G1 X120.405 Y21.436 E29.20567
G1 X120.958 Y21.436 E29.23266
G1 X121.162 Y21.639 E29.24670
;Layer change
G1 E23.24670 F1800.00000
G92 E0
G1 Z0.300 F9000.000
M104 S205 ; set temperature
M140 S55 ; wait for bed temperature to be reached
;Layer change
G1 Z0.520 F9000.000
G1 X132.947 Y37.966 F9000.000
G1 E6.00000 F1800.00000
G1 X132.947 Y21.574 E6.85636 F3000.000
G1 X138.023 Y21.574 E7.12155
G1 X138.023 Y37.966 E7.97791
G1 X133.007 Y37.966 E8.23996
G1 X132.376 Y38.537 F9000.000
G1 X132.376 Y21.003 E9.15601 F3000.000
G1 X138.594 Y21.003 E9.48088
G1 X138.594 Y38.537 E10.39692
G1 X132.436 Y38.537 E10.71867
G1 X131.804 Y39.108 F9000.000
G1 X131.804 Y20.432 E11.69439 F3000.000
G1 X139.165 Y20.432 E12.07895
G1 X139.165 Y39.108 E13.05468
G1 X131.864 Y39.108 E13.43610
G1 X131.342 Y39.570 F9000.000
G1 X131.342 Y19.970 E14.06855 F1800.000
G1 X139.627 Y19.970 E14.33588
G1 X139.627 Y39.570 E14.96833
G1 X131.402 Y39.570 E15.23373
G1 X131.542 Y39.224 F9000.000
G1 E9.23373 F1800.00000
G92 E0
G1 X137.310 Y37.536 F9000.000
G1 E6.00000 F1800.00000
G1 X137.593 Y37.253 E6.02154 F1800.000
G1 X137.593 Y36.419 E6.06653
G1 X136.476 Y37.536 E6.15169
G1 X135.642 Y37.536 E6.19667
G1 X137.593 Y35.585 E6.34546
G1 X137.593 Y34.751 E6.39044
G1 X134.808 Y37.536 E6.60285
G1 X133.974 Y37.536 E6.64784
G1 X137.593 Y33.917 E6.92386
G1 X137.593 Y33.083 E6.96885
G1 X133.377 Y37.299 E7.29046
G1 X133.377 Y36.465 E7.33545
G1 X137.593 Y32.249 E7.65705
G1 X137.593 Y31.415 E7.70204
G1 X133.377 Y35.631 E8.02365
G1 X133.377 Y34.797 E8.06864
G1 X137.593 Y30.581 E8.39024
G1 X137.593 Y29.747 E8.43523
G1 X133.377 Y33.963 E8.75684
G1 X133.377 Y33.129 E8.80182
G1 X137.593 Y28.913 E9.12343
G1 X137.593 Y28.079 E9.16842
G1 X133.377 Y32.295 E9.49002
G1 X133.377 Y31.461 E9.53501
G1 X137.593 Y27.245 E9.85662
G1 X137.593 Y26.411 E9.90161
G1 X133.377 Y30.627 E10.22321
G1 X133.377 Y29.793 E10.26820
G1 X137.593 Y25.577 E10.58981
G1 X137.593 Y24.743 E10.63480
G1 X133.377 Y28.959 E10.95640
G1 X133.377 Y28.125 E11.00139
G1 X137.593 Y23.909 E11.32300
G1 X137.593 Y23.075 E11.36798
G1 X133.377 Y27.291 E11.68959
G1 X133.377 Y26.457 E11.73458
G1 X137.593 Y22.241 E12.05619
G1 X136.995 Y22.004 E12.09085
G1 X133.377 Y25.623 E12.36687
G1 X133.377 Y24.789 E12.41186
G1 X136.161 Y22.004 E12.62427
G1 X135.327 Y22.004 E12.66925
G1 X133.377 Y23.955 E12.81803
G1 X133.377 Y23.121 E12.86302
G1 X134.493 Y22.004 E12.94818
G1 X133.659 Y22.004 E12.99317
G1 X133.377 Y22.287 E13.01470
G1 E7.01470 F1800.00000
G92 E0
G1 X121.023 Y37.966 F9000.000
G1 E6.00000 F1800.00000
G1 X115.947 Y37.966 E6.26519 F3000.000
G1 X115.947 Y21.574 E7.12155
G1 X121.023 Y21.574 E7.38674
G1 X121.023 Y37.906 E8.23997
G1 X121.594 Y38.537 F9000.000
G1 X115.376 Y38.537 E8.56484 F3000.000
G1 X115.376 Y21.003 E9.48088
G1 X121.594 Y21.003 E9.80576
G1 X121.594 Y38.477 E10.71867
G1 X122.165 Y39.108 F9000.000
G1 X114.804 Y39.108 E11.10323 F3000.000
G1 X114.804 Y20.432 E12.07895
G1 X122.165 Y20.432 E12.46352
G1 X122.165 Y39.048 E13.43611
G1 X122.627 Y39.570 F9000.000
G1 X114.342 Y39.570 E13.70344 F1800.000
G1 X114.342 Y19.970 E14.33589
G1 X122.627 Y19.970 E14.60322
G1 X122.627 Y39.510 E15.23373
G1 X122.281 Y39.370 F9000.000
G1 X120.310 Y37.536 F9000.000
G1 X120.593 Y37.253 E15.25527 F1800.000
G1 X120.593 Y36.419 E15.30026
G1 X119.476 Y37.536 E15.38542
G1 X118.642 Y37.536 E15.43040
G1 X120.593 Y35.585 E15.57919
G1 X120.593 Y34.751 E15.62418
G1 X117.808 Y37.536 E15.83658
G1 X116.974 Y37.536 E15.88157
G1 X120.593 Y33.917 E16.15760
G1 X120.593 Y33.083 E16.20258
G1 X116.377 Y37.299 E16.52419
G1 X116.377 Y36.465 E16.56918
G1 X120.593 Y32.249 E16.89079
G1 X120.593 Y31.415 E16.93577
G1 X116.377 Y35.631 E17.25738
G1 X116.377 Y34.797 E17.30237
G1 X120.593 Y30.581 E17.62398
G1 X120.593 Y29.747 E17.66896
G1 X116.377 Y33.963 E17.99057
G1 X116.377 Y33.129 E18.03556
G1 X120.593 Y28.913 E18.35717
G1 X120.593 Y28.079 E18.40216
G1 X116.377 Y32.295 E18.72376
G1 X116.377 Y31.461 E18.76875
G1 X120.593 Y27.245 E19.09036
G1 X120.593 Y26.411 E19.13535
G1 X116.377 Y30.627 E19.45695
G1 X116.377 Y29.793 E19.50194
G1 X120.593 Y25.577 E19.82355
G1 X120.593 Y24.743 E19.86854
G1 X116.377 Y28.959 E20.19014
G1 X116.377 Y28.125 E20.23513
G1 X120.593 Y23.909 E20.55674
G1 X120.593 Y23.075 E20.60173
G1 X116.377 Y27.291 E20.92333
G1 X116.377 Y26.457 E20.96832
G1 X120.593 Y22.241 E21.28993
G1 X119.995 Y22.004 E21.32459
G1 X116.377 Y25.623 E21.60062
G1 X116.377 Y24.789 E21.64561
G1 X119.161 Y22.004 E21.85801
G1 X118.327 Y22.004 E21.90300
G1 X116.377 Y23.955 E22.05178
G1 X116.377 Y23.121 E22.09677
G1 X117.493 Y22.004 E22.18192
G1 X116.659 Y22.004 E22.22691
G1 X116.377 Y22.287 E22.24845
;Layer change
G1 E16.24845 F1800.00000
G92 E0
G1 Z0.740 F9000.000
G1 X133.379 Y37.966 F9000.000
G1 E6.00000 F1800.00000
G1 X133.379 Y21.574 E6.85636 F3000.000
G1 X138.023 Y21.574 E7.09899
G1 X138.023 Y37.966 E7.95535
G1 X133.439 Y37.966 E8.19485
G1 X132.807 Y38.537 F9000.000
G1 X132.807 Y21.003 E9.11089 F3000.000
G1 X138.594 Y21.003 E9.41321
G1 X138.594 Y38.537 E10.32925
G1 X132.867 Y38.537 E10.62843
G1 X132.236 Y39.108 F9000.000
G1 X132.236 Y20.432 E11.60416 F3000.000
G1 X139.165 Y20.432 E11.96616
G1 X139.165 Y39.108 E12.94189
G1 X132.296 Y39.108 E13.30076
G1 X131.774 Y39.570 F9000.000
G1 X131.774 Y19.970 E13.93321 F1800.000
G1 X139.627 Y19.970 E14.18661
G1 X139.627 Y39.570 E14.81906
G1 X131.834 Y39.570 E15.07052
G1 X131.974 Y39.224 F9000.000
G1 E9.07052 F1800.00000
G92 E0
G1 X134.119 Y37.253 F9000.000
G1 E6.00000 F1800.00000
G1 X134.401 Y37.536 E6.02164 F1800.000
G1 X135.239 Y37.536 E6.06709
G1 X134.119 Y36.415 E6.15299
G1 X134.119 Y35.577 E6.19844
G1 X136.077 Y37.536 E6.34861
G1 X136.916 Y37.536 E6.39405
G1 X134.119 Y34.739 E6.60848
G1 X134.119 Y33.900 E6.65393
G1 X137.593 Y37.375 E6.92028
G1 X137.593 Y36.536 E6.96572
G1 X134.119 Y33.062 E7.23207
G1 X134.119 Y32.224 E7.27752
G1 X137.593 Y35.698 E7.54387
G1 X137.593 Y34.860 E7.58931
G1 X134.119 Y31.386 E7.85566
G1 X134.119 Y30.548 E7.90111
G1 X137.593 Y34.022 E8.16746
G1 X137.593 Y33.184 E8.21290
G1 X134.119 Y29.709 E8.47925
G1 X134.119 Y28.871 E8.52469
G1 X137.593 Y32.345 E8.79105
G1 X137.593 Y31.507 E8.83649
G1 X134.119 Y28.033 E9.10284
G1 X134.119 Y27.195 E9.14828
G1 X137.593 Y30.669 E9.41464
G1 X137.593 Y29.831 E9.46008
G1 X134.119 Y26.357 E9.72643
G1 X134.119 Y25.518 E9.77187
G1 X137.593 Y28.992 E10.03823
G1 X137.593 Y28.154 E10.08367
G1 X134.119 Y24.680 E10.35002
G1 X134.119 Y23.842 E10.39546
G1 X137.593 Y27.316 E10.66182
G1 X137.593 Y26.478 E10.70726
G1 X134.119 Y23.004 E10.97361
G1 X134.119 Y22.165 E11.01905
G1 X137.593 Y25.640 E11.28541
G1 X137.593 Y24.801 E11.33085
G1 X134.796 Y22.004 E11.54529
G1 X135.634 Y22.004 E11.59073
G1 X137.593 Y23.963 E11.74090
G1 X137.593 Y23.125 E11.78634
G1 X136.472 Y22.004 E11.87225
G1 X137.310 Y22.004 E11.91769
G1 X137.593 Y22.287 E11.93934
G1 X133.833 Y22.667 F9000.000
G1 X133.806 Y22.694 E11.94095 F6000.000
G1 X133.806 Y23.915 E11.99199
G1 X133.833 Y23.943 E11.99360
G1 X133.833 Y25.495 E12.05848
G1 X133.806 Y25.522 E12.06008
G1 X133.806 Y26.743 E12.11113
G1 X133.833 Y26.771 E12.11274
G1 X133.833 Y28.323 E12.17761
G1 X133.806 Y28.350 E12.17922
G1 X133.806 Y29.571 E12.23026
G1 X133.833 Y29.598 E12.23187
G1 X133.833 Y31.151 E12.29675
G1 X133.806 Y31.178 E12.29835
G1 X133.806 Y32.399 E12.34940
G1 X133.833 Y32.426 E12.35101
G1 X133.833 Y33.978 E12.41588
G1 X133.806 Y34.006 E12.41749
G1 X133.806 Y35.227 E12.46853
G1 X133.833 Y35.254 E12.47014
G1 X133.833 Y36.806 E12.53502
G1 X133.806 Y36.834 E12.53662
G1 E6.53662 F1800.00000
G92 E0
G1 X121.023 Y37.966 F9000.000
G1 E6.00000 F1800.00000
G1 X116.379 Y37.966 E6.24263 F3000.000
G1 X116.379 Y21.574 E7.09899
G1 X121.023 Y21.574 E7.34163
G1 X121.023 Y37.906 E8.19485
G1 X121.594 Y38.537 F9000.000
G1 X115.807 Y38.537 E8.49717 F3000.000
G1 X115.807 Y21.003 E9.41321
G1 X121.594 Y21.003 E9.71553
G1 X121.594 Y38.477 E10.62844
G1 X122.165 Y39.108 F9000.000
G1 X115.236 Y39.108 E10.99044 F3000.000
G1 X115.236 Y20.432 E11.96616
G1 X122.165 Y20.432 E12.32817
G1 X122.165 Y39.048 E13.30076
G1 X122.627 Y39.570 F9000.000
G1 X114.774 Y39.570 E13.55416 F1800.000
G1 X114.774 Y19.970 E14.18661
G1 X122.627 Y19.970 E14.44000
G1 X122.627 Y39.510 E15.07052
G1 X122.281 Y39.370 F9000.000
