; generated by Slic3r 1.2.9 on 2020-01-21 at 21:25:18

; external perimeters extrusion width = 0.40mm
; perimeters extrusion width = 0.62mm
; infill extrusion width = 0.33mm
; solid infill extrusion width = 0.62mm
; top infill extrusion width = 0.20mm

M106 S256; Turn on fan to 100% power
M104 S140; turn on extruder temperature at S value
M140 S60; turn on bed temperature at S value
G28; home all axes
M84; disable motors
G1 Z15 F15000; have Z move to 20mm at 15000 mm/min
M190 S55; turn on bed temperature at S value and wait
M140 S55; turn on bed temperature at S value (printing temperature)
M109 S200; turn on extruder temperature at S value and wait (printing temperature)
M104 S200; turn on extruder temperature at S value
G1 Z0 F12000; move Z back to home
G21 ; set units to millimeters
G90 ; use absolute coordinates
M82 ; use absolute distances for extrusion
G92 E0
M106 S255
;Layer change
G1 E-6.00000 F1800.00000
G92 E0
G1 Z0.300 F9000.000
G1 X41.018 Y15.295 F9000.000
G1 E6.00000 F1800.00000
G1 X41.318 Y14.570 E6.03862 F600.000
G1 X41.488 Y14.236 E6.05705
G1 X41.898 Y13.568 E6.09566
G1 X42.118 Y13.265 E6.11408
G1 X42.628 Y12.668 E6.15269
G1 X42.892 Y12.404 E6.17111
G1 X43.489 Y11.894 E6.20972
G1 X43.792 Y11.674 E6.22816
G1 X44.461 Y11.264 E6.26677
G1 X44.794 Y11.094 E6.28518
G1 X45.519 Y10.794 E6.32379
G1 X45.876 Y10.678 E6.34223
G1 X46.638 Y10.495 E6.38085
G1 X47.008 Y10.436 E6.39925
G1 X47.790 Y10.375 E6.43787
G1 X122.876 Y10.171 E10.13324
G1 X123.460 Y10.200 E10.16200 F600.000
G1 X180.752 Y15.426 E12.99336
G1 X181.093 Y15.483 E13.01035
G1 X181.703 Y15.629 E13.04123
G1 X182.058 Y15.745 E13.05962
G1 X182.638 Y15.985 E13.09052
G1 X182.992 Y16.167 E13.11010
G1 X183.507 Y16.483 E13.13983
G1 X183.810 Y16.703 E13.15829
G1 X184.287 Y17.111 E13.18917
G1 X184.551 Y17.375 E13.20751
G1 X184.959 Y17.852 E13.23842
G1 X185.179 Y18.155 E13.25685
G1 X185.507 Y18.690 E13.28775
G1 X185.678 Y19.025 E13.30623
G1 X185.918 Y19.605 E13.33712
G1 X186.033 Y19.958 E13.35542
G1 X186.180 Y20.569 E13.38632
G1 X186.239 Y20.941 E13.40488
G1 X186.293 Y21.839 E13.44914
G1 X185.192 Y52.439 E14.95609
G1 X185.136 Y53.169 E14.99213
G1 X185.079 Y53.534 E15.01031
G1 X184.933 Y54.144 E15.04120
G1 X184.817 Y54.501 E15.05968
G1 X184.577 Y55.081 E15.09057
G1 X125.710 Y168.202 E21.36649
G1 X125.323 Y168.810 E21.40199
G1 X125.093 Y169.104 E21.42037
G1 X124.775 Y169.451 E21.44353
G1 X124.503 Y169.706 E21.46189
G1 X124.134 Y169.999 E21.48507
G1 X123.822 Y170.210 E21.50358
G1 X123.412 Y170.441 E21.52676
G1 X123.074 Y170.599 E21.54513
G1 X122.633 Y170.764 E21.56831
G1 X122.273 Y170.867 E21.58674
G1 X121.812 Y170.961 E21.60990
G1 X121.440 Y171.007 E21.62831
G1 X120.865 Y171.030 E21.65664
G1 X43.918 Y171.031 E25.44361
G1 X43.221 Y170.975 E25.47804
G1 X42.852 Y170.910 E25.49644
G1 X42.397 Y170.792 E25.51961
G1 X42.042 Y170.670 E25.53806
G1 X41.610 Y170.482 E25.56125
G1 X41.280 Y170.307 E25.57962
G1 X40.883 Y170.054 E25.60281
G1 X40.584 Y169.828 E25.62123
G1 X40.231 Y169.517 E25.64440
G1 X39.971 Y169.247 E25.66282
G1 X39.672 Y168.884 E25.68601
G1 X39.457 Y168.577 E25.70443
G1 X39.218 Y168.171 E25.72760
G1 X39.054 Y167.835 E25.74602
G1 X38.882 Y167.397 E25.76919
G1 X38.772 Y167.039 E25.78760
G1 X38.670 Y166.579 E25.81078
G1 X38.618 Y166.209 E25.82921
G1 X38.585 Y165.561 E25.86113
G1 X40.592 Y17.721 E33.13777
G1 X40.661 Y16.784 E33.18401
G1 X40.719 Y16.414 E33.20243
G1 X40.902 Y15.651 E33.24105
G1 X41.000 Y15.352 E33.25651
G1 E27.25651 F1800.00000
G92 E0
G1 X44.630 Y163.730 F9000.000
G1 E6.00000 F1800.00000
G1 X44.921 Y163.857 E6.01564 F600.000
G1 X45.177 Y164.020 E6.03056
G1 X45.427 Y164.238 E6.04688
G1 X45.629 Y164.484 E6.06257
G1 X45.791 Y164.758 E6.07821
G1 X45.907 Y165.053 E6.09385
G1 X45.976 Y165.364 E6.10950
G1 X45.995 Y165.681 E6.12514
G1 X45.965 Y165.997 E6.14079
G1 X45.885 Y166.305 E6.15643
G1 X45.759 Y166.597 E6.17207
G1 X45.588 Y166.865 E6.18772
G1 X45.377 Y167.103 E6.20336
G1 X45.132 Y167.305 E6.21901
G1 X44.858 Y167.466 E6.23465
G1 X44.562 Y167.583 E6.25029
G1 X44.252 Y167.652 E6.26594
G1 X43.935 Y167.671 E6.28158
G1 X43.618 Y167.641 E6.29723
G1 X43.311 Y167.561 E6.31287
G1 X43.019 Y167.434 E6.32851
G1 X42.751 Y167.263 E6.34416
G1 X42.513 Y167.053 E6.35980
G1 X42.311 Y166.808 E6.37545
G1 X42.149 Y166.534 E6.39109
G1 X42.033 Y166.238 E6.40673
G1 X41.964 Y165.928 E6.42237
G1 X41.945 Y165.610 E6.43802
G1 X41.975 Y165.294 E6.45366
G1 X42.055 Y164.986 E6.46931
G1 X42.182 Y164.695 E6.48495
G1 X42.352 Y164.427 E6.50060
G1 X42.563 Y164.189 E6.51624
G1 X42.808 Y163.986 E6.53188
G1 X43.082 Y163.825 E6.54752
G1 X43.378 Y163.709 E6.56317
G1 X43.688 Y163.640 E6.57881
G1 X43.991 Y163.621 E6.59373 F600.000
G1 X44.321 Y163.651 E6.61005
G1 X44.572 Y163.715 E6.62278
G1 X44.875 Y163.528 F9000.000
G1 E0.62278 F1800.00000
G92 E0
G1 X118.946 Y165.575 F9000.000
G1 E6.00000 F1800.00000
G1 X118.982 Y165.259 E6.01565 F600.000
G1 X119.067 Y164.953 E6.03130
G1 X119.199 Y164.664 E6.04693
G1 X119.374 Y164.399 E6.06257
G1 X119.588 Y164.164 E6.07818
G1 X119.837 Y163.966 E6.09384
G1 X120.114 Y163.810 E6.10949
G1 X120.412 Y163.698 E6.12516
G1 X120.724 Y163.635 E6.14081
G1 X121.026 Y163.622 E6.15572 F600.000
G1 X121.355 Y163.657 E6.17200
G1 X121.663 Y163.742 E6.18772
G1 X121.953 Y163.874 E6.20338
G1 X122.217 Y164.050 E6.21900
G1 X122.451 Y164.264 E6.23463
G1 X122.650 Y164.514 E6.25032
G1 X122.811 Y164.803 E6.26664
G1 X122.917 Y165.087 E6.28154
G1 X122.981 Y165.399 E6.29720
G1 X122.995 Y165.717 E6.31286
G1 X122.959 Y166.032 E6.32851
G1 X122.873 Y166.339 E6.34415
G1 X122.742 Y166.628 E6.35979
G1 X122.566 Y166.893 E6.37542
G1 X122.352 Y167.127 E6.39104
G1 X122.103 Y167.325 E6.40669
G1 X121.826 Y167.482 E6.42235
G1 X121.528 Y167.593 E6.43801
G1 X121.217 Y167.656 E6.45366
G1 X120.899 Y167.670 E6.46930
G1 X120.584 Y167.634 E6.48491
G1 X120.277 Y167.549 E6.50059
G1 X119.988 Y167.417 E6.51624
G1 X119.723 Y167.242 E6.53187
G1 X119.489 Y167.027 E6.54749
G1 X119.290 Y166.778 E6.56318
G1 X119.129 Y166.488 E6.57950
G1 X119.023 Y166.204 E6.59441
G1 X118.959 Y165.893 E6.61006
G1 X118.948 Y165.635 E6.62277
G1 X118.680 Y165.399 F9000.000
G1 E0.62277 F1800.00000
G92 E0
G1 X60.889 Y156.029 F9000.000
G1 E6.00000 F1800.00000
G1 X60.800 Y156.402 E6.01891 F600.000
G1 X60.653 Y156.758 E6.03782
G1 X60.452 Y157.085 E6.05675
G1 X60.202 Y157.378 E6.07566
G1 X59.910 Y157.627 E6.09457
G1 X59.582 Y157.828 E6.11350
G1 X59.227 Y157.975 E6.13242
G1 X58.853 Y158.065 E6.15132
G1 X58.470 Y158.095 E6.17024
G1 X58.087 Y158.065 E6.18916
G1 X57.713 Y157.975 E6.20806
G1 X57.358 Y157.828 E6.22698
G1 X57.030 Y157.627 E6.24590
G1 X56.738 Y157.378 E6.26481
G1 X56.489 Y157.085 E6.28372
G1 X56.288 Y156.758 E6.30265
G1 X56.141 Y156.402 E6.32157
G1 X56.051 Y156.029 E6.34048
G1 X56.021 Y155.646 E6.35939
G1 X56.051 Y155.263 E6.37831
G1 X56.141 Y154.889 E6.39721
G1 X56.288 Y154.534 E6.41613
G1 X56.489 Y154.206 E6.43506
G1 X56.738 Y153.914 E6.45397
G1 X57.030 Y153.664 E6.47288
G1 X57.358 Y153.463 E6.49181
G1 X57.713 Y153.316 E6.51072
G1 X58.087 Y153.227 E6.52963
G1 X58.470 Y153.196 E6.54854 F600.000
G1 X58.853 Y153.227 E6.56747
G1 X59.227 Y153.316 E6.58637
G1 X59.582 Y153.463 E6.60529
G1 X59.910 Y153.664 E6.62421
G1 X60.202 Y153.914 E6.64312
G1 X60.452 Y154.206 E6.66203
G1 X60.653 Y154.534 E6.68096
G1 X60.800 Y154.889 E6.69988
G1 X60.889 Y155.263 E6.71878
G1 X60.919 Y155.646 E6.73770
G1 X60.894 Y155.969 E6.75366
G1 X60.507 Y155.968 F9000.000
G1 X60.432 Y156.283 E6.76959 F600.000
G1 X60.308 Y156.582 E6.78552
G1 X60.139 Y156.858 E6.80145
G1 X59.929 Y157.104 E6.81738
G1 X59.682 Y157.314 E6.83330
G1 X59.406 Y157.484 E6.84924
G1 X59.107 Y157.607 E6.86516
G1 X58.793 Y157.683 E6.88109
G1 X58.470 Y157.708 E6.89702
G1 X58.147 Y157.683 E6.91295
G1 X57.833 Y157.607 E6.92887
G1 X57.534 Y157.483 E6.94480
G1 X57.258 Y157.314 E6.96073
G1 X57.012 Y157.104 E6.97666
G1 X56.802 Y156.858 E6.99258
G1 X56.632 Y156.582 E7.00852
G1 X56.509 Y156.283 E7.02445
G1 X56.433 Y155.968 E7.04037
G1 X56.408 Y155.646 E7.05630
G1 X56.433 Y155.323 E7.07223
G1 X56.509 Y155.008 E7.08815
G1 X56.632 Y154.709 E7.10408
G1 X56.802 Y154.433 E7.12001
G1 X57.012 Y154.187 E7.13594
G1 X57.258 Y153.977 E7.15187
G1 X57.534 Y153.808 E7.16780
G1 X57.833 Y153.684 E7.18373
G1 X58.147 Y153.609 E7.19965
G1 X58.470 Y153.583 E7.21558 F600.000
G1 X58.793 Y153.609 E7.23151
G1 X59.107 Y153.684 E7.24743
G1 X59.406 Y153.808 E7.26336
G1 X59.682 Y153.977 E7.27929
G1 X59.928 Y154.187 E7.29522
G1 X60.139 Y154.433 E7.31115
G1 X60.308 Y154.709 E7.32708
G1 X60.432 Y155.008 E7.34301
G1 X60.507 Y155.323 E7.35894
G1 X60.533 Y155.646 E7.37486
G1 X60.512 Y155.909 E7.38784
G1 X60.125 Y155.908 F9000.000
G1 X60.064 Y156.164 E7.40078 F600.000
G1 X59.963 Y156.406 E7.41372
G1 X59.826 Y156.631 E7.42666
G1 X59.655 Y156.831 E7.43960
G1 X59.455 Y157.001 E7.45254
G1 X59.231 Y157.139 E7.46549
G1 X58.988 Y157.239 E7.47843
G1 X58.732 Y157.301 E7.49137
G1 X58.470 Y157.321 E7.50431
G1 X58.208 Y157.301 E7.51725
G1 X57.952 Y157.239 E7.53019
G1 X57.709 Y157.139 E7.54313
G1 X57.485 Y157.001 E7.55607
G1 X57.285 Y156.831 E7.56901
G1 X57.114 Y156.631 E7.58195
G1 X56.977 Y156.406 E7.59490
G1 X56.876 Y156.164 E7.60784
G1 X56.815 Y155.908 E7.62078
G1 X56.794 Y155.646 E7.63372
G1 X56.815 Y155.384 E7.64666
G1 X56.876 Y155.128 E7.65960
G1 X56.977 Y154.885 E7.67254
G1 X57.114 Y154.661 E7.68548
G1 X57.285 Y154.461 E7.69842
G1 X57.485 Y154.290 E7.71136
G1 X57.709 Y154.153 E7.72431
G1 X57.952 Y154.052 E7.73724
G1 X58.208 Y153.991 E7.75019
G1 X58.470 Y153.970 E7.76312 F600.000
G1 X58.732 Y153.991 E7.77607
G1 X58.988 Y154.052 E7.78901
G1 X59.231 Y154.153 E7.80195
G1 X59.455 Y154.290 E7.81489
G1 X59.655 Y154.461 E7.82783
G1 X59.826 Y154.661 E7.84077
G1 X59.963 Y154.885 E7.85371
G1 X60.064 Y155.128 E7.86665
G1 X60.125 Y155.384 E7.87960
G1 X60.146 Y155.646 E7.89254
G1 X60.130 Y155.848 E7.90252
G1 X60.325 Y156.079 F9000.000
G1 E1.90252 F1800.00000
G92 E0
G1 X56.621 Y158.292 F9000.000
G1 E6.00000 F1800.00000
G1 X47.435 Y164.724 E6.55189 F600.000
G1 X47.181 Y164.080 E6.58598
G1 X46.897 Y163.596 E6.61357
G1 X46.536 Y163.159 E6.64149
G1 X46.018 Y162.707 E6.67532
G1 X55.301 Y156.207 E7.23302
G1 X55.405 Y156.641 E7.25499
G1 X55.598 Y157.109 E7.27989
G1 X55.863 Y157.540 E7.30480
G1 X56.191 Y157.925 E7.32968
G1 X56.576 Y158.253 E7.35456
G1 X57.332 Y158.265 F9000.000
G1 X47.138 Y165.403 E7.96707 F600.000
G1 X47.125 Y165.202 E7.97698
G1 X47.017 Y164.714 E8.00159
G1 X46.834 Y164.249 E8.02619
G1 X46.580 Y163.818 E8.05079
G1 X46.259 Y163.428 E8.07566
G1 X45.872 Y163.091 E8.10094
G1 X45.466 Y162.832 E8.12462
G1 X45.281 Y162.752 E8.13452
G1 X55.623 Y155.511 E8.75588
G1 X55.669 Y156.089 E8.78445
G1 X55.773 Y156.522 E8.80633
G1 X55.943 Y156.933 E8.82824
G1 X56.176 Y157.313 E8.85016
G1 X56.465 Y157.651 E8.87206
G1 X56.803 Y157.940 E8.89395
G1 X57.281 Y158.233 E8.92156
G1 X104.222 Y154.564 F9000.000
G1 X104.251 Y154.162 E8.94138 F600.000
G1 X104.341 Y153.789 E8.96029
G1 X104.488 Y153.434 E8.97921
G1 X104.689 Y153.106 E8.99813
G1 X104.938 Y152.814 E9.01704
G1 X105.230 Y152.564 E9.03595
G1 X105.558 Y152.363 E9.05488
G1 X105.913 Y152.216 E9.07379
G1 X106.287 Y152.127 E9.09270
G1 X106.660 Y152.097 E9.11112 F600.000
G1 X107.051 Y152.126 E9.13041
G1 X107.427 Y152.216 E9.14944
G1 X107.782 Y152.363 E9.16836
G1 X108.110 Y152.564 E9.18728
G1 X108.402 Y152.814 E9.20619
G1 X108.652 Y153.106 E9.22510
G1 X108.854 Y153.436 E9.24414
G1 X109.002 Y153.798 E9.26337
G1 X109.089 Y154.162 E9.28185
G1 X109.119 Y154.546 E9.30077
G1 X109.089 Y154.929 E9.31969
G1 X109.002 Y155.293 E9.33812
G1 X108.854 Y155.656 E9.35738
G1 X108.652 Y155.985 E9.37643
G1 X108.402 Y156.278 E9.39534
G1 X108.110 Y156.527 E9.41425
G1 X107.782 Y156.728 E9.43318
G1 X107.427 Y156.875 E9.45209
G1 X107.053 Y156.965 E9.47100
G1 X106.670 Y156.995 E9.48992
G1 X106.287 Y156.965 E9.50883
G1 X105.913 Y156.875 E9.52774
G1 X105.558 Y156.728 E9.54666
G1 X105.230 Y156.527 E9.56558
G1 X104.938 Y156.278 E9.58449
G1 X104.689 Y155.985 E9.60340
G1 X104.488 Y155.658 E9.62233
G1 X104.341 Y155.302 E9.64125
G1 X104.251 Y154.929 E9.66016
G1 X104.227 Y154.624 E9.67521
G1 X104.608 Y154.546 F9000.000
G1 X104.633 Y154.223 E9.69114 F600.000
G1 X104.709 Y153.908 E9.70706
G1 X104.832 Y153.609 E9.72299
G1 X105.002 Y153.333 E9.73892
G1 X105.212 Y153.087 E9.75485
G1 X105.458 Y152.877 E9.77077
G1 X105.734 Y152.708 E9.78671
G1 X106.033 Y152.584 E9.80264
G1 X106.347 Y152.509 E9.81856
G1 X106.661 Y152.484 E9.83404 F600.000
G1 X106.991 Y152.508 E9.85034
G1 X107.307 Y152.584 E9.86634
G1 X107.606 Y152.708 E9.88227
G1 X107.882 Y152.877 E9.89820
G1 X108.128 Y153.087 E9.91412
G1 X108.339 Y153.333 E9.93005
G1 X108.509 Y153.611 E9.94605
G1 X108.634 Y153.916 E9.96230
G1 X108.707 Y154.223 E9.97783
G1 X108.733 Y154.546 E9.99376
G1 X108.707 Y154.868 E10.00969
G1 X108.634 Y155.175 E10.02519
G1 X108.509 Y155.481 E10.04147
G1 X108.339 Y155.758 E10.05747
G1 X108.128 Y156.004 E10.07340
G1 X107.882 Y156.214 E10.08933
G1 X107.606 Y156.383 E10.10526
G1 X107.307 Y156.507 E10.12119
G1 X106.993 Y156.583 E10.13711
G1 X106.670 Y156.608 E10.15304
G1 X106.347 Y156.583 E10.16897
G1 X106.033 Y156.507 E10.18489
G1 X105.734 Y156.383 E10.20082
G1 X105.458 Y156.214 E10.21675
G1 X105.212 Y156.004 E10.23268
G1 X105.002 Y155.758 E10.24861
G1 X104.832 Y155.482 E10.26454
G1 X104.709 Y155.183 E10.28047
G1 X104.633 Y154.868 E10.29640
G1 X104.612 Y154.606 E10.30937
G1 X104.994 Y154.546 F9000.000
G1 X105.015 Y154.284 E10.32231 F600.000
G1 X105.076 Y154.028 E10.33525
G1 X105.177 Y153.785 E10.34819
G1 X105.314 Y153.561 E10.36114
G1 X105.485 Y153.361 E10.37408
G1 X105.685 Y153.190 E10.38702
G1 X105.909 Y153.053 E10.39996
G1 X106.152 Y152.952 E10.41290
G1 X106.408 Y152.891 E10.42584
G1 X106.662 Y152.871 E10.43838 F600.000
G1 X106.932 Y152.891 E10.45169
G1 X107.188 Y152.952 E10.46466
G1 X107.431 Y153.053 E10.47760
G1 X107.655 Y153.190 E10.49054
G1 X107.855 Y153.361 E10.50348
G1 X108.026 Y153.561 E10.51642
G1 X108.163 Y153.785 E10.52939
G1 X108.265 Y154.035 E10.54265
G1 X108.325 Y154.284 E10.55524
G1 X108.346 Y154.546 E10.56818
G1 X108.325 Y154.808 E10.58112
G1 X108.266 Y155.056 E10.59368
G1 X108.163 Y155.306 E10.60697
G1 X108.026 Y155.531 E10.61994
G1 X107.855 Y155.731 E10.63288
G1 X107.655 Y155.901 E10.64582
G1 X107.431 Y156.039 E10.65877
G1 X107.188 Y156.139 E10.67170
G1 X106.932 Y156.201 E10.68464
G1 X106.670 Y156.221 E10.69759
G1 X106.408 Y156.201 E10.71053
G1 X106.152 Y156.139 E10.72347
G1 X105.909 Y156.039 E10.73641
G1 X105.685 Y155.901 E10.74935
G1 X105.485 Y155.731 E10.76229
G1 X105.314 Y155.531 E10.77523
G1 X105.177 Y155.306 E10.78818
G1 X105.076 Y155.063 E10.80112
G1 X105.015 Y154.808 E10.81406
G1 X104.999 Y154.606 E10.82404
G1 X104.770 Y154.408 F9000.000
G1 E4.82404 F1800.00000
G92 E0
G1 X108.303 Y157.313 F9000.000
G1 E6.00000 F1800.00000
G1 X108.565 Y157.153 E6.01509 F600.000
G1 X108.949 Y156.825 E6.03997
G1 X109.277 Y156.440 E6.06486
G1 X109.544 Y156.005 E6.08997
G1 X109.738 Y155.530 E6.11522
G1 X109.783 Y155.342 E6.12476
G1 X119.075 Y162.601 E6.70507
G1 X118.531 Y163.034 E6.73928
G1 X118.154 Y163.447 E6.76681
G1 X117.845 Y163.914 E6.79434
G1 X117.558 Y164.544 E6.82844
G1 X108.350 Y157.350 E7.40352
G1 X107.573 Y157.232 F9000.000
G1 X107.958 Y157.073 E7.42401 F600.000
G1 X108.337 Y156.840 E7.44592
G1 X108.676 Y156.551 E7.46782
G1 X108.965 Y156.213 E7.48972
G1 X109.199 Y155.830 E7.51180
G1 X109.370 Y155.412 E7.53405
G1 X109.471 Y154.989 E7.55542
G1 X109.500 Y154.631 E7.57313
G1 X119.812 Y162.688 E8.21718
G1 X119.624 Y162.758 E8.22707
G1 X119.188 Y163.004 E8.25171
G1 X118.796 Y163.317 E8.27640
G1 X118.459 Y163.685 E8.30095
G1 X118.184 Y164.101 E8.32551
G1 X117.977 Y164.555 E8.35006
G1 X117.843 Y165.036 E8.37465
G1 X117.820 Y165.238 E8.38462
G1 X107.620 Y157.269 E9.02163
G1 E3.02163 F1800.00000
G92 E0
G1 X92.527 Y106.675 F9000.000
G1 E6.00000 F1800.00000
G1 X92.153 Y106.765 E6.01890 F600.000
G1 X91.770 Y106.795 E6.03782
G1 X91.387 Y106.765 E6.05674
G1 X91.013 Y106.675 E6.07564
G1 X90.658 Y106.528 E6.09456
G1 X90.330 Y106.327 E6.11349
G1 X90.038 Y106.078 E6.13240
G1 X89.789 Y105.785 E6.15131
G1 X89.588 Y105.458 E6.17023
G1 X89.441 Y105.102 E6.18915
