; generated by Slic3r 1.2.9 on 2020-01-15 at 20:10:17

; external perimeters extrusion width = 0.40mm
; perimeters extrusion width = 0.62mm
; infill extrusion width = 0.33mm
; solid infill extrusion width = 0.62mm
; top infill extrusion width = 0.20mm

M106 S256; Turn on fan to 100% power
M104 S140; turn on extruder temperature at S value
M140 S60; turn on bed temperature at S value
G28; home all axes
M84; disable motors
G1 Z15 F15000; have Z move to 20mm at 15000 mm/min
M190 S55; turn on bed temperature at S value and wait
M140 S55; turn on bed temperature at S value (printing temperature)
M109 S200; turn on extruder temperature at S value and wait (printing temperature)
M104 S200; turn on extruder temperature at S value
G1 Z0 F12000; move Z back to home
G21 ; set units to millimeters
G90 ; use absolute coordinates
M82 ; use absolute distances for extrusion
G92 E0
M106 S255
;Layer change
G1 E-6.00000 F1800.00000
G92 E0
G1 Z0.300 F9000.000
G1 X80.530 Y49.513 F9000.000
G1 E6.00000 F1800.00000
G1 X105.420 Y9.031 E8.33882 F600.000
G1 X106.440 Y8.120 E8.40609
G1 X107.453 Y7.894 E8.45715
G1 X117.800 Y7.894 E8.96639
G1 X119.110 Y8.286 E9.03366
G1 X120.039 Y9.457 E9.10723 F600.000
G1 X148.349 Y86.457 E13.14481
G1 X148.496 Y87.280 E13.18596
G1 X148.496 Y92.280 E13.43203
G1 X148.104 Y93.590 E13.49931
G1 X147.058 Y94.469 E13.56658
G1 X146.110 Y94.666 E13.61421
G1 X60.110 Y94.666 E17.84671
G1 X58.800 Y94.274 E17.91398
G1 X57.921 Y93.228 E17.98126
G1 X57.724 Y92.280 E18.02889
G1 X57.724 Y87.280 E18.27496
G1 X58.078 Y86.031 E18.33887
G1 X80.499 Y49.564 E20.44565
G1 E14.44565 F1800.00000
G92 E0
G1 X82.991 Y73.279 F9000.000
G1 E6.00000 F1800.00000
G1 X83.150 Y74.280 E6.04988 F600.000
G1 X82.991 Y75.281 E6.09976
G1 X82.531 Y76.184 E6.14964
G1 X81.814 Y76.901 E6.19953
G1 X80.911 Y77.361 E6.24941
G1 X79.910 Y77.520 E6.29929
G1 X78.909 Y77.361 E6.34917
G1 X78.006 Y76.901 E6.39905
G1 X77.289 Y76.184 E6.44894
G1 X76.829 Y75.281 E6.49882
G1 X76.670 Y74.280 E6.54870
G1 X76.829 Y73.279 E6.59858
G1 X77.289 Y72.376 E6.64845
G1 X78.006 Y71.659 E6.69835
G1 X78.909 Y71.199 E6.74822
G1 X79.910 Y71.040 E6.79810 F600.000
G1 X80.911 Y71.199 E6.84799
G1 X81.814 Y71.659 E6.89786
G1 X82.531 Y72.376 E6.94775
G1 X82.964 Y73.225 E6.99468
G1 X82.620 Y73.400 F9000.000
G1 X82.759 Y74.280 E7.03855 F600.000
G1 X82.620 Y75.160 E7.08242
G1 X82.215 Y75.955 E7.12628
G1 X81.585 Y76.585 E7.17016
G1 X80.790 Y76.990 E7.21403
G1 X79.910 Y77.129 E7.25790
G1 X79.030 Y76.990 E7.30177
G1 X78.235 Y76.585 E7.34563
G1 X77.605 Y75.955 E7.38951
G1 X77.200 Y75.160 E7.43338
G1 X77.061 Y74.280 E7.47724
G1 X77.200 Y73.400 E7.52111
G1 X77.605 Y72.605 E7.56498
G1 X78.235 Y71.975 E7.60886
G1 X79.030 Y71.570 E7.65272
G1 X79.910 Y71.431 E7.69659 F600.000
G1 X80.790 Y71.570 E7.74046
G1 X81.585 Y71.975 E7.78433
G1 X82.215 Y72.605 E7.82821
G1 X82.592 Y73.346 E7.86912
G1 X82.248 Y73.520 F9000.000
G1 X82.369 Y74.280 E7.90698 F600.000
G1 X82.248 Y75.040 E7.94484
G1 X81.899 Y75.725 E7.98269
G1 X81.355 Y76.269 E8.02056
G1 X80.670 Y76.618 E8.05841
G1 X79.910 Y76.739 E8.09627
G1 X79.150 Y76.618 E8.13413
G1 X78.465 Y76.269 E8.17198
G1 X77.921 Y75.725 E8.20985
G1 X77.572 Y75.040 E8.24770
G1 X77.451 Y74.280 E8.28556
G1 X77.572 Y73.520 E8.32342
G1 X77.921 Y72.835 E8.36127
G1 X78.465 Y72.291 E8.39914
G1 X79.150 Y71.942 E8.43699
G1 X79.910 Y71.821 E8.47485 F600.000
G1 X80.670 Y71.942 E8.51271
G1 X81.355 Y72.291 E8.55056
G1 X81.899 Y72.835 E8.58843
G1 X82.221 Y73.467 E8.62333
G1 X81.877 Y73.641 F9000.000
G1 X81.978 Y74.280 E8.65518 F600.000
G1 X81.877 Y74.919 E8.68702
G1 X81.583 Y75.496 E8.71887
G1 X81.126 Y75.953 E8.75072
G1 X80.549 Y76.247 E8.78256
G1 X79.910 Y76.348 E8.81441
G1 X79.271 Y76.247 E8.84625
G1 X78.694 Y75.953 E8.87810
G1 X78.237 Y75.496 E8.90995
G1 X77.943 Y74.919 E8.94179
G1 X77.842 Y74.280 E8.97364
G1 X77.943 Y73.641 E9.00549
G1 X78.237 Y73.064 E9.03733
G1 X78.694 Y72.607 E9.06918
G1 X79.271 Y72.313 E9.10102
G1 X79.910 Y72.212 E9.13287 F600.000
G1 X80.549 Y72.313 E9.16472
G1 X81.126 Y72.607 E9.19656
G1 X81.583 Y73.064 E9.22841
G1 X81.850 Y73.587 E9.25730
G1 X81.506 Y73.762 F9000.000
G1 X81.588 Y74.280 E9.28314 F600.000
G1 X81.506 Y74.798 E9.30897
G1 X81.267 Y75.266 E9.33481
G1 X80.896 Y75.637 E9.36064
G1 X80.428 Y75.876 E9.38648
G1 X79.910 Y75.958 E9.41231
G1 X79.392 Y75.876 E9.43815
G1 X78.924 Y75.637 E9.46398
G1 X78.553 Y75.266 E9.48982
G1 X78.314 Y74.798 E9.51565
G1 X78.232 Y74.280 E9.54149
G1 X78.314 Y73.762 E9.56732
G1 X78.553 Y73.294 E9.59315
G1 X78.924 Y72.923 E9.61899
G1 X79.392 Y72.684 E9.64482
G1 X79.910 Y72.602 E9.67066 F600.000
G1 X80.428 Y72.684 E9.69649
G1 X80.896 Y72.923 E9.72233
G1 X81.267 Y73.294 E9.74816
G1 X81.478 Y73.708 E9.77104
G1 X81.892 Y73.865 F9000.000
G1 X124.870 Y73.180 F9000.000
G1 X125.029 Y72.179 E9.82093 F600.000
G1 X125.489 Y71.276 E9.87082
G1 X126.206 Y70.559 E9.92071
G1 X127.109 Y70.099 E9.97056
G1 X128.096 Y69.943 E10.01975 F600.000
G1 X129.106 Y70.097 E10.07005
G1 X130.023 Y70.564 E10.12067
G1 X130.743 Y71.300 E10.17135
G1 X131.191 Y72.179 E10.21990
G1 X131.350 Y73.180 E10.26979
G1 X131.191 Y74.181 E10.31968
G1 X130.731 Y75.084 E10.36958
G1 X130.014 Y75.801 E10.41946
G1 X129.111 Y76.261 E10.46931
G1 X128.110 Y76.420 E10.51920
G1 X127.109 Y76.261 E10.56908
G1 X126.206 Y75.801 E10.61894
G1 X125.489 Y75.084 E10.66882
G1 X125.029 Y74.181 E10.71871
G1 X124.880 Y73.239 E10.76565
G1 X125.261 Y73.180 F9000.000
G1 X125.400 Y72.299 E10.80952 F600.000
G1 X125.805 Y71.505 E10.85340
G1 X126.436 Y70.875 E10.89727
G1 X127.230 Y70.470 E10.94112
G1 X128.097 Y70.333 E10.98435 F600.000
G1 X128.987 Y70.469 E11.02864
G1 X129.791 Y70.879 E11.07308
G1 X130.426 Y71.527 E11.11775
G1 X130.820 Y72.299 E11.16040
G1 X130.959 Y73.180 E11.20428
G1 X130.820 Y74.061 E11.24815
G1 X130.415 Y74.855 E11.29203
G1 X129.784 Y75.485 E11.33590
G1 X128.990 Y75.890 E11.37975
G1 X128.110 Y76.029 E11.42362
G1 X127.230 Y75.890 E11.46749
G1 X126.436 Y75.485 E11.51134
G1 X125.805 Y74.855 E11.55521
G1 X125.400 Y74.061 E11.59909
G1 X125.270 Y73.239 E11.64001
G1 X125.651 Y73.180 F9000.000
G1 X125.772 Y72.420 E11.67788 F600.000
G1 X126.121 Y71.735 E11.71574
G1 X126.665 Y71.191 E11.75360
G1 X127.350 Y70.842 E11.79144
G1 X128.098 Y70.723 E11.82872 F600.000
G1 X128.867 Y70.840 E11.86699
G1 X129.560 Y71.193 E11.90526
G1 X130.109 Y71.755 E11.94392
G1 X130.448 Y72.420 E11.98066
G1 X130.569 Y73.180 E12.01853
G1 X130.448 Y73.940 E12.05639
G1 X130.099 Y74.625 E12.09426
G1 X129.555 Y75.169 E12.13212
G1 X128.870 Y75.518 E12.16995
G1 X128.110 Y75.639 E12.20781
G1 X127.350 Y75.518 E12.24567
G1 X126.665 Y75.169 E12.28351
G1 X126.121 Y74.625 E12.32137
G1 X125.772 Y73.940 E12.35923
G1 X125.661 Y73.239 E12.39415
G1 X126.042 Y73.180 F9000.000
G1 X126.143 Y72.541 E12.42600 F600.000
G1 X126.437 Y71.964 E12.45785
G1 X126.895 Y71.507 E12.48970
G1 X127.471 Y71.213 E12.52153
G1 X128.099 Y71.113 E12.55285 F600.000
G1 X128.747 Y71.212 E12.58511
G1 X129.329 Y71.508 E12.61720
G1 X129.792 Y71.982 E12.64985
G1 X130.077 Y72.541 E12.68069
G1 X130.178 Y73.180 E12.71254
G1 X130.077 Y73.819 E12.74439
G1 X129.783 Y74.396 E12.77624
G1 X129.325 Y74.853 E12.80809
G1 X128.749 Y75.147 E12.83992
G1 X128.110 Y75.248 E12.87177
G1 X127.471 Y75.147 E12.90362
G1 X126.895 Y74.853 E12.93545
G1 X126.437 Y74.396 E12.96730
G1 X126.143 Y73.819 E12.99915
G1 X126.051 Y73.239 E13.02804
G1 X126.432 Y73.180 F9000.000
G1 X126.514 Y72.661 E13.05388 F600.000
G1 X126.753 Y72.194 E13.07972
G1 X127.124 Y71.823 E13.10556
G1 X127.592 Y71.584 E13.13138
G1 X128.101 Y71.504 E13.15675 F600.000
G1 X128.628 Y71.584 E13.18299
G1 X129.097 Y71.823 E13.20891
G1 X129.476 Y72.210 E13.23555
G1 X129.706 Y72.661 E13.26049
G1 X129.788 Y73.180 E13.28632
G1 X129.706 Y73.699 E13.31216
G1 X129.467 Y74.166 E13.33800
G1 X129.096 Y74.537 E13.36384
G1 X128.628 Y74.776 E13.38966
G1 X128.110 Y74.858 E13.41549
G1 X127.592 Y74.776 E13.44132
G1 X127.124 Y74.537 E13.46715
G1 X126.753 Y74.166 E13.49299
G1 X126.514 Y73.699 E13.51882
G1 X126.442 Y73.239 E13.54171
G1 X126.097 Y72.962 F9000.000
G1 E7.54171 F1800.00000
G92 E0
G1 X107.153 Y23.702 F9000.000
G1 E6.00000 F1800.00000
G1 X108.227 Y26.513 E6.14807 F600.000
G1 X112.249 Y26.513 E6.34602
G1 X113.018 Y26.634 E6.38432
G1 X113.423 Y26.599 E6.40435
G1 X114.578 Y26.865 E6.46270
G1 X115.595 Y27.476 E6.52105
G1 X116.373 Y28.371 E6.57940
G1 X116.781 Y29.333 E6.63082
G1 X122.160 Y50.909 E7.72522
G1 X123.340 Y55.312 E7.94957
G1 X123.263 Y55.333 E7.95348
G1 X125.800 Y65.504 E8.46940
G1 X125.890 Y66.545 E8.52083
G1 X125.623 Y67.699 E8.57913
G1 X125.013 Y68.715 E8.63745
G1 X124.118 Y69.494 E8.69581
G1 X123.027 Y69.957 E8.75418
G1 X121.846 Y70.060 E8.81252
G1 X121.570 Y69.997 E8.82644
G1 X121.249 Y70.047 E8.84244
G1 X85.017 Y70.047 E10.62558
G1 X84.371 Y69.980 E10.65757
G1 X83.900 Y69.853 E10.68156
G1 X83.264 Y69.570 E10.71583
G1 X82.855 Y69.304 E10.73983
G1 X82.338 Y68.839 E10.77410
G1 X82.031 Y68.460 E10.79809
G1 X81.683 Y67.857 E10.83236
G1 X81.508 Y67.401 E10.85637
G1 X81.363 Y66.721 E10.89061
G1 X81.338 Y66.234 E10.91461
G1 X81.410 Y65.541 E10.94889
G1 X81.537 Y65.070 E10.97288
G1 X81.801 Y64.477 E11.00485
G1 X102.667 Y28.336 E13.05869
G1 X103.324 Y27.524 E13.11011
G1 X104.319 Y26.878 E13.16846
G1 X104.791 Y26.752 E13.19252
G1 X104.939 Y26.676 E13.20072
G1 X105.629 Y26.567 E13.23510
G1 X107.125 Y23.755 E13.39183
G1 X107.095 Y24.632 F9000.000
G1 X107.962 Y26.898 E13.51125 F600.000
G1 X112.219 Y26.898 E13.72077
G1 X113.004 Y27.023 E13.75990
G1 X113.396 Y26.988 E13.77926
G1 X114.432 Y27.227 E13.83160
G1 X115.344 Y27.775 E13.88394
G1 X116.041 Y28.578 E13.93627
G1 X116.414 Y29.455 E13.98319
G1 X121.787 Y51.006 E15.07626
G1 X122.868 Y55.039 E15.28177
G1 X122.797 Y55.058 E15.28535
G1 X125.418 Y65.568 E15.81845
G1 X125.501 Y66.518 E15.86538
G1 X125.261 Y67.553 E15.91768
G1 X124.714 Y68.465 E15.96999
G1 X123.911 Y69.163 E16.02234
G1 X122.932 Y69.578 E16.07469
G1 X121.873 Y69.671 E16.12702
G1 X121.584 Y69.604 E16.14162
G1 X121.219 Y69.662 E16.15982
G1 X85.038 Y69.662 E17.94047
G1 X84.442 Y69.599 E17.96997
G1 X84.029 Y69.489 E17.99097
G1 X83.449 Y69.230 E18.02226
G1 X83.091 Y68.998 E18.04327
G1 X82.618 Y68.572 E18.07455
G1 X82.350 Y68.241 E18.09556
G1 X82.032 Y67.690 E18.12684
G1 X81.879 Y67.292 E18.14786
G1 X81.747 Y66.670 E18.17912
G1 X81.724 Y66.244 E18.20013
G1 X81.791 Y65.612 E18.23142
G1 X81.901 Y65.199 E18.25242
G1 X82.145 Y64.652 E18.28191
G1 X102.986 Y28.555 E20.33326
G1 X103.585 Y27.814 E20.38018
G1 X104.477 Y27.235 E20.43252
G1 X104.930 Y27.114 E20.45556
G1 X105.060 Y27.047 E20.46275
G1 X105.879 Y26.917 E20.50359
G1 X107.067 Y24.684 E20.62806
G1 X107.038 Y25.561 F9000.000
G1 X107.696 Y27.284 E20.71883 F600.000
G1 X112.188 Y27.284 E20.93992
G1 X112.991 Y27.411 E20.97989
G1 X113.369 Y27.378 E20.99857
G1 X114.286 Y27.589 E21.04490
G1 X115.093 Y28.074 E21.09123
G1 X115.710 Y28.785 E21.13755
G1 X116.047 Y29.578 E21.17997
G1 X121.414 Y51.102 E22.27171
G1 X122.395 Y54.766 E22.45838
G1 X122.331 Y54.783 E22.46164
G1 X125.037 Y65.632 E23.01191
G1 X125.111 Y66.490 E23.05433
G1 X124.899 Y67.407 E23.10063
G1 X124.415 Y68.214 E23.14694
G1 X123.705 Y68.831 E23.19327
G1 X122.838 Y69.199 E23.23961
G1 X121.900 Y69.281 E23.28593
G1 X121.598 Y69.211 E23.30122
G1 X121.188 Y69.276 E23.32160
G1 X85.058 Y69.276 E25.09977
G1 X84.512 Y69.219 E25.12678
G1 X84.158 Y69.124 E25.14479
G1 X83.633 Y68.890 E25.17309
G1 X83.326 Y68.691 E25.19112
G1 X82.899 Y68.306 E25.21941
G1 X82.668 Y68.022 E25.23743
G1 X82.381 Y67.524 E25.26573
G1 X82.250 Y67.182 E25.28375
G1 X82.130 Y66.620 E25.31203
G1 X82.111 Y66.254 E25.33005
G1 X82.171 Y65.682 E25.35836
G1 X82.266 Y65.328 E25.37637
G1 X82.489 Y64.827 E25.40337
G1 X103.304 Y28.774 E27.45224
G1 X103.847 Y28.104 E27.49465
G1 X104.636 Y27.591 E27.54098
G1 X105.069 Y27.476 E27.56300
G1 X105.180 Y27.419 E27.56919
G1 X106.122 Y27.283 E27.61598
G1 X107.010 Y25.614 E27.70904
G1 X106.980 Y26.490 F9000.000
G1 X107.431 Y27.669 E27.77116 F600.000
G1 X112.158 Y27.669 E28.00381
G1 X112.943 Y27.802 E28.04299
G1 X113.342 Y27.767 E28.06268
G1 X114.140 Y27.951 E28.10300
G1 X114.842 Y28.373 E28.14331
G1 X115.379 Y28.992 E28.18363
G1 X115.680 Y29.701 E28.22155
G1 X121.040 Y51.199 E29.31196
G1 X121.923 Y54.493 E29.47979
G1 X121.865 Y54.508 E29.48271
G1 X124.655 Y65.695 E30.05016
G1 X124.722 Y66.463 E30.08809
G1 X124.537 Y67.261 E30.12838
G1 X124.116 Y67.963 E30.16868
G1 X123.498 Y68.500 E30.20900
G1 X122.743 Y68.820 E30.24933
G1 X121.927 Y68.892 E30.28963
G1 X121.611 Y68.819 E30.30560
G1 X121.158 Y68.891 E30.32818
G1 X85.078 Y68.891 E32.10387
G1 X84.583 Y68.839 E32.12838
G1 X84.288 Y68.759 E32.14341
G1 X83.818 Y68.550 E32.16873
G1 X83.562 Y68.384 E32.18376
G1 X83.179 Y68.040 E32.20907
G1 X82.987 Y67.802 E32.22410
G1 X82.730 Y67.357 E32.24941
G1 X82.621 Y67.072 E32.26445
G1 X82.514 Y66.569 E32.28974
G1 X82.498 Y66.264 E32.30478
G1 X82.551 Y65.753 E32.33009
G1 X82.631 Y65.458 E32.34512
G1 X82.833 Y65.002 E32.36964
G1 X103.623 Y28.993 E34.41601
G1 X104.108 Y28.394 E34.45392
G1 X104.795 Y27.948 E34.49424
G1 X105.207 Y27.838 E34.51525
G1 X105.301 Y27.790 E34.52042
G1 X106.056 Y27.670 E34.55804
G1 X106.356 Y27.665 E34.57279
G1 X106.952 Y26.543 E34.63528
G1 X106.923 Y27.420 F9000.000
G1 X107.165 Y28.055 E34.66875 F600.000
G1 X112.128 Y28.055 E34.91298
G1 X112.798 Y28.161 E34.94640
G1 X112.866 Y28.196 E34.95015
G1 X113.314 Y28.157 E34.97228
G1 X113.993 Y28.313 E35.00658
G1 X114.591 Y28.672 E35.04089
G1 X115.048 Y29.198 E35.07519
G1 X115.314 Y29.824 E35.10861
G1 X120.667 Y51.295 E36.19769
G1 X121.451 Y54.219 E36.34668
G1 X121.399 Y54.233 E36.34928
G1 X124.274 Y65.759 E36.93391
G1 X124.332 Y66.436 E36.96732
G1 X124.175 Y67.115 E37.00162
G1 X123.817 Y67.712 E37.03592
G1 X123.291 Y68.169 E37.07021
G1 X122.649 Y68.442 E37.10453
G1 X121.955 Y68.502 E37.13883
G1 X121.625 Y68.426 E37.15548
G1 X121.128 Y68.505 E37.18026
G1 X85.098 Y68.505 E38.95345
G1 X84.653 Y68.458 E38.97548
G1 X84.417 Y68.395 E38.98752
G1 X84.002 Y68.210 E39.00984
G1 X83.797 Y68.077 E39.02189
G1 X83.460 Y67.774 E39.04421
G1 X83.306 Y67.583 E39.05626
G1 X83.079 Y67.191 E39.07858
G1 X82.991 Y66.962 E39.09063
G1 X82.897 Y66.519 E39.11294
G1 X82.884 Y66.274 E39.12499
G1 X82.932 Y65.823 E39.14731
G1 X82.995 Y65.587 E39.15935
G1 X83.177 Y65.178 E39.18138
G1 X103.942 Y29.212 E41.22527
G1 X104.369 Y28.684 E41.25868
G1 X104.954 Y28.305 E41.29299
G1 X105.346 Y28.200 E41.31298
G1 X105.422 Y28.161 E41.31714
G1 X106.090 Y28.055 E41.35045
G1 X106.590 Y28.046 E41.37504
G1 X106.894 Y27.473 E41.40698
G1 X107.252 Y27.193 F9000.000
G1 X110.589 Y24.884 F9000.000
G1 X110.129 Y23.981 E41.45685 F600.000
G1 X109.970 Y22.980 E41.50673
G1 X110.129 Y21.979 E41.55661
G1 X110.589 Y21.076 E41.60649
G1 X111.306 Y20.359 E41.65638
G1 X112.209 Y19.899 E41.70626
G1 X113.210 Y19.740 E41.75614 F600.000
G1 X114.211 Y19.899 E41.80602
G1 X115.114 Y20.359 E41.85590
G1 X115.831 Y21.076 E41.90579
G1 X116.293 Y21.983 E41.95591
G1 X116.447 Y22.993 E42.00617
G1 X116.291 Y23.981 E42.05541
G1 X115.831 Y24.884 E42.10529
G1 X115.114 Y25.601 E42.15517
G1 X114.211 Y26.061 E42.20506
G1 X113.210 Y26.220 E42.25494
G1 X112.209 Y26.061 E42.30482
G1 X111.306 Y25.601 E42.35470
G1 X110.632 Y24.926 E42.40163
G1 X110.905 Y24.655 F9000.000
G1 X110.500 Y23.860 E42.44550 F600.000
G1 X110.361 Y22.980 E42.48937
G1 X110.500 Y22.100 E42.53324
G1 X110.905 Y21.305 E42.57711
G1 X111.535 Y20.675 E42.62098
G1 X112.330 Y20.270 E42.66485
G1 X113.210 Y20.131 E42.70872 F600.000
G1 X114.090 Y20.270 E42.75259
G1 X114.885 Y20.675 E42.79646
G1 X115.515 Y21.305 E42.84033
G1 X115.921 Y22.103 E42.88439
G1 X116.057 Y22.992 E42.92863
G1 X115.920 Y23.860 E42.97192
G1 X115.515 Y24.655 E43.01578
G1 X114.885 Y25.285 E43.05966
G1 X114.090 Y25.690 E43.10353
G1 X113.210 Y25.829 E43.14740
G1 X112.330 Y25.690 E43.19127
G1 X111.535 Y25.285 E43.23514
G1 X110.947 Y24.697 E43.27606
G1 X111.221 Y24.425 F9000.000
G1 X110.872 Y23.740 E43.31391 F600.000
G1 X110.751 Y22.980 E43.35177
G1 X110.872 Y22.220 E43.38963
G1 X111.221 Y21.535 E43.42748
G1 X111.765 Y20.991 E43.46535
G1 X112.450 Y20.642 E43.50320
G1 X113.210 Y20.521 E43.54106 F600.000
G1 X113.970 Y20.642 E43.57892
