; generated by Slic3r 1.2.9 on 2018-09-13 at 15:36:02

; external perimeters extrusion width = 0.40mm
; perimeters extrusion width = 0.62mm
; infill extrusion width = 0.33mm
; solid infill extrusion width = 0.62mm
; top infill extrusion width = 0.20mm

M106 S256; Turn on fan to 100% power
M104 S140; turn on extruder temperature at S value
M140 S60; turn on bed temperature at S value
G28; home all axes
M84; disable motors
G1 Z15 F15000; have Z move to 20mm at 15000 mm/min
M190 S55; turn on bed temperature at S value and wait
M140 S55; turn on bed temperature at S value (printing temperature)
M109 S200; turn on extruder temperature at S value and wait (printing temperature)
M104 S200; turn on extruder temperature at S value
G1 Z0 F12000; move Z back to home
G21 ; set units to millimeters
G90 ; use absolute coordinates
M82 ; use absolute distances for extrusion
G92 E0
M106 S255
;Layer change
G1 E-6.00000 F1800.00000
G92 E0
G1 Z0.300 F9000.000
G1 X31.713 Y14.723 F9000.000
G1 E6.00000 F1800.00000
G1 X32.061 Y14.030 E6.03817 F600.000
G1 X32.454 Y13.357 E6.07653
G1 X32.887 Y12.711 E6.11477
G1 X33.455 Y11.979 E6.16037
G1 X33.975 Y11.396 E6.19883
G1 X34.527 Y10.851 E6.23702
G1 X35.113 Y10.341 E6.27527
G1 X35.732 Y9.866 E6.31364
G1 X36.376 Y9.434 E6.35183
G1 X37.049 Y9.041 E6.39019
G1 X37.745 Y8.692 E6.42850
G1 X38.322 Y8.443 E6.45944
G1 X39.052 Y8.175 E6.49769
G1 X39.797 Y7.953 E6.53597
G1 X40.555 Y7.779 E6.57424
G1 X41.324 Y7.653 E6.61260
G1 X42.247 Y7.565 E6.65822
G1 X42.950 Y7.544 E6.69282
G1 X175.525 Y7.546 E13.21750
G1 X176.153 Y7.565 E13.24842 F600.000
G1 X176.928 Y7.634 E13.28674
G1 X177.844 Y7.779 E13.33239
G1 X178.458 Y7.916 E13.36331
G1 X179.206 Y8.128 E13.40158
G1 X180.079 Y8.443 E13.44725
G1 X180.655 Y8.692 E13.47817
G1 X181.351 Y9.041 E13.51646
G1 X182.023 Y9.433 E13.55476
G1 X182.644 Y9.850 E13.59159
G1 X183.402 Y10.435 E13.63869
G1 X183.873 Y10.851 E13.66961
G1 X184.427 Y11.398 E13.70790
G1 X185.040 Y12.093 E13.75356
G1 X185.425 Y12.590 E13.78447
G1 X185.866 Y13.231 E13.82278
G1 X186.338 Y14.029 E13.86841
G1 X186.624 Y14.589 E13.89935
G1 X186.937 Y15.301 E13.93765
G1 X187.251 Y16.174 E13.98331
G1 X187.464 Y16.923 E14.02160
G1 X187.601 Y17.536 E14.05252
G1 X187.746 Y18.452 E14.09818
G1 X187.815 Y19.227 E14.13646
G1 X187.836 Y19.930 E14.17107
G1 X187.836 Y75.930 E16.92712
G1 X187.805 Y76.782 E16.96909
G1 X187.746 Y77.408 E17.00002
G1 X187.629 Y78.177 E17.03830
G1 X187.427 Y79.082 E17.08394
G1 X187.195 Y79.856 E17.12368
G1 X186.937 Y80.559 E17.16054
G1 X186.688 Y81.135 E17.19146
G1 X186.267 Y81.962 E17.23712
G1 X185.867 Y82.629 E17.27538
G1 X185.513 Y83.149 E17.30633
G1 X185.040 Y83.767 E17.34463
G1 X184.427 Y84.462 E17.39026
G1 X183.873 Y85.009 E17.42858
G1 X183.402 Y85.425 E17.45952
G1 X182.790 Y85.905 E17.49778
G1 X182.149 Y86.346 E17.53608
G1 X181.351 Y86.819 E17.58174
G1 X180.791 Y87.104 E17.61266
G1 X180.079 Y87.417 E17.65094
G1 X179.206 Y87.732 E17.69662
G1 X178.458 Y87.944 E17.73489
G1 X177.844 Y88.081 E17.76581
G1 X177.076 Y88.207 E17.80413
G1 X176.153 Y88.295 E17.84977
G1 X175.450 Y88.316 E17.88437
G1 X42.950 Y88.316 E24.40537
G1 X42.247 Y88.295 E24.43997
G1 X41.472 Y88.226 E24.47828
G1 X40.703 Y88.109 E24.51654
G1 X39.942 Y87.944 E24.55487
G1 X39.052 Y87.685 E24.60050
G1 X38.322 Y87.417 E24.63875
G1 X37.609 Y87.104 E24.67708
G1 X36.916 Y86.746 E24.71547
G1 X36.252 Y86.347 E24.75361
G1 X35.609 Y85.905 E24.79202
G1 X34.998 Y85.424 E24.83027
G1 X34.420 Y84.908 E24.86842
G1 X33.870 Y84.352 E24.90691
G1 X33.360 Y83.766 E24.94511
G1 X32.887 Y83.149 E24.98343
G1 X32.454 Y82.503 E25.02167
G1 X32.061 Y81.830 E25.06002
G1 X31.713 Y81.137 E25.09819
G1 X31.463 Y80.560 E25.12912
G1 X31.195 Y79.829 E25.16746
G1 X30.973 Y79.082 E25.20583
G1 X30.799 Y78.324 E25.24408
G1 X30.673 Y77.555 E25.28242
G1 X30.595 Y76.782 E25.32068
G1 X30.564 Y75.930 E25.36263
G1 X30.566 Y19.854 E28.12241
G1 X30.586 Y19.226 E28.15333
G1 X30.654 Y18.453 E28.19155
G1 X30.799 Y17.536 E28.23722
G1 X30.936 Y16.923 E28.26814
G1 X31.148 Y16.175 E28.30639
G1 X31.408 Y15.440 E28.34477
G1 X31.689 Y14.778 E28.38016
G1 E22.38016 F1800.00000
G92 E0
G1 X41.708 Y76.150 F9000.000
G1 E6.00000 F1800.00000
G1 X42.224 Y76.394 E6.02810 F600.000
G1 X42.592 Y76.679 E6.05104
G1 X42.892 Y77.018 E6.07331
G1 X43.123 Y77.408 E6.09561
G1 X43.275 Y77.834 E6.11785
G1 X43.346 Y78.279 E6.14004
G1 X43.331 Y78.746 E6.16302
G1 X43.190 Y79.300 E6.19117
G1 X42.977 Y79.716 E6.21418
G1 X42.701 Y80.073 E6.23640
G1 X42.361 Y80.372 E6.25869
G1 X41.972 Y80.602 E6.28092
G1 X41.547 Y80.755 E6.30315
G1 X41.101 Y80.826 E6.32536
G1 X40.650 Y80.812 E6.34757
G1 X40.192 Y80.710 E6.37064
G1 X39.676 Y80.466 E6.39874
G1 X39.308 Y80.181 E6.42169
G1 X39.008 Y79.842 E6.44395
G1 X38.777 Y79.452 E6.46626
G1 X38.625 Y79.026 E6.48850
G1 X38.554 Y78.581 E6.51069
G1 X38.569 Y78.114 E6.53366
G1 X38.710 Y77.560 E6.56182
G1 X38.923 Y77.144 E6.58482
G1 X39.199 Y76.787 E6.60704
G1 X39.539 Y76.488 E6.62933
G1 X39.928 Y76.258 E6.65156
G1 X40.354 Y76.104 E6.67384
G1 X40.805 Y76.034 E6.69628 F600.000
G1 X41.250 Y76.048 E6.71823
G1 X41.649 Y76.137 E6.73833
G1 X41.582 Y76.517 F9000.000
G1 X42.021 Y76.724 E6.76223 F600.000
G1 X42.327 Y76.962 E6.78131
G1 X42.579 Y77.246 E6.79999
G1 X42.772 Y77.573 E6.81868
G1 X42.900 Y77.930 E6.83733
G1 X42.959 Y78.304 E6.85595
G1 X42.947 Y78.692 E6.87505
G1 X42.827 Y79.163 E6.89899
G1 X42.650 Y79.509 E6.91811
G1 X42.418 Y79.808 E6.93674
G1 X42.133 Y80.059 E6.95543
G1 X41.807 Y80.252 E6.97408
G1 X41.450 Y80.380 E6.99273
G1 X41.077 Y80.439 E7.01136
G1 X40.698 Y80.428 E7.02998
G1 X40.318 Y80.343 E7.04916
G1 X39.879 Y80.136 E7.07306
G1 X39.573 Y79.898 E7.09214
G1 X39.321 Y79.614 E7.11081
G1 X39.128 Y79.287 E7.12950
G1 X39.000 Y78.930 E7.14815
G1 X38.941 Y78.556 E7.16677
G1 X38.953 Y78.168 E7.18588
G1 X39.073 Y77.697 E7.20982
G1 X39.250 Y77.351 E7.22894
G1 X39.482 Y77.052 E7.24757
G1 X39.767 Y76.801 E7.26626
G1 X40.093 Y76.608 E7.28491
G1 X40.450 Y76.480 E7.30358
G1 X40.828 Y76.421 E7.32243 F600.000
G1 X41.202 Y76.433 E7.34082
G1 X41.523 Y76.504 E7.35703
G1 X41.456 Y76.884 F9000.000
G1 X41.818 Y77.055 E7.37673 F600.000
G1 X42.063 Y77.245 E7.39194
G1 X42.266 Y77.474 E7.40703
G1 X42.422 Y77.738 E7.42211
G1 X42.525 Y78.026 E7.43717
G1 X42.573 Y78.328 E7.45222
G1 X42.563 Y78.637 E7.46745
G1 X42.464 Y79.025 E7.48717
G1 X42.323 Y79.301 E7.50241
G1 X42.136 Y79.543 E7.51746
G1 X41.906 Y79.746 E7.53254
G1 X41.642 Y79.901 E7.54761
G1 X41.354 Y80.005 E7.56267
G1 X41.052 Y80.053 E7.57772
G1 X40.747 Y80.043 E7.59276
G1 X40.444 Y79.976 E7.60804
G1 X40.082 Y79.805 E7.62774
G1 X39.837 Y79.615 E7.64295
G1 X39.634 Y79.386 E7.65804
G1 X39.478 Y79.122 E7.67312
G1 X39.375 Y78.834 E7.68817
G1 X39.327 Y78.532 E7.70323
G1 X39.337 Y78.223 E7.71845
G1 X39.436 Y77.835 E7.73818
G1 X39.577 Y77.559 E7.75342
G1 X39.764 Y77.317 E7.76847
G1 X39.994 Y77.114 E7.78355
G1 X40.258 Y76.959 E7.79862
G1 X40.546 Y76.855 E7.81369
G1 X40.852 Y76.807 E7.82894 F600.000
G1 X41.153 Y76.817 E7.84377
G1 X41.398 Y76.871 E7.85610
G1 X41.767 Y76.633 F9000.000
G1 X47.018 Y71.987 F9000.000
G1 X46.554 Y71.394 E7.89317 F600.000
G1 X46.165 Y70.822 E7.92717
G1 X45.814 Y70.228 E7.96118
G1 X45.500 Y69.612 E7.99516
G1 X45.225 Y68.979 E8.02915
G1 X44.991 Y68.328 E8.06318
G1 X44.799 Y67.665 E8.09719
G1 X44.648 Y66.990 E8.13119
G1 X44.540 Y66.308 E8.16519
G1 X44.475 Y65.621 E8.19916
G1 X44.454 Y64.946 E8.23239
G1 X44.454 Y34.914 E9.71040
G1 X44.475 Y34.239 E9.74363
G1 X44.540 Y33.552 E9.77760
G1 X44.648 Y32.870 E9.81160
G1 X44.799 Y32.195 E9.84560
G1 X44.991 Y31.532 E9.87961
G1 X45.225 Y30.881 E9.91364
G1 X45.500 Y30.248 E9.94763
G1 X45.814 Y29.632 E9.98162
G1 X46.165 Y29.038 E10.01563
G1 X46.554 Y28.466 E10.04962
G1 X46.977 Y27.921 E10.08360
G1 X47.433 Y27.402 E10.11761
G1 X47.923 Y26.913 E10.15165
G1 X48.440 Y26.457 E10.18560
G1 X48.986 Y26.033 E10.21960
G1 X49.558 Y25.645 E10.25361
G1 X50.152 Y25.294 E10.28758
G1 X50.768 Y24.980 E10.32161
G1 X51.402 Y24.706 E10.35560
G1 X52.043 Y24.474 E10.38915
G1 X52.715 Y24.279 E10.42360
G1 X53.389 Y24.128 E10.45760
G1 X54.072 Y24.020 E10.49162
G1 X54.759 Y23.955 E10.52560
G1 X55.434 Y23.934 E10.55883
G1 X90.466 Y23.934 E12.28290 F600.000
G1 X91.141 Y23.955 E12.31613
G1 X91.828 Y24.020 E12.35013
G1 X92.511 Y24.128 E12.38413
G1 X93.185 Y24.279 E12.41813
G1 X93.848 Y24.471 E12.45213
G1 X94.499 Y24.706 E12.48619
G1 X95.160 Y24.994 E12.52164
G1 X95.748 Y25.293 E12.55412
G1 X96.342 Y25.645 E12.58812
G1 X96.914 Y26.033 E12.62213
G1 X97.460 Y26.457 E12.65612
G1 X97.978 Y26.914 E12.69012
G1 X98.445 Y27.380 E12.72260
G1 X98.922 Y27.919 E12.75805
G1 X99.347 Y28.466 E12.79211
G1 X99.735 Y29.038 E12.82612
G1 X100.087 Y29.632 E12.86012
G1 X100.400 Y30.248 E12.89411
G1 X100.675 Y30.882 E12.92812
G1 X100.909 Y31.532 E12.96211
G1 X101.101 Y32.195 E12.99611
G1 X101.252 Y32.869 E13.03011
G1 X101.360 Y33.552 E13.06411
G1 X101.425 Y34.240 E13.09811
G1 X101.446 Y34.914 E13.13134
G1 X101.446 Y64.946 E14.60933
G1 X101.425 Y65.620 E14.64256
G1 X101.360 Y66.308 E14.67656
G1 X101.252 Y66.991 E14.71056
G1 X101.101 Y67.665 E14.74456
G1 X100.909 Y68.328 E14.77856
G1 X100.675 Y68.978 E14.81255
G1 X100.400 Y69.612 E14.84656
G1 X100.087 Y70.228 E14.88055
G1 X99.735 Y70.822 E14.91455
G1 X99.347 Y71.394 E14.94856
G1 X98.923 Y71.940 E14.98255
G1 X98.466 Y72.458 E15.01655
G1 X97.978 Y72.946 E15.05055
G1 X97.460 Y73.403 E15.08455
G1 X96.913 Y73.827 E15.11862
G1 X96.316 Y74.231 E15.15407
G1 X95.748 Y74.567 E15.18655
G1 X95.132 Y74.880 E15.22055
G1 X94.498 Y75.155 E15.25455
G1 X93.848 Y75.389 E15.28855
G1 X93.185 Y75.581 E15.32254
G1 X92.511 Y75.732 E15.35655
G1 X91.828 Y75.840 E15.39054
G1 X91.141 Y75.905 E15.42454
G1 X90.466 Y75.926 E15.45777
G1 X55.434 Y75.926 E17.18184
G1 X54.759 Y75.905 E17.21508
G1 X54.072 Y75.840 E17.24905
G1 X53.389 Y75.732 E17.28307
G1 X52.715 Y75.581 E17.31707
G1 X52.052 Y75.389 E17.35106
G1 X51.402 Y75.155 E17.38505
G1 X50.768 Y74.880 E17.41906
G1 X50.152 Y74.566 E17.45309
G1 X49.558 Y74.215 E17.48706
G1 X48.986 Y73.827 E17.52107
G1 X48.440 Y73.403 E17.55507
G1 X47.923 Y72.947 E17.58903
G1 X47.433 Y72.458 E17.62306
G1 X47.058 Y72.032 E17.65102
G1 X47.308 Y71.732 F9000.000
G1 X46.866 Y71.167 E17.68632 F600.000
G1 X46.491 Y70.616 E17.71912
G1 X46.152 Y70.042 E17.75194
G1 X45.849 Y69.448 E17.78473
G1 X45.584 Y68.836 E17.81754
G1 X45.358 Y68.209 E17.85036
G1 X45.172 Y67.569 E17.88317
G1 X45.027 Y66.918 E17.91598
G1 X44.923 Y66.260 E17.94879
G1 X44.860 Y65.596 E17.98158
G1 X44.839 Y64.940 E18.01391
G1 X44.839 Y34.920 E19.49132
G1 X44.860 Y34.264 E19.52365
G1 X44.923 Y33.600 E19.55644
G1 X45.027 Y32.942 E19.58925
G1 X45.172 Y32.291 E19.62205
G1 X45.358 Y31.651 E19.65487
G1 X45.584 Y31.024 E19.68769
G1 X45.849 Y30.412 E19.72050
G1 X46.152 Y29.818 E19.75329
G1 X46.491 Y29.244 E19.78611
G1 X46.866 Y28.693 E19.81891
G1 X47.274 Y28.167 E19.85170
G1 X47.715 Y27.666 E19.88451
G1 X48.187 Y27.195 E19.91735
G1 X48.686 Y26.754 E19.95013
G1 X49.213 Y26.346 E19.98293
G1 X49.765 Y25.971 E20.01575
G1 X50.338 Y25.632 E20.04852
G1 X50.932 Y25.329 E20.08135
G1 X51.544 Y25.064 E20.11416
G1 X52.162 Y24.841 E20.14652
G1 X52.811 Y24.652 E20.17977
G1 X53.462 Y24.507 E20.21257
G1 X54.120 Y24.403 E20.24540
G1 X54.784 Y24.340 E20.27819
G1 X55.440 Y24.319 E20.31053
G1 X90.460 Y24.319 E22.03400 F600.000
G1 X91.116 Y24.340 E22.06634
G1 X91.780 Y24.403 E22.09914
G1 X92.438 Y24.507 E22.13195
G1 X93.089 Y24.652 E22.16475
G1 X93.729 Y24.838 E22.19756
G1 X94.357 Y25.064 E22.23041
G1 X94.995 Y25.343 E22.26466
G1 X95.562 Y25.632 E22.29597
G1 X96.136 Y25.971 E22.32878
G1 X96.687 Y26.346 E22.36159
G1 X97.214 Y26.754 E22.39440
G1 X97.714 Y27.195 E22.42720
G1 X98.164 Y27.645 E22.45852
G1 X98.625 Y28.166 E22.49277
G1 X99.034 Y28.693 E22.52562
G1 X99.409 Y29.244 E22.55843
G1 X99.748 Y29.818 E22.59124
G1 X100.051 Y30.412 E22.62404
G1 X100.316 Y31.024 E22.65685
G1 X100.542 Y31.651 E22.68965
G1 X100.728 Y32.291 E22.72246
G1 X100.873 Y32.942 E22.75527
G1 X100.977 Y33.600 E22.78807
G1 X101.040 Y34.264 E22.82088
G1 X101.061 Y34.920 E22.85321
G1 X101.061 Y64.940 E24.33061
G1 X101.040 Y65.596 E24.36294
G1 X100.977 Y66.260 E24.39575
G1 X100.873 Y66.918 E24.42856
G1 X100.728 Y67.569 E24.46136
G1 X100.542 Y68.209 E24.49417
G1 X100.316 Y68.836 E24.52697
G1 X100.051 Y69.448 E24.55978
G1 X99.748 Y70.042 E24.59259
G1 X99.409 Y70.616 E24.62540
G1 X99.034 Y71.167 E24.65821
G1 X98.626 Y71.694 E24.69101
G1 X98.185 Y72.194 E24.72381
G1 X97.714 Y72.665 E24.75662
G1 X97.214 Y73.106 E24.78943
G1 X96.686 Y73.515 E24.82227
G1 X96.110 Y73.905 E24.85653
G1 X95.562 Y74.228 E24.88785
G1 X94.968 Y74.531 E24.92065
G1 X94.356 Y74.796 E24.95346
G1 X93.729 Y75.022 E24.98627
G1 X93.089 Y75.208 E25.01907
G1 X92.438 Y75.353 E25.05188
G1 X91.780 Y75.457 E25.08469
G1 X91.116 Y75.520 E25.11749
G1 X90.460 Y75.541 E25.14983
G1 X55.440 Y75.541 E26.87330
G1 X54.784 Y75.520 E26.90564
G1 X54.120 Y75.457 E26.93842
G1 X53.462 Y75.353 E26.97125
G1 X52.811 Y75.208 E27.00406
G1 X52.171 Y75.022 E27.03685
G1 X51.544 Y74.796 E27.06965
G1 X50.932 Y74.531 E27.10247
G1 X50.338 Y74.228 E27.13530
G1 X49.765 Y73.889 E27.16808
G1 X49.213 Y73.514 E27.20090
G1 X48.686 Y73.106 E27.23370
G1 X48.187 Y72.665 E27.26647
G1 X47.715 Y72.194 E27.29931
G1 X47.348 Y71.777 E27.32666
G1 X47.597 Y71.477 F9000.000
G1 X47.178 Y70.940 E27.36018 F600.000
G1 X46.817 Y70.409 E27.39179
G1 X46.490 Y69.856 E27.42341
G1 X46.198 Y69.284 E27.45502
G1 X45.943 Y68.694 E27.48664
G1 X45.725 Y68.090 E27.51826
G1 X45.546 Y67.473 E27.54987
G1 X45.406 Y66.846 E27.58149
G1 X45.306 Y66.211 E27.61310
G1 X45.245 Y65.572 E27.64471
G1 X45.225 Y64.934 E27.67615
G1 X45.225 Y34.926 E29.15295
G1 X45.245 Y34.288 E29.18439
G1 X45.306 Y33.649 E29.21600
G1 X45.406 Y33.014 E29.24761
G1 X45.546 Y32.387 E29.27922
G1 X45.725 Y31.770 E29.31084
G1 X45.943 Y31.166 E29.34246
G1 X46.198 Y30.576 E29.37408
G1 X46.490 Y30.004 E29.40569
G1 X46.817 Y29.451 E29.43731
G1 X47.178 Y28.920 E29.46892
G1 X47.572 Y28.412 E29.50052
G1 X47.996 Y27.930 E29.53213
G1 X48.451 Y27.476 E29.56377
G1 X48.932 Y27.051 E29.59537
G1 X49.440 Y26.658 E29.62697
G1 X49.971 Y26.297 E29.65860
G1 X50.524 Y25.970 E29.69018
G1 X51.096 Y25.678 E29.72181
G1 X51.686 Y25.423 E29.75344
G1 X52.282 Y25.208 E29.78461
G1 X52.907 Y25.026 E29.81666
G1 X53.534 Y24.886 E29.84827
G1 X54.169 Y24.786 E29.87991
G1 X54.808 Y24.725 E29.91150
G1 X55.446 Y24.705 E29.94294
G1 X90.454 Y24.705 E31.66582 F600.000
G1 X91.092 Y24.725 E31.69726
G1 X91.732 Y24.786 E31.72887
G1 X92.366 Y24.886 E31.76048
G1 X92.993 Y25.026 E31.79210
G1 X93.610 Y25.205 E31.82371
G1 X94.214 Y25.423 E31.85534
G1 X94.830 Y25.692 E31.88840
G1 X95.376 Y25.970 E31.91855
G1 X95.929 Y26.297 E31.95016
G1 X96.460 Y26.658 E31.98178
G1 X96.968 Y27.051 E32.01339
G1 X97.450 Y27.476 E32.04501
G1 X97.883 Y27.909 E32.07515
G1 X98.328 Y28.412 E32.10821
G1 X98.722 Y28.920 E32.13984
G1 X99.083 Y29.451 E32.17146
G1 X99.410 Y30.004 E32.20307
G1 X99.702 Y30.576 E32.23468
G1 X99.957 Y31.166 E32.26630
G1 X100.175 Y31.770 E32.29791
G1 X100.354 Y32.387 E32.32953
G1 X100.494 Y33.014 E32.36114
G1 X100.595 Y33.648 E32.39276
G1 X100.655 Y34.288 E32.42437
G1 X100.675 Y34.926 E32.45581
G1 X100.675 Y64.934 E33.93261
G1 X100.655 Y65.572 E33.96405
G1 X100.595 Y66.212 E33.99566
G1 X100.494 Y66.846 E34.02727
G1 X100.354 Y67.473 E34.05889
G1 X100.175 Y68.090 E34.09050
G1 X99.957 Y68.694 E34.12211
G1 X99.702 Y69.284 E34.15373
G1 X99.410 Y69.856 E34.18534
G1 X99.083 Y70.409 E34.21696
G1 X98.722 Y70.940 E34.24857
G1 X98.329 Y71.448 E34.28018
G1 X97.904 Y71.930 E34.31180
G1 X97.450 Y72.384 E34.34341
G1 X96.968 Y72.809 E34.37502
G1 X96.460 Y73.203 E34.40665
G1 X95.903 Y73.579 E34.43971
G1 X95.376 Y73.890 E34.46987
G1 X94.804 Y74.182 E34.50148
G1 X94.214 Y74.437 E34.53309
G1 X93.610 Y74.655 E34.56470
G1 X92.993 Y74.834 E34.59632
G1 X92.366 Y74.974 E34.62793
G1 X91.732 Y75.074 E34.65955
G1 X91.092 Y75.135 E34.69116
G1 X90.454 Y75.155 E34.72260
G1 X55.446 Y75.155 E36.44547
G1 X54.808 Y75.135 E36.47692
G1 X54.169 Y75.074 E36.50851
G1 X53.534 Y74.974 E36.54015
G1 X52.907 Y74.834 E36.57176
G1 X52.290 Y74.655 E36.60336
G1 X51.686 Y74.437 E36.63497
G1 X51.096 Y74.182 E36.66660
