; generated by Slic3r 1.2.9 on 2018-05-13 at 11:52:10

; external perimeters extrusion width = 0.40mm
; perimeters extrusion width = 0.62mm
; infill extrusion width = 0.33mm
; solid infill extrusion width = 0.62mm
; top infill extrusion width = 0.20mm

M106 S256; Turn on fan to 100% power
M104 S140; turn on extruder temperature at S value
M140 S60; turn on bed temperature at S value
G28; home all axes
M84; disable motors
G1 Z15 F15000; have Z move to 20mm at 15000 mm/min
M190 S55; turn on bed temperature at S value and wait
M140 S55; turn on bed temperature at S value (printing temperature)
M109 S200; turn on extruder temperature at S value and wait (printing temperature)
M104 S200; turn on extruder temperature at S value
G1 Z0 F12000; move Z back to home
G21 ; set units to millimeters
G90 ; use absolute coordinates
M82 ; use absolute distances for extrusion
G92 E0
M106 S255
;Layer change
G1 E-6.00000 F1800.00000
G92 E0
G1 Z0.300 F9000.000
G1 X140.384 Y9.680 F9000.000
G1 E6.00000 F1800.00000
G1 X140.776 Y8.370 E6.06727 F600.000
G1 X141.822 Y7.491 E6.13455
G1 X142.770 Y7.294 E6.18218
G1 X167.770 Y7.294 E7.41256
G1 X169.080 Y7.686 E7.47983
G1 X169.959 Y8.732 E7.54710 F600.000
G1 X170.156 Y9.680 E7.59474
G1 X170.156 Y46.680 E9.41569
G1 X169.764 Y47.990 E9.48297
G1 X168.718 Y48.869 E9.55024
G1 X167.770 Y49.066 E9.59787
G1 X142.770 Y49.066 E10.82825
G1 X141.460 Y48.674 E10.89552
G1 X140.581 Y47.628 E10.96280
G1 X140.384 Y46.680 E11.01043
G1 X140.384 Y9.740 E12.82844
G1 E6.82844 F1800.00000
G92 E0
G1 X165.205 Y41.372 F9000.000
G1 E6.00000 F1800.00000
G1 X165.205 Y41.956 E6.02872 F600.000
G1 X165.141 Y42.289 E6.04540
G1 X165.037 Y42.611 E6.06207
G1 X164.755 Y43.123 E6.09080
G1 X164.334 Y43.571 E6.12107
G1 X163.815 Y43.901 E6.15134
G1 X163.260 Y44.081 E6.18007
G1 X162.892 Y44.127 E6.19830
G1 X162.342 Y44.093 E6.22545
G1 X162.013 Y44.008 E6.24213
G1 X161.698 Y43.884 E6.25881
G1 X161.206 Y43.571 E6.28753
G1 X160.806 Y43.145 E6.31626
G1 X160.625 Y42.859 E6.33293
G1 X160.480 Y42.553 E6.34960
G1 X160.335 Y41.988 E6.37833
G1 X160.335 Y41.404 E6.40705
G1 X160.405 Y41.040 E6.42528
G1 X160.609 Y40.525 E6.45257
G1 X160.814 Y40.205 E6.47128
G1 X161.206 Y39.789 E6.49941
G1 X161.725 Y39.459 E6.52965
G1 X162.280 Y39.279 E6.55837
G1 X162.648 Y39.233 E6.57660 F600.000
G1 X163.198 Y39.267 E6.60376
G1 X163.527 Y39.352 E6.62044
G1 X163.842 Y39.476 E6.63712
G1 X164.334 Y39.789 E6.66584
G1 X164.734 Y40.215 E6.69456
G1 X164.915 Y40.501 E6.71123
G1 X165.060 Y40.807 E6.72790
G1 X165.190 Y41.314 E6.75368
G1 X164.819 Y41.421 F9000.000
G1 X164.819 Y41.920 E6.77821 F600.000
G1 X164.767 Y42.193 E6.79190
G1 X164.681 Y42.457 E6.80558
G1 X164.441 Y42.894 E6.83012
G1 X164.087 Y43.271 E6.85559
G1 X163.649 Y43.549 E6.88107
G1 X163.175 Y43.703 E6.90560
G1 X162.880 Y43.740 E6.92025
G1 X162.402 Y43.710 E6.94381
G1 X162.133 Y43.641 E6.95751
G1 X161.874 Y43.538 E6.97120
G1 X161.453 Y43.271 E6.99573
G1 X161.112 Y42.908 E7.02026
G1 X160.963 Y42.673 E7.03394
G1 X160.845 Y42.422 E7.04763
G1 X160.721 Y41.939 E7.07216
G1 X160.721 Y41.440 E7.09669
G1 X160.777 Y41.148 E7.11134
G1 X160.954 Y40.701 E7.13498
G1 X161.120 Y40.443 E7.15010
G1 X161.454 Y40.088 E7.17409
G1 X161.891 Y39.811 E7.19954
G1 X162.365 Y39.657 E7.22407
G1 X162.660 Y39.620 E7.23872 F600.000
G1 X163.138 Y39.650 E7.26228
G1 X163.407 Y39.719 E7.27598
G1 X163.666 Y39.821 E7.28967
G1 X164.087 Y40.089 E7.31420
G1 X164.428 Y40.452 E7.33872
G1 X164.577 Y40.687 E7.35241
G1 X164.695 Y40.938 E7.36610
G1 X164.804 Y41.363 E7.38768
G1 X164.434 Y41.470 F9000.000
G1 X164.434 Y41.883 E7.40801 F600.000
G1 X164.393 Y42.097 E7.41872
G1 X164.326 Y42.304 E7.42942
G1 X164.127 Y42.666 E7.44976
G1 X163.839 Y42.972 E7.47044
G1 X163.484 Y43.197 E7.49113
G1 X163.091 Y43.325 E7.51146
G1 X162.868 Y43.353 E7.52252
G1 X162.463 Y43.328 E7.54250
G1 X162.252 Y43.273 E7.55320
G1 X162.050 Y43.193 E7.56391
G1 X161.701 Y42.972 E7.58424
G1 X161.418 Y42.671 E7.60458
G1 X161.302 Y42.487 E7.61528
G1 X161.209 Y42.290 E7.62598
G1 X161.106 Y41.890 E7.64632
G1 X161.106 Y41.477 E7.66665
G1 X161.149 Y41.256 E7.67771
G1 X161.298 Y40.878 E7.69772
G1 X161.425 Y40.682 E7.70923
G1 X161.701 Y40.388 E7.72908
G1 X162.056 Y40.163 E7.74976
G1 X162.449 Y40.035 E7.77010
G1 X162.672 Y40.007 E7.78115 F600.000
G1 X163.077 Y40.032 E7.80113
G1 X163.288 Y40.087 E7.81184
G1 X163.490 Y40.167 E7.82254
G1 X163.839 Y40.388 E7.84288
G1 X164.122 Y40.689 E7.86321
G1 X164.238 Y40.873 E7.87391
G1 X164.331 Y41.070 E7.88461
G1 X164.419 Y41.412 E7.90200
G1 X164.796 Y41.640 F9000.000
G1 X162.892 Y17.127 F9000.000
G1 X162.342 Y17.093 E7.92915 F600.000
G1 X162.013 Y17.008 E7.94584
G1 X161.698 Y16.884 E7.96252
G1 X161.206 Y16.571 E7.99124
G1 X160.806 Y16.145 E8.01996
G1 X160.608 Y15.833 E8.03819
G1 X160.404 Y15.317 E8.06548
G1 X160.334 Y14.943 E8.08419
G1 X160.335 Y14.372 E8.11232
G1 X160.488 Y13.777 E8.14256
G1 X160.769 Y13.265 E8.17128
G1 X160.985 Y13.004 E8.18796
G1 X161.232 Y12.772 E8.20464
G1 X161.725 Y12.459 E8.23336
G1 X162.280 Y12.279 E8.26208
G1 X162.648 Y12.233 E8.28031 F600.000
G1 X163.198 Y12.267 E8.30746
G1 X163.527 Y12.352 E8.32414
G1 X163.842 Y12.476 E8.34083
G1 X164.334 Y12.789 E8.36954
G1 X164.734 Y13.215 E8.39827
G1 X164.915 Y13.501 E8.41494
G1 X165.060 Y13.807 E8.43161
G1 X165.205 Y14.372 E8.46034
G1 X165.205 Y14.956 E8.48906
G1 X165.141 Y15.289 E8.50574
G1 X165.037 Y15.611 E8.52241
G1 X164.755 Y16.122 E8.55113
G1 X164.334 Y16.571 E8.58141
G1 X163.815 Y16.901 E8.61169
G1 X163.260 Y17.081 E8.64040
G1 X162.952 Y17.120 E8.65568
G1 X162.880 Y16.740 F9000.000
G1 X162.402 Y16.710 E8.67925 F600.000
G1 X162.133 Y16.641 E8.69294
G1 X161.874 Y16.538 E8.70664
G1 X161.453 Y16.271 E8.73116
G1 X161.112 Y15.908 E8.75569
G1 X160.953 Y15.657 E8.77033
G1 X160.776 Y15.210 E8.79398
G1 X160.720 Y14.908 E8.80910
G1 X160.721 Y14.421 E8.83309
G1 X160.850 Y13.920 E8.85855
G1 X161.090 Y13.483 E8.88307
G1 X161.267 Y13.269 E8.89676
G1 X161.470 Y13.078 E8.91045
G1 X161.891 Y12.811 E8.93498
G1 X162.365 Y12.657 E8.95951
G1 X162.660 Y12.620 E8.97415 F600.000
G1 X163.138 Y12.650 E8.99772
G1 X163.407 Y12.719 E9.01142
G1 X163.666 Y12.822 E9.02511
G1 X164.087 Y13.089 E9.04963
G1 X164.428 Y13.452 E9.07416
G1 X164.577 Y13.687 E9.08785
G1 X164.695 Y13.938 E9.10154
G1 X164.819 Y14.421 E9.12607
G1 X164.819 Y14.920 E9.15060
G1 X164.767 Y15.193 E9.16429
G1 X164.681 Y15.457 E9.17798
G1 X164.441 Y15.894 E9.20251
G1 X164.087 Y16.271 E9.22799
G1 X163.649 Y16.549 E9.25347
G1 X163.175 Y16.703 E9.27800
G1 X162.940 Y16.733 E9.28969
G1 X162.868 Y16.353 F9000.000
G1 X162.463 Y16.328 E9.30967 F600.000
G1 X162.252 Y16.273 E9.32037
G1 X162.050 Y16.193 E9.33108
G1 X161.701 Y15.972 E9.35141
G1 X161.418 Y15.671 E9.37175
G1 X161.298 Y15.481 E9.38280
G1 X161.148 Y15.103 E9.40281
G1 X161.106 Y14.873 E9.41432
G1 X161.106 Y14.470 E9.43418
G1 X161.211 Y14.063 E9.45485
G1 X161.410 Y13.701 E9.47519
G1 X161.549 Y13.533 E9.48589
G1 X161.707 Y13.384 E9.49660
G1 X162.056 Y13.163 E9.51693
G1 X162.449 Y13.035 E9.53727
G1 X162.672 Y13.007 E9.54832 F600.000
G1 X163.077 Y13.032 E9.56830
G1 X163.288 Y13.087 E9.57901
G1 X163.490 Y13.167 E9.58971
G1 X163.839 Y13.388 E9.61005
G1 X164.122 Y13.689 E9.63038
G1 X164.238 Y13.873 E9.64108
G1 X164.331 Y14.070 E9.65179
G1 X164.434 Y14.470 E9.67212
G1 X164.434 Y14.883 E9.69246
G1 X164.393 Y15.097 E9.70316
G1 X164.326 Y15.304 E9.71387
G1 X164.127 Y15.666 E9.73420
G1 X163.839 Y15.972 E9.75489
G1 X163.484 Y16.197 E9.77557
G1 X163.091 Y16.325 E9.79591
G1 X162.928 Y16.346 E9.80401
G1 X162.668 Y16.699 F9000.000
G1 E3.80401 F1800.00000
G92 E0
G1 X166.774 Y10.676 F9000.000
G1 E6.00000 F1800.00000
G1 X166.774 Y45.684 E7.72290 F600.000
G1 X143.766 Y45.684 E8.85521
G1 X143.766 Y10.676 E10.57811
G1 X166.714 Y10.676 E11.70748
G1 X167.159 Y10.291 F9000.000
G1 X167.159 Y46.069 E13.46833 F600.000
G1 X143.381 Y46.069 E14.63860
G1 X143.381 Y10.291 E16.39946
G1 X167.099 Y10.291 E17.56678
G1 X167.545 Y9.905 F9000.000
G1 X167.545 Y46.455 E19.36559 F600.000
G1 X142.995 Y46.455 E20.57382
G1 X142.995 Y9.905 E22.37263
G1 X167.485 Y9.905 E23.57791
G1 X167.345 Y10.251 F9000.000
G1 X166.490 Y11.164 F9000.000
G1 X166.286 Y10.960 E23.59215 F600.000
G1 X165.738 Y10.960 E23.61928
G1 X166.490 Y11.712 E23.67190
G1 X166.490 Y12.260 E23.69902
G1 X165.190 Y10.960 E23.79000
G1 X164.642 Y10.960 E23.81713
G1 X166.490 Y12.808 E23.94648
G1 X166.490 Y13.357 E23.97360
G1 X164.093 Y10.960 E24.14131
G1 X163.545 Y10.960 E24.16844
G1 X166.490 Y13.905 E24.37452
G1 X166.490 Y14.453 E24.40165
G1 X162.997 Y10.960 E24.64609
G1 X162.448 Y10.960 E24.67322
G1 X163.522 Y12.034 E24.74835
G1 X162.899 Y11.959 E24.77942
G1 X161.900 Y10.960 E24.84931
G1 X161.352 Y10.960 E24.87644
G1 X162.382 Y11.990 E24.94850
G1 X161.953 Y12.109 E24.97052
G1 X160.804 Y10.960 E25.05095
G1 X160.255 Y10.960 E25.07808
G1 X161.560 Y12.265 E25.16938
G1 X161.225 Y12.478 E25.18903
G1 X159.707 Y10.960 E25.29523
G1 X159.159 Y10.960 E25.32236
G1 X160.921 Y12.722 E25.44565
G1 X160.658 Y13.007 E25.46484
G1 X158.610 Y10.960 E25.60810
G1 X158.062 Y10.960 E25.63523
G1 X160.439 Y13.337 E25.80156
G1 X160.245 Y13.691 E25.82154
G1 X157.514 Y10.960 E26.01263
G1 X156.966 Y10.960 E26.03976
G1 X160.125 Y14.120 E26.26086
G1 X160.051 Y14.594 E26.28461
G1 X156.417 Y10.960 E26.53890
G1 X155.869 Y10.960 E26.56603
G1 X160.069 Y15.160 E26.85996
G1 X160.310 Y15.949 E26.90077
G1 X155.321 Y10.960 E27.24989
G1 X154.773 Y10.960 E27.27702
G1 X166.490 Y22.677 E28.09695
G1 X166.490 Y22.129 E28.12408
G1 X161.516 Y17.155 E28.47213
G1 X162.288 Y17.379 E28.51190
G1 X166.490 Y21.581 E28.80593
G1 X166.490 Y21.033 E28.83306
G1 X162.865 Y17.407 E29.08675
G1 X163.337 Y17.332 E29.11044
G1 X166.490 Y20.484 E29.33104
G1 X166.490 Y19.936 E29.35817
G1 X163.751 Y17.197 E29.54982
G1 X164.113 Y17.011 E29.56995
G1 X166.490 Y19.388 E29.73629
G1 X166.490 Y18.840 E29.76342
G1 X164.448 Y16.798 E29.90628
G1 X164.722 Y16.523 E29.92546
G1 X166.490 Y18.291 E30.04917
G1 X166.490 Y17.743 E30.07630
G1 X164.983 Y16.236 E30.18173
G1 X165.178 Y15.883 E30.20170
G1 X166.490 Y17.195 E30.29352
G1 X166.490 Y16.646 E30.32065
G1 X165.347 Y15.504 E30.40060
G1 X165.458 Y15.067 E30.42292
G1 X166.490 Y16.098 E30.49510
G1 X166.490 Y15.550 E30.52222
G1 X165.489 Y14.549 E30.59229
G1 X165.404 Y13.916 E30.62387
G1 X166.490 Y15.002 E30.69984
G1 X166.490 Y23.226 F9000.000
G1 X154.224 Y10.960 E31.55813 F600.000
G1 X153.676 Y10.960 E31.58526
G1 X166.490 Y23.774 E32.48192
G1 X166.490 Y24.322 E32.50905
G1 X153.128 Y10.960 E33.44407
G1 X152.579 Y10.960 E33.47120
G1 X166.490 Y24.871 E34.44458
G1 X166.490 Y25.419 E34.47171
G1 X152.031 Y10.960 E35.48347
G1 X151.483 Y10.960 E35.51059
G1 X166.490 Y25.967 E36.56071
G1 X166.490 Y26.515 E36.58784
G1 X150.935 Y10.960 E37.67633
G1 X150.386 Y10.960 E37.70346
G1 X166.490 Y27.064 E38.83031
G1 X166.490 Y27.612 E38.85743
G1 X149.838 Y10.960 E40.02265
G1 X149.290 Y10.960 E40.04978
G1 X166.490 Y28.160 E41.25336
G1 X166.490 Y28.709 E41.28049
G1 X148.741 Y10.960 E42.52243
G1 X148.193 Y10.960 E42.54956
G1 X166.490 Y29.257 E43.82988
G1 X166.490 Y29.805 E43.85700
G1 X147.645 Y10.960 E45.17568
G1 X147.097 Y10.960 E45.20281
G1 X166.490 Y30.353 E46.55985
G1 X166.490 Y30.902 E46.58698
G1 X146.548 Y10.960 E47.98239
G1 X146.000 Y10.960 E48.00952
G1 X166.490 Y31.450 E49.44330
G1 X166.490 Y31.998 E49.47042
G1 X145.452 Y10.960 E50.94256
G1 X144.903 Y10.960 E50.96969
G1 X166.490 Y32.547 E52.48020
G1 X166.490 Y33.095 E52.50733
G1 X144.355 Y10.960 E54.05620
G1 X144.050 Y11.203 E54.07551
G1 X166.490 Y33.643 E55.64573
G1 X166.490 Y34.191 E55.67286
G1 X144.050 Y11.751 E57.24309
G1 X144.050 Y12.300 E57.27021
G1 X166.490 Y34.740 E58.84044
G1 X166.490 Y35.288 E58.86757
G1 X144.050 Y12.848 E60.43779
G1 X144.050 Y13.396 E60.46492
G1 X166.490 Y35.836 E62.03515
G1 X166.490 Y36.384 E62.06228
G1 X144.050 Y13.945 E63.63250
G1 X144.050 Y14.493 E63.65963
G1 X166.490 Y36.933 E65.22986
G1 X166.490 Y37.481 E65.25699
G1 X144.050 Y15.041 E66.82721
G1 X144.050 Y15.589 E66.85434
G1 X166.490 Y38.029 E68.42457
G1 X166.490 Y38.578 E68.45170
G1 X144.050 Y16.138 E70.02192
G1 X144.050 Y16.686 E70.04905
G1 X166.490 Y39.126 E71.61928
G1 X166.490 Y39.674 E71.64640
G1 X144.050 Y17.234 E73.21663
G1 X144.050 Y17.782 E73.24376
G1 X166.490 Y40.222 E74.81399
G1 X166.490 Y40.771 E74.84111
G1 X144.050 Y18.331 E76.41134
G1 X144.050 Y18.879 E76.43847
G1 X166.490 Y41.319 E78.00869
G1 X166.490 Y41.867 E78.03582
G1 X165.358 Y40.735 E78.11504
G1 X165.489 Y41.414 E78.14926
G1 X166.490 Y42.416 E78.21933
G1 X166.490 Y42.964 E78.24645
G1 X165.480 Y41.954 E78.31712
G1 X165.380 Y42.402 E78.33986
G1 X166.490 Y43.512 E78.41751
G1 X166.490 Y44.060 E78.44463
G1 X165.225 Y42.796 E78.53312
G1 X165.031 Y43.150 E78.55309
G1 X166.490 Y44.609 E78.65518
G1 X166.490 Y45.157 E78.68231
G1 X164.787 Y43.454 E78.80147
G1 X164.522 Y43.737 E78.82066
G1 X166.185 Y45.400 E78.93705
G1 X165.636 Y45.400 E78.96417
G1 X164.195 Y43.959 E79.06503
G1 X163.853 Y44.164 E79.08480
G1 X165.088 Y45.400 E79.17126
G1 X164.540 Y45.400 E79.19839
G1 X163.439 Y44.299 E79.27544
G1 X162.984 Y44.392 E79.29842
G1 X163.992 Y45.400 E79.36895
G1 X163.443 Y45.400 E79.39607
G1 X162.431 Y44.388 E79.46689
G1 X161.738 Y44.243 E79.50192
G1 X162.895 Y45.400 E79.58286
G1 X162.347 Y45.400 E79.60999
G1 X144.050 Y27.103 E80.89030
G1 X144.050 Y27.652 E80.91743
G1 X161.798 Y45.400 E82.15937
G1 X161.250 Y45.400 E82.18650
G1 X144.050 Y28.200 E83.39007
G1 X144.050 Y28.748 E83.41720
G1 X160.702 Y45.400 E84.58241
G1 X160.154 Y45.400 E84.60954
G1 X144.050 Y29.296 E85.73639
G1 X144.050 Y29.845 E85.76352
G1 X159.605 Y45.400 E86.85200
G1 X159.057 Y45.400 E86.87912
G1 X144.050 Y30.393 E87.92924
G1 X144.050 Y30.941 E87.95637
G1 X158.509 Y45.400 E88.96812
G1 X157.961 Y45.400 E88.99524
G1 X144.050 Y31.489 E89.96863
G1 X144.050 Y32.038 E89.99576
G1 X157.412 Y45.400 E90.93077
G1 X156.864 Y45.400 E90.95790
G1 X144.050 Y32.586 E91.85455
G1 X144.050 Y33.134 E91.88168
G1 X156.316 Y45.400 E92.73997
G1 X155.767 Y45.400 E92.76710
G1 X144.050 Y33.683 E93.58702
G1 X144.050 Y34.231 E93.61414
G1 X155.219 Y45.400 E94.39570
G1 X154.671 Y45.400 E94.42283
G1 X144.050 Y34.779 E95.16602
G1 X144.050 Y35.327 E95.19315
G1 X154.123 Y45.400 E95.89797
G1 X153.574 Y45.400 E95.92510
G1 X144.050 Y35.876 E96.59156
G1 X144.050 Y36.424 E96.61868
G1 X153.026 Y45.400 E97.24678
G1 X152.478 Y45.400 E97.27390
G1 X144.050 Y36.972 E97.86363
G1 X144.050 Y37.521 E97.89076
G1 X151.929 Y45.400 E98.44212
G1 X151.381 Y45.400 E98.46925
G1 X144.050 Y38.069 E98.98224
G1 X144.050 Y38.617 E99.00937
G1 X150.833 Y45.400 E99.48400
G1 X150.285 Y45.400 E99.51113
G1 X144.050 Y39.165 E99.94740
G1 X144.050 Y39.714 E99.97452
G1 X149.736 Y45.400 E100.37242
G1 X149.188 Y45.400 E100.39955
G1 X144.050 Y40.262 E100.75908
G1 X144.050 Y40.810 E100.78621
G1 X148.640 Y45.400 E101.10738
G1 X148.092 Y45.400 E101.13451
G1 X144.050 Y41.358 E101.41731
G1 X144.050 Y41.907 E101.44444
G1 X147.543 Y45.400 E101.68888
G1 X146.995 Y45.400 E101.71600
G1 X144.050 Y42.455 E101.92207
G1 X144.050 Y43.003 E101.94920
G1 X146.447 Y45.400 E102.11691
G1 X145.898 Y45.400 E102.14404
G1 X144.050 Y43.552 E102.27338
G1 X144.050 Y44.100 E102.30050
G1 X145.350 Y45.400 E102.39148
G1 X144.802 Y45.400 E102.41861
G1 X144.050 Y44.648 E102.47121
G1 X144.050 Y45.196 E102.49834
G1 X144.254 Y45.400 E102.51259
G1 X160.051 Y42.008 F9000.000
G1 X144.050 Y26.007 E103.63227 F600.000
G1 X144.050 Y25.458 E103.65940
G1 X160.051 Y41.460 E104.77909
G1 X160.141 Y41.001 E104.80221
G1 X144.050 Y24.910 E105.92817
G1 X144.050 Y24.362 E105.95530
G1 X160.297 Y40.608 E107.09215
G1 X160.486 Y40.249 E107.11224
G1 X144.050 Y23.814 E108.26231
G1 X144.050 Y23.265 E108.28944
G1 X160.722 Y39.938 E109.45608
G1 X160.988 Y39.655 E109.47528
G1 X144.050 Y22.717 E110.66053
G1 X144.050 Y22.169 E110.68766
G1 X161.307 Y39.426 E111.89520
G1 X161.642 Y39.213 E111.91486
G1 X144.050 Y21.620 E113.14587
G1 X144.050 Y21.072 E113.17300
G1 X162.054 Y39.076 E114.43284
G1 X162.501 Y38.975 E114.45550
G1 X144.050 Y20.524 E115.74660
G1 X144.050 Y19.976 E115.77373
G1 X163.042 Y38.968 E117.10271
G1 X163.703 Y39.080 E117.13587
G1 X144.050 Y19.427 E118.51108
G1 X144.050 Y26.555 F9000.000
