; generated by Slic3r 1.2.9 on 2020-01-13 at 22:01:44

; external perimeters extrusion width = 0.40mm
; perimeters extrusion width = 0.62mm
; infill extrusion width = 0.33mm
; solid infill extrusion width = 0.62mm
; top infill extrusion width = 0.20mm

M106 S256; Turn on fan to 100% power
M104 S140; turn on extruder temperature at S value
M140 S60; turn on bed temperature at S value
G28; home all axes
M84; disable motors
G1 Z15 F15000; have Z move to 20mm at 15000 mm/min
M190 S55; turn on bed temperature at S value and wait
M140 S55; turn on bed temperature at S value (printing temperature)
M109 S200; turn on extruder temperature at S value and wait (printing temperature)
M104 S200; turn on extruder temperature at S value
G1 Z0 F12000; move Z back to home
G21 ; set units to millimeters
G90 ; use absolute coordinates
M82 ; use absolute distances for extrusion
G92 E0
M106 S255
;Layer change
G1 E-6.00000 F1800.00000
G92 E0
G1 Z0.300 F9000.000
G1 X69.199 Y18.704 F9000.000
G1 E6.00000 F1800.00000
G1 X69.676 Y17.423 E6.06727 F600.000
G1 X70.778 Y16.613 E6.13455
G1 X71.580 Y16.474 E6.17463
G1 X118.080 Y16.474 E8.46313
G1 X119.390 Y16.866 E8.53040
G1 X120.269 Y17.912 E8.59767 F600.000
G1 X120.465 Y18.794 E8.64211
G1 X120.919 Y35.178 E9.44878
G1 X120.820 Y89.735 E12.13382
G1 X120.465 Y103.920 E12.83212
G1 X120.041 Y105.219 E12.89939
G1 X118.973 Y106.072 E12.96667
G1 X118.080 Y106.246 E13.01142
G1 X71.580 Y106.246 E15.29992
G1 X70.270 Y105.854 E15.36720
G1 X69.391 Y104.808 E15.43447
G1 X69.195 Y103.916 E15.47940
G1 X67.740 Y41.876 E18.53356
G1 X67.745 Y40.888 E18.58216
G1 X69.196 Y18.764 E19.67335
G1 E13.67335 F1800.00000
G92 E0
G1 X80.049 Y100.038 F9000.000
G1 E6.00000 F1800.00000
G1 X80.291 Y100.372 E6.02033 F600.000
G1 X80.459 Y100.749 E6.04066
G1 X80.545 Y101.153 E6.06100
G1 X80.545 Y101.567 E6.08133
G1 X80.459 Y101.971 E6.10167
G1 X80.291 Y102.348 E6.12200
G1 X80.049 Y102.682 E6.14233
G1 X79.742 Y102.959 E6.16267
G1 X79.384 Y103.165 E6.18300
G1 X78.991 Y103.293 E6.20333
G1 X78.580 Y103.336 E6.22366
G1 X78.169 Y103.293 E6.24399
G1 X77.776 Y103.165 E6.26433
G1 X77.418 Y102.959 E6.28466
G1 X77.111 Y102.682 E6.30499
G1 X76.869 Y102.348 E6.32533
G1 X76.701 Y101.971 E6.34566
G1 X76.615 Y101.567 E6.36599
G1 X76.615 Y101.153 E6.38633
G1 X76.701 Y100.749 E6.40666
G1 X76.869 Y100.372 E6.42699
G1 X77.111 Y100.038 E6.44733
G1 X77.418 Y99.761 E6.46766
G1 X77.776 Y99.555 E6.48799
G1 X78.169 Y99.427 E6.50833
G1 X78.566 Y99.385 E6.52794 F600.000
G1 X78.990 Y99.427 E6.54893
G1 X79.384 Y99.555 E6.56931
G1 X79.742 Y99.761 E6.58964
G1 X80.004 Y99.997 E6.60702
G1 X80.443 Y99.968 F9000.000
G1 X109.115 Y101.153 F9000.000
G1 X109.201 Y100.749 E6.62736 F600.000
G1 X109.369 Y100.372 E6.64769
G1 X109.611 Y100.038 E6.66802
G1 X109.918 Y99.761 E6.68836
G1 X110.276 Y99.555 E6.70869
G1 X110.669 Y99.427 E6.72902
G1 X111.066 Y99.385 E6.74864 F600.000
G1 X111.490 Y99.427 E6.76963
G1 X111.884 Y99.555 E6.79001
G1 X112.242 Y99.761 E6.81034
G1 X112.549 Y100.038 E6.83067
G1 X112.791 Y100.372 E6.85101
G1 X112.959 Y100.749 E6.87134
G1 X113.045 Y101.153 E6.89167
G1 X113.045 Y101.567 E6.91200
G1 X112.959 Y101.971 E6.93234
G1 X112.791 Y102.348 E6.95267
G1 X112.549 Y102.682 E6.97300
G1 X112.242 Y102.959 E6.99334
G1 X111.884 Y103.165 E7.01367
G1 X111.491 Y103.293 E7.03400
G1 X111.080 Y103.336 E7.05433
G1 X110.669 Y103.293 E7.07467
G1 X110.276 Y103.165 E7.09500
G1 X109.918 Y102.959 E7.11533
G1 X109.611 Y102.682 E7.13567
G1 X109.369 Y102.348 E7.15600
G1 X109.201 Y101.971 E7.17633
G1 X109.115 Y101.567 E7.19667
G1 X109.115 Y101.213 E7.21404
G1 X108.799 Y100.907 F9000.000
G1 E1.21404 F1800.00000
G92 E0
G1 X111.080 Y23.336 F9000.000
G1 E6.00000 F1800.00000
G1 X110.669 Y23.293 E6.02033 F600.000
G1 X110.276 Y23.165 E6.04067
G1 X109.918 Y22.959 E6.06100
G1 X109.611 Y22.682 E6.08133
G1 X109.369 Y22.348 E6.10166
G1 X109.201 Y21.971 E6.12200
G1 X109.115 Y21.567 E6.14233
G1 X109.115 Y21.153 E6.16266
G1 X109.201 Y20.749 E6.18300
G1 X109.369 Y20.372 E6.20333
G1 X109.611 Y20.038 E6.22366
G1 X109.918 Y19.761 E6.24399
G1 X110.276 Y19.555 E6.26433
G1 X110.669 Y19.427 E6.28466
G1 X111.066 Y19.385 E6.30428 F600.000
G1 X111.490 Y19.427 E6.32527
G1 X111.884 Y19.555 E6.34565
G1 X112.242 Y19.761 E6.36598
G1 X112.549 Y20.038 E6.38631
G1 X112.791 Y20.372 E6.40664
G1 X112.959 Y20.749 E6.42698
G1 X113.045 Y21.153 E6.44731
G1 X113.045 Y21.567 E6.46764
G1 X112.959 Y21.971 E6.48798
G1 X112.791 Y22.348 E6.50831
G1 X112.549 Y22.682 E6.52864
G1 X112.242 Y22.959 E6.54897
G1 X111.884 Y23.165 E6.56931
G1 X111.491 Y23.293 E6.58964
G1 X111.140 Y23.330 E6.60702
G1 X110.868 Y23.675 F9000.000
G1 X80.545 Y21.567 F9000.000
G1 X80.459 Y21.971 E6.62735 F600.000
G1 X80.291 Y22.348 E6.64768
G1 X80.049 Y22.682 E6.66802
G1 X79.742 Y22.959 E6.68835
G1 X79.384 Y23.165 E6.70868
G1 X78.991 Y23.293 E6.72902
G1 X78.580 Y23.336 E6.74935
G1 X78.169 Y23.293 E6.76968
G1 X77.776 Y23.165 E6.79002
G1 X77.418 Y22.959 E6.81035
G1 X77.111 Y22.682 E6.83068
G1 X76.869 Y22.348 E6.85101
G1 X76.701 Y21.971 E6.87134
G1 X76.615 Y21.567 E6.89168
G1 X76.615 Y21.153 E6.91201
G1 X76.701 Y20.749 E6.93235
G1 X76.869 Y20.372 E6.95268
G1 X77.111 Y20.038 E6.97301
G1 X77.418 Y19.761 E6.99334
G1 X77.776 Y19.555 E7.01368
G1 X78.169 Y19.427 E7.03401
G1 X78.566 Y19.385 E7.05362 F600.000
G1 X78.990 Y19.427 E7.07462
G1 X79.384 Y19.555 E7.09499
G1 X79.742 Y19.761 E7.11533
G1 X80.049 Y20.038 E7.13566
G1 X80.291 Y20.372 E7.15599
G1 X80.459 Y20.749 E7.17632
G1 X80.545 Y21.153 E7.19666
G1 X80.545 Y21.507 E7.21404
G1 X80.861 Y21.813 F9000.000
G1 E1.21404 F1800.00000
G92 E0
G1 X113.503 Y87.066 F9000.000
G1 E6.00000 F1800.00000
G1 X113.981 Y86.911 E6.02471 F600.000
G1 X114.473 Y86.859 E6.04906 F600.000
G1 X114.977 Y86.910 E6.07403
G1 X115.457 Y87.066 E6.09884
G1 X115.892 Y87.317 E6.12355
G1 X116.265 Y87.653 E6.14826
G1 X116.560 Y88.059 E6.17297
G1 X116.764 Y88.518 E6.19768
G1 X116.869 Y89.009 E6.22240
G1 X116.869 Y89.511 E6.24709
G1 X116.764 Y90.002 E6.27181
G1 X116.560 Y90.461 E6.29652
G1 X116.265 Y90.867 E6.32123
G1 X115.892 Y91.203 E6.34594
G1 X115.457 Y91.454 E6.37065
G1 X114.979 Y91.609 E6.39536
G1 X114.480 Y91.662 E6.42008
G1 X113.981 Y91.609 E6.44479
G1 X113.503 Y91.454 E6.46950
G1 X113.068 Y91.203 E6.49421
G1 X112.695 Y90.867 E6.51892
G1 X112.400 Y90.461 E6.54363
G1 X112.196 Y90.002 E6.56834
G1 X112.091 Y89.511 E6.59306
G1 X112.091 Y89.009 E6.61775
G1 X112.196 Y88.518 E6.64247
G1 X112.400 Y88.059 E6.66718
G1 X112.695 Y87.653 E6.69189
G1 X113.068 Y87.317 E6.71660
G1 X113.451 Y87.096 E6.73836
G1 X113.661 Y87.420 F9000.000
G1 X114.061 Y87.290 E6.75908 F600.000
G1 X114.473 Y87.247 E6.77947 F600.000
G1 X114.898 Y87.290 E6.80046
G1 X115.299 Y87.420 E6.82124
G1 X115.664 Y87.631 E6.84196
G1 X115.977 Y87.912 E6.86268
G1 X116.224 Y88.253 E6.88340
G1 X116.395 Y88.638 E6.90413
G1 X116.483 Y89.050 E6.92485
G1 X116.483 Y89.470 E6.94556
G1 X116.395 Y89.882 E6.96629
G1 X116.224 Y90.267 E6.98701
G1 X115.977 Y90.608 E7.00773
G1 X115.664 Y90.889 E7.02845
G1 X115.299 Y91.100 E7.04918
G1 X114.899 Y91.230 E7.06990
G1 X114.480 Y91.274 E7.09062
G1 X114.061 Y91.230 E7.11134
G1 X113.661 Y91.100 E7.13206
G1 X113.296 Y90.889 E7.15278
G1 X112.983 Y90.608 E7.17350
G1 X112.736 Y90.267 E7.19422
G1 X112.565 Y89.882 E7.21495
G1 X112.477 Y89.470 E7.23567
G1 X112.477 Y89.050 E7.25638
G1 X112.565 Y88.638 E7.27711
G1 X112.736 Y88.253 E7.29783
G1 X112.983 Y87.912 E7.31855
G1 X113.296 Y87.631 E7.33927
G1 X113.609 Y87.450 E7.35704
G1 X113.819 Y87.774 F9000.000
G1 X114.142 Y87.669 E7.37377 F600.000
G1 X114.474 Y87.634 E7.39021 F600.000
G1 X114.818 Y87.669 E7.40721
G1 X115.141 Y87.774 E7.42396
G1 X115.436 Y87.944 E7.44070
G1 X115.689 Y88.172 E7.45743
G1 X115.888 Y88.447 E7.47416
G1 X116.027 Y88.757 E7.49089
G1 X116.097 Y89.090 E7.50763
G1 X116.097 Y89.430 E7.52435
G1 X116.027 Y89.763 E7.54108
G1 X115.888 Y90.073 E7.55782
G1 X115.689 Y90.348 E7.57455
G1 X115.436 Y90.576 E7.59128
G1 X115.141 Y90.746 E7.60802
G1 X114.818 Y90.851 E7.62474
G1 X114.480 Y90.886 E7.64148
G1 X114.142 Y90.851 E7.65821
G1 X113.819 Y90.746 E7.67494
G1 X113.524 Y90.576 E7.69167
G1 X113.271 Y90.348 E7.70840
G1 X113.072 Y90.073 E7.72514
G1 X112.933 Y89.763 E7.74187
G1 X112.863 Y89.430 E7.75860
G1 X112.863 Y89.090 E7.77533
G1 X112.933 Y88.757 E7.79206
G1 X113.072 Y88.447 E7.80880
G1 X113.271 Y88.172 E7.82553
G1 X113.524 Y87.944 E7.84226
G1 X113.767 Y87.804 E7.85604
G1 X113.866 Y87.438 F9000.000
G1 X114.580 Y38.062 F9000.000
G1 X114.081 Y38.009 E7.88075 F600.000
G1 X113.603 Y37.854 E7.90546
G1 X113.168 Y37.603 E7.93017
G1 X112.795 Y37.267 E7.95489
G1 X112.500 Y36.861 E7.97959
G1 X112.296 Y36.402 E8.00431
G1 X112.191 Y35.911 E8.02902
G1 X112.191 Y35.409 E8.05372
G1 X112.296 Y34.918 E8.07844
G1 X112.500 Y34.459 E8.10315
G1 X112.795 Y34.053 E8.12786
G1 X113.168 Y33.717 E8.15257
G1 X113.603 Y33.466 E8.17728
G1 X114.081 Y33.311 E8.20199
G1 X114.573 Y33.259 E8.22634 F600.000
G1 X115.078 Y33.310 E8.25131
G1 X115.557 Y33.466 E8.27612
G1 X115.992 Y33.717 E8.30083
G1 X116.365 Y34.053 E8.32554
G1 X116.660 Y34.459 E8.35025
G1 X116.864 Y34.918 E8.37496
G1 X116.969 Y35.409 E8.39967
G1 X116.969 Y35.911 E8.42438
G1 X116.864 Y36.402 E8.44909
G1 X116.660 Y36.861 E8.47380
G1 X116.365 Y37.267 E8.49851
G1 X115.992 Y37.603 E8.52322
G1 X115.557 Y37.854 E8.54793
G1 X115.079 Y38.009 E8.57264
G1 X114.640 Y38.055 E8.59440
G1 X114.580 Y37.674 F9000.000
G1 X114.161 Y37.630 E8.61513 F600.000
G1 X113.761 Y37.500 E8.63584
G1 X113.396 Y37.289 E8.65657
G1 X113.083 Y37.008 E8.67729
G1 X112.836 Y36.667 E8.69801
G1 X112.665 Y36.282 E8.71873
G1 X112.577 Y35.870 E8.73945
G1 X112.577 Y35.450 E8.76017
G1 X112.665 Y35.038 E8.78089
G1 X112.836 Y34.653 E8.80162
G1 X113.083 Y34.312 E8.82234
G1 X113.396 Y34.031 E8.84306
G1 X113.761 Y33.820 E8.86378
G1 X114.161 Y33.690 E8.88450
G1 X114.573 Y33.647 E8.90489 F600.000
G1 X114.998 Y33.690 E8.92588
G1 X115.399 Y33.820 E8.94666
G1 X115.764 Y34.031 E8.96738
G1 X116.077 Y34.312 E8.98810
G1 X116.324 Y34.653 E9.00882
G1 X116.495 Y35.038 E9.02954
G1 X116.583 Y35.450 E9.05027
G1 X116.583 Y35.870 E9.07098
G1 X116.495 Y36.282 E9.09171
G1 X116.324 Y36.667 E9.11243
G1 X116.077 Y37.008 E9.13315
G1 X115.764 Y37.289 E9.15387
G1 X115.399 Y37.500 E9.17459
G1 X114.999 Y37.630 E9.19531
G1 X114.640 Y37.668 E9.21308
G1 X114.580 Y37.286 F9000.000
G1 X114.242 Y37.251 E9.22982 F600.000
G1 X113.919 Y37.146 E9.24655
G1 X113.624 Y36.976 E9.26328
G1 X113.371 Y36.748 E9.28001
G1 X113.172 Y36.473 E9.29674
G1 X113.033 Y36.163 E9.31347
G1 X112.963 Y35.830 E9.33021
G1 X112.963 Y35.490 E9.34694
G1 X113.033 Y35.157 E9.36367
G1 X113.172 Y34.847 E9.38040
G1 X113.371 Y34.572 E9.39713
G1 X113.624 Y34.344 E9.41387
G1 X113.919 Y34.174 E9.43060
G1 X114.242 Y34.069 E9.44733
G1 X114.574 Y34.034 E9.46377 F600.000
G1 X114.918 Y34.069 E9.48077
G1 X115.241 Y34.174 E9.49752
G1 X115.536 Y34.344 E9.51425
G1 X115.789 Y34.572 E9.53098
G1 X115.988 Y34.847 E9.54771
G1 X116.127 Y35.157 E9.56445
G1 X116.197 Y35.490 E9.58118
G1 X116.197 Y35.830 E9.59791
G1 X116.127 Y36.163 E9.61464
G1 X115.988 Y36.473 E9.63138
G1 X115.789 Y36.748 E9.64811
G1 X115.536 Y36.976 E9.66484
G1 X115.241 Y37.146 E9.68157
G1 X114.918 Y37.251 E9.69830
G1 X114.640 Y37.280 E9.71208
G1 X114.400 Y37.575 F9000.000
G1 X113.847 Y45.593 F9000.000
G1 X113.847 Y84.127 E11.60858 F600.000
G1 X75.313 Y84.127 E13.50508
G1 X75.313 Y45.593 E15.40158
G1 X113.787 Y45.593 E17.29513
G1 X113.462 Y45.978 F9000.000
G1 X113.462 Y83.742 E19.15367 F600.000
G1 X75.698 Y83.742 E21.01222
G1 X75.698 Y45.978 E22.87076
G1 X113.402 Y45.978 E24.72635
G1 X113.076 Y46.364 F9000.000
G1 X113.076 Y83.356 E26.54694 F600.000
G1 X76.084 Y83.356 E28.36753
G1 X76.084 Y46.364 E30.18811
G1 X113.016 Y46.364 E32.00575
G1 X112.691 Y46.749 F9000.000
G1 X112.691 Y82.971 E33.78838 F600.000
G1 X76.469 Y82.971 E35.57101
G1 X76.469 Y46.749 E37.35364
G1 X112.631 Y46.749 E39.13332
G1 X112.305 Y47.135 F9000.000
G1 X112.305 Y82.585 E40.87799 F600.000
G1 X76.855 Y82.585 E42.62267
G1 X76.855 Y47.135 E44.36734
G1 X112.245 Y47.135 E46.10906
G1 X112.705 Y47.135 F9000.000
G1 X81.402 Y36.642 F9000.000
G1 X81.131 Y37.249 E46.14176 F600.000
G1 X80.741 Y37.786 E46.17444
G1 X80.247 Y38.230 E46.20713
G1 X79.672 Y38.563 E46.23982
G1 X79.041 Y38.768 E46.27251
G1 X78.380 Y38.837 E46.30520
G1 X77.719 Y38.768 E46.33789
G1 X77.088 Y38.562 E46.37058
G1 X76.513 Y38.230 E46.40327
G1 X76.019 Y37.786 E46.43596
G1 X75.629 Y37.249 E46.46864
G1 X75.358 Y36.642 E46.50134
G1 X75.220 Y35.992 E46.53404
G1 X75.220 Y35.328 E46.56671
G1 X75.358 Y34.678 E46.59941
G1 X75.629 Y34.071 E46.63210
G1 X76.019 Y33.534 E46.66478
G1 X76.513 Y33.090 E46.69748
G1 X77.088 Y32.757 E46.73016
G1 X77.719 Y32.552 E46.76285
G1 X78.371 Y32.484 E46.79511 F600.000
G1 X79.037 Y32.551 E46.82806
G1 X79.672 Y32.757 E46.86092
G1 X80.247 Y33.090 E46.89360
G1 X80.741 Y33.534 E46.92630
G1 X81.131 Y34.071 E46.95898
G1 X81.402 Y34.678 E46.99167
G1 X81.540 Y35.328 E47.02437
G1 X81.540 Y35.992 E47.05705
G1 X81.414 Y36.583 E47.08679
G1 X81.033 Y36.522 F9000.000
G1 X80.796 Y37.055 E47.11549 F600.000
G1 X80.453 Y37.526 E47.14419
G1 X80.020 Y37.917 E47.17289
G1 X79.515 Y38.208 E47.20159
G1 X78.960 Y38.389 E47.23029
G1 X78.380 Y38.449 E47.25899
G1 X77.800 Y38.389 E47.28769
G1 X77.245 Y38.208 E47.31639
G1 X76.740 Y37.917 E47.34509
G1 X76.307 Y37.526 E47.37379
G1 X75.964 Y37.055 E47.40249
G1 X75.727 Y36.522 E47.43119
G1 X75.606 Y35.951 E47.45990
G1 X75.606 Y35.369 E47.48859
G1 X75.727 Y34.798 E47.51729
G1 X75.964 Y34.265 E47.54599
G1 X76.307 Y33.794 E47.57469
G1 X76.740 Y33.403 E47.60339
G1 X77.245 Y33.112 E47.63209
G1 X77.800 Y32.931 E47.66079
G1 X78.372 Y32.871 E47.68909 F600.000
G1 X78.957 Y32.931 E47.71806
G1 X79.515 Y33.112 E47.74689
G1 X80.020 Y33.403 E47.77558
G1 X80.453 Y33.794 E47.80429
G1 X80.796 Y34.265 E47.83298
G1 X81.033 Y34.798 E47.86169
G1 X81.154 Y35.369 E47.89039
G1 X81.154 Y35.951 E47.91908
G1 X81.045 Y36.463 E47.94483
G1 X80.664 Y36.402 F9000.000
G1 X80.460 Y36.861 E47.96955 F600.000
G1 X80.165 Y37.267 E47.99425
G1 X79.792 Y37.603 E48.01897
G1 X79.357 Y37.854 E48.04368
G1 X78.879 Y38.009 E48.06838
G1 X78.380 Y38.062 E48.09310
G1 X77.881 Y38.009 E48.11781
G1 X77.403 Y37.854 E48.14252
G1 X76.968 Y37.603 E48.16723
G1 X76.595 Y37.267 E48.19194
G1 X76.300 Y36.861 E48.21665
G1 X76.096 Y36.402 E48.24136
G1 X75.991 Y35.911 E48.26608
G1 X75.991 Y35.409 E48.29078
G1 X76.096 Y34.918 E48.31549
G1 X76.300 Y34.459 E48.34021
G1 X76.595 Y34.053 E48.36491
G1 X76.968 Y33.717 E48.38963
G1 X77.403 Y33.466 E48.41434
G1 X77.881 Y33.311 E48.43904
G1 X78.373 Y33.259 E48.46339 F600.000
G1 X78.878 Y33.310 E48.48837
G1 X79.357 Y33.466 E48.51317
G1 X79.792 Y33.717 E48.53788
G1 X80.165 Y34.053 E48.56260
G1 X80.460 Y34.459 E48.58730
G1 X80.664 Y34.918 E48.61202
G1 X80.769 Y35.409 E48.63673
G1 X80.769 Y35.911 E48.66143
G1 X80.677 Y36.343 E48.68319
G1 X80.295 Y36.282 F9000.000
G1 X80.124 Y36.667 E48.70392 F600.000
G1 X79.877 Y37.008 E48.72464
G1 X79.564 Y37.289 E48.74536
G1 X79.199 Y37.500 E48.76608
G1 X78.799 Y37.630 E48.78680
G1 X78.380 Y37.674 E48.80752
G1 X77.961 Y37.630 E48.82825
G1 X77.561 Y37.500 E48.84897
G1 X77.196 Y37.289 E48.86969
G1 X76.883 Y37.008 E48.89041
G1 X76.636 Y36.667 E48.91113
G1 X76.465 Y36.282 E48.93185
G1 X76.377 Y35.870 E48.95257
G1 X76.377 Y35.450 E48.97329
G1 X76.465 Y35.038 E48.99401
G1 X76.636 Y34.653 E49.01474
G1 X76.883 Y34.312 E49.03546
G1 X77.196 Y34.031 E49.05618
G1 X77.561 Y33.820 E49.07690
G1 X77.961 Y33.690 E49.09762
G1 X78.373 Y33.647 E49.11801 F600.000
G1 X78.798 Y33.690 E49.13900
G1 X79.199 Y33.820 E49.15978
G1 X79.564 Y34.031 E49.18050
G1 X79.877 Y34.312 E49.20122
G1 X80.124 Y34.653 E49.22194
G1 X80.295 Y35.038 E49.24267
G1 X80.383 Y35.450 E49.26339
G1 X80.383 Y35.870 E49.28410
G1 X80.308 Y36.224 E49.30188
G1 X79.927 Y36.163 F9000.000
G1 X79.788 Y36.473 E49.31861 F600.000
G1 X79.589 Y36.748 E49.33534
G1 X79.336 Y36.976 E49.35207
G1 X79.041 Y37.146 E49.36880
G1 X78.718 Y37.251 E49.38553
G1 X78.380 Y37.286 E49.40227
G1 X78.042 Y37.251 E49.41900
G1 X77.719 Y37.146 E49.43573
G1 X77.424 Y36.976 E49.45246
G1 X77.171 Y36.748 E49.46920
G1 X76.972 Y36.473 E49.48593
G1 X76.833 Y36.163 E49.50266
