; generated by Slic3r 1.2.9 on 2017-03-31 at 20:42:53

; external perimeters extrusion width = 0.40mm
; perimeters extrusion width = 0.56mm
; infill extrusion width = 0.38mm
; solid infill extrusion width = 0.56mm
; top infill extrusion width = 0.22mm
; support material extrusion width = 0.40mm

M106 S256; Turn on fan to 100% power
M104 S140; turn on extruder temperature at S value
M140 S60; turn on bed temperature at S value
G28; home all axes
M84; disable motors
G1 Z15 F15000; have Z move to 20mm at 15000 mm/min
M190 S55; turn on bed temperature at S value and wait
M140 S55; turn on bed temperature at S value (printing temperature)
M109 S200; turn on extruder temperature at S value and wait (printing temperature)
M104 S200; turn on extruder temperature at S value
G1 Z0 F12000; move Z back to home
G21 ; set units to millimeters
G90 ; use absolute coordinates
M82 ; use absolute distances for extrusion
G92 E0
M106 S255
;Layer change
G1 E-6.00000 F1800.00000
G92 E0
G1 Z0.300 F9000.000
G1 X52.252 Y52.252 F9000.000
G1 E6.00000 F1800.00000
G1 X53.413 Y51.126 E6.08055 F600.000
G1 X54.653 Y49.996 E6.16405
G1 X56.018 Y48.830 E6.25344
G1 X57.328 Y47.783 E6.33694
G1 X58.574 Y46.847 E6.41454
G1 X60.043 Y45.814 E6.50394
G1 X61.446 Y44.895 E6.58742
G1 X62.775 Y44.081 E6.66503
G1 X64.334 Y43.191 E6.75443
G1 X65.817 Y42.408 E6.83792
G1 X67.324 Y41.672 E6.92141
G1 X68.744 Y41.031 E6.99901
G1 X70.293 Y40.387 E7.08252
G1 X71.973 Y39.753 E7.17191
G1 X73.447 Y39.248 E7.24951
G1 X75.050 Y38.753 E7.33301
G1 X76.782 Y38.279 E7.42240
G1 X78.413 Y37.889 E7.50589
G1 X80.055 Y37.551 E7.58939
G1 X81.590 Y37.283 E7.66699
G1 X83.251 Y37.045 E7.75049
G1 X85.035 Y36.848 E7.83988
G1 X86.589 Y36.726 E7.91748
G1 X88.264 Y36.645 E8.00097
G1 X89.941 Y36.617 E8.08448
G1 X91.618 Y36.641 E8.16797
G1 X93.411 Y36.726 E8.25737 F600.000
G1 X94.965 Y36.848 E8.33497
G1 X96.570 Y37.023 E8.41538
G1 X98.292 Y37.265 E8.50196
G1 X100.061 Y37.573 E8.59135
G1 X101.703 Y37.915 E8.67485
G1 X103.218 Y38.279 E8.75245
G1 X104.837 Y38.720 E8.83595
G1 X106.440 Y39.211 E8.91944
G1 X108.139 Y39.793 E9.00884
G1 X109.597 Y40.344 E9.08644
G1 X111.147 Y40.984 E9.16993
G1 X112.676 Y41.672 E9.25344
G1 X114.288 Y42.462 E9.34282
G1 X115.770 Y43.248 E9.42633
G1 X117.123 Y44.021 E9.50393
G1 X118.554 Y44.895 E9.58743
G1 X120.055 Y45.881 E9.67681
G1 X121.330 Y46.777 E9.75443
G1 X122.672 Y47.783 E9.83791
G1 X124.073 Y48.905 E9.92731
G1 X125.347 Y49.996 E10.01079
G1 X126.500 Y51.045 E10.08840
G1 X127.790 Y52.294 E10.17780
G1 X128.874 Y53.413 E10.25540
G1 X129.963 Y54.607 E10.33581
G1 X131.095 Y55.927 E10.42238
G1 X132.217 Y57.328 E10.51179
G1 X133.153 Y58.574 E10.58938
G1 X134.119 Y59.945 E10.67288
G1 X135.105 Y61.446 E10.76226
G1 X135.979 Y62.877 E10.84576
G1 X136.752 Y64.231 E10.92338
G1 X137.538 Y65.712 E11.00687
G1 X138.328 Y67.324 E11.09624
G1 X139.016 Y68.853 E11.17977
G1 X139.613 Y70.293 E11.25737
G1 X140.207 Y71.861 E11.34085
G1 X140.789 Y73.560 E11.43025
G1 X141.247 Y75.050 E11.50785
G1 X141.691 Y76.667 E11.59134
G1 X142.111 Y78.412 E11.68073
G1 X142.449 Y80.055 E11.76423
G1 X142.735 Y81.708 E11.84773
G1 X142.970 Y83.368 E11.93122
G1 X143.141 Y84.917 E12.00883
G1 X143.282 Y86.707 E12.09822
G1 X143.359 Y88.382 E12.18172
G1 X143.383 Y89.941 E12.25933
G1 X143.355 Y91.736 E12.34872
G1 X143.282 Y93.293 E12.42632
G1 X143.152 Y94.965 E12.50981
G1 X142.970 Y96.632 E12.59333
G1 X142.717 Y98.410 E12.68271
G1 X142.449 Y99.945 E12.76031
G1 X142.123 Y101.527 E12.84072
G1 X141.721 Y103.218 E12.92729
G1 X141.247 Y104.950 E13.01669
G1 X140.752 Y106.553 E13.10018
G1 X140.247 Y108.027 E13.17779
G1 X139.656 Y109.597 E13.26130
G1 X138.969 Y111.256 E13.35068
G1 X138.328 Y112.676 E13.42830
G1 X137.592 Y114.183 E13.51178
G1 X136.752 Y115.769 E13.60116
G1 X135.979 Y117.123 E13.67877
G1 X135.137 Y118.501 E13.75918
G1 X134.186 Y119.957 E13.84576
G1 X133.223 Y121.330 E13.92927
G1 X132.145 Y122.766 E14.01865
G1 X131.170 Y123.982 E14.09625
G1 X130.083 Y125.259 E14.17975
G1 X128.874 Y126.587 E14.26914
G1 X127.706 Y127.790 E14.35265
G1 X126.587 Y128.874 E14.43024
G1 X125.347 Y130.004 E14.51376
G1 X123.982 Y131.170 E14.60313
G1 X122.672 Y132.217 E14.68663
G1 X121.330 Y133.223 E14.77012
G1 X120.055 Y134.119 E14.84772
G1 X118.554 Y135.104 E14.93710
G1 X117.225 Y135.919 E15.01472
G1 X115.823 Y136.721 E15.09513
G1 X114.288 Y137.538 E15.18172
G1 X112.676 Y138.328 E15.27108
G1 X111.256 Y138.969 E15.34870
G1 X109.706 Y139.613 E15.43222
G1 X108.139 Y140.207 E15.51570
G1 X106.440 Y140.789 E15.60510
G1 X104.950 Y141.247 E15.68270
G1 X103.333 Y141.691 E15.76619
G1 X101.588 Y142.111 E15.85558
G1 X100.061 Y142.427 E15.93319
G1 X98.410 Y142.717 E16.01668
G1 X96.632 Y142.970 E16.10606
G1 X94.965 Y143.152 E16.18957
G1 X93.411 Y143.274 E16.26717
G1 X91.736 Y143.355 E16.35066
G1 X90.059 Y143.383 E16.43418
G1 X88.264 Y143.355 E16.52357
G1 X86.707 Y143.282 E16.60117
G1 X85.035 Y143.152 E16.68466
G1 X83.251 Y142.955 E16.77404
G1 X81.590 Y142.717 E16.85755
G1 X80.055 Y142.449 E16.93515
G1 X78.412 Y142.111 E17.01865
G1 X76.667 Y141.691 E17.10804
G1 X75.163 Y141.280 E17.18565
G1 X73.560 Y140.789 E17.26913
G1 X71.861 Y140.207 E17.35853
G1 X70.293 Y139.613 E17.44202
G1 X68.853 Y139.016 E17.51962
G1 X67.324 Y138.328 E17.60314
G1 X65.712 Y137.538 E17.69251
G1 X64.177 Y136.721 E17.77910
G1 X62.775 Y135.919 E17.85951
G1 X61.446 Y135.105 E17.93712
G1 X59.945 Y134.119 E18.02651
G1 X58.574 Y133.153 E18.11000
G1 X57.328 Y132.217 E18.18760
G1 X56.018 Y131.170 E18.27110
G1 X54.653 Y130.004 E18.36048
G1 X53.413 Y128.874 E18.44399
G1 X52.294 Y127.790 E18.52158
G1 X51.126 Y126.586 E18.60509
G1 X49.917 Y125.259 E18.69448
G1 X48.905 Y124.073 E18.77208
G1 X47.855 Y122.766 E18.85558
G1 X46.777 Y121.330 E18.94496
G1 X45.814 Y119.957 E19.02847
G1 X44.863 Y118.502 E19.11503
G1 X44.021 Y117.123 E19.19545
G1 X43.248 Y115.770 E19.27306
G1 X42.408 Y114.183 E19.36245
G1 X41.672 Y112.676 E19.44594
G1 X41.031 Y111.256 E19.52355
G1 X40.344 Y109.597 E19.61294
G1 X39.793 Y108.139 E19.69054
G1 X39.248 Y106.553 E19.77404
G1 X38.753 Y104.950 E19.85754
G1 X38.279 Y103.218 E19.94694
G1 X37.889 Y101.587 E20.03043
G1 X37.573 Y100.061 E20.10804
G1 X37.265 Y98.292 E20.19743
G1 X37.023 Y96.570 E20.28400
G1 X36.848 Y94.965 E20.36442
G1 X36.726 Y93.411 E20.44202
G1 X36.641 Y91.618 E20.53141
G1 X36.617 Y90.059 E20.60901
G1 X36.641 Y88.382 E20.69250
G1 X36.718 Y86.707 E20.77601
G1 X36.859 Y84.917 E20.86540
G1 X37.030 Y83.368 E20.94300
G1 X37.265 Y81.708 E21.02649
G1 X37.551 Y80.055 E21.11000
G1 X37.889 Y78.413 E21.19349
G1 X38.309 Y76.667 E21.28289
G1 X38.753 Y75.050 E21.36638
G1 X39.211 Y73.560 E21.44398
G1 X39.793 Y71.861 E21.53338
G1 X40.344 Y70.403 E21.61098
G1 X40.984 Y68.853 E21.69446
G1 X41.672 Y67.324 E21.77798
G1 X42.462 Y65.712 E21.86736
G1 X43.279 Y64.177 E21.95393
G1 X44.081 Y62.775 E22.03435
G1 X44.895 Y61.446 E22.11196
G1 X45.881 Y59.945 E22.20135
G1 X46.777 Y58.670 E22.27895
G1 X47.783 Y57.328 E22.36244
G1 X48.830 Y56.018 E22.44595
G1 X49.996 Y54.653 E22.53533
G1 X51.045 Y53.500 E22.61294
G1 X52.210 Y52.295 E22.69640
G1 X52.525 Y52.525 F9000.000
G1 X53.682 Y51.403 E22.77664 F600.000
G1 X54.912 Y50.281 E22.85954
G1 X56.259 Y49.131 E22.94772
G1 X57.559 Y48.091 E23.03062
G1 X58.806 Y47.155 E23.10822
G1 X60.255 Y46.137 E23.19641
G1 X61.647 Y45.224 E23.27930
G1 X62.976 Y44.410 E23.35690
G1 X64.515 Y43.532 E23.44509
G1 X65.987 Y42.755 E23.52798
G1 X67.483 Y42.024 E23.61087
G1 X68.903 Y41.382 E23.68847
G1 X70.441 Y40.744 E23.77137
G1 X72.098 Y40.117 E23.85956
G1 X73.572 Y39.613 E23.93716
G1 X75.163 Y39.121 E24.02005
G1 X76.872 Y38.654 E24.10824
G1 X78.491 Y38.267 E24.19113
G1 X80.121 Y37.931 E24.27402
G1 X81.762 Y37.646 E24.35692
G1 X83.305 Y37.427 E24.43452
G1 X85.065 Y37.233 E24.52271
G1 X86.725 Y37.104 E24.60560
G1 X88.389 Y37.027 E24.68850
G1 X89.947 Y37.002 E24.76610
G1 X91.611 Y37.027 E24.84899
G1 X93.381 Y37.110 E24.93718 F600.000
G1 X95.040 Y37.243 E25.02007
G1 X96.590 Y37.414 E25.09767
G1 X98.238 Y37.646 E25.18056
G1 X99.879 Y37.931 E25.26346
G1 X101.509 Y38.267 E25.34635
G1 X103.232 Y38.681 E25.43454
G1 X104.837 Y39.121 E25.51743
G1 X106.327 Y39.580 E25.59503
G1 X108.002 Y40.154 E25.68322
G1 X109.460 Y40.704 E25.76083
G1 X110.999 Y41.340 E25.84371
G1 X112.517 Y42.024 E25.92662
G1 X114.108 Y42.803 E26.01479
G1 X115.485 Y43.532 E26.09239
G1 X116.932 Y44.356 E26.17530
G1 X118.353 Y45.224 E26.25820
G1 X119.833 Y46.197 E26.34637
G1 X121.108 Y47.093 E26.42399
G1 X122.441 Y48.091 E26.50686
G1 X123.823 Y49.199 E26.59506
G1 X125.088 Y50.281 E26.67794
G1 X126.241 Y51.330 E26.75555
G1 X127.513 Y52.563 E26.84374
G1 X128.597 Y53.682 E26.92134
G1 X129.677 Y54.866 E27.00115
G1 X130.801 Y56.177 E27.08712
G1 X131.909 Y57.559 E27.17532
G1 X132.845 Y58.806 E27.25291
G1 X133.803 Y60.167 E27.33580
G1 X134.776 Y61.647 E27.42398
G1 X135.644 Y63.068 E27.50688
G1 X136.417 Y64.422 E27.58449
G1 X137.197 Y65.892 E27.66739
G1 X137.976 Y67.483 E27.75555
G1 X138.660 Y69.001 E27.83847
G1 X139.256 Y70.441 E27.91607
G1 X139.846 Y71.998 E27.99896
G1 X140.420 Y73.673 E28.08715
G1 X140.879 Y75.163 E28.16475
G1 X141.319 Y76.768 E28.24764
G1 X141.733 Y78.491 E28.33582
G1 X142.069 Y80.121 E28.41872
G1 X142.354 Y81.762 E28.50161
G1 X142.586 Y83.410 E28.58449
G1 X142.757 Y84.960 E28.66211
G1 X142.896 Y86.725 E28.75029
G1 X142.973 Y88.389 E28.83319
G1 X142.998 Y89.947 E28.91080
G1 X142.970 Y91.718 E28.99898
G1 X142.890 Y93.381 E29.08187
G1 X142.767 Y94.935 E29.15947
G1 X142.586 Y96.590 E29.24238
G1 X142.337 Y98.343 E29.33056
G1 X142.069 Y99.879 E29.40816
G1 X141.746 Y101.449 E29.48796
G1 X141.346 Y103.128 E29.57394
G1 X140.879 Y104.837 E29.66212
G1 X140.387 Y106.428 E29.74502
G1 X139.883 Y107.902 E29.82262
G1 X139.295 Y109.461 E29.90553
G1 X138.618 Y111.097 E29.99371
G1 X137.976 Y112.518 E30.07133
G1 X137.245 Y114.013 E30.15420
G1 X136.417 Y115.578 E30.24238
G1 X135.644 Y116.932 E30.31999
G1 X134.808 Y118.300 E30.39980
G1 X133.863 Y119.745 E30.48576
G1 X132.907 Y121.108 E30.56867
G1 X131.844 Y122.525 E30.65685
G1 X130.801 Y123.823 E30.73975
G1 X129.789 Y125.008 E30.81735
G1 X128.597 Y126.318 E30.90553
G1 X127.437 Y127.513 E30.98843
G1 X126.318 Y128.597 E31.06603
G1 X125.088 Y129.719 E31.14894
G1 X123.741 Y130.869 E31.23711
G1 X122.441 Y131.909 E31.32001
G1 X121.108 Y132.907 E31.40289
G1 X119.833 Y133.803 E31.48050
G1 X118.353 Y134.776 E31.56867
G1 X117.024 Y135.590 E31.64629
G1 X115.632 Y136.386 E31.72610
G1 X114.108 Y137.197 E31.81208
G1 X112.518 Y137.976 E31.90024
G1 X110.999 Y138.660 E31.98316
G1 X109.559 Y139.257 E32.06077
G1 X108.002 Y139.846 E32.14365
G1 X106.327 Y140.420 E32.23184
G1 X104.837 Y140.879 E32.30944
G1 X103.232 Y141.319 E32.39233
G1 X101.509 Y141.733 E32.48051
G1 X99.879 Y142.069 E32.56341
G1 X98.343 Y142.337 E32.64101
G1 X96.590 Y142.586 E32.72918
G1 X94.935 Y142.767 E32.81209
G1 X93.381 Y142.890 E32.88969
G1 X91.718 Y142.970 E32.97258
G1 X90.053 Y142.998 E33.05549
G1 X88.282 Y142.970 E33.14367
G1 X86.619 Y142.890 E33.22656
G1 X85.065 Y142.767 E33.30416
G1 X83.305 Y142.573 E33.39234
G1 X81.657 Y142.337 E33.47525
G1 X80.121 Y142.069 E33.55285
G1 X78.491 Y141.733 E33.63574
G1 X76.768 Y141.319 E33.72393
G1 X75.265 Y140.908 E33.80153
G1 X73.673 Y140.420 E33.88441
G1 X71.998 Y139.846 E33.97261
G1 X70.540 Y139.296 E34.05021
G1 X69.001 Y138.660 E34.13309
G1 X67.483 Y137.976 E34.21601
G1 X65.892 Y137.197 E34.30418
G1 X64.368 Y136.386 E34.39015
G1 X62.976 Y135.590 E34.46997
G1 X61.647 Y134.776 E34.54758
G1 X60.167 Y133.803 E34.63576
G1 X58.892 Y132.907 E34.71336
G1 X57.559 Y131.909 E34.79624
G1 X56.259 Y130.869 E34.87915
G1 X54.912 Y129.719 E34.96732
G1 X53.759 Y128.670 E35.04493
G1 X52.563 Y127.513 E35.12782
G1 X51.403 Y126.318 E35.21072
G1 X50.211 Y125.008 E35.29891
G1 X49.199 Y123.823 E35.37650
G1 X48.156 Y122.525 E35.45940
G1 X47.093 Y121.108 E35.54758
G1 X46.137 Y119.745 E35.63049
G1 X45.192 Y118.300 E35.71644
G1 X44.356 Y116.932 E35.79626
G1 X43.583 Y115.578 E35.87387
G1 X42.755 Y114.013 E35.96205
G1 X42.069 Y112.613 E36.03965
G1 X41.382 Y111.097 E36.12255
G1 X40.704 Y109.460 E36.21074
G1 X40.154 Y108.002 E36.28834
G1 X39.613 Y106.428 E36.37123
G1 X39.121 Y104.837 E36.45413
G1 X38.654 Y103.128 E36.54232
G1 X38.267 Y101.509 E36.62521
G1 X37.951 Y99.983 E36.70281
G1 X37.663 Y98.343 E36.78570
G1 X37.414 Y96.590 E36.87389
G1 X37.233 Y94.935 E36.95678
G1 X37.110 Y93.381 E37.03438
G1 X37.030 Y91.718 E37.11727
G1 X37.002 Y90.053 E37.20017
G1 X37.030 Y88.282 E37.28836
G1 X37.104 Y86.725 E37.36596
G1 X37.233 Y85.065 E37.44885
G1 X37.414 Y83.410 E37.53175
G1 X37.663 Y81.657 E37.61994
G1 X37.951 Y80.017 E37.70282
G1 X38.267 Y78.491 E37.78043
G1 X38.681 Y76.768 E37.86862
G1 X39.121 Y75.163 E37.95151
G1 X39.580 Y73.673 E38.02911
G1 X40.154 Y71.998 E38.11730
G1 X40.704 Y70.540 E38.19490
G1 X41.340 Y69.001 E38.27778
G1 X42.024 Y67.483 E38.36069
G1 X42.803 Y65.892 E38.44887
G1 X43.614 Y64.368 E38.53485
G1 X44.410 Y62.976 E38.61466
G1 X45.224 Y61.647 E38.69226
G1 X46.197 Y60.167 E38.78045
G1 X47.093 Y58.892 E38.85805
G1 X48.091 Y57.559 E38.94094
G1 X49.131 Y56.259 E39.02384
G1 X50.281 Y54.912 E39.11202
G1 X51.330 Y53.759 E39.18963
G1 X52.483 Y52.567 E39.27218
G1 E33.27218 F1800.00000
G92 E0
G1 X138.101 Y89.389 F9000.000
G1 E6.00000 F1800.00000
G1 X138.087 Y88.489 E6.04484 F600.000
G1 X138.016 Y86.979 E6.12009
G1 X137.897 Y85.472 E6.19534
G1 X137.731 Y83.970 E6.27059
G1 X137.518 Y82.474 E6.34585
G1 X137.258 Y80.985 E6.42110
G1 X136.952 Y79.505 E6.49634
G1 X136.604 Y78.055 E6.57058
G1 X136.200 Y76.578 E6.64684
G1 X135.756 Y75.133 E6.72209
G1 X135.266 Y73.703 E6.79734
G1 X134.732 Y72.289 E6.87259
G1 X134.154 Y70.893 E6.94784
G1 X133.540 Y69.534 E7.02207
G1 X132.867 Y68.158 E7.09834
G1 X132.160 Y66.822 E7.17359
G1 X131.411 Y65.510 E7.24885
G1 X130.632 Y64.238 E7.32308
G1 X129.791 Y62.958 E7.39934
G1 X128.922 Y61.721 E7.47459
G1 X128.015 Y60.513 E7.54984
G1 X127.070 Y59.333 E7.62509
G1 X126.088 Y58.184 E7.70034
G1 X125.071 Y57.066 E7.77560
G1 X124.034 Y55.995 E7.84983
G1 X122.934 Y54.929 E7.92609
G1 X121.816 Y53.912 E8.00135
G1 X120.667 Y52.930 E8.07660
G1 X119.487 Y51.985 E8.15185
G1 X118.279 Y51.078 E8.22710
G1 X117.042 Y50.209 E8.30234
G1 X115.779 Y49.379 E8.37760
G1 X114.490 Y48.589 E8.45284
G1 X113.178 Y47.840 E8.52810
G1 X111.842 Y47.133 E8.60335
G1 X110.485 Y46.468 E8.67860
G1 X109.107 Y45.846 E8.75385
G1 X107.711 Y45.268 E8.82910
G1 X106.297 Y44.734 E8.90435
G1 X104.867 Y44.244 E8.97960
G1 X103.422 Y43.800 E9.05484
G1 X101.965 Y43.401 E9.13009
G1 X100.495 Y43.048 E9.20535
G1 X99.015 Y42.742 E9.28060
G1 X97.526 Y42.482 E9.35585
G1 X96.030 Y42.269 E9.43110
G1 X94.528 Y42.103 E9.50635
G1 X93.021 Y41.984 E9.58160
G1 X91.511 Y41.913 E9.65685
G1 X90.000 Y41.889 E9.73210
G1 X88.489 Y41.913 E9.80735
G1 X86.979 Y41.984 E9.88260
G1 X85.472 Y42.103 E9.95785
G1 X83.970 Y42.269 E10.03310
G1 X82.474 Y42.482 E10.10835
G1 X80.985 Y42.742 E10.18360
G1 X79.505 Y43.048 E10.25885
G1 X78.035 Y43.401 E10.33410
G1 X76.578 Y43.800 E10.40935
G1 X75.133 Y44.244 E10.48460
G1 X73.703 Y44.734 E10.55985
G1 X72.289 Y45.268 E10.63510
G1 X70.893 Y45.846 E10.71035
G1 X69.515 Y46.468 E10.78560
G1 X68.158 Y47.133 E10.86085
G1 X66.822 Y47.840 E10.93610
G1 X65.510 Y48.589 E11.01135
G1 X64.221 Y49.379 E11.08660
G1 X62.958 Y50.209 E11.16185
G1 X61.721 Y51.078 E11.23709
G1 X60.532 Y51.970 E11.31113
G1 X59.333 Y52.930 E11.38760
G1 X58.184 Y53.912 E11.46285
G1 X57.066 Y54.929 E11.53810
G1 X55.981 Y55.981 E11.61335
G1 X54.929 Y57.066 E11.68860
G1 X53.912 Y58.184 E11.76385
G1 X52.930 Y59.333 E11.83910
G1 X51.970 Y60.532 E11.91557
G1 X51.078 Y61.721 E11.98961
G1 X50.209 Y62.958 E12.06485
G1 X49.379 Y64.221 E12.14010
G1 X48.589 Y65.510 E12.21535
G1 X47.840 Y66.822 E12.29060
G1 X47.133 Y68.158 E12.36585
G1 X46.468 Y69.515 E12.44110
G1 X45.846 Y70.893 E12.51635
G1 X45.268 Y72.289 E12.59160
G1 X44.734 Y73.703 E12.66685
G1 X44.244 Y75.133 E12.74210
G1 X43.800 Y76.578 E12.81735
G1 X43.401 Y78.035 E12.89260
G1 X43.048 Y79.505 E12.96785
G1 X42.742 Y80.985 E13.04310
G1 X42.482 Y82.474 E13.11835
G1 X42.269 Y83.970 E13.19360
G1 X42.103 Y85.472 E13.26885
G1 X41.984 Y86.979 E13.34410
G1 X41.913 Y88.489 E13.41935
