; generated by Slic3r 1.2.9 on 2017-03-06 at 20:57:52

; external perimeters extrusion width = 0.40mm
; perimeters extrusion width = 0.56mm
; infill extrusion width = 0.38mm
; solid infill extrusion width = 0.56mm
; top infill extrusion width = 0.22mm

M106 S256; Turn on fan to 100% power
M104 S140; turn on extruder temperature at S value
M140 S60; turn on bed temperature at S value
G28; home all axes
M84; disable motors
G1 Z15 F15000; have Z move to 20mm at 15000 mm/min
M190 S55; turn on bed temperature at S value and wait
M140 S55; turn on bed temperature at S value (printing temperature)
M109 S200; turn on extruder temperature at S value and wait (printing temperature)
M104 S200; turn on extruder temperature at S value
G1 Z0 F12000; move Z back to home
G21 ; set units to millimeters
G90 ; use absolute coordinates
M82 ; use absolute distances for extrusion
G92 E0
M106 S255
;Layer change
G1 E-6.00000 F1800.00000
G92 E0
G1 Z0.300 F9000.000
G1 X50.211 Y50.211 F9000.000
G1 E6.00000 F1800.00000
G1 X51.437 Y49.021 E6.08506 F600.000
G1 X52.743 Y47.830 E6.17308
G1 X54.177 Y46.605 E6.26699
G1 X55.465 Y45.574 E6.34911
G1 X56.877 Y44.511 E6.43711
G1 X58.420 Y43.426 E6.53102
G1 X59.799 Y42.521 E6.61314
G1 X61.305 Y41.596 E6.70115
G1 X62.943 Y40.661 E6.79507
G1 X64.506 Y39.836 E6.88308
G1 X66.095 Y39.060 E6.97109
G1 X67.598 Y38.381 E7.05321
G1 X69.230 Y37.703 E7.14122
G1 X70.995 Y37.036 E7.23513
G1 X72.667 Y36.465 E7.32313
G1 X74.244 Y35.980 E7.40527
G1 X76.063 Y35.482 E7.49918
G1 X77.782 Y35.072 E7.58717
G1 X79.514 Y34.715 E7.67519
G1 X81.139 Y34.431 E7.75732
G1 X82.889 Y34.180 E7.84533
G1 X84.763 Y33.973 E7.93924
G1 X86.526 Y33.837 E8.02725
G1 X88.173 Y33.759 E8.10937
G1 X90.072 Y33.729 E8.20392
G1 X91.827 Y33.759 E8.29130 F600.000
G1 X93.474 Y33.837 E8.37341
G1 X95.354 Y33.985 E8.46731
G1 X97.111 Y34.180 E8.55534
G1 X98.861 Y34.431 E8.64334
G1 X100.486 Y34.715 E8.72546
G1 X102.333 Y35.097 E8.81937
G1 X104.051 Y35.512 E8.90739
G1 X105.642 Y35.947 E8.98950
G1 X107.332 Y36.465 E9.07751
G1 X109.117 Y37.076 E9.17142
G1 X110.769 Y37.702 E9.25943
G1 X112.294 Y38.334 E9.34156
G1 X114.012 Y39.110 E9.43544
G1 X115.494 Y39.836 E9.51759
G1 X117.057 Y40.661 E9.60559
G1 X118.593 Y41.535 E9.69361
G1 X120.201 Y42.521 E9.78752
G1 X121.677 Y43.493 E9.87551
G1 X123.027 Y44.441 E9.95765
G1 X124.442 Y45.501 E10.04567
G1 X125.914 Y46.680 E10.13955
G1 X127.257 Y47.830 E10.22756
G1 X128.477 Y48.940 E10.30970
G1 X129.748 Y50.169 E10.39772
G1 X131.060 Y51.523 E10.49163
G1 X132.171 Y52.743 E10.57377
G1 X133.320 Y54.086 E10.66175
G1 X134.426 Y55.465 E10.74977
G1 X135.559 Y56.973 E10.84368
G1 X136.507 Y58.322 E10.92579
G1 X137.479 Y59.799 E11.01381
G1 X138.465 Y61.407 E11.10772
G1 X139.282 Y62.840 E11.18987
G1 X140.111 Y64.401 E11.27785
G1 X140.941 Y66.095 E11.37176
G1 X141.619 Y67.598 E11.45387
G1 X142.297 Y69.230 E11.54189
G1 X142.924 Y70.884 E11.62993
G1 X143.535 Y72.668 E11.72382
G1 X144.020 Y74.244 E11.80594
G1 X144.485 Y75.936 E11.89330
G1 X144.903 Y77.667 E11.98196
G1 X145.285 Y79.514 E12.07587
G1 X145.569 Y81.139 E12.15799
G1 X145.820 Y82.889 E12.24602
G1 X146.027 Y84.763 E12.33991
G1 X146.156 Y86.408 E12.42202
G1 X146.241 Y88.173 E12.51003
G1 X146.271 Y89.941 E12.59805
G1 X146.241 Y91.827 E12.69196
G1 X146.163 Y93.475 E12.77410
G1 X146.028 Y95.224 E12.86144
G1 X145.834 Y96.995 E12.95014
G1 X145.569 Y98.861 E13.04401
G1 X145.263 Y100.602 E13.13203
G1 X144.903 Y102.333 E13.22004
G1 X144.518 Y103.937 E13.30215
G1 X144.020 Y105.756 E13.39606
G1 X143.498 Y107.445 E13.48409
G1 X142.964 Y109.005 E13.56620
G1 X142.341 Y110.659 E13.65420
G1 X141.666 Y112.294 E13.74223
G1 X140.890 Y114.013 E13.83613
G1 X140.111 Y115.599 E13.92414
G1 X139.338 Y117.058 E14.00633
G1 X138.404 Y118.695 E14.10018
G1 X137.543 Y120.102 E14.18230
G1 X136.581 Y121.569 E14.26965
G1 X135.559 Y123.027 E14.35831
G1 X134.426 Y124.535 E14.45222
G1 X133.320 Y125.914 E14.54024
G1 X132.248 Y127.168 E14.62236
G1 X131.060 Y128.477 E14.71036
G1 X129.748 Y129.831 E14.80428
G1 X128.563 Y130.979 E14.88640
G1 X127.257 Y132.170 E14.97441
G1 X125.823 Y133.394 E15.06827
G1 X124.535 Y134.426 E15.15044
G1 X123.123 Y135.489 E15.23844
G1 X121.581 Y136.573 E15.33229
G1 X120.102 Y137.543 E15.42036
G1 X118.593 Y138.465 E15.50839
G1 X117.058 Y139.338 E15.59633
G1 X115.599 Y140.111 E15.67852
G1 X113.906 Y140.940 E15.77239
G1 X112.402 Y141.619 E15.85454
G1 X110.770 Y142.297 E15.94256
G1 X109.005 Y142.964 E16.03646
G1 X107.321 Y143.539 E16.12509
G1 X105.642 Y144.053 E16.21249
G1 X104.051 Y144.488 E16.29461
G1 X102.217 Y144.928 E16.38851
G1 X100.486 Y145.285 E16.47653
G1 X98.861 Y145.569 E16.55865
G1 X96.995 Y145.834 E16.65252
G1 X95.224 Y146.028 E16.74119
G1 X93.475 Y146.163 E16.82856
G1 X91.827 Y146.241 E16.91070
G1 X90.059 Y146.271 E16.99872
G1 X88.173 Y146.241 E17.09263
G1 X86.526 Y146.163 E17.17474
G1 X84.763 Y146.027 E17.26275
G1 X82.889 Y145.820 E17.35664
G1 X81.256 Y145.587 E17.43878
G1 X79.514 Y145.285 E17.52679
G1 X77.783 Y144.928 E17.61481
G1 X75.950 Y144.489 E17.70865
G1 X74.358 Y144.053 E17.79083
G1 X72.668 Y143.535 E17.87884
G1 X70.884 Y142.924 E17.97273
G1 X69.230 Y142.297 E18.06077
G1 X67.706 Y141.666 E18.14289
G1 X66.095 Y140.941 E18.23090
G1 X64.401 Y140.111 E18.32481
G1 X62.840 Y139.282 E18.41279
G1 X61.407 Y138.465 E18.49494
G1 X59.898 Y137.543 E18.58296
G1 X58.322 Y136.507 E18.67687
G1 X56.867 Y135.482 E18.76550
G1 X55.465 Y134.426 E18.85289
G1 X54.177 Y133.395 E18.93500
G1 X52.743 Y132.171 E19.02889
G1 X51.437 Y130.979 E19.11693
G1 X50.169 Y129.748 E19.20494
G1 X49.021 Y128.563 E19.28707
G1 X47.830 Y127.257 E19.37510
G1 X46.605 Y125.823 E19.46899
G1 X45.574 Y124.535 E19.55110
G1 X44.510 Y123.123 E19.63914
G1 X43.426 Y121.580 E19.73302
G1 X42.521 Y120.201 E19.81514
G1 X41.602 Y118.706 E19.90252
G1 X40.718 Y117.160 E19.99118
G1 X39.836 Y115.494 E20.08507
G1 X39.110 Y114.012 E20.16722
G1 X38.381 Y112.402 E20.25520
G1 X37.702 Y110.769 E20.34323
G1 X37.036 Y109.005 E20.43712
G1 X36.465 Y107.332 E20.52515
G1 X35.980 Y105.756 E20.60727
G1 X35.512 Y104.051 E20.69528
G1 X35.072 Y102.217 E20.78918
G1 X34.715 Y100.486 E20.87720
G1 X34.431 Y98.861 E20.95932
G1 X34.180 Y97.111 E21.04732
G1 X33.973 Y95.237 E21.14124
G1 X33.844 Y93.592 E21.22336
G1 X33.759 Y91.827 E21.31137
G1 X33.729 Y90.059 E21.39939
G1 X33.759 Y88.173 E21.49329
G1 X33.837 Y86.526 E21.57541
G1 X33.973 Y84.763 E21.66343
G1 X34.180 Y82.889 E21.75733
G1 X34.413 Y81.256 E21.83945
G1 X34.713 Y79.527 E21.92680
G1 X35.072 Y77.782 E22.01549
G1 X35.512 Y75.949 E22.10938
G1 X35.947 Y74.358 E22.19150
G1 X36.461 Y72.680 E22.27888
G1 X37.036 Y70.995 E22.36753
G1 X37.703 Y69.230 E22.46144
G1 X38.381 Y67.598 E22.54945
G1 X39.060 Y66.095 E22.63157
G1 X39.889 Y64.401 E22.72547
G1 X40.661 Y62.943 E22.80759
G1 X41.529 Y61.418 E22.89495
G1 X42.457 Y59.898 E22.98363
G1 X43.493 Y58.322 E23.07753
G1 X44.511 Y56.877 E23.16555
G1 X45.501 Y55.558 E23.24766
G1 X46.605 Y54.177 E23.33567
G1 X47.830 Y52.743 E23.42958
G1 X48.940 Y51.523 E23.51169
G1 X50.168 Y50.253 E23.59967
G1 X50.483 Y50.483 F9000.000
G1 X51.705 Y49.298 E23.68444 F600.000
G1 X53.003 Y48.115 E23.77185
G1 X54.418 Y46.906 E23.86455
G1 X55.706 Y45.875 E23.94667
G1 X57.108 Y44.819 E24.03407
G1 X58.632 Y43.749 E24.12677
G1 X60.010 Y42.843 E24.20890
G1 X61.506 Y41.924 E24.29630
G1 X63.124 Y41.002 E24.38902
G1 X64.676 Y40.182 E24.47642
G1 X66.253 Y39.411 E24.56383
G1 X67.854 Y38.690 E24.65124
G1 X69.378 Y38.059 E24.73336
G1 X71.119 Y37.401 E24.82606
G1 X72.781 Y36.834 E24.91346
G1 X74.358 Y36.349 E24.99560
G1 X76.153 Y35.857 E25.08830
G1 X77.861 Y35.449 E25.17569
G1 X79.580 Y35.095 E25.26310
G1 X81.205 Y34.811 E25.34524
G1 X82.943 Y34.562 E25.43264
G1 X84.794 Y34.358 E25.52534
G1 X86.438 Y34.228 E25.60746
G1 X88.191 Y34.144 E25.69487
G1 X90.066 Y34.115 E25.78822
G1 X91.809 Y34.144 E25.87499 F600.000
G1 X93.456 Y34.222 E25.95710
G1 X95.312 Y34.368 E26.04980
G1 X97.057 Y34.562 E26.13722
G1 X98.795 Y34.811 E26.22462
G1 X100.419 Y35.095 E26.30674
G1 X102.243 Y35.472 E26.39945
G1 X103.847 Y35.857 E26.48156
G1 X105.540 Y36.319 E26.56897
G1 X107.320 Y36.866 E26.66169
G1 X108.980 Y37.437 E26.74908
G1 X110.622 Y38.059 E26.83649
G1 X112.146 Y38.690 E26.91862
G1 X113.842 Y39.456 E27.01129
G1 X115.324 Y40.182 E27.09344
G1 X116.876 Y41.002 E27.18084
G1 X118.402 Y41.870 E27.26825
G1 X119.990 Y42.843 E27.36096
G1 X121.456 Y43.808 E27.44835
G1 X122.805 Y44.757 E27.53048
G1 X124.210 Y45.810 E27.61790
G1 X125.663 Y46.973 E27.71058
G1 X126.997 Y48.115 E27.79799
G1 X128.217 Y49.225 E27.88012
G1 X129.554 Y50.521 E27.97283
G1 X130.775 Y51.783 E28.06025
G1 X131.885 Y53.003 E28.14238
G1 X133.026 Y54.336 E28.22976
G1 X134.125 Y55.706 E28.31718
G1 X135.243 Y57.195 E28.40988
G1 X136.251 Y58.632 E28.49729
G1 X137.157 Y60.010 E28.57941
G1 X138.130 Y61.598 E28.67212
G1 X138.947 Y63.031 E28.75426
G1 X139.770 Y64.581 E28.84164
G1 X140.589 Y66.253 E28.93434
G1 X141.268 Y67.756 E29.01646
G1 X141.941 Y69.378 E29.10387
G1 X142.563 Y71.020 E29.19131
G1 X143.134 Y72.680 E29.27871
G1 X143.681 Y74.460 E29.37140
G1 X144.117 Y76.052 E29.45357
G1 X144.528 Y77.757 E29.54092
G1 X144.905 Y79.580 E29.63363
G1 X145.189 Y81.205 E29.71575
G1 X145.436 Y82.930 E29.80250
G1 X145.632 Y84.688 E29.89056
G1 X145.778 Y86.544 E29.98327
G1 X145.856 Y88.191 E30.06538
G1 X145.885 Y89.947 E30.15279
G1 X145.856 Y91.809 E30.24550
G1 X145.778 Y93.456 E30.32763
G1 X145.643 Y95.193 E30.41437
G1 X145.451 Y96.952 E30.50246
G1 X145.189 Y98.795 E30.59513
G1 X144.885 Y100.524 E30.68255
G1 X144.551 Y102.139 E30.76467
G1 X144.143 Y103.847 E30.85207
G1 X143.681 Y105.540 E30.93948
G1 X143.134 Y107.320 E31.03220
G1 X142.599 Y108.881 E31.11431
G1 X141.980 Y110.523 E31.20171
G1 X141.310 Y112.146 E31.28913
G1 X140.544 Y113.843 E31.38183
G1 X139.770 Y115.419 E31.46924
G1 X138.998 Y116.877 E31.55142
G1 X138.076 Y118.494 E31.64407
G1 X137.214 Y119.900 E31.72618
G1 X136.258 Y121.358 E31.81300
G1 X135.243 Y122.805 E31.90100
G1 X134.125 Y124.294 E31.99370
G1 X133.026 Y125.664 E32.08112
G1 X131.955 Y126.918 E32.16323
G1 X130.775 Y128.217 E32.25063
G1 X129.479 Y129.554 E32.34334
G1 X128.295 Y130.702 E32.42546
G1 X126.997 Y131.885 E32.51287
G1 X125.582 Y133.094 E32.60553
G1 X124.294 Y134.125 E32.68769
G1 X122.892 Y135.181 E32.77510
G1 X121.369 Y136.251 E32.86774
G1 X119.900 Y137.214 E32.95521
G1 X118.402 Y138.130 E33.04263
G1 X116.877 Y138.998 E33.12997
G1 X115.419 Y139.770 E33.21216
G1 X113.747 Y140.589 E33.30482
G1 X112.244 Y141.268 E33.38697
G1 X110.622 Y141.941 E33.47438
G1 X108.881 Y142.599 E33.56708
G1 X107.207 Y143.170 E33.65511
G1 X105.540 Y143.681 E33.74191
G1 X103.950 Y144.116 E33.82402
G1 X102.139 Y144.551 E33.91672
G1 X100.420 Y144.905 E34.00413
G1 X98.795 Y145.189 E34.08626
G1 X96.952 Y145.451 E34.17893
G1 X95.193 Y145.643 E34.26702
G1 X93.456 Y145.778 E34.35376
G1 X91.809 Y145.856 E34.43589
G1 X90.053 Y145.885 E34.52331
G1 X88.191 Y145.856 E34.61601
G1 X86.544 Y145.778 E34.69813
G1 X84.794 Y145.642 E34.78553
G1 X82.943 Y145.438 E34.87822
G1 X81.310 Y145.205 E34.96036
G1 X79.580 Y144.905 E35.04776
G1 X77.861 Y144.551 E35.13518
G1 X76.052 Y144.117 E35.22782
G1 X74.460 Y143.681 E35.30999
G1 X72.781 Y143.166 E35.39740
G1 X71.020 Y142.563 E35.49009
G1 X69.378 Y141.941 E35.57752
G1 X67.756 Y141.268 E35.66494
G1 X66.253 Y140.589 E35.74705
G1 X64.581 Y139.770 E35.83975
G1 X63.031 Y138.947 E35.92713
G1 X61.598 Y138.130 E36.00928
G1 X60.100 Y137.214 E36.09670
G1 X58.544 Y136.192 E36.18939
G1 X57.098 Y135.173 E36.27743
G1 X55.706 Y134.125 E36.36421
G1 X54.418 Y133.094 E36.44633
G1 X53.003 Y131.885 E36.53901
G1 X51.705 Y130.702 E36.62644
G1 X50.521 Y129.554 E36.70856
G1 X49.298 Y128.295 E36.79598
G1 X48.115 Y126.997 E36.88340
G1 X46.906 Y125.582 E36.97609
G1 X45.875 Y124.294 E37.05820
G1 X44.819 Y122.891 E37.14564
G1 X43.749 Y121.368 E37.23831
G1 X42.843 Y119.990 E37.32043
G1 X41.931 Y118.505 E37.40719
G1 X41.053 Y116.969 E37.49526
G1 X40.182 Y115.324 E37.58795
G1 X39.456 Y113.842 E37.67010
G1 X38.732 Y112.244 E37.75748
G1 X38.059 Y110.622 E37.84490
G1 X37.401 Y108.881 E37.93759
G1 X36.834 Y107.219 E38.02501
G1 X36.349 Y105.642 E38.10713
G1 X35.884 Y103.949 E38.19454
G1 X35.449 Y102.139 E38.28723
G1 X35.095 Y100.419 E38.37465
G1 X34.811 Y98.795 E38.45677
G1 X34.562 Y97.057 E38.54417
G1 X34.358 Y95.206 E38.63688
G1 X34.228 Y93.562 E38.71900
G1 X34.144 Y91.809 E38.80640
G1 X34.115 Y90.053 E38.89382
G1 X34.144 Y88.191 E38.98652
G1 X34.228 Y86.438 E39.07393
G1 X34.358 Y84.794 E39.15605
G1 X34.562 Y82.943 E39.24875
G1 X34.795 Y81.310 E39.33087
G1 X35.092 Y79.593 E39.41762
G1 X35.449 Y77.861 E39.50570
G1 X35.884 Y76.050 E39.59839
G1 X36.319 Y74.460 E39.68051
G1 X36.830 Y72.794 E39.76726
G1 X37.401 Y71.119 E39.85533
G1 X38.059 Y69.378 E39.94803
G1 X38.690 Y67.854 E40.03015
G1 X39.411 Y66.253 E40.11756
G1 X40.230 Y64.581 E40.21026
G1 X41.002 Y63.124 E40.29237
G1 X41.864 Y61.609 E40.37914
G1 X42.786 Y60.100 E40.46721
G1 X43.808 Y58.544 E40.55990
G1 X44.819 Y57.108 E40.64732
G1 X45.875 Y55.706 E40.73472
G1 X46.906 Y54.418 E40.81684
G1 X48.115 Y53.003 E40.90954
G1 X49.225 Y51.783 E40.99165
G1 X50.441 Y50.526 E41.07873
G1 E35.07873 F1800.00000
G92 E0
G1 X89.667 Y118.894 F9000.000
G1 E6.00000 F1800.00000
G1 X90.339 Y118.894 E6.03347 F600.000
G1 X91.260 Y118.969 E6.07948
G1 X91.855 Y118.858 E6.10962
G1 X92.518 Y118.779 E6.14285
G1 X93.184 Y118.742 E6.17608
G1 X93.790 Y118.748 E6.20623
G1 X94.688 Y118.513 E6.25248
G1 X95.672 Y118.355 E6.30205
G1 X96.341 Y118.302 E6.33548
G1 X96.998 Y118.290 E6.36821 F600.000
G1 X97.673 Y118.320 E6.40184
G1 X98.336 Y118.392 E6.43505
G1 X98.993 Y118.506 E6.46823
G1 X99.641 Y118.660 E6.50142
G1 X100.279 Y118.855 E6.53461
G1 X100.907 Y119.091 E6.56804
G1 X101.804 Y119.511 E6.61734
G1 X102.387 Y119.843 E6.65077
G1 X102.949 Y120.211 E6.68420
G1 X103.733 Y120.816 E6.73349
G1 X104.230 Y121.267 E6.76692
G1 X104.695 Y121.745 E6.80011
G1 X105.129 Y122.251 E6.83330
G1 X105.530 Y122.783 E6.86649
G1 X105.897 Y123.340 E6.89967
G1 X106.228 Y123.918 E6.93287
G1 X106.522 Y124.517 E6.96606
G1 X106.782 Y125.141 E6.99972
G1 X107.088 Y126.077 E7.04878
G1 X107.246 Y126.730 E7.08220
G1 X107.362 Y127.386 E7.11540
G1 X107.436 Y128.049 E7.14858
G1 X107.468 Y128.715 E7.18178
G1 X107.459 Y129.386 E7.21520
G1 X107.368 Y130.372 E7.26450
G1 X107.253 Y131.034 E7.29793
G1 X107.099 Y131.682 E7.33112
G1 X106.904 Y132.319 E7.36431
G1 X106.669 Y132.943 E7.39750
G1 X106.396 Y133.551 E7.43068
G1 X106.085 Y134.141 E7.46387
G1 X105.735 Y134.714 E7.49731
G1 X105.152 Y135.520 E7.54683
G1 X104.720 Y136.027 E7.58003
G1 X104.253 Y136.510 E7.61345
G1 X103.508 Y137.170 E7.66299
G1 X102.704 Y137.756 E7.71253
G1 X102.132 Y138.108 E7.74595
G1 X101.542 Y138.422 E7.77925
G1 X100.627 Y138.820 E7.82891
G1 X99.677 Y139.130 E7.87869
G1 X98.702 Y139.350 E7.92847
G1 X97.715 Y139.476 E7.97800
G1 X97.045 Y139.509 E8.01142
G1 X96.517 Y139.502 E8.03768
G1 X96.009 Y139.645 E8.06394
G1 X95.353 Y139.787 E8.09736
G1 X94.367 Y139.921 E8.14690
G1 X93.373 Y139.960 E8.19643
G1 X92.703 Y139.935 E8.22985
G1 X92.173 Y139.881 E8.25636
G1 X91.334 Y140.027 E8.29873
G1 X90.666 Y140.090 E8.33214
G1 X90.000 Y140.111 E8.36534
G1 X89.334 Y140.090 E8.39853
G1 X88.670 Y140.027 E8.43171
G1 X88.012 Y139.923 E8.46490
G1 X87.361 Y139.778 E8.49809
G1 X86.721 Y139.592 E8.53128
G1 X86.089 Y139.364 E8.56471
G1 X85.187 Y138.957 E8.61401
G1 X84.599 Y138.633 E8.64743
G1 X84.032 Y138.274 E8.68086
G1 X83.236 Y137.676 E8.73040
G1 X82.500 Y137.007 E8.77993
G1 X82.041 Y136.517 E8.81336
G1 X81.613 Y136.000 E8.84679
G1 X81.041 Y135.186 E8.89632
G1 X80.545 Y134.317 E8.94610
G1 X80.134 Y133.406 E8.99588
G1 X79.810 Y132.460 E9.04565
G1 X79.577 Y131.488 E9.09543
G1 X79.436 Y130.499 E9.14520
G1 X79.389 Y129.500 E9.19497
G1 X79.410 Y128.834 E9.22817
G1 X79.473 Y128.165 E9.26159
G1 X79.644 Y127.185 E9.31113
G1 X79.908 Y126.221 E9.36091
G1 X80.261 Y125.286 E9.41068
G1 X80.701 Y124.388 E9.46045
G1 X81.221 Y123.540 E9.50999
G1 X81.622 Y122.989 E9.54389
G1 X82.262 Y122.240 E9.59296
G1 X82.740 Y121.762 E9.62662
G1 X83.496 Y121.115 E9.67616
G1 X84.314 Y120.541 E9.72593
G1 X85.180 Y120.046 E9.77558
G1 X86.089 Y119.636 E9.82524
G1 X86.726 Y119.407 E9.85892
