; generated by Slic3r 1.2.9 on 2017-03-15 at 12:23:34

; external perimeters extrusion width = 0.40mm
; perimeters extrusion width = 0.56mm
; infill extrusion width = 0.38mm
; solid infill extrusion width = 0.56mm
; top infill extrusion width = 0.22mm

M106 S256; Turn on fan to 100% power
M104 S140; turn on extruder temperature at S value
M140 S60; turn on bed temperature at S value
G28; home all axes
M84; disable motors
G1 Z15 F15000; have Z move to 20mm at 15000 mm/min
M190 S55; turn on bed temperature at S value and wait
M140 S55; turn on bed temperature at S value (printing temperature)
M109 S200; turn on extruder temperature at S value and wait (printing temperature)
M104 S200; turn on extruder temperature at S value
G1 Z0 F12000; move Z back to home
G21 ; set units to millimeters
G90 ; use absolute coordinates
M82 ; use absolute distances for extrusion
G92 E0
M106 S255
;Layer change
G1 E-6.00000 F1800.00000
G92 E0
G1 Z0.300 F9000.000
G1 X51.598 Y51.598 F9000.000
G1 E6.00000 F1800.00000
G1 X52.780 Y50.451 E6.08200 F600.000
G1 X54.041 Y49.302 E6.16694
G1 X55.428 Y48.117 E6.25778
G1 X56.761 Y47.052 E6.34271
G1 X58.030 Y46.099 E6.42176
G1 X59.523 Y45.049 E6.51261
G1 X60.950 Y44.114 E6.59754
G1 X62.304 Y43.285 E6.67661
G1 X63.889 Y42.381 E6.76745
G1 X65.397 Y41.584 E6.85238
G1 X66.930 Y40.835 E6.93733
G1 X68.377 Y40.182 E7.01638
G1 X69.953 Y39.527 E7.10132
G1 X71.659 Y38.882 E7.19216
G1 X73.161 Y38.368 E7.27120
G1 X74.792 Y37.865 E7.35616
G1 X76.437 Y37.413 E7.44110
G1 X78.065 Y37.020 E7.52450
G1 X79.882 Y36.643 E7.61687
G1 X81.446 Y36.370 E7.69592
G1 X83.135 Y36.127 E7.78087
G1 X84.948 Y35.927 E7.87172
G1 X86.531 Y35.803 E7.95077
G1 X88.235 Y35.720 E8.03569
G1 X90.090 Y35.692 E8.12808
G1 X91.765 Y35.720 E8.21149 F600.000
G1 X93.351 Y35.795 E8.29054
G1 X95.170 Y35.938 E8.38138
G1 X96.748 Y36.113 E8.46042
G1 X98.437 Y36.351 E8.54536
G1 X100.118 Y36.643 E8.63031
G1 X101.905 Y37.013 E8.72114
G1 X103.449 Y37.383 E8.80020
G1 X105.065 Y37.823 E8.88360
G1 X106.726 Y38.331 E8.97007
G1 X108.452 Y38.922 E9.06093
G1 X110.047 Y39.527 E9.14586
G1 X111.514 Y40.135 E9.22491
G1 X113.070 Y40.835 E9.30985
G1 X114.708 Y41.638 E9.40069
G1 X116.111 Y42.381 E9.47974
G1 X117.594 Y43.225 E9.56470
G1 X119.150 Y44.178 E9.65554
G1 X120.477 Y45.049 E9.73458
G1 X121.849 Y46.011 E9.81799
G1 X123.239 Y47.052 E9.90447
G1 X124.663 Y48.193 E9.99531
G1 X125.959 Y49.302 E10.08024
G1 X127.133 Y50.370 E10.15929
G1 X128.360 Y51.556 E10.24423
G1 X129.630 Y52.867 E10.33508
G1 X130.698 Y54.041 E10.41414
G1 X131.807 Y55.337 E10.49907
G1 X132.948 Y56.761 E10.58990
G1 X133.989 Y58.151 E10.67637
G1 X134.951 Y59.523 E10.75979
G1 X135.822 Y60.850 E10.83884
G1 X136.776 Y62.406 E10.92968
G1 X137.562 Y63.785 E11.00873
G1 X138.362 Y65.292 E11.09368
G1 X139.165 Y66.930 E11.18452
G1 X139.865 Y68.486 E11.26946
G1 X140.516 Y70.062 E11.35437
G1 X141.078 Y71.548 E11.43345
G1 X141.669 Y73.274 E11.52430
G1 X142.177 Y74.935 E11.61077
G1 X142.617 Y76.551 E11.69417
G1 X142.987 Y78.095 E11.77322
G1 X143.357 Y79.882 E11.86406
G1 X143.649 Y81.563 E11.94901
G1 X143.887 Y83.251 E12.03391
G1 X144.062 Y84.830 E12.11300
G1 X144.205 Y86.649 E12.20383
G1 X144.280 Y88.235 E12.28288
G1 X144.308 Y89.941 E12.36783
G1 X144.280 Y91.765 E12.45868
G1 X144.197 Y93.469 E12.54360
G1 X144.073 Y95.052 E12.62265
G1 X143.887 Y96.749 E12.70765
G1 X143.630 Y98.554 E12.79845
G1 X143.357 Y100.118 E12.87750
G1 X143.020 Y101.759 E12.96089
G1 X142.617 Y103.449 E13.04738
G1 X142.136 Y105.208 E13.13819
G1 X141.632 Y106.838 E13.22316
G1 X141.118 Y108.341 E13.30222
G1 X140.473 Y110.047 E13.39303
G1 X139.865 Y111.514 E13.47210
G1 X139.165 Y113.070 E13.55704
G1 X138.416 Y114.603 E13.64200
G1 X137.562 Y116.215 E13.73283
G1 X136.775 Y117.594 E13.81188
G1 X135.902 Y119.023 E13.89528
G1 X134.951 Y120.477 E13.98177
G1 X133.901 Y121.970 E14.07261
G1 X132.948 Y123.239 E14.15166
G1 X131.883 Y124.572 E14.23659
G1 X130.698 Y125.959 E14.32741
G1 X129.549 Y127.220 E14.41237
G1 X128.360 Y128.444 E14.49733
G1 X127.133 Y129.630 E14.58227
G1 X125.959 Y130.698 E14.66133
G1 X124.572 Y131.883 E14.75215
G1 X123.239 Y132.948 E14.83709
G1 X121.970 Y133.901 E14.91613
G1 X120.575 Y134.884 E15.00109
G1 X119.050 Y135.886 E15.09192
G1 X117.594 Y136.775 E15.17686
G1 X116.215 Y137.562 E15.25592
G1 X114.603 Y138.416 E15.34675
G1 X113.070 Y139.165 E15.43171
G1 X111.623 Y139.818 E15.51075
G1 X110.047 Y140.473 E15.59572
G1 X108.341 Y141.118 E15.68653
G1 X106.726 Y141.669 E15.77149
G1 X105.208 Y142.136 E15.85056
G1 X103.563 Y142.587 E15.93547
G1 X101.789 Y143.013 E16.02630
G1 X100.235 Y143.335 E16.10536
G1 X98.554 Y143.630 E16.19029
G1 X96.749 Y143.887 E16.28110
G1 X95.052 Y144.073 E16.36609
G1 X93.469 Y144.197 E16.44515
G1 X91.765 Y144.280 E16.53007
G1 X90.059 Y144.308 E16.61502
G1 X88.235 Y144.280 E16.70587
G1 X86.531 Y144.197 E16.79079
G1 X84.948 Y144.073 E16.86984
G1 X83.135 Y143.873 E16.96065
G1 X81.446 Y143.630 E17.04564
G1 X79.882 Y143.357 E17.12469
G1 X78.211 Y143.013 E17.20964
G1 X76.437 Y142.587 E17.30046
G1 X74.792 Y142.136 E17.38538
G1 X73.274 Y141.669 E17.46445
G1 X71.659 Y141.118 E17.54941
G1 X69.953 Y140.473 E17.64022
G1 X68.486 Y139.865 E17.71929
G1 X66.930 Y139.165 E17.80423
G1 X65.397 Y138.416 E17.88918
G1 X63.785 Y137.562 E17.98002
G1 X62.406 Y136.776 E18.05906
G1 X60.976 Y135.902 E18.14248
G1 X59.523 Y134.951 E18.22895
G1 X58.030 Y133.902 E18.31979
G1 X56.761 Y132.948 E18.39885
G1 X55.428 Y131.883 E18.48379
G1 X54.041 Y130.698 E18.57460
G1 X52.867 Y129.630 E18.65367
G1 X51.640 Y128.444 E18.73861
G1 X50.451 Y127.220 E18.82356
G1 X49.302 Y125.959 E18.90851
G1 X48.117 Y124.572 E18.99934
G1 X47.124 Y123.333 E19.07839
G1 X46.099 Y121.970 E19.16332
G1 X45.049 Y120.477 E19.25417
G1 X44.114 Y119.050 E19.33911
G1 X43.225 Y117.594 E19.42404
G1 X42.438 Y116.215 E19.50311
G1 X41.584 Y114.603 E19.59394
G1 X40.886 Y113.177 E19.67298
G1 X40.182 Y111.623 E19.75794
G1 X39.484 Y109.937 E19.84877
G1 X38.922 Y108.452 E19.92782
G1 X38.368 Y106.839 E20.01277
G1 X37.865 Y105.208 E20.09772
G1 X37.383 Y103.449 E20.18855
G1 X37.013 Y101.905 E20.26761
G1 X36.665 Y100.235 E20.35254
G1 X36.351 Y98.437 E20.44339
G1 X36.127 Y96.865 E20.52244
G1 X35.938 Y95.170 E20.60737
G1 X35.803 Y93.469 E20.69233
G1 X35.717 Y91.647 E20.78316
G1 X35.692 Y90.059 E20.86222
G1 X35.717 Y88.353 E20.94715
G1 X35.795 Y86.649 E21.03210
G1 X35.938 Y84.830 E21.12294
G1 X36.113 Y83.252 E21.20198
G1 X36.351 Y81.563 E21.28692
G1 X36.643 Y79.882 E21.37188
G1 X37.013 Y78.095 E21.46270
G1 X37.383 Y76.551 E21.54176
G1 X37.823 Y74.935 E21.62516
G1 X38.331 Y73.274 E21.71164
G1 X38.922 Y71.548 E21.80249
G1 X39.484 Y70.063 E21.88154
G1 X40.135 Y68.486 E21.96648
G1 X40.835 Y66.930 E22.05142
G1 X41.584 Y65.397 E22.13637
G1 X42.438 Y63.785 E22.22721
G1 X43.224 Y62.406 E22.30625
G1 X44.114 Y60.950 E22.39121
G1 X45.116 Y59.425 E22.48203
G1 X46.099 Y58.030 E22.56699
G1 X47.052 Y56.761 E22.64604
G1 X48.117 Y55.428 E22.73097
G1 X49.302 Y54.041 E22.82181
G1 X50.370 Y52.867 E22.90086
G1 X51.556 Y51.641 E22.98576
G1 X51.871 Y51.871 F9000.000
G1 X53.049 Y50.728 E23.06746 F600.000
G1 X54.300 Y49.587 E23.15180
G1 X55.669 Y48.418 E23.24143
G1 X56.992 Y47.360 E23.32576
G1 X58.262 Y46.407 E23.40481
G1 X59.735 Y45.372 E23.49445
G1 X61.151 Y44.443 E23.57878
G1 X62.505 Y43.613 E23.65785
G1 X64.069 Y42.721 E23.74748
G1 X65.567 Y41.930 E23.83181
G1 X67.089 Y41.187 E23.91616
G1 X68.536 Y40.533 E23.99521
G1 X70.100 Y39.884 E24.07955
G1 X71.784 Y39.247 E24.16918
G1 X73.286 Y38.733 E24.24822
G1 X74.905 Y38.233 E24.33257
G1 X76.539 Y37.785 E24.41691
G1 X78.155 Y37.395 E24.49970
G1 X79.948 Y37.022 E24.59088
G1 X81.512 Y36.749 E24.66992
G1 X83.189 Y36.509 E24.75427
G1 X84.979 Y36.312 E24.84391
G1 X86.561 Y36.187 E24.92296
G1 X88.253 Y36.106 E25.00728
G1 X90.084 Y36.078 E25.09846
G1 X91.747 Y36.106 E25.18127 F600.000
G1 X93.333 Y36.180 E25.26032
G1 X95.128 Y36.322 E25.34995
G1 X96.706 Y36.496 E25.42900
G1 X98.383 Y36.733 E25.51333
G1 X100.052 Y37.022 E25.59768
G1 X101.815 Y37.387 E25.68730
G1 X103.359 Y37.758 E25.76636
G1 X104.993 Y38.204 E25.85070
G1 X106.714 Y38.733 E25.94034
G1 X108.316 Y39.283 E26.02468
G1 X109.900 Y39.883 E26.10901
G1 X111.366 Y40.491 E26.18806
G1 X112.911 Y41.187 E26.27240
G1 X114.528 Y41.979 E26.36203
G1 X115.931 Y42.721 E26.44108
G1 X117.403 Y43.560 E26.52544
G1 X118.938 Y44.500 E26.61506
G1 X120.265 Y45.372 E26.69411
G1 X121.627 Y46.326 E26.77690
G1 X123.008 Y47.360 E26.86280
G1 X124.413 Y48.486 E26.95242
G1 X125.700 Y49.587 E27.03676
G1 X126.874 Y50.656 E27.11581
G1 X128.091 Y51.833 E27.20014
G1 X129.344 Y53.126 E27.28978
G1 X130.413 Y54.301 E27.36885
G1 X131.514 Y55.587 E27.45317
G1 X132.640 Y56.992 E27.54280
G1 X133.673 Y58.373 E27.62867
G1 X134.628 Y59.735 E27.71148
G1 X135.500 Y61.062 E27.79053
G1 X136.441 Y62.597 E27.88017
G1 X137.227 Y63.976 E27.95921
G1 X138.021 Y65.472 E28.04356
G1 X138.813 Y67.089 E28.13319
G1 X139.509 Y68.634 E28.21753
G1 X140.155 Y70.199 E28.30185
G1 X140.717 Y71.684 E28.38091
G1 X141.300 Y73.388 E28.47056
G1 X141.805 Y75.037 E28.55643
G1 X142.242 Y76.641 E28.63923
G1 X142.612 Y78.185 E28.71828
G1 X142.978 Y79.948 E28.80791
G1 X143.267 Y81.617 E28.89226
G1 X143.504 Y83.294 E28.97656
G1 X143.678 Y84.872 E29.05564
G1 X143.820 Y86.667 E29.14527
G1 X143.894 Y88.253 E29.22432
G1 X143.923 Y89.947 E29.30867
G1 X143.894 Y91.747 E29.39831
G1 X143.813 Y93.439 E29.48262
G1 X143.688 Y95.021 E29.56168
G1 X143.504 Y96.706 E29.64607
G1 X143.251 Y98.488 E29.73567
G1 X142.978 Y100.052 E29.81471
G1 X142.642 Y101.681 E29.89751
G1 X142.242 Y103.359 E29.98339
G1 X141.767 Y105.094 E30.07300
G1 X141.267 Y106.714 E30.15736
G1 X140.753 Y108.216 E30.23642
G1 X140.117 Y109.899 E30.32603
G1 X139.509 Y111.367 E30.40509
G1 X138.813 Y112.911 E30.48943
G1 X138.070 Y114.433 E30.57378
G1 X137.227 Y116.024 E30.66341
G1 X136.441 Y117.403 E30.74247
G1 X135.573 Y118.822 E30.82526
G1 X134.628 Y120.265 E30.91114
G1 X133.593 Y121.738 E31.00078
G1 X132.640 Y123.008 E31.07983
G1 X131.582 Y124.331 E31.16416
G1 X130.413 Y125.699 E31.25378
G1 X129.272 Y126.951 E31.33813
G1 X128.091 Y128.167 E31.42248
G1 X126.951 Y129.272 E31.50153
G1 X125.699 Y130.413 E31.58588
G1 X124.331 Y131.582 E31.67550
G1 X123.092 Y132.575 E31.75454
G1 X121.738 Y133.593 E31.83888
G1 X120.353 Y134.569 E31.92323
G1 X118.848 Y135.557 E32.01285
G1 X117.403 Y136.441 E32.09719
G1 X116.024 Y137.227 E32.17625
G1 X114.433 Y138.070 E32.26587
G1 X112.911 Y138.813 E32.35023
G1 X111.464 Y139.467 E32.42927
G1 X109.899 Y140.117 E32.51363
G1 X108.216 Y140.753 E32.60324
G1 X106.612 Y141.300 E32.68759
G1 X105.094 Y141.767 E32.76666
G1 X103.461 Y142.215 E32.85098
G1 X101.711 Y142.636 E32.94060
G1 X100.156 Y142.958 E33.01965
G1 X98.488 Y143.251 E33.10399
G1 X96.706 Y143.504 E33.19359
G1 X95.021 Y143.688 E33.27798
G1 X93.439 Y143.813 E33.35703
G1 X91.747 Y143.894 E33.44135
G1 X90.053 Y143.923 E33.52570
G1 X88.253 Y143.894 E33.61534
G1 X86.561 Y143.813 E33.69966
G1 X84.979 Y143.688 E33.77871
G1 X83.190 Y143.491 E33.86832
G1 X81.512 Y143.251 E33.95270
G1 X79.844 Y142.958 E34.03704
G1 X78.289 Y142.636 E34.11609
G1 X76.539 Y142.215 E34.20571
G1 X74.905 Y141.767 E34.29004
G1 X73.388 Y141.300 E34.36910
G1 X71.784 Y140.753 E34.45345
G1 X70.101 Y140.117 E34.54307
G1 X68.634 Y139.509 E34.62213
G1 X67.089 Y138.813 E34.70647
G1 X65.567 Y138.070 E34.79082
G1 X63.976 Y137.227 E34.88045
G1 X62.597 Y136.441 E34.95949
G1 X61.178 Y135.573 E35.04231
G1 X59.735 Y134.628 E35.12817
G1 X58.262 Y133.593 E35.21781
G1 X56.908 Y132.575 E35.30215
G1 X55.669 Y131.582 E35.38120
G1 X54.301 Y130.413 E35.47081
G1 X53.126 Y129.344 E35.54987
G1 X51.909 Y128.167 E35.63421
G1 X50.728 Y126.951 E35.71856
G1 X49.587 Y125.700 E35.80290
G1 X48.418 Y124.331 E35.89253
G1 X47.425 Y123.092 E35.97158
G1 X46.407 Y121.738 E36.05591
G1 X45.372 Y120.265 E36.14555
G1 X44.443 Y118.848 E36.22989
G1 X43.560 Y117.403 E36.31422
G1 X42.773 Y116.024 E36.39328
G1 X41.930 Y114.433 E36.48291
G1 X41.232 Y113.007 E36.56195
G1 X40.533 Y111.464 E36.64631
G1 X39.844 Y109.801 E36.73594
G1 X39.247 Y108.216 E36.82028
G1 X38.733 Y106.714 E36.89932
G1 X38.233 Y105.095 E36.98367
G1 X37.758 Y103.359 E37.07330
G1 X37.358 Y101.681 E37.15917
G1 X37.022 Y100.052 E37.24198
G1 X36.749 Y98.488 E37.32102
G1 X36.509 Y96.811 E37.40537
G1 X36.312 Y95.021 E37.49501
G1 X36.187 Y93.439 E37.57406
G1 X36.106 Y91.747 E37.65838
G1 X36.077 Y90.053 E37.74274
G1 X36.106 Y88.253 E37.83238
G1 X36.180 Y86.667 E37.91142
G1 X36.312 Y84.979 E37.99575
G1 X36.509 Y83.189 E38.08539
G1 X36.749 Y81.512 E38.16974
G1 X37.022 Y79.948 E38.24878
G1 X37.364 Y78.289 E38.33313
G1 X37.785 Y76.539 E38.42275
G1 X38.204 Y75.007 E38.50181
G1 X38.700 Y73.388 E38.58613
G1 X39.247 Y71.784 E38.67048
G1 X39.884 Y70.100 E38.76012
G1 X40.491 Y68.634 E38.83916
G1 X41.187 Y67.089 E38.92350
G1 X41.979 Y65.472 E39.01313
G1 X42.773 Y63.976 E39.09748
G1 X43.559 Y62.597 E39.17652
G1 X44.443 Y61.151 E39.26088
G1 X45.431 Y59.647 E39.35050
G1 X46.407 Y58.262 E39.43485
G1 X47.360 Y56.992 E39.51390
G1 X48.418 Y55.669 E39.59823
G1 X49.587 Y54.300 E39.68786
G1 X50.656 Y53.126 E39.76691
G1 X51.829 Y51.913 E39.85091
G1 E33.85091 F1800.00000
G92 E0
G1 X60.492 Y61.383 F9000.000
G1 E6.00000 F1800.00000
G1 X60.930 Y60.930 E6.03138 F600.000
G1 X61.858 Y60.032 E6.09568
G1 X62.813 Y59.162 E6.15998
G1 X63.795 Y58.324 E6.22428
G1 X64.803 Y57.516 E6.28859
G1 X65.836 Y56.741 E6.35289
G1 X66.892 Y55.998 E6.41719
G1 X67.972 Y55.289 E6.48149
G1 X69.073 Y54.614 E6.54579
G1 X70.195 Y53.974 E6.61009
G1 X71.336 Y53.370 E6.67439
G1 X72.496 Y52.802 E6.73869
G1 X73.673 Y52.270 E6.80300
G1 X74.866 Y51.776 E6.86730
G1 X76.074 Y51.320 E6.93160
G1 X77.296 Y50.901 E6.99590
G1 X78.531 Y50.522 E7.06020
G1 X79.776 Y50.181 E7.12450
G1 X81.032 Y49.879 E7.18880
G1 X82.297 Y49.618 E7.25310
G1 X83.569 Y49.395 E7.31741
G1 X84.847 Y49.214 E7.38171
G1 X86.131 Y49.072 E7.44601
G1 X87.419 Y48.970 E7.51031
G1 X88.709 Y48.910 E7.57461
G1 X89.989 Y48.889 E7.63838 F600.000
G1 X91.291 Y48.910 E7.70321
G1 X92.581 Y48.970 E7.76752
G1 X93.869 Y49.072 E7.83182
G1 X95.153 Y49.214 E7.89612
G1 X96.431 Y49.395 E7.96042
G1 X97.703 Y49.618 E8.02472
G1 X98.968 Y49.879 E8.08902
G1 X100.224 Y50.181 E8.15332
G1 X101.469 Y50.522 E8.21762
G1 X102.704 Y50.901 E8.28193
G1 X103.926 Y51.320 E8.34623
G1 X105.134 Y51.776 E8.41053
G1 X106.327 Y52.270 E8.47483
G1 X107.504 Y52.802 E8.53913
G1 X108.664 Y53.370 E8.60343
G1 X109.805 Y53.974 E8.66773
G1 X110.927 Y54.614 E8.73204
G1 X112.028 Y55.289 E8.79634
G1 X113.108 Y55.998 E8.86064
G1 X114.164 Y56.741 E8.92494
G1 X115.197 Y57.516 E8.98924
G1 X116.205 Y58.324 E9.05354
G1 X117.187 Y59.162 E9.11784
G1 X118.134 Y60.024 E9.18162
G1 X119.070 Y60.930 E9.24645
G1 X119.976 Y61.866 E9.31128
G1 X120.838 Y62.813 E9.37505
G1 X121.676 Y63.795 E9.43935
G1 X122.484 Y64.803 E9.50366
G1 X123.259 Y65.836 E9.56795
G1 X124.002 Y66.892 E9.63226
G1 X124.711 Y67.972 E9.69656
G1 X125.386 Y69.073 E9.76086
G1 X126.026 Y70.195 E9.82516
G1 X126.630 Y71.336 E9.88946
G1 X127.198 Y72.496 E9.95376
G1 X127.730 Y73.673 E10.01807
G1 X128.224 Y74.866 E10.08237
G1 X128.680 Y76.074 E10.14667
G1 X129.099 Y77.296 E10.21097
G1 X129.478 Y78.531 E10.27527
G1 X129.819 Y79.776 E10.33958
G1 X130.123 Y81.042 E10.40440
G1 X130.382 Y82.297 E10.46817
G1 X130.605 Y83.569 E10.53247
G1 X130.786 Y84.847 E10.59678
G1 X130.928 Y86.131 E10.66108
G1 X131.030 Y87.419 E10.72538
G1 X131.090 Y88.709 E10.78968
G1 X131.111 Y90.000 E10.85398
G1 X131.090 Y91.291 E10.91828
G1 X131.030 Y92.581 E10.98258
G1 X130.928 Y93.869 E11.04689
G1 X130.786 Y95.153 E11.11119
G1 X130.605 Y96.431 E11.17549
G1 X130.382 Y97.703 E11.23979
G1 X130.121 Y98.968 E11.30409
G1 X129.819 Y100.224 E11.36839
G1 X129.478 Y101.469 E11.43269
G1 X129.099 Y102.704 E11.49700
G1 X128.680 Y103.926 E11.56130
G1 X128.224 Y105.134 E11.62560
G1 X127.730 Y106.327 E11.68990
G1 X127.198 Y107.504 E11.75420
G1 X126.630 Y108.664 E11.81850
G1 X126.026 Y109.805 E11.88281
G1 X125.380 Y110.936 E11.94764
G1 X124.711 Y112.028 E12.01141
G1 X124.002 Y113.108 E12.07571
G1 X123.259 Y114.164 E12.14001
G1 X122.484 Y115.197 E12.20431
G1 X121.676 Y116.205 E12.26861
G1 X120.838 Y117.187 E12.33291
