; generated by Slic3r 1.2.9 on 2017-03-06 at 17:15:54

; external perimeters extrusion width = 0.40mm
; perimeters extrusion width = 0.56mm
; infill extrusion width = 0.38mm
; solid infill extrusion width = 0.56mm
; top infill extrusion width = 0.22mm

M106 S256; Turn on fan to 100% power
M104 S140; turn on extruder temperature at S value
M140 S60; turn on bed temperature at S value
G28; home all axes
M84; disable motors
G1 Z15 F15000; have Z move to 20mm at 15000 mm/min
M190 S55; turn on bed temperature at S value and wait
M140 S55; turn on bed temperature at S value (printing temperature)
M109 S200; turn on extruder temperature at S value and wait (printing temperature)
M104 S200; turn on extruder temperature at S value
G1 Z0 F12000; move Z back to home
G21 ; set units to millimeters
G90 ; use absolute coordinates
M82 ; use absolute distances for extrusion
G92 E0
M106 S255
;Layer change
G1 E-6.00000 F1800.00000
G92 E0
G1 Z0.300 F9000.000
G1 X50.797 Y50.797 F9000.000
G1 E6.00000 F1800.00000
G1 X52.005 Y49.626 E6.08377 F600.000
G1 X53.292 Y48.452 E6.17048
G1 X54.706 Y47.244 E6.26310
G1 X55.973 Y46.229 E6.34392
G1 X57.365 Y45.182 E6.43063
G1 X58.887 Y44.113 E6.52324
G1 X60.243 Y43.222 E6.60406
G1 X61.727 Y42.310 E6.69078
G1 X63.343 Y41.388 E6.78339
G1 X64.778 Y40.629 E6.86420
G1 X66.341 Y39.861 E6.95092
G1 X67.928 Y39.142 E7.03764
G1 X69.536 Y38.474 E7.12435
G1 X71.276 Y37.817 E7.21696
G1 X72.812 Y37.291 E7.29778
G1 X74.476 Y36.777 E7.38449
G1 X76.155 Y36.316 E7.47121
G1 X77.848 Y35.907 E7.55792
G1 X79.670 Y35.530 E7.65053
G1 X81.269 Y35.251 E7.73135
G1 X82.993 Y35.004 E7.81807
G1 X84.841 Y34.800 E7.91068
G1 X86.460 Y34.672 E7.99150
G1 X88.199 Y34.588 E8.07822
G1 X89.941 Y34.559 E8.16492
G1 X91.599 Y34.583 E8.24750
G1 X93.422 Y34.665 E8.33835 F600.000
G1 X95.276 Y34.811 E8.43097
G1 X96.890 Y34.989 E8.51179
G1 X98.532 Y35.221 E8.59436
G1 X100.330 Y35.530 E8.68522
G1 X102.152 Y35.907 E8.77783
G1 X103.730 Y36.286 E8.85864
G1 X105.411 Y36.744 E8.94536
G1 X107.188 Y37.291 E9.03797
G1 X108.836 Y37.857 E9.12468
G1 X110.464 Y38.474 E9.21141
G1 X112.072 Y39.142 E9.29811
G1 X113.552 Y39.810 E9.37893
G1 X115.222 Y40.629 E9.47155
G1 X116.657 Y41.388 E9.55237
G1 X118.171 Y42.250 E9.63909
G1 X119.657 Y43.158 E9.72580
G1 X121.211 Y44.179 E9.81841
G1 X122.635 Y45.182 E9.90512
G1 X123.933 Y46.157 E9.98594
G1 X125.385 Y47.320 E10.07856
G1 X126.708 Y48.452 E10.16527
G1 X127.909 Y49.545 E10.24609
G1 X129.161 Y50.756 E10.33280
G1 X130.455 Y52.091 E10.42542
G1 X131.548 Y53.292 E10.50623
G1 X132.680 Y54.615 E10.59295
G1 X133.843 Y56.067 E10.68556
G1 X134.818 Y57.365 E10.76638
G1 X135.821 Y58.789 E10.85309
G1 X136.778 Y60.243 E10.93981
G1 X137.750 Y61.829 E11.03241
G1 X138.612 Y63.343 E11.11914
G1 X139.425 Y64.883 E11.20585
G1 X140.139 Y66.341 E11.28667
G1 X140.904 Y68.036 E11.37927
G1 X141.569 Y69.646 E11.46600
G1 X142.143 Y71.165 E11.54682
G1 X142.746 Y72.924 E11.63942
G1 X143.256 Y74.589 E11.72615
G1 X143.684 Y76.155 E11.80696
G1 X144.093 Y77.848 E11.89368
G1 X144.470 Y79.670 E11.98629
G1 X144.767 Y81.385 E12.07299
G1 X144.996 Y82.993 E12.15382
G1 X145.200 Y84.841 E12.24643
G1 X145.335 Y86.578 E12.33316
G1 X145.412 Y88.200 E12.41397
G1 X145.441 Y89.941 E12.50068
G1 X145.415 Y91.682 E12.58740
G1 X145.328 Y93.540 E12.68001
G1 X145.189 Y95.276 E12.76673
G1 X144.996 Y97.007 E12.85344
G1 X144.767 Y98.615 E12.93427
G1 X144.448 Y100.447 E13.02687
G1 X144.093 Y102.152 E13.11358
G1 X143.714 Y103.730 E13.19440
G1 X143.256 Y105.410 E13.28111
G1 X142.709 Y107.189 E13.37374
G1 X142.183 Y108.724 E13.45455
G1 X141.569 Y110.354 E13.54126
G1 X140.904 Y111.964 E13.62799
G1 X140.139 Y113.659 E13.72059
G1 X139.425 Y115.117 E13.80142
G1 X138.612 Y116.657 E13.88812
G1 X137.690 Y118.273 E13.98073
G1 X136.842 Y119.657 E14.06156
G1 X135.887 Y121.113 E14.14826
G1 X134.818 Y122.635 E14.24087
G1 X133.771 Y124.027 E14.32759
G1 X132.680 Y125.385 E14.41432
G1 X131.548 Y126.708 E14.50103
G1 X130.455 Y127.909 E14.58184
G1 X129.161 Y129.244 E14.67446
G1 X127.995 Y130.374 E14.75528
G1 X126.708 Y131.548 E14.84199
G1 X125.294 Y132.756 E14.93460
G1 X124.027 Y133.771 E15.01542
G1 X122.702 Y134.768 E15.09799
G1 X121.211 Y135.821 E15.18885
G1 X119.657 Y136.842 E15.28146
G1 X118.171 Y137.750 E15.36816
G1 X116.761 Y138.555 E15.44899
G1 X115.117 Y139.425 E15.54160
G1 X113.552 Y140.190 E15.62833
G1 X112.072 Y140.858 E15.70915
G1 X110.464 Y141.526 E15.79585
G1 X108.835 Y142.143 E15.88258
G1 X107.076 Y142.746 E15.97518
G1 X105.411 Y143.256 E16.06190
G1 X103.845 Y143.684 E16.14272
G1 X102.152 Y144.093 E16.22944
G1 X100.330 Y144.470 E16.32204
G1 X98.532 Y144.779 E16.41289
G1 X96.890 Y145.011 E16.49547
G1 X95.276 Y145.189 E16.57629
G1 X93.422 Y145.335 E16.66891
G1 X91.800 Y145.412 E16.74973
G1 X90.059 Y145.441 E16.83643
G1 X88.200 Y145.412 E16.92904
G1 X86.460 Y145.328 E17.01576
G1 X84.841 Y145.200 E17.09658
G1 X83.110 Y145.011 E17.18330
G1 X81.385 Y144.767 E17.27002
G1 X79.553 Y144.448 E17.36262
G1 X77.848 Y144.093 E17.44933
G1 X76.270 Y143.714 E17.53015
G1 X74.476 Y143.223 E17.62277
G1 X72.811 Y142.709 E17.70949
G1 X71.276 Y142.183 E17.79031
G1 X69.646 Y141.569 E17.87701
G1 X67.928 Y140.858 E17.96962
G1 X66.341 Y140.139 E18.05634
G1 X64.883 Y139.425 E18.13717
G1 X63.239 Y138.555 E18.22977
G1 X61.829 Y137.750 E18.31061
G1 X60.414 Y136.885 E18.39316
G1 X58.887 Y135.887 E18.48401
G1 X57.365 Y134.818 E18.57663
G1 X55.973 Y133.771 E18.66334
G1 X54.706 Y132.756 E18.74416
G1 X53.381 Y131.626 E18.83088
G1 X52.005 Y130.374 E18.92349
G1 X50.839 Y129.244 E19.00431
G1 X49.626 Y127.995 E19.09102
G1 X48.452 Y126.708 E19.17774
G1 X47.244 Y125.294 E19.27036
G1 X46.157 Y123.933 E19.35707
G1 X45.182 Y122.635 E19.43789
G1 X44.113 Y121.113 E19.53050
G1 X43.158 Y119.657 E19.61721
G1 X42.310 Y118.273 E19.69803
G1 X41.445 Y116.761 E19.78475
G1 X40.629 Y115.222 E19.87146
G1 X39.810 Y113.552 E19.96408
G1 X39.142 Y112.072 E20.04490
G1 X38.474 Y110.464 E20.13160
G1 X37.857 Y108.836 E20.21833
G1 X37.254 Y107.076 E20.31093
G1 X36.777 Y105.524 E20.39175
G1 X36.316 Y103.845 E20.47847
G1 X35.881 Y102.036 E20.57108
G1 X35.530 Y100.330 E20.65779
G1 X35.251 Y98.731 E20.73861
G1 X35.004 Y97.007 E20.82533
G1 X34.800 Y95.159 E20.91794
G1 X34.665 Y93.422 E21.00466
G1 X34.585 Y91.682 E21.09136
G1 X34.559 Y90.059 E21.17218
G1 X34.588 Y88.199 E21.26479
G1 X34.672 Y86.460 E21.35151
G1 X34.800 Y84.841 E21.43234
G1 X35.004 Y82.993 E21.52495
G1 X35.251 Y81.269 E21.61166
G1 X35.530 Y79.670 E21.69248
G1 X35.881 Y77.964 E21.77919
G1 X36.316 Y76.155 E21.87180
G1 X36.777 Y74.476 E21.95852
G1 X37.291 Y72.812 E22.04524
G1 X37.817 Y71.276 E22.12606
G1 X38.474 Y69.536 E22.21867
G1 X39.096 Y68.036 E22.29949
G1 X39.810 Y66.448 E22.38620
G1 X40.629 Y64.778 E22.47881
G1 X41.388 Y63.343 E22.55963
G1 X42.208 Y61.902 E22.64220
G1 X43.158 Y60.343 E22.73306
G1 X44.179 Y58.789 E22.82567
G1 X45.232 Y57.298 E22.91653
G1 X46.229 Y55.973 E22.99909
G1 X47.244 Y54.706 E23.07991
G1 X48.452 Y53.292 E23.17253
G1 X49.545 Y52.091 E23.25334
G1 X50.755 Y50.840 E23.34002
G1 X51.070 Y51.070 F9000.000
G1 X52.273 Y49.903 E23.42349 F600.000
G1 X53.551 Y48.738 E23.50960
G1 X54.947 Y47.545 E23.60101
G1 X56.214 Y46.530 E23.68183
G1 X57.596 Y45.491 E23.76794
G1 X59.098 Y44.435 E23.85935
G1 X60.455 Y43.544 E23.94016
G1 X61.929 Y42.639 E24.02628
G1 X63.524 Y41.729 E24.11768
G1 X64.958 Y40.970 E24.19850
G1 X66.511 Y40.207 E24.28461
G1 X68.086 Y39.494 E24.37073
G1 X69.683 Y38.831 E24.45683
G1 X71.401 Y38.182 E24.54823
G1 X72.936 Y37.656 E24.62906
G1 X74.589 Y37.146 E24.71517
G1 X76.257 Y36.688 E24.80128
G1 X77.938 Y36.282 E24.88739
G1 X79.736 Y35.910 E24.97879
G1 X81.335 Y35.631 E25.05962
G1 X83.047 Y35.386 E25.14573
G1 X84.872 Y35.184 E25.23713
G1 X86.490 Y35.057 E25.31796
G1 X88.218 Y34.974 E25.40407
G1 X89.947 Y34.945 E25.49017
G1 X91.593 Y34.969 E25.57215
G1 X93.404 Y35.050 E25.66239 F600.000
G1 X95.234 Y35.194 E25.75381
G1 X96.848 Y35.372 E25.83463
G1 X98.478 Y35.603 E25.91659
G1 X100.264 Y35.910 E26.00685
G1 X102.062 Y36.282 E26.09825
G1 X103.640 Y36.661 E26.17907
G1 X105.309 Y37.116 E26.26518
G1 X107.064 Y37.656 E26.35659
G1 X108.699 Y38.218 E26.44270
G1 X110.218 Y38.791 E26.52352
G1 X111.816 Y39.452 E26.60964
G1 X113.489 Y40.207 E26.70104
G1 X114.947 Y40.921 E26.78186
G1 X116.476 Y41.729 E26.86796
G1 X117.980 Y42.585 E26.95408
G1 X119.455 Y43.487 E27.04019
G1 X120.990 Y44.495 E27.13160
G1 X122.404 Y45.491 E27.21770
G1 X123.702 Y46.465 E27.29853
G1 X125.135 Y47.613 E27.38994
G1 X126.369 Y48.667 E27.47076
G1 X127.649 Y49.830 E27.55686
G1 X128.892 Y51.033 E27.64298
G1 X130.170 Y52.351 E27.73438
G1 X131.262 Y53.551 E27.81520
G1 X132.387 Y54.865 E27.90131
G1 X133.535 Y56.298 E27.99272
G1 X134.509 Y57.596 E28.07354
G1 X135.505 Y59.010 E28.15965
G1 X136.456 Y60.455 E28.24576
G1 X137.415 Y62.020 E28.33715
G1 X138.271 Y63.524 E28.42328
G1 X139.030 Y64.958 E28.50410
G1 X139.793 Y66.511 E28.59021
G1 X140.548 Y68.184 E28.68161
G1 X141.209 Y69.782 E28.76773
G1 X141.782 Y71.301 E28.84855
G1 X142.344 Y72.936 E28.93465
G1 X142.884 Y74.691 E29.02607
G1 X143.339 Y76.360 E29.11217
G1 X143.718 Y77.938 E29.19300
G1 X144.090 Y79.736 E29.28440
G1 X144.386 Y81.440 E29.37050
G1 X144.614 Y83.047 E29.45133
G1 X144.816 Y84.872 E29.54273
G1 X144.950 Y86.596 E29.62885
G1 X145.026 Y88.218 E29.70967
G1 X145.055 Y89.947 E29.79577
G1 X145.030 Y91.676 E29.88189
G1 X144.943 Y93.510 E29.97330
G1 X144.806 Y95.234 E30.05941
G1 X144.628 Y96.848 E30.14023
G1 X144.369 Y98.665 E30.23163
G1 X144.090 Y100.264 E30.31245
G1 X143.741 Y101.958 E30.39856
G1 X143.312 Y103.743 E30.48996
G1 X142.854 Y105.411 E30.57608
G1 X142.377 Y106.963 E30.65690
G1 X141.818 Y108.599 E30.74301
G1 X141.169 Y110.317 E30.83442
G1 X140.548 Y111.816 E30.91524
G1 X139.838 Y113.393 E31.00134
G1 X139.079 Y114.947 E31.08746
G1 X138.220 Y116.570 E31.17886
G1 X137.361 Y118.071 E31.26497
G1 X136.513 Y119.455 E31.34580
G1 X135.565 Y120.902 E31.43190
G1 X134.509 Y122.404 E31.52330
G1 X133.470 Y123.786 E31.60942
G1 X132.455 Y125.053 E31.69024
G1 X131.262 Y126.449 E31.78165
G1 X130.170 Y127.649 E31.86246
G1 X129.025 Y128.833 E31.94443
G1 X127.727 Y130.097 E32.03469
G1 X126.369 Y131.333 E32.12609
G1 X125.053 Y132.455 E32.21221
G1 X123.786 Y133.470 E32.29303
G1 X122.404 Y134.509 E32.37914
G1 X120.902 Y135.565 E32.47055
G1 X119.384 Y136.557 E32.56079
G1 X117.980 Y137.415 E32.64275
G1 X116.570 Y138.220 E32.72358
G1 X114.947 Y139.079 E32.81498
G1 X113.393 Y139.838 E32.90111
G1 X111.914 Y140.506 E32.98192
G1 X110.317 Y141.169 E33.06802
G1 X108.699 Y141.782 E33.15415
G1 X106.963 Y142.377 E33.24554
G1 X105.309 Y142.884 E33.33167
G1 X103.743 Y143.312 E33.41248
G1 X102.062 Y143.718 E33.49860
G1 X100.264 Y144.090 E33.59000
G1 X98.478 Y144.397 E33.68024
G1 X96.848 Y144.628 E33.76222
G1 X95.234 Y144.806 E33.84303
G1 X93.404 Y144.950 E33.93445
G1 X91.782 Y145.026 E34.01527
G1 X90.053 Y145.055 E34.10137
G1 X88.218 Y145.026 E34.19277
G1 X86.490 Y144.943 E34.27889
G1 X84.766 Y144.806 E34.36501
G1 X83.152 Y144.628 E34.44582
G1 X81.440 Y144.386 E34.53194
G1 X79.631 Y144.070 E34.62334
G1 X77.938 Y143.718 E34.70944
G1 X76.360 Y143.339 E34.79027
G1 X74.589 Y142.854 E34.88167
G1 X72.936 Y142.344 E34.96779
G1 X71.301 Y141.782 E35.05389
G1 X69.782 Y141.209 E35.13471
G1 X68.086 Y140.506 E35.22612
G1 X66.511 Y139.793 E35.31223
G1 X65.053 Y139.079 E35.39306
G1 X63.430 Y138.220 E35.48446
G1 X62.020 Y137.415 E35.56529
G1 X60.616 Y136.557 E35.64724
G1 X59.098 Y135.565 E35.73749
G1 X57.596 Y134.509 E35.82890
G1 X56.214 Y133.470 E35.91501
G1 X54.947 Y132.455 E35.99583
G1 X53.631 Y131.333 E36.08195
G1 X52.273 Y130.097 E36.17335
G1 X51.108 Y128.967 E36.25417
G1 X49.903 Y127.727 E36.34028
G1 X48.738 Y126.449 E36.42640
G1 X47.545 Y125.053 E36.51780
G1 X46.465 Y123.702 E36.60391
G1 X45.491 Y122.404 E36.68474
G1 X44.435 Y120.902 E36.77614
G1 X43.544 Y119.545 E36.85696
G1 X42.639 Y118.071 E36.94307
G1 X41.780 Y116.570 E37.02918
G1 X40.921 Y114.947 E37.12058
G1 X40.162 Y113.393 E37.20670
G1 X39.452 Y111.816 E37.29280
G1 X38.831 Y110.317 E37.37363
G1 X38.218 Y108.699 E37.45974
G1 X37.623 Y106.963 E37.55114
G1 X37.146 Y105.411 E37.63196
G1 X36.688 Y103.743 E37.71808
G1 X36.259 Y101.958 E37.80948
G1 X35.910 Y100.264 E37.89559
G1 X35.631 Y98.665 E37.97641
G1 X35.386 Y96.953 E38.06252
G1 X35.184 Y95.128 E38.15393
G1 X35.050 Y93.404 E38.24005
G1 X34.970 Y91.676 E38.32615
G1 X34.945 Y90.053 E38.40697
G1 X34.974 Y88.218 E38.49837
G1 X35.057 Y86.490 E38.58449
G1 X35.184 Y84.872 E38.66531
G1 X35.372 Y83.152 E38.75142
G1 X35.631 Y81.335 E38.84283
G1 X35.910 Y79.736 E38.92365
G1 X36.259 Y78.042 E39.00975
G1 X36.688 Y76.257 E39.10116
G1 X37.146 Y74.589 E39.18727
G1 X37.623 Y73.037 E39.26810
G1 X38.218 Y71.301 E39.35949
G1 X38.831 Y69.683 E39.44561
G1 X39.452 Y68.184 E39.52644
G1 X40.162 Y66.607 E39.61254
G1 X40.970 Y64.958 E39.70395
G1 X41.729 Y63.524 E39.78476
G1 X42.543 Y62.093 E39.86673
G1 X43.487 Y60.545 E39.95699
G1 X44.495 Y59.010 E40.04839
G1 X45.541 Y57.530 E40.13864
G1 X46.530 Y56.214 E40.22061
G1 X47.545 Y54.947 E40.30143
G1 X48.738 Y53.551 E40.39284
G1 X49.830 Y52.351 E40.47365
G1 X51.028 Y51.113 E40.55943
G1 E34.55943 F1800.00000
G92 E0
G1 X106.089 Y92.636 F9000.000
G1 E6.00000 F1800.00000
G1 X111.322 Y91.713 E6.26456 F600.000
G1 X114.823 Y94.905 E6.50044
G1 X117.938 Y98.082 E6.72201
G1 X120.990 Y115.391 E7.59708
G1 X118.785 Y116.955 E7.73170
G1 X110.859 Y116.475 E8.12708
G1 X105.091 Y97.410 E9.11879
G1 X106.076 Y92.694 E9.35864
G1 X106.413 Y92.970 F9000.000
G1 X111.202 Y92.126 E9.60076 F600.000
G1 X114.555 Y95.182 E9.82667
G1 X117.579 Y98.267 E10.04175
G1 X120.568 Y115.217 E10.89872
G1 X118.673 Y116.562 E11.01443
G1 X111.150 Y116.106 E11.38967
G1 X105.489 Y97.392 E12.36312
G1 X106.401 Y93.029 E12.58507
G1 X106.394 Y92.571 F9000.000
G1 E6.58507 F1800.00000
G92 E0
G1 X119.195 Y94.359 F9000.000
G1 E6.00000 F1800.00000
G1 X119.211 Y94.209 E6.00753 F600.000
G1 X119.351 Y93.777 E6.03015
G1 X119.550 Y93.426 E6.05020
G1 X119.807 Y93.124 E6.07000
G1 X120.117 Y92.874 E6.08980
G1 X120.469 Y92.688 E6.10961
G1 X120.853 Y92.569 E6.12965
G1 X121.303 Y92.525 E6.15214 F600.000
G1 X121.705 Y92.568 E6.17230
G1 X122.091 Y92.686 E6.19236
G1 X122.489 Y92.904 E6.21499
G1 X122.796 Y93.165 E6.23503
G1 X123.048 Y93.479 E6.25508
G1 X123.255 Y93.884 E6.27770
G1 X123.362 Y94.272 E6.29774
G1 X123.394 Y94.673 E6.31779
G1 X123.338 Y95.124 E6.34041
G1 X123.208 Y95.505 E6.36046
G1 X123.012 Y95.851 E6.38026
G1 X122.754 Y96.154 E6.40006
G1 X122.444 Y96.403 E6.41987
G1 X122.093 Y96.590 E6.43967
G1 X121.708 Y96.709 E6.45972
G1 X121.251 Y96.753 E6.48258
G1 X120.796 Y96.696 E6.50544
G1 X120.414 Y96.566 E6.52549
G1 X120.069 Y96.370 E6.54529
G1 X119.766 Y96.112 E6.56510
G1 X119.516 Y95.802 E6.58492
G1 X119.326 Y95.444 E6.60509
G1 X119.200 Y95.010 E6.62758
G1 X119.168 Y94.609 E6.64762
G1 X119.188 Y94.419 E6.65714
G1 X119.578 Y94.401 F9000.000
G1 X119.590 Y94.290 E6.66270 F600.000
G1 X119.705 Y93.933 E6.68139
G1 X119.867 Y93.649 E6.69766
G1 X120.077 Y93.401 E6.71383
G1 X120.331 Y93.198 E6.73000
G1 X120.617 Y93.045 E6.74618
G1 X120.929 Y92.949 E6.76244
G1 X121.301 Y92.913 E6.78100 F600.000
G1 X121.628 Y92.948 E6.79738
G1 X121.940 Y93.043 E6.81365
G1 X122.269 Y93.224 E6.83234
G1 X122.518 Y93.435 E6.84860
G1 X122.723 Y93.690 E6.86487
G1 X122.894 Y94.024 E6.88356
G1 X122.980 Y94.339 E6.89982
G1 X123.007 Y94.664 E6.91608
G1 X122.960 Y95.037 E6.93477
G1 X122.855 Y95.346 E6.95103
G1 X122.695 Y95.629 E6.96721
G1 X122.484 Y95.876 E6.98338
G1 X122.231 Y96.080 E6.99956
G1 X121.944 Y96.232 E7.01573
G1 X121.632 Y96.329 E7.03199
G1 X121.257 Y96.365 E7.05077
G1 X120.882 Y96.318 E7.06954
G1 X120.573 Y96.213 E7.08581
G1 X120.291 Y96.052 E7.10198
G1 X120.043 Y95.842 E7.11816
G1 X119.840 Y95.589 E7.13434
G1 X119.685 Y95.298 E7.15072
G1 X119.581 Y94.940 E7.16929
G1 X119.555 Y94.615 E7.18554
G1 X119.572 Y94.461 E7.19326
G1 X119.488 Y94.335 F9000.000
G1 X113.647 Y89.497 F9000.000
G1 X112.167 Y79.853 E7.67905 F600.000
G1 X113.459 Y75.164 E7.92119
G1 X117.570 Y73.537 E8.14130
G1 X122.444 Y73.826 E8.38443
G1 X124.666 Y81.445 E8.77957
G1 X123.988 Y84.267 E8.92407
G1 X117.448 Y88.827 E9.32102
G1 X113.707 Y89.486 E9.51017
