; generated by Slic3r 1.2.9 on 2018-09-27 at 21:09:45

; external perimeters extrusion width = 0.40mm
; perimeters extrusion width = 0.62mm
; infill extrusion width = 0.33mm
; solid infill extrusion width = 0.62mm
; top infill extrusion width = 0.20mm

M106 S256; Turn on fan to 100% power
M104 S140; turn on extruder temperature at S value
M140 S60; turn on bed temperature at S value
G28; home all axes
M84; disable motors
G1 Z15 F15000; have Z move to 20mm at 15000 mm/min
M190 S55; turn on bed temperature at S value and wait
M140 S55; turn on bed temperature at S value (printing temperature)
M109 S200; turn on extruder temperature at S value and wait (printing temperature)
M104 S200; turn on extruder temperature at S value
G1 Z0 F12000; move Z back to home
G21 ; set units to millimeters
G90 ; use absolute coordinates
M82 ; use absolute distances for extrusion
G92 E0
M106 S255
;Layer change
G1 E-6.00000 F1800.00000
G92 E0
G1 Z0.300 F9000.000
G1 X60.029 Y35.501 F9000.000
G1 E6.00000 F1800.00000
G1 X61.543 Y32.951 E6.14264 F600.000
G1 X63.349 Y30.292 E6.29725
G1 X65.408 Y27.631 E6.45907
G1 X67.629 Y25.104 E6.62088
G1 X70.005 Y22.722 E6.78269
G1 X72.525 Y20.493 E6.94451
G1 X75.181 Y18.428 E7.10633
G1 X78.087 Y16.452 E7.27534
G1 X80.986 Y14.744 E7.43716
G1 X83.985 Y13.221 E7.59897
G1 X87.075 Y11.889 E7.76079
G1 X90.242 Y10.754 E7.92260
G1 X93.474 Y9.819 E8.08441
G1 X96.758 Y9.090 E8.24623
G1 X100.082 Y8.568 E8.40805
G1 X103.432 Y8.256 E8.56986
G1 X106.645 Y8.156 E8.72447
G1 X109.843 Y8.251 E8.87836
G1 X110.158 Y8.266 E8.89350 F600.000
G1 X113.358 Y8.568 E9.04811
G1 X116.829 Y9.118 E9.21712
G1 X119.966 Y9.819 E9.37174
G1 X123.198 Y10.754 E9.53355
G1 X126.365 Y11.889 E9.69537
G1 X129.455 Y13.221 E9.85718
G1 X132.586 Y14.816 E10.02620
G1 X135.353 Y16.452 E10.18081
G1 X138.138 Y18.339 E10.34262
G1 X140.799 Y20.398 E10.50444
G1 X143.435 Y22.722 E10.67346
G1 X145.811 Y25.104 E10.83527
G1 X147.937 Y27.515 E10.98988
G1 X150.002 Y30.171 E11.15170
G1 X151.978 Y33.077 E11.32072
G1 X153.686 Y35.976 E11.48253
G1 X155.146 Y38.840 E11.63715
G1 X156.486 Y41.926 E11.79896
G1 X157.676 Y45.232 E11.96798
G1 X158.611 Y48.464 E12.12979
G1 X159.340 Y51.749 E12.29161
G1 X159.843 Y54.923 E12.44622
G1 X160.164 Y58.272 E12.60803
G1 X160.274 Y61.635 E12.76985
G1 X160.164 Y65.148 E12.93887
G1 X159.862 Y68.348 E13.09348
G1 X159.340 Y71.671 E13.25529
G1 X158.611 Y74.956 E13.41711
G1 X157.630 Y78.331 E13.58613
G1 X156.486 Y81.494 E13.74794
G1 X155.209 Y84.445 E13.90255
G1 X153.614 Y87.576 E14.07157
G1 X151.978 Y90.343 E14.22618
G1 X150.091 Y93.128 E14.38799
G1 X148.032 Y95.789 E14.54982
G1 X145.708 Y98.425 E14.71883
G1 X143.326 Y100.801 E14.88065
G1 X140.915 Y102.927 E15.03526
G1 X138.259 Y104.992 E15.19707
G1 X135.479 Y106.887 E15.35889
G1 X132.454 Y108.676 E15.52791
G1 X129.590 Y110.136 E15.68252
G1 X126.504 Y111.476 E15.84433
G1 X123.341 Y112.620 E16.00615
G1 X119.966 Y113.601 E16.17516
G1 X116.681 Y114.330 E16.33698
G1 X113.507 Y114.833 E16.49159
G1 X110.158 Y115.154 E16.65341
G1 X106.795 Y115.264 E16.81522
G1 X103.432 Y115.163 E16.97704
G1 X99.934 Y114.833 E17.14606
G1 X96.611 Y114.302 E17.30787
G1 X93.474 Y113.601 E17.46249
G1 X90.242 Y112.666 E17.62430
G1 X86.936 Y111.476 E17.79332
G1 X83.985 Y110.199 E17.94792
G1 X83.703 Y110.061 E17.96306
G1 X80.854 Y108.604 E18.11695
G1 X78.087 Y106.968 E18.27155
G1 X75.181 Y104.992 E18.44057
G1 X72.641 Y103.022 E18.59519
G1 X70.114 Y100.801 E18.75700
G1 X67.732 Y98.425 E18.91882
G1 X65.503 Y95.905 E19.08063
G1 X63.349 Y93.128 E19.24965
G1 X61.543 Y90.469 E19.40427
G1 X59.826 Y87.576 E19.56608
G1 X58.294 Y84.580 E19.72789
G1 X56.954 Y81.494 E19.88970
G1 X55.764 Y78.188 E20.05872
G1 X54.867 Y75.101 E20.21334
G1 X54.128 Y71.819 E20.37515
G1 X53.578 Y68.348 E20.54417
G1 X53.266 Y64.998 E20.70599
G1 X53.166 Y61.635 E20.86780
G1 X53.266 Y58.422 E21.02241
G1 X53.597 Y54.923 E21.19143
G1 X54.128 Y51.601 E21.35324
G1 X54.829 Y48.464 E21.50786
G1 X55.764 Y45.232 E21.66967
G1 X56.899 Y42.065 E21.83149
G1 X58.294 Y38.840 E22.00050
G1 X59.754 Y35.976 E22.15511
G1 X59.998 Y35.553 E22.17861
G1 E16.17861 F1800.00000
G92 E0
G1 X146.953 Y67.714 F9000.000
G1 E6.00000 F1800.00000
G1 X146.696 Y69.336 E6.07898 F600.000
G1 X146.138 Y71.831 E6.20195
G1 X145.425 Y74.286 E6.32492
G1 X144.559 Y76.691 E6.44788
G1 X143.543 Y79.038 E6.57085
G1 X142.383 Y81.316 E6.69381
G1 X141.081 Y83.516 E6.81678
G1 X139.644 Y85.631 E6.93974
G1 X138.077 Y87.651 E7.06271
G1 X136.387 Y89.569 E7.18567
G1 X134.579 Y91.377 E7.30864
G1 X132.661 Y93.067 E7.43161
G1 X130.641 Y94.634 E7.55457
G1 X128.526 Y96.071 E7.67753
G1 X126.326 Y97.373 E7.80050
G1 X124.048 Y98.533 E7.92347
G1 X121.701 Y99.549 E8.04643
G1 X119.296 Y100.415 E8.16939
G1 X116.841 Y101.128 E8.29236
G1 X114.346 Y101.686 E8.41532
G1 X111.821 Y102.086 E8.53829
G1 X109.275 Y102.326 E8.66126
G1 X106.720 Y102.407 E8.78422
G1 X104.165 Y102.326 E8.90718
G1 X101.619 Y102.086 E9.03015
G1 X99.094 Y101.686 E9.15312
G1 X96.599 Y101.128 E9.27608
G1 X94.144 Y100.415 E9.39905
G1 X91.857 Y99.592 E9.51594
G1 X89.394 Y98.534 E9.64489
G1 X87.114 Y97.373 E9.76793
G1 X84.914 Y96.071 E9.89090
G1 X82.799 Y94.634 E10.01386
G1 X80.779 Y93.067 E10.13682
G1 X78.861 Y91.377 E10.25979
G1 X77.053 Y89.569 E10.38276
G1 X75.363 Y87.651 E10.50572
G1 X73.796 Y85.631 E10.62869
G1 X72.359 Y83.516 E10.75165
G1 X71.057 Y81.316 E10.87462
G1 X69.897 Y79.038 E10.99758
G1 X68.881 Y76.691 E11.12055
G1 X68.015 Y74.286 E11.24351
G1 X67.302 Y71.831 E11.36648
G1 X66.744 Y69.336 E11.48945
G1 X66.487 Y67.714 E11.56843
G1 X146.893 Y67.714 E15.43565
G1 X146.501 Y68.099 F9000.000
G1 X146.317 Y69.263 E15.49234 F600.000
G1 X145.765 Y71.735 E15.61414
G1 X145.058 Y74.167 E15.73594
G1 X144.200 Y76.549 E15.85774
G1 X143.194 Y78.874 E15.97954
G1 X142.045 Y81.130 E16.10133
G1 X140.756 Y83.310 E16.22313
G1 X139.332 Y85.404 E16.34493
G1 X137.780 Y87.405 E16.46673
G1 X136.105 Y89.305 E16.58853
G1 X134.315 Y91.095 E16.71034
G1 X132.415 Y92.770 E16.83213
G1 X130.414 Y94.322 E16.95393
G1 X128.320 Y95.746 E17.07573
G1 X126.140 Y97.035 E17.19753
G1 X123.884 Y98.184 E17.31933
G1 X121.559 Y99.190 E17.44113
G1 X119.177 Y100.048 E17.56293
G1 X116.745 Y100.755 E17.68473
G1 X114.274 Y101.307 E17.80653
G1 X111.772 Y101.703 E17.92833
G1 X109.251 Y101.941 E18.05013
G1 X106.720 Y102.021 E18.17193
G1 X104.189 Y101.941 E18.29373
G1 X101.668 Y101.703 E18.41553
G1 X99.166 Y101.307 E18.53733
G1 X96.695 Y100.755 E18.65912
G1 X94.263 Y100.048 E18.78093
G1 X91.999 Y99.233 E18.89668
G1 X89.557 Y98.185 E19.02447
G1 X87.300 Y97.035 E19.14631
G1 X85.120 Y95.746 E19.26811
G1 X83.026 Y94.322 E19.38991
G1 X81.025 Y92.770 E19.51171
G1 X79.125 Y91.095 E19.63351
G1 X77.335 Y89.305 E19.75531
G1 X75.660 Y87.405 E19.87711
G1 X74.108 Y85.404 E19.99891
G1 X72.684 Y83.310 E20.12071
G1 X71.395 Y81.130 E20.24251
G1 X70.246 Y78.874 E20.36431
G1 X69.240 Y76.549 E20.48611
G1 X68.382 Y74.167 E20.60790
G1 X67.675 Y71.735 E20.72970
G1 X67.123 Y69.263 E20.85151
G1 X66.939 Y68.099 E20.90819
G1 X146.441 Y68.099 E24.73198
G1 X146.050 Y68.485 F9000.000
G1 X145.938 Y69.191 E24.76637 F600.000
G1 X145.391 Y71.639 E24.88701
G1 X144.691 Y74.048 E25.00764
G1 X143.841 Y76.407 E25.12827
G1 X142.845 Y78.709 E25.24891
G1 X141.707 Y80.944 E25.36954
G1 X140.430 Y83.103 E25.49018
G1 X139.020 Y85.177 E25.61081
G1 X137.483 Y87.159 E25.73144
G1 X135.824 Y89.041 E25.85208
G1 X134.051 Y90.814 E25.97271
G1 X132.169 Y92.473 E26.09335
G1 X130.187 Y94.010 E26.21398
G1 X128.113 Y95.420 E26.33461
G1 X125.954 Y96.697 E26.45525
G1 X123.719 Y97.835 E26.57588
G1 X121.417 Y98.831 E26.69652
G1 X119.058 Y99.681 E26.81715
G1 X116.649 Y100.381 E26.93778
G1 X114.201 Y100.928 E27.05842
G1 X111.724 Y101.320 E27.17905
G1 X109.227 Y101.556 E27.29968
G1 X106.720 Y101.635 E27.42032
G1 X104.213 Y101.556 E27.54095
G1 X101.716 Y101.320 E27.66158
G1 X99.239 Y100.928 E27.78222
G1 X96.791 Y100.381 E27.90285
G1 X94.382 Y99.681 E28.02349
G1 X92.140 Y98.874 E28.13810
G1 X89.721 Y97.835 E28.26472
G1 X87.486 Y96.697 E28.38537
G1 X85.327 Y95.420 E28.50601
G1 X83.253 Y94.010 E28.62664
G1 X81.271 Y92.473 E28.74727
G1 X79.389 Y90.814 E28.86791
G1 X77.616 Y89.041 E28.98855
G1 X75.957 Y87.159 E29.10918
G1 X74.420 Y85.177 E29.22981
G1 X73.010 Y83.103 E29.35045
G1 X71.733 Y80.944 E29.47108
G1 X70.595 Y78.709 E29.59171
G1 X69.599 Y76.407 E29.71235
G1 X68.749 Y74.048 E29.83298
G1 X68.049 Y71.639 E29.95361
G1 X67.502 Y69.191 E30.07425
G1 X67.390 Y68.485 E30.10864
G1 X145.990 Y68.485 E33.88900
G1 X146.448 Y68.527 F9000.000
G1 X146.953 Y55.706 F9000.000
G1 X66.487 Y55.706 E37.75911 F600.000
G1 X66.744 Y54.084 E37.83809
G1 X67.302 Y51.589 E37.96106
G1 X68.016 Y49.133 E38.08410
G1 X68.931 Y46.613 E38.21305
G1 X69.897 Y44.382 E38.32994
G1 X71.057 Y42.104 E38.45291
G1 X72.359 Y39.904 E38.57587
G1 X73.796 Y37.789 E38.69884
G1 X75.364 Y35.768 E38.82187
G1 X77.143 Y33.762 E38.95083
G1 X78.861 Y32.043 E39.06773
G1 X80.779 Y30.353 E39.19069
G1 X82.799 Y28.786 E39.31365
G1 X84.914 Y27.349 E39.43662
G1 X87.114 Y26.047 E39.55959
G1 X89.392 Y24.887 E39.68255
G1 X91.739 Y23.871 E39.80552
G1 X94.144 Y23.005 E39.92848
G1 X96.599 Y22.292 E40.05145
G1 X99.094 Y21.734 E40.17441
G1 X101.619 Y21.334 E40.29738
G1 X104.165 Y21.094 E40.42034
G1 X106.594 Y21.017 E40.53724
G1 X109.274 Y21.093 E40.66619
G1 X111.821 Y21.334 E40.78923
G1 X114.346 Y21.734 E40.91219
G1 X116.841 Y22.292 E41.03516
G1 X119.296 Y23.005 E41.15812
G1 X121.701 Y23.871 E41.28109
G1 X124.048 Y24.887 E41.40405
G1 X126.326 Y26.047 E41.52702
G1 X128.526 Y27.349 E41.64998
G1 X130.641 Y28.786 E41.77295
G1 X132.661 Y30.353 E41.89591
G1 X134.579 Y32.043 E42.01888
G1 X136.387 Y33.851 E42.14185
G1 X138.077 Y35.769 E42.26481
G1 X139.644 Y37.789 E42.38777
G1 X141.081 Y39.904 E42.51074
G1 X142.383 Y42.104 E42.63371
G1 X143.543 Y44.382 E42.75667
G1 X144.559 Y46.729 E42.87964
G1 X145.425 Y49.134 E43.00260
G1 X146.138 Y51.589 E43.12556
G1 X146.696 Y54.084 E43.24853
G1 X146.943 Y55.647 E43.32463
G1 X146.501 Y55.321 F9000.000
G1 X66.939 Y55.321 E47.15131 F600.000
G1 X67.123 Y54.157 E47.20800
G1 X67.675 Y51.685 E47.32980
G1 X68.382 Y49.252 E47.45164
G1 X69.290 Y46.755 E47.57942
G1 X70.246 Y44.546 E47.69518
G1 X71.395 Y42.290 E47.81698
G1 X72.684 Y40.110 E47.93878
G1 X74.108 Y38.016 E48.06058
G1 X75.660 Y36.014 E48.18242
G1 X77.423 Y34.026 E48.31021
G1 X79.125 Y32.325 E48.42597
G1 X81.025 Y30.650 E48.54777
G1 X83.026 Y29.098 E48.66957
G1 X85.120 Y27.674 E48.79137
G1 X87.300 Y26.385 E48.91317
G1 X89.556 Y25.236 E49.03497
G1 X91.881 Y24.230 E49.15677
G1 X94.263 Y23.372 E49.27856
G1 X96.695 Y22.665 E49.40036
G1 X99.166 Y22.113 E49.52216
G1 X101.668 Y21.717 E49.64396
G1 X104.189 Y21.479 E49.76576
G1 X106.594 Y21.403 E49.88152
G1 X109.250 Y21.478 E50.00931
G1 X111.772 Y21.717 E50.13115
G1 X114.274 Y22.113 E50.25295
G1 X116.745 Y22.665 E50.37475
G1 X119.177 Y23.372 E50.49655
G1 X121.559 Y24.230 E50.61835
G1 X123.884 Y25.236 E50.74015
G1 X126.140 Y26.385 E50.86195
G1 X128.320 Y27.674 E50.98375
G1 X130.414 Y29.098 E51.10555
G1 X132.415 Y30.650 E51.22734
G1 X134.315 Y32.325 E51.34914
G1 X136.105 Y34.115 E51.47095
G1 X137.780 Y36.015 E51.59275
G1 X139.332 Y38.016 E51.71454
G1 X140.756 Y40.110 E51.83634
G1 X142.045 Y42.290 E51.95814
G1 X143.194 Y44.546 E52.07994
G1 X144.200 Y46.871 E52.20174
G1 X145.058 Y49.253 E52.32354
G1 X145.765 Y51.685 E52.44534
G1 X146.317 Y54.157 E52.56714
G1 X146.492 Y55.261 E52.62094
G1 X146.050 Y54.935 F9000.000
G1 X67.390 Y54.935 E56.40419 F600.000
G1 X67.502 Y54.229 E56.43858
G1 X68.049 Y51.781 E56.55921
G1 X68.749 Y49.372 E56.67987
G1 X69.648 Y46.898 E56.80648
G1 X70.595 Y44.711 E56.92110
G1 X71.733 Y42.476 E57.04174
G1 X73.010 Y40.317 E57.16237
G1 X74.420 Y38.243 E57.28301
G1 X75.957 Y36.261 E57.40365
G1 X77.704 Y34.291 E57.53027
G1 X79.389 Y32.606 E57.64490
G1 X81.271 Y30.947 E57.76553
G1 X83.253 Y29.410 E57.88616
G1 X85.327 Y28.000 E58.00680
G1 X87.486 Y26.723 E58.12743
G1 X89.721 Y25.585 E58.24807
G1 X92.023 Y24.589 E58.36870
G1 X94.382 Y23.739 E58.48933
G1 X96.791 Y23.039 E58.60997
G1 X99.239 Y22.492 E58.73060
G1 X101.716 Y22.100 E58.85123
G1 X104.213 Y21.864 E58.97187
G1 X106.595 Y21.789 E59.08649
G1 X109.227 Y21.864 E59.21311
G1 X111.724 Y22.100 E59.33376
G1 X114.201 Y22.492 E59.45439
G1 X116.649 Y23.039 E59.57502
G1 X119.058 Y23.739 E59.69566
G1 X121.417 Y24.589 E59.81629
G1 X123.719 Y25.585 E59.93693
G1 X125.954 Y26.723 E60.05756
G1 X128.113 Y28.000 E60.17819
G1 X130.187 Y29.410 E60.29883
G1 X132.169 Y30.947 E60.41946
G1 X134.051 Y32.606 E60.54009
G1 X135.824 Y34.379 E60.66073
G1 X137.483 Y36.261 E60.78136
G1 X139.020 Y38.243 E60.90200
G1 X140.430 Y40.317 E61.02263
G1 X141.707 Y42.476 E61.14327
G1 X142.845 Y44.711 E61.26390
G1 X143.841 Y47.013 E61.38453
G1 X144.691 Y49.372 E61.50516
G1 X145.391 Y51.781 E61.62580
G1 X145.938 Y54.229 E61.74643
G1 X146.040 Y54.876 E61.77794
G1 X146.071 Y55.334 F9000.000
G1 X156.167 Y53.333 F9000.000
G1 X156.498 Y55.422 E61.87966 F600.000
G1 X156.794 Y58.560 E62.03126
G1 X156.893 Y61.710 E62.18286
G1 X156.794 Y64.860 E62.33446
G1 X156.498 Y67.998 E62.48606
G1 X156.005 Y71.112 E62.63766
G1 X155.317 Y74.188 E62.78926
G1 X154.438 Y77.214 E62.94086
G1 X153.370 Y80.180 E63.09245
G1 X152.118 Y83.073 E63.24405
G1 X150.687 Y85.881 E63.39565
G1 X149.083 Y88.594 E63.54725
G1 X147.311 Y91.201 E63.69885
G1 X145.379 Y93.692 E63.85045
G1 X143.295 Y96.056 E64.00205
G1 X141.066 Y98.285 E64.15364
G1 X138.702 Y100.369 E64.30524
G1 X136.211 Y102.301 E64.45684
G1 X133.604 Y104.073 E64.60844
G1 X130.891 Y105.677 E64.76004
G1 X128.228 Y107.034 E64.90378
G1 X125.189 Y108.360 E65.06329
G1 X122.224 Y109.428 E65.21482
G1 X119.198 Y110.307 E65.36642
G1 X116.122 Y110.995 E65.51802
G1 X113.010 Y111.487 E65.66954
G1 X109.707 Y111.789 E65.82906
G1 X106.720 Y111.883 E65.97280
G1 X103.570 Y111.784 E66.12440
G1 X100.432 Y111.488 E66.27599
G1 X97.318 Y110.995 E66.42759
G1 X94.242 Y110.307 E66.57919
G1 X91.216 Y109.428 E66.73079
G1 X88.250 Y108.360 E66.88239
G1 X85.357 Y107.108 E67.03399
G1 X82.549 Y105.677 E67.18558
G1 X79.976 Y104.156 E67.32932
G1 X77.228 Y102.300 E67.48884
G1 X74.738 Y100.369 E67.64037
G1 X72.374 Y98.285 E67.79197
G1 X70.145 Y96.056 E67.94356
G1 X68.061 Y93.692 E68.09516
G1 X66.129 Y91.201 E68.24676
G1 X64.357 Y88.594 E68.39836
G1 X62.753 Y85.881 E68.54996
G1 X61.322 Y83.073 E68.70156
G1 X60.070 Y80.180 E68.85315
G1 X59.002 Y77.214 E69.00475
G1 X58.123 Y74.188 E69.15635
G1 X57.435 Y71.112 E69.30795
G1 X56.942 Y67.998 E69.45955
G1 X56.646 Y64.860 E69.61115
G1 X56.547 Y61.710 E69.76275
G1 X56.646 Y58.560 E69.91435
G1 X56.942 Y55.422 E70.06594
G1 X57.435 Y52.308 E70.21754
G1 X58.123 Y49.232 E70.36914
G1 X59.002 Y46.206 E70.52074
G1 X60.070 Y43.240 E70.67234
G1 X61.322 Y40.347 E70.82394
G1 X62.753 Y37.539 E70.97554
G1 X64.357 Y34.826 E71.12713
G1 X66.129 Y32.219 E71.27873
G1 X68.061 Y29.728 E71.43033
G1 X70.145 Y27.364 E71.58193
G1 X72.374 Y25.135 E71.73353
G1 X74.738 Y23.051 E71.88513
G1 X77.229 Y21.119 E72.03673
G1 X79.836 Y19.347 E72.18833
G1 X82.549 Y17.743 E72.33992
G1 X85.357 Y16.312 E72.49152
G1 X88.250 Y15.060 E72.64312
G1 X91.216 Y13.992 E72.79472
G1 X94.242 Y13.113 E72.94632
G1 X97.318 Y12.425 E73.09792
G1 X100.432 Y11.932 E73.24952
G1 X103.570 Y11.636 E73.40111
G1 X106.720 Y11.537 E73.55271
G1 X109.707 Y11.631 E73.69645
G1 X113.010 Y11.933 E73.85597 F600.000
G1 X116.122 Y12.425 E74.00749
G1 X119.198 Y13.113 E74.15909
G1 X122.224 Y13.992 E74.31069
G1 X125.190 Y15.060 E74.46229
G1 X128.083 Y16.312 E74.61389
G1 X130.891 Y17.743 E74.76549
G1 X133.604 Y19.347 E74.91708
G1 X136.211 Y21.119 E75.06868
G1 X138.702 Y23.051 E75.22028
G1 X141.066 Y25.135 E75.37188
G1 X143.295 Y27.364 E75.52348
G1 X145.379 Y29.728 E75.67508
G1 X147.311 Y32.219 E75.82668
G1 X149.083 Y34.826 E75.97828
G1 X150.687 Y37.539 E76.12988
G1 X152.118 Y40.347 E76.28147
G1 X153.370 Y43.240 E76.43307
G1 X154.438 Y46.206 E76.58467
G1 X155.317 Y49.232 E76.73627
G1 X156.005 Y52.308 E76.88787
G1 X156.157 Y53.273 E76.93485
G1 X156.548 Y53.272 F9000.000
G1 X156.880 Y55.373 E77.03716 F600.000
G1 X157.179 Y58.535 E77.18993
G1 X157.279 Y61.710 E77.34269
G1 X157.179 Y64.885 E77.49546
G1 X156.880 Y68.047 E77.64822
