; generated by Slic3r 1.2.9 on 2017-04-04 at 20:21:15

; external perimeters extrusion width = 0.40mm
; perimeters extrusion width = 0.56mm
; infill extrusion width = 0.38mm
; solid infill extrusion width = 0.56mm
; top infill extrusion width = 0.22mm

M106 S256; Turn on fan to 100% power
M104 S140; turn on extruder temperature at S value
M140 S60; turn on bed temperature at S value
G28; home all axes
M84; disable motors
G1 Z15 F15000; have Z move to 20mm at 15000 mm/min
M190 S55; turn on bed temperature at S value and wait
M140 S55; turn on bed temperature at S value (printing temperature)
M109 S200; turn on extruder temperature at S value and wait (printing temperature)
M104 S200; turn on extruder temperature at S value
G1 Z0 F12000; move Z back to home
G21 ; set units to millimeters
G90 ; use absolute coordinates
M82 ; use absolute distances for extrusion
G92 E0
M106 S255
;Layer change
G1 E-6.00000 F1800.00000
G92 E0
G1 Z0.300 F9000.000
G1 X73.411 Y82.616 F9000.000
G1 E6.00000 F1800.00000
G1 X73.982 Y82.145 E6.03601 F600.000
G1 X74.647 Y81.677 E6.07561
G1 X75.285 Y81.300 E6.11162
G1 X76.016 Y80.942 E6.15122
G1 X76.704 Y80.669 E6.18722
G1 X77.482 Y80.430 E6.22683
G1 X78.393 Y80.235 E6.27218
G1 X79.128 Y80.143 E6.30819
G1 X80.000 Y80.104 E6.35067
G1 X100.059 Y80.104 E7.32657
G1 X100.990 Y80.154 E7.37191 F600.000
G1 X101.912 Y80.291 E7.41729
G1 X102.817 Y80.514 E7.46263
G1 X103.698 Y80.821 E7.50799
G1 X104.545 Y81.210 E7.55335
G1 X105.353 Y81.677 E7.59875
G1 X106.112 Y82.217 E7.64408
G1 X106.818 Y82.827 E7.68948
G1 X107.462 Y83.500 E7.73482
G1 X108.041 Y84.231 E7.78015
G1 X108.549 Y85.015 E7.82559
G1 X108.979 Y85.841 E7.87090
G1 X109.331 Y86.705 E7.91628
G1 X109.600 Y87.596 E7.96159
G1 X109.783 Y88.510 E8.00692
G1 X109.880 Y89.438 E8.05234
G1 X109.889 Y90.369 E8.09760
G1 X109.810 Y91.300 E8.14306
G1 X109.645 Y92.217 E8.18839
G1 X109.487 Y92.817 E8.21858
G1 X109.331 Y93.295 E8.24306
G1 X108.979 Y94.159 E8.28845
G1 X108.549 Y94.985 E8.33376
G1 X108.041 Y95.769 E8.37920
G1 X107.462 Y96.500 E8.42454
G1 X106.818 Y97.173 E8.46988
G1 X106.112 Y97.783 E8.51527
G1 X105.353 Y98.323 E8.56060
G1 X104.545 Y98.790 E8.60600
G1 X103.698 Y99.179 E8.65137
G1 X102.817 Y99.486 E8.69672
G1 X101.912 Y99.709 E8.74207
G1 X100.990 Y99.846 E8.78743
G1 X100.000 Y99.896 E8.83566
G1 X80.000 Y99.896 E9.80868
G1 X79.438 Y99.880 E9.83605
G1 X78.819 Y99.825 E9.86629
G1 X78.204 Y99.732 E9.89654
G1 X77.596 Y99.600 E9.92678
G1 X76.998 Y99.430 E9.95702
G1 X76.412 Y99.223 E9.98727
G1 X75.840 Y98.979 E10.01752
G1 X75.285 Y98.700 E10.04776
G1 X74.748 Y98.387 E10.07801
G1 X74.231 Y98.041 E10.10825
G1 X73.756 Y97.677 E10.13739
G1 X73.411 Y97.384 E10.15939
G1 X72.961 Y96.955 E10.18963
G1 X72.616 Y96.589 E10.21410
G1 X72.217 Y96.112 E10.24436
G1 X71.849 Y95.611 E10.27461
G1 X71.524 Y95.108 E10.30374
G1 X71.300 Y94.715 E10.32574
G1 X71.021 Y94.160 E10.35598
G1 X70.777 Y93.588 E10.38623
G1 X70.607 Y93.114 E10.41073
G1 X70.430 Y92.518 E10.44096
G1 X70.295 Y91.935 E10.47009
G1 X70.217 Y91.490 E10.49208
G1 X70.143 Y90.872 E10.52233
G1 X70.107 Y90.252 E10.55258
G1 X70.107 Y89.748 E10.57707
G1 X70.143 Y89.128 E10.60731
G1 X70.190 Y88.701 E10.62819
G1 X70.291 Y88.088 E10.65843
G1 X70.430 Y87.482 E10.68868
G1 X70.607 Y86.886 E10.71891
G1 X70.777 Y86.412 E10.74341
G1 X70.942 Y86.016 E10.76430
G1 X71.210 Y85.455 E10.79455
G1 X71.512 Y84.912 E10.82479
G1 X71.849 Y84.389 E10.85503
G1 X72.145 Y83.982 E10.87953
G1 X72.538 Y83.500 E10.90976
G1 X72.961 Y83.045 E10.94001
G1 X73.367 Y82.657 E10.96733
G1 X73.671 Y82.902 F9000.000
G1 X74.213 Y82.453 E11.00157 F600.000
G1 X74.859 Y81.999 E11.03999
G1 X75.465 Y81.641 E11.07424
G1 X76.174 Y81.293 E11.11266
G1 X76.828 Y81.034 E11.14689
G1 X77.583 Y80.802 E11.18532
G1 X78.460 Y80.615 E11.22891
G1 X79.158 Y80.527 E11.26315
G1 X80.000 Y80.489 E11.30415
G1 X100.053 Y80.490 E12.27976
G1 X100.948 Y80.537 E12.32333 F600.000
G1 X101.834 Y80.668 E12.36694
G1 X102.704 Y80.882 E12.41052
G1 X103.550 Y81.177 E12.45411
G1 X104.365 Y81.550 E12.49771
G1 X105.141 Y81.999 E12.54133
G1 X105.871 Y82.518 E12.58490
G1 X106.549 Y83.104 E12.62852
G1 X107.169 Y83.751 E12.67210
G1 X107.725 Y84.453 E12.71567
G1 X108.214 Y85.206 E12.75933
G1 X108.638 Y86.021 E12.80402
G1 X108.862 Y86.549 E12.83193
G1 X109.029 Y87.011 E12.85586
G1 X109.270 Y87.873 E12.89941
G1 X109.428 Y88.755 E12.94297
G1 X109.504 Y89.649 E12.98665
G1 X109.495 Y90.544 E13.03015
G1 X109.401 Y91.436 E13.07380
G1 X109.293 Y92.022 E13.10282
G1 X109.198 Y92.416 E13.12252
G1 X108.930 Y93.271 E13.16612
G1 X108.582 Y94.098 E13.20979
G1 X108.159 Y94.887 E13.25332
G1 X107.662 Y95.633 E13.29694
G1 X107.098 Y96.330 E13.34053
G1 X106.472 Y96.969 E13.38408
G1 X105.787 Y97.547 E13.42767
G1 X105.050 Y98.059 E13.47131
G1 X104.270 Y98.498 E13.51485
G1 X103.451 Y98.862 E13.55846
G1 X102.602 Y99.147 E13.60204
G1 X101.730 Y99.352 E13.64564
G1 X100.842 Y99.473 E13.68924
G1 X100.000 Y99.511 E13.73024
G1 X80.000 Y99.511 E14.70326
G1 X79.456 Y99.495 E14.72974
G1 X78.861 Y99.442 E14.75881
G1 X78.270 Y99.352 E14.78788
G1 X77.686 Y99.225 E14.81694
G1 X77.112 Y99.061 E14.84601
G1 X76.570 Y98.870 E14.87396
G1 X76.174 Y98.707 E14.89478
G1 X75.635 Y98.450 E14.92385
G1 X75.113 Y98.159 E14.95292
G1 X74.698 Y97.895 E14.97682
G1 X74.213 Y97.547 E15.00588
G1 X73.751 Y97.169 E15.03494
G1 X73.313 Y96.762 E15.06401
G1 X72.902 Y96.329 E15.09307
G1 X72.624 Y96.003 E15.11389
G1 X72.275 Y95.547 E15.14185
G1 X71.942 Y95.051 E15.17092
G1 X71.692 Y94.628 E15.19482
G1 X71.418 Y94.097 E15.22388
G1 X71.177 Y93.550 E15.25295
G1 X70.979 Y93.011 E15.28092
G1 X70.853 Y92.602 E15.30172
G1 X70.707 Y92.023 E15.33079
G1 X70.599 Y91.435 E15.35985
G1 X70.537 Y90.948 E15.38377
G1 X70.496 Y90.352 E15.41282
G1 X70.492 Y89.777 E15.44078
G1 X70.512 Y89.350 E15.46158
G1 X70.571 Y88.755 E15.49066
G1 X70.668 Y88.166 E15.51972
G1 X70.802 Y87.583 E15.54879
G1 X70.972 Y87.011 E15.57785
G1 X71.138 Y86.549 E15.60175
G1 X71.293 Y86.174 E15.62146
G1 X71.550 Y85.635 E15.65053
G1 X71.841 Y85.113 E15.67960
G1 X72.164 Y84.611 E15.70866
G1 X72.453 Y84.213 E15.73256
G1 X72.831 Y83.751 E15.76162
G1 X73.238 Y83.313 E15.79069
G1 X73.626 Y82.942 E15.81683
G1 E9.81683 F1800.00000
G92 E0
G1 X83.774 Y94.019 F9000.000
G1 E6.00000 F1800.00000
G1 X83.379 Y94.357 E6.02527 F600.000
G1 X82.954 Y94.655 E6.05055
G1 X82.503 Y94.913 E6.07582
G1 X82.034 Y95.125 E6.10088
G1 X81.387 Y95.336 E6.13396
G1 X80.862 Y95.446 E6.16008
G1 X80.346 Y95.503 E6.18532
G1 X79.827 Y95.511 E6.21059
G1 X79.309 Y95.470 E6.23586
G1 X78.797 Y95.381 E6.26113
G1 X78.296 Y95.244 E6.28641
G1 X77.810 Y95.060 E6.31168
G1 X77.348 Y94.834 E6.33674
G1 X76.773 Y94.470 E6.36982
G1 X76.353 Y94.135 E6.39594
G1 X75.981 Y93.774 E6.42118
G1 X75.643 Y93.379 E6.44645
G1 X75.345 Y92.954 E6.47172
G1 X75.087 Y92.503 E6.49700
G1 X74.875 Y92.034 E6.52206
G1 X74.664 Y91.387 E6.55514
G1 X74.554 Y90.862 E6.58126
G1 X74.497 Y90.346 E6.60650
G1 X74.489 Y89.827 E6.63177
G1 X74.529 Y89.314 E6.65681
G1 X74.661 Y88.624 E6.69096
G1 X74.812 Y88.132 E6.71600
G1 X75.011 Y87.652 E6.74127
G1 X75.254 Y87.193 E6.76654
G1 X75.539 Y86.759 E6.79181
G1 X75.864 Y86.354 E6.81709
G1 X76.226 Y85.981 E6.84236
G1 X76.621 Y85.643 E6.86763
G1 X77.046 Y85.345 E6.89290
G1 X77.497 Y85.087 E6.91818
G1 X77.970 Y84.873 E6.94345
G1 X78.462 Y84.705 E6.96872
G1 X78.967 Y84.584 E6.99399
G1 X79.477 Y84.511 E7.01905
G1 X80.156 Y84.489 E7.05213
G1 X80.692 Y84.530 E7.07826
G1 X81.203 Y84.619 E7.10349 F600.000
G1 X81.704 Y84.756 E7.12877
G1 X82.190 Y84.940 E7.15404
G1 X82.652 Y85.166 E7.17910
G1 X83.227 Y85.530 E7.21218
G1 X83.647 Y85.865 E7.23830
G1 X84.019 Y86.226 E7.26354
G1 X84.357 Y86.621 E7.28881
G1 X84.655 Y87.046 E7.31408
G1 X84.913 Y87.497 E7.33936
G1 X85.125 Y87.966 E7.36442
G1 X85.336 Y88.613 E7.39750
G1 X85.446 Y89.138 E7.42362
G1 X85.503 Y89.654 E7.44886
G1 X85.511 Y90.173 E7.47413
G1 X85.470 Y90.691 E7.49940
G1 X85.381 Y91.203 E7.52467
G1 X85.244 Y91.704 E7.54994
G1 X85.060 Y92.190 E7.57522
G1 X84.834 Y92.652 E7.60028
G1 X84.470 Y93.227 E7.63336
G1 X84.135 Y93.647 E7.65948
G1 X83.816 Y93.976 E7.68180
G1 X84.025 Y94.313 F9000.000
G1 X83.616 Y94.662 E7.70796 F600.000
G1 X83.161 Y94.981 E7.73500
G1 X82.678 Y95.257 E7.76204
G1 X82.173 Y95.485 E7.78900
G1 X81.487 Y95.709 E7.82413
G1 X80.923 Y95.827 E7.85218
G1 X80.370 Y95.888 E7.87921
G1 X79.815 Y95.897 E7.90625
G1 X79.261 Y95.853 E7.93329
G1 X78.713 Y95.758 E7.96033
G1 X78.177 Y95.611 E7.98738
G1 X77.657 Y95.415 E8.01442
G1 X77.159 Y95.171 E8.04138
G1 X76.549 Y94.785 E8.07650
G1 X76.098 Y94.425 E8.10456
G1 X75.699 Y94.039 E8.13159
G1 X75.338 Y93.616 E8.15863
G1 X75.019 Y93.161 E8.18567
G1 X74.743 Y92.678 E8.21271
G1 X74.515 Y92.173 E8.23967
G1 X74.291 Y91.487 E8.27480
G1 X74.173 Y90.923 E8.30285
G1 X74.112 Y90.370 E8.32988
G1 X74.103 Y89.815 E8.35692
G1 X74.147 Y89.262 E8.38388
G1 X74.286 Y88.531 E8.42009
G1 X74.449 Y88.002 E8.44705
G1 X74.662 Y87.488 E8.47409
G1 X74.922 Y86.997 E8.50113
G1 X75.227 Y86.532 E8.52818
G1 X75.575 Y86.098 E8.55522
G1 X75.961 Y85.699 E8.58226
G1 X76.384 Y85.338 E8.60930
G1 X76.839 Y85.019 E8.63634
G1 X77.322 Y84.743 E8.66338
G1 X77.828 Y84.515 E8.69043
G1 X78.354 Y84.335 E8.71747
G1 X78.894 Y84.205 E8.74451
G1 X79.443 Y84.127 E8.77147
G1 X80.165 Y84.103 E8.80660
G1 X80.740 Y84.147 E8.83465
G1 X81.287 Y84.242 E8.86168 F600.000
G1 X81.823 Y84.389 E8.88872
G1 X82.343 Y84.585 E8.91576
G1 X82.841 Y84.829 E8.94273
G1 X83.451 Y85.215 E8.97785
G1 X83.902 Y85.575 E9.00590
G1 X84.301 Y85.961 E9.03293
G1 X84.662 Y86.384 E9.05997
G1 X84.981 Y86.839 E9.08702
G1 X85.257 Y87.322 E9.11406
G1 X85.485 Y87.827 E9.14102
G1 X85.709 Y88.513 E9.17614
G1 X85.827 Y89.077 E9.20420
G1 X85.888 Y89.630 E9.23123
G1 X85.897 Y90.185 E9.25827
G1 X85.853 Y90.739 E9.28531
G1 X85.758 Y91.287 E9.31235
G1 X85.611 Y91.823 E9.33939
G1 X85.415 Y92.343 E9.36643
G1 X85.171 Y92.841 E9.39340
G1 X84.785 Y93.451 E9.42852
G1 X84.425 Y93.902 E9.45658
G1 X84.068 Y94.271 E9.48157
G1 X83.644 Y94.191 F9000.000
G1 X78.163 Y94.854 F9000.000
G1 X75.140 Y91.830 E9.69424 F600.000
G1 X74.899 Y91.032 E9.73574
G1 X78.975 Y95.108 E10.02251
G1 X79.629 Y95.204 E10.05534
G1 X74.795 Y90.370 E10.39535
G1 X74.774 Y89.791 E10.42416
G1 X80.205 Y95.222 E10.80619
G1 X80.724 Y95.184 E10.83208
G1 X74.812 Y89.272 E11.24792
G1 X74.901 Y88.804 E11.27163
G1 X81.198 Y95.101 E11.71455
G1 X81.634 Y94.979 E11.73706
G1 X75.017 Y88.362 E12.20249
G1 X75.166 Y87.954 E12.22412
G1 X82.048 Y94.836 E12.70820
G1 X82.431 Y94.661 E12.72914
G1 X75.342 Y87.572 E13.22780
G1 X75.542 Y87.215 E13.24818
G1 X82.786 Y94.459 E13.75775
G1 X83.118 Y94.233 E13.77770
G1 X75.764 Y86.879 E14.29497
G1 X76.015 Y86.573 E14.31467
G1 X83.427 Y93.985 E14.83602
G1 X83.706 Y93.706 E14.85563
G1 X76.294 Y86.294 E15.37697
G1 X76.573 Y86.015 E15.39658
G1 X83.985 Y93.427 E15.91793
G1 X84.235 Y93.120 E15.93764
G1 X76.882 Y85.767 E16.45484
G1 X77.214 Y85.541 E16.47480
G1 X84.453 Y92.781 E16.98404
G1 X84.658 Y92.428 E17.00433
G1 X77.569 Y85.339 E17.50301
G1 X77.952 Y85.164 E17.52395
G1 X84.836 Y92.048 E18.00816
G1 X84.986 Y91.641 E18.02975
G1 X78.361 Y85.016 E18.49574
G1 X78.801 Y84.898 E18.51838
G1 X85.106 Y91.203 E18.96187
G1 X85.189 Y90.728 E18.98583
G1 X79.276 Y84.816 E19.40173
G1 X79.800 Y84.782 E19.42784
G1 X85.226 Y90.209 E19.80954
G1 X85.205 Y89.630 E19.83836
G1 X80.372 Y84.797 E20.17832
G1 X81.025 Y84.892 E20.21112
G1 X85.101 Y88.968 E20.49789
G1 X84.860 Y88.170 E20.53939
G1 X81.837 Y85.146 E20.75207
G1 X83.237 Y85.989 F9000.000
G1 X84.000 Y86.752 E20.80576 F600.000
G1 X76.763 Y94.011 F9000.000
G1 X76.000 Y93.248 E20.85944 F600.000
G1 E14.85944 F1800.00000
G92 E0
G1 X94.705 Y91.538 F9000.000
G1 E6.00000 F1800.00000
G1 X94.585 Y91.038 E6.02504 F600.000
G1 X94.497 Y90.341 E6.05919
G1 X94.489 Y89.827 E6.08423
G1 X94.530 Y89.309 E6.10950
G1 X94.618 Y88.802 E6.13454
G1 X94.814 Y88.128 E6.16869
G1 X95.011 Y87.652 E6.19373
G1 X95.254 Y87.193 E6.21900
G1 X95.539 Y86.759 E6.24428
G1 X95.864 Y86.354 E6.26955
G1 X96.226 Y85.981 E6.29482
G1 X96.621 Y85.643 E6.32009
G1 X97.046 Y85.345 E6.34536
G1 X97.497 Y85.087 E6.37064
G1 X97.970 Y84.873 E6.39591
G1 X98.462 Y84.705 E6.42118
G1 X98.967 Y84.584 E6.44645
G1 X99.477 Y84.511 E6.47152
G1 X100.156 Y84.489 E6.50460
G1 X100.692 Y84.530 E6.53072
G1 X101.203 Y84.619 E6.55596 F600.000
G1 X101.704 Y84.756 E6.58123
G1 X102.190 Y84.940 E6.60650
G1 X102.652 Y85.166 E6.63156
G1 X103.227 Y85.530 E6.66464
G1 X103.647 Y85.865 E6.69076
G1 X104.019 Y86.226 E6.71600
G1 X104.357 Y86.621 E6.74127
G1 X104.655 Y87.046 E6.76655
G1 X104.913 Y87.497 E6.79182
G1 X105.127 Y87.970 E6.81709
G1 X105.295 Y88.462 E6.84236
G1 X105.415 Y88.962 E6.86740
G1 X105.503 Y89.659 E6.90155
G1 X105.511 Y90.173 E6.92659
G1 X105.470 Y90.691 E6.95186
G1 X105.382 Y91.198 E6.97690
G1 X105.186 Y91.872 E7.01105
G1 X104.989 Y92.348 E7.03609
G1 X104.746 Y92.807 E7.06136
G1 X104.461 Y93.241 E7.08664
G1 X104.136 Y93.646 E7.11191
G1 X103.774 Y94.019 E7.13718
G1 X103.379 Y94.357 E7.16245
G1 X102.954 Y94.655 E7.18772
G1 X102.503 Y94.913 E7.21300
G1 X102.030 Y95.127 E7.23827
G1 X101.538 Y95.295 E7.26354
G1 X101.033 Y95.416 E7.28881
G1 X100.524 Y95.489 E7.31386
G1 X99.822 Y95.511 E7.34801
G1 X99.309 Y95.470 E7.37304
G1 X98.797 Y95.381 E7.39832
G1 X98.301 Y95.245 E7.42335
G1 X97.648 Y94.987 E7.45751
G1 X97.193 Y94.746 E7.48254
G1 X96.759 Y94.461 E7.50782
G1 X96.354 Y94.136 E7.53309
G1 X95.981 Y93.774 E7.55836
G1 X95.643 Y93.379 E7.58363
G1 X95.345 Y92.954 E7.60891
G1 X95.087 Y92.503 E7.63418
G1 X94.873 Y92.030 E7.65945
G1 X94.725 Y91.595 E7.68180
G1 X94.330 Y91.628 F9000.000
G1 X94.205 Y91.107 E7.70787 F600.000
G1 X94.112 Y90.369 E7.74409
G1 X94.103 Y89.815 E7.77105
G1 X94.147 Y89.261 E7.79809
G1 X94.242 Y88.715 E7.82504
G1 X94.450 Y88.000 E7.86126
G1 X94.662 Y87.488 E7.88822
G1 X94.922 Y86.997 E7.91526
G1 X95.227 Y86.532 E7.94230
G1 X95.575 Y86.098 E7.96934
G1 X95.961 Y85.699 E7.99638
G1 X96.384 Y85.338 E8.02343
G1 X96.839 Y85.019 E8.05047
G1 X97.322 Y84.743 E8.07751
G1 X97.828 Y84.515 E8.10455
G1 X98.354 Y84.335 E8.13159
G1 X98.894 Y84.205 E8.15863
G1 X99.443 Y84.127 E8.18560
G1 X100.165 Y84.103 E8.22072
G1 X100.740 Y84.147 E8.24877
G1 X101.287 Y84.242 E8.27580 F600.000
G1 X101.823 Y84.389 E8.30285
G1 X102.343 Y84.585 E8.32989
G1 X102.841 Y84.829 E8.35685
G1 X103.451 Y85.215 E8.39197
G1 X103.902 Y85.575 E8.42003
G1 X104.301 Y85.961 E8.44705
G1 X104.662 Y86.384 E8.47410
G1 X104.981 Y86.839 E8.50114
G1 X105.257 Y87.322 E8.52818
G1 X105.485 Y87.828 E8.55522
G1 X105.666 Y88.354 E8.58226
G1 X105.795 Y88.893 E8.60922
G1 X105.888 Y89.631 E8.64544
G1 X105.897 Y90.185 E8.67239
G1 X105.853 Y90.739 E8.69943
G1 X105.758 Y91.285 E8.72639
G1 X105.550 Y92.000 E8.76261
G1 X105.338 Y92.512 E8.78956
G1 X105.078 Y93.003 E8.81660
G1 X104.773 Y93.468 E8.84365
G1 X104.425 Y93.902 E8.87069
G1 X104.039 Y94.301 E8.89773
G1 X103.616 Y94.662 E8.92477
G1 X103.161 Y94.981 E8.95181
G1 X102.678 Y95.257 E8.97886
G1 X102.172 Y95.485 E9.00590
G1 X101.646 Y95.665 E9.03294
G1 X101.106 Y95.795 E9.05998
G1 X100.557 Y95.873 E9.08694
G1 X99.813 Y95.897 E9.12315
G1 X99.261 Y95.853 E9.15011
G1 X98.713 Y95.758 E9.17715
G1 X98.179 Y95.611 E9.20411
G1 X97.486 Y95.337 E9.24032
G1 X96.997 Y95.078 E9.26728
G1 X96.532 Y94.773 E9.29432
G1 X96.098 Y94.425 E9.32136
G1 X95.699 Y94.039 E9.34840
G1 X95.338 Y93.616 E9.37545
G1 X95.019 Y93.161 E9.40249
G1 X94.743 Y92.678 E9.42953
G1 X94.515 Y92.172 E9.45657
G1 X94.348 Y91.686 E9.48158
G1 X94.612 Y91.344 F9000.000
G1 X96.000 Y93.248 F9000.000
G1 X96.766 Y94.014 E9.53543 F600.000
G1 X98.152 Y94.842 F9000.000
G1 X95.140 Y91.830 E9.74731 F600.000
G1 X94.897 Y91.030 E9.78890
G1 X98.975 Y95.108 E10.07578
G1 X99.629 Y95.204 E10.10861
G1 X94.798 Y90.374 E10.44839
G1 X94.774 Y89.791 E10.47737
G1 X100.199 Y95.217 E10.85903
G1 X100.724 Y95.184 E10.88516
G1 X94.811 Y89.272 E11.30106
G1 X94.895 Y88.797 E11.32501
G1 X101.199 Y95.102 E11.76845
G1 X101.639 Y94.984 E11.79109
G1 X95.020 Y88.365 E12.25663
G1 X95.166 Y87.954 E12.27835
G1 X102.048 Y94.836 E12.76244
G1 X102.431 Y94.661 E12.78337
G1 X95.342 Y87.572 E13.28203
G1 X95.542 Y87.215 E13.30241
G1 X102.786 Y94.459 E13.81198
G1 X103.118 Y94.233 E13.83194
