; generated by Slic3r 1.2.9 on 2018-09-27 at 20:55:13

; external perimeters extrusion width = 0.40mm
; perimeters extrusion width = 0.62mm
; infill extrusion width = 0.33mm
; solid infill extrusion width = 0.62mm
; top infill extrusion width = 0.20mm

M106 S256; Turn on fan to 100% power
M104 S140; turn on extruder temperature at S value
M140 S60; turn on bed temperature at S value
G28; home all axes
M84; disable motors
G1 Z15 F15000; have Z move to 20mm at 15000 mm/min
M190 S55; turn on bed temperature at S value and wait
M140 S55; turn on bed temperature at S value (printing temperature)
M109 S200; turn on extruder temperature at S value and wait (printing temperature)
M104 S200; turn on extruder temperature at S value
G1 Z0 F12000; move Z back to home
G21 ; set units to millimeters
G90 ; use absolute coordinates
M82 ; use absolute distances for extrusion
G92 E0
M106 S255
;Layer change
G1 E-6.00000 F1800.00000
G92 E0
G1 Z0.300 F9000.000
G1 X77.037 Y14.675 F9000.000
G1 E6.00000 F1800.00000
G1 X78.017 Y9.534 E6.25175 F600.000
G1 X78.646 Y8.320 E6.31749
G1 X80.360 Y7.594 E6.40701
G1 X131.360 Y7.594 E8.85993
G1 X132.670 Y7.986 E8.92568
G1 X133.549 Y9.032 E8.99142 F600.000
G1 X133.746 Y9.980 E9.03797
G1 X133.746 Y38.980 E10.43278
G1 X133.354 Y40.290 E10.49852
G1 X132.533 Y41.057 E10.55257
G1 X102.433 Y58.057 E12.21522
G1 X101.260 Y58.366 E12.27356
G1 X77.360 Y58.366 E13.42307
G1 X76.050 Y57.974 E13.48881
G1 X75.171 Y56.928 E13.55456
G1 X74.974 Y55.980 E13.60111
G1 X74.979 Y25.830 E15.05121
G1 X75.040 Y25.158 E15.08370
G1 X77.026 Y14.734 E15.59403
G1 E9.59403 F1800.00000
G92 E0
G1 X84.103 Y46.729 F9000.000
G1 E6.00000 F1800.00000
G1 X84.137 Y46.837 E6.00547 F600.000
G1 X84.204 Y47.381 E6.03185
G1 X84.133 Y47.944 E6.05912
G1 X84.031 Y48.259 E6.07506
G1 X83.889 Y48.559 E6.09100
G1 X83.555 Y49.019 E6.11834
G1 X83.117 Y49.381 E6.14568
G1 X82.800 Y49.555 E6.16307
G1 X82.309 Y49.717 E6.18793
G1 X81.935 Y49.768 E6.20610
G1 X81.414 Y49.736 E6.23119
G1 X81.046 Y49.646 E6.24943
G1 X80.556 Y49.415 E6.27549
G1 X80.288 Y49.220 E6.29143
G1 X80.046 Y48.993 E6.30737
G1 X79.712 Y48.533 E6.33471
G1 X79.501 Y48.000 E6.36229
G1 X79.434 Y47.627 E6.38052
G1 X79.435 Y47.079 E6.40691
G1 X79.576 Y46.529 E6.43418
G1 X79.731 Y46.201 E6.45163
G1 X80.065 Y45.741 E6.47897
G1 X80.503 Y45.379 E6.50632
G1 X80.793 Y45.219 E6.52225
G1 X81.101 Y45.097 E6.53819
G1 X81.629 Y44.997 E6.56401
G1 X81.991 Y44.997 E6.58147 F600.000
G1 X82.550 Y45.103 E6.60881
G1 X83.092 Y45.358 E6.63760
G1 X83.515 Y45.706 E6.66399
G1 X83.760 Y45.996 E6.68222
G1 X84.023 Y46.475 E6.70852
G1 X84.085 Y46.671 E6.71840
G1 X83.735 Y46.844 F9000.000
G1 X83.815 Y47.381 E6.74451 F600.000
G1 X83.755 Y47.859 E6.76771
G1 X83.671 Y48.117 E6.78073
G1 X83.556 Y48.362 E6.79375
G1 X83.272 Y48.753 E6.81699
G1 X82.900 Y49.061 E6.84024
G1 X82.646 Y49.200 E6.85415
G1 X82.223 Y49.339 E6.87559
G1 X81.920 Y49.380 E6.89025
G1 X81.472 Y49.353 E6.91185
G1 X81.175 Y49.280 E6.92655
G1 X80.753 Y49.082 E6.94901
G1 X80.534 Y48.922 E6.96203
G1 X80.337 Y48.737 E6.97505
G1 X80.053 Y48.346 E6.99829
G1 X79.874 Y47.894 E7.02168
G1 X79.819 Y47.593 E7.03639
G1 X79.821 Y47.128 E7.05876
G1 X79.941 Y46.661 E7.08197
G1 X80.064 Y46.398 E7.09591
G1 X80.348 Y46.007 E7.11916
G1 X80.720 Y45.699 E7.14240
G1 X80.958 Y45.569 E7.15542
G1 X81.209 Y45.469 E7.16844
G1 X81.665 Y45.382 E7.19075
G1 X81.955 Y45.382 E7.20470 F600.000
G1 X82.430 Y45.473 E7.22795
G1 X82.884 Y45.686 E7.25208
G1 X83.243 Y45.982 E7.27446
G1 X83.440 Y46.216 E7.28917
G1 X83.667 Y46.627 E7.31177
G1 X83.717 Y46.787 E7.31981
G1 X83.367 Y46.960 F9000.000
G1 X83.427 Y47.380 E7.34025 F600.000
G1 X83.377 Y47.775 E7.35938
G1 X83.312 Y47.975 E7.36948
G1 X83.223 Y48.165 E7.37958
G1 X82.989 Y48.487 E7.39873
G1 X82.682 Y48.741 E7.41787
G1 X82.492 Y48.845 E7.42830
G1 X82.136 Y48.962 E7.44633
G1 X81.906 Y48.993 E7.45749
G1 X81.530 Y48.971 E7.47557
G1 X81.305 Y48.915 E7.48675
G1 X80.950 Y48.748 E7.50560
G1 X80.780 Y48.625 E7.51570
G1 X80.627 Y48.481 E7.52580
G1 X80.393 Y48.159 E7.54495
G1 X80.246 Y47.788 E7.56415
G1 X80.205 Y47.559 E7.57532
G1 X80.206 Y47.177 E7.59370
G1 X80.305 Y46.792 E7.61283
G1 X80.397 Y46.595 E7.62327
G1 X80.631 Y46.273 E7.64242
G1 X80.938 Y46.019 E7.66157
G1 X81.122 Y45.918 E7.67167
G1 X81.317 Y45.841 E7.68177
G1 X81.701 Y45.768 E7.70057
G1 X81.919 Y45.768 E7.71102 F600.000
G1 X82.310 Y45.842 E7.73016
G1 X82.676 Y46.015 E7.74964
G1 X82.971 Y46.257 E7.76802
G1 X83.121 Y46.435 E7.77919
G1 X83.310 Y46.780 E7.79810
G1 X83.349 Y46.902 E7.80429
G1 X83.746 Y47.088 F9000.000
G1 X85.264 Y42.976 F9000.000
G1 X85.264 Y54.984 E8.38181 F600.000
G1 X78.356 Y54.984 E8.71404
G1 X78.356 Y42.976 E9.29156
G1 X85.204 Y42.976 E9.62091
G1 X85.649 Y42.591 F9000.000
G1 X85.649 Y55.369 E10.23552 F600.000
G1 X77.971 Y55.369 E10.60484
G1 X77.971 Y42.591 E11.21946
G1 X85.589 Y42.591 E11.58589
G1 X86.035 Y42.205 F9000.000
G1 X86.035 Y55.755 E12.23760 F600.000
G1 X77.585 Y55.755 E12.64402
G1 X77.585 Y42.205 E13.29573
G1 X85.975 Y42.205 E13.69926
G1 X85.835 Y42.551 F9000.000
G1 X84.980 Y43.464 F9000.000
G1 X84.776 Y43.260 E13.71349 F600.000
G1 X84.216 Y43.260 E13.74119
G1 X84.980 Y44.024 E13.79459
G1 X84.980 Y44.584 E13.82229
G1 X83.656 Y43.260 E13.91486
G1 X83.095 Y43.260 E13.94256
G1 X84.980 Y45.145 E14.07431
G1 X84.980 Y45.705 E14.10200
G1 X82.535 Y43.260 E14.27292
G1 X81.974 Y43.260 E14.30062
G1 X84.980 Y46.266 E14.51070
G1 X84.980 Y46.826 E14.53840
G1 X84.128 Y45.974 E14.59795
G1 X84.434 Y46.840 F9000.000
G1 X84.980 Y47.386 E14.63612 F600.000
G1 X84.473 Y47.440 E14.66132
G1 X84.980 Y47.947 E14.69675
G1 X84.980 Y48.507 E14.72445
G1 X84.410 Y47.937 E14.76428
G1 X84.269 Y48.356 E14.78614
G1 X84.980 Y49.068 E14.83586
G1 X84.980 Y49.628 E14.86356
G1 X84.078 Y48.727 E14.92658
G1 X83.843 Y49.051 E14.94641
G1 X84.980 Y50.189 E15.02591
G1 X84.980 Y50.749 E15.05361
G1 X83.566 Y49.335 E15.15244
G1 X83.259 Y49.589 E15.17211
G1 X84.980 Y51.309 E15.29238
G1 X84.980 Y51.870 E15.32008
G1 X82.901 Y49.791 E15.46540
G1 X82.485 Y49.935 E15.48717
G1 X84.980 Y52.430 E15.66157
G1 X84.980 Y52.991 E15.68927
G1 X82.021 Y50.032 E15.89608
G1 X81.457 Y50.028 E15.92395
G1 X84.980 Y53.551 E16.17019
G1 X84.980 Y54.111 E16.19788
G1 X80.723 Y49.854 E16.49544
G1 X79.346 Y48.477 F9000.000
G1 X78.640 Y47.771 E16.54479 F600.000
G1 X79.150 Y47.721 E16.57011
G1 X78.640 Y47.211 E16.60573
G1 X79.151 Y47.162 E16.63112
G1 X78.640 Y46.651 E16.66685
G1 X78.640 Y46.090 E16.69455
G1 X79.256 Y46.706 E16.73760
G1 X79.403 Y46.293 E16.75928
G1 X78.640 Y45.530 E16.81264
G1 X78.640 Y44.969 E16.84034
G1 X79.610 Y45.939 E16.90813
G1 X79.846 Y45.615 E16.92796
G1 X78.640 Y44.409 E17.01224
G1 X78.640 Y43.849 E17.03994
G1 X80.143 Y45.351 E17.14498
G1 X80.462 Y45.111 E17.16476
G1 X78.646 Y43.294 E17.29172
G1 X79.172 Y43.260 E17.31779
G1 X80.836 Y44.923 E17.43405
G1 X81.264 Y44.791 E17.45620
G1 X79.733 Y43.260 E17.56323
G1 X80.293 Y43.260 E17.59093
G1 X81.746 Y44.713 E17.69247
G1 X82.353 Y44.759 E17.72257
G1 X80.853 Y43.260 E17.82737
G1 X81.414 Y43.260 E17.85507
G1 X83.204 Y45.050 E17.98019
G1 E11.98019 F1800.00000
G92 E0
G1 X78.640 Y48.332 F9000.000
G1 E6.00000 F1800.00000
G1 X84.974 Y54.666 E6.44273 F600.000
G1 X84.448 Y54.700 E6.46880
G1 X78.640 Y48.892 E6.87474
G1 X78.640 Y49.453 E6.90244
G1 X83.887 Y54.700 E7.26921
G1 X83.327 Y54.700 E7.29690
G1 X78.640 Y50.013 E7.62450
G1 X78.640 Y50.574 E7.65220
G1 X82.766 Y54.700 E7.94063
G1 X82.206 Y54.700 E7.96833
G1 X78.640 Y51.134 E8.21758
G1 X78.640 Y51.694 E8.24528
G1 X81.646 Y54.700 E8.45537
G1 X81.085 Y54.700 E8.48306
G1 X78.640 Y52.255 E8.65398
G1 X78.640 Y52.815 E8.68168
G1 X80.525 Y54.700 E8.81342
G1 X79.964 Y54.700 E8.84112
G1 X78.640 Y53.376 E8.93369
G1 X78.640 Y53.936 E8.96139
G1 X79.404 Y54.700 E9.01479
G1 X78.844 Y54.700 E9.04249
G1 X78.640 Y54.496 E9.05672
G1 E3.05672 F1800.00000
G92 E0
G1 X94.712 Y46.227 F9000.000
G1 E6.00000 F1800.00000
G1 X95.065 Y45.741 E6.02886 F600.000
G1 X95.503 Y45.379 E6.05621
G1 X95.821 Y45.204 E6.07366
G1 X96.331 Y45.038 E6.09947
G1 X96.660 Y44.997 E6.11542
G1 X96.991 Y44.997 E6.13136 F600.000
G1 X97.550 Y45.103 E6.15869
G1 X98.093 Y45.359 E6.18756
G1 X98.555 Y45.741 E6.21643
G1 X98.889 Y46.201 E6.24377
G1 X99.031 Y46.501 E6.25972
G1 X99.133 Y46.816 E6.27565
G1 X99.204 Y47.380 E6.30299
G1 X99.133 Y47.944 E6.33032
G1 X99.031 Y48.259 E6.34626
G1 X98.889 Y48.559 E6.36220
G1 X98.555 Y49.019 E6.38955
G1 X98.117 Y49.381 E6.41689
G1 X97.799 Y49.556 E6.43434
G1 X97.289 Y49.722 E6.46016
G1 X96.929 Y49.767 E6.47761
G1 X96.393 Y49.734 E6.50343
G1 X96.042 Y49.643 E6.52088
G1 X95.556 Y49.415 E6.54670
G1 X95.288 Y49.220 E6.56264
G1 X95.046 Y48.993 E6.57858
G1 X94.712 Y48.533 E6.60592
G1 X94.503 Y48.005 E6.63326
G1 X94.435 Y47.648 E6.65072
G1 X94.435 Y47.112 E6.67653
G1 X94.503 Y46.755 E6.69399
G1 X94.690 Y46.282 E6.71844
G1 X95.053 Y46.414 F9000.000
G1 X95.348 Y46.007 E6.74262 F600.000
G1 X95.720 Y45.699 E6.76587
G1 X95.975 Y45.559 E6.77981
G1 X96.416 Y45.416 E6.80212
G1 X96.684 Y45.382 E6.81514
G1 X96.955 Y45.382 E6.82816 F600.000
G1 X97.430 Y45.473 E6.85141
G1 X97.885 Y45.687 E6.87558
G1 X98.272 Y46.007 E6.89976
G1 X98.556 Y46.398 E6.92301
G1 X98.671 Y46.643 E6.93603
G1 X98.755 Y46.901 E6.94905
G1 X98.815 Y47.380 E6.97229
G1 X98.755 Y47.859 E6.99554
G1 X98.671 Y48.117 E7.00855
G1 X98.556 Y48.362 E7.02157
G1 X98.272 Y48.753 E7.04482
G1 X97.900 Y49.061 E7.06807
G1 X97.645 Y49.201 E7.08201
G1 X97.204 Y49.344 E7.10432
G1 X96.917 Y49.380 E7.11827
G1 X96.454 Y49.351 E7.14058
G1 X96.173 Y49.279 E7.15453
G1 X95.753 Y49.082 E7.17684
G1 X95.534 Y48.922 E7.18986
G1 X95.337 Y48.737 E7.20288
G1 X95.053 Y48.346 E7.22612
G1 X94.875 Y47.897 E7.24937
G1 X94.820 Y47.612 E7.26332
G1 X94.820 Y47.148 E7.28563
G1 X94.875 Y46.863 E7.29957
G1 X95.030 Y46.470 E7.31993
G1 X95.393 Y46.601 F9000.000
G1 X95.631 Y46.273 E7.33942 F600.000
G1 X95.938 Y46.019 E7.35857
G1 X96.128 Y45.915 E7.36901
G1 X96.500 Y45.794 E7.38782
G1 X96.709 Y45.768 E7.39792
G1 X96.919 Y45.768 E7.40802 F600.000
G1 X97.310 Y45.842 E7.42716
G1 X97.676 Y46.015 E7.44666
G1 X97.989 Y46.273 E7.46615
G1 X98.223 Y46.595 E7.48530
G1 X98.312 Y46.785 E7.49540
G1 X98.377 Y46.985 E7.50550
G1 X98.427 Y47.380 E7.52465
G1 X98.377 Y47.775 E7.54379
G1 X98.312 Y47.975 E7.55389
G1 X98.223 Y48.165 E7.56399
G1 X97.989 Y48.487 E7.58314
G1 X97.682 Y48.741 E7.60229
G1 X97.492 Y48.845 E7.61273
G1 X97.120 Y48.966 E7.63153
G1 X96.904 Y48.993 E7.64198
G1 X96.514 Y48.969 E7.66078
G1 X96.304 Y48.915 E7.67122
G1 X95.950 Y48.748 E7.69003
G1 X95.780 Y48.625 E7.70013
G1 X95.627 Y48.481 E7.71023
G1 X95.393 Y48.159 E7.72937
G1 X95.247 Y47.789 E7.74852
G1 X95.206 Y47.575 E7.75896
G1 X95.206 Y47.185 E7.77777
G1 X95.247 Y46.971 E7.78821
G1 X95.371 Y46.657 E7.80447
G1 X95.200 Y46.251 F9000.000
G1 X93.356 Y42.976 F9000.000
G1 X100.264 Y42.976 E8.13670 F600.000
G1 X100.264 Y54.984 E8.71422
G1 X93.356 Y54.984 E9.04645
G1 X93.356 Y43.036 E9.62108
G1 X92.971 Y42.591 F9000.000
G1 X100.649 Y42.591 E9.99041 F600.000
G1 X100.649 Y55.369 E10.60502
G1 X92.971 Y55.369 E10.97434
G1 X92.971 Y42.651 E11.58607
G1 X92.585 Y42.205 F9000.000
G1 X101.035 Y42.205 E11.99249 F600.000
G1 X101.035 Y55.755 E12.64420
G1 X92.585 Y55.755 E13.05061
G1 X92.585 Y42.265 E13.69944
G1 X92.931 Y42.405 F9000.000
G1 X93.640 Y48.332 F9000.000
G1 X99.974 Y54.666 E14.14217 F600.000
G1 X99.448 Y54.700 E14.16823
G1 X93.640 Y48.892 E14.57417
G1 X93.640 Y49.453 E14.60187
G1 X98.887 Y54.700 E14.96864
G1 X98.327 Y54.700 E14.99634
G1 X93.640 Y50.013 E15.32394
G1 X93.640 Y50.574 E15.35164
G1 X97.766 Y54.700 E15.64006
G1 X97.206 Y54.700 E15.66776
G1 X93.640 Y51.134 E15.91702
G1 X93.640 Y51.694 E15.94472
G1 X96.646 Y54.700 E16.15480
G1 X96.085 Y54.700 E16.18250
G1 X93.640 Y52.255 E16.35341
G1 X93.640 Y52.815 E16.38111
G1 X95.525 Y54.700 E16.51286
G1 X94.964 Y54.700 E16.54055
G1 X93.640 Y53.376 E16.63313
G1 X93.640 Y53.936 E16.66082
G1 X94.404 Y54.700 E16.71422
G1 X93.844 Y54.700 E16.74192
G1 X93.640 Y54.496 E16.75615
G1 X95.723 Y49.854 F9000.000
G1 X99.980 Y54.111 E17.05372 F600.000
G1 X99.980 Y53.551 E17.08141
G1 X96.456 Y50.027 E17.32770
G1 X97.021 Y50.032 E17.35564
G1 X99.980 Y52.991 E17.56243
G1 X99.980 Y52.430 E17.59012
G1 X97.484 Y49.934 E17.76457
G1 X97.901 Y49.791 E17.78635
G1 X99.980 Y51.870 E17.93168
G1 X99.980 Y51.309 E17.95937
G1 X98.259 Y49.589 E18.07964
G1 X98.566 Y49.335 E18.09931
G1 X99.980 Y50.749 E18.19814
G1 X99.980 Y50.189 E18.22584
G1 X98.843 Y49.051 E18.30534
G1 X99.078 Y48.727 E18.32517
G1 X99.980 Y49.628 E18.38819
G1 X99.980 Y49.068 E18.41589
G1 X99.269 Y48.356 E18.46562
G1 X99.410 Y47.937 E18.48747
G1 X99.980 Y48.507 E18.52730
G1 X99.980 Y47.947 E18.55500
G1 X99.473 Y47.440 E18.59044
G1 X99.980 Y47.386 E18.61564
G1 X99.433 Y46.839 E18.65388
G1 X99.157 Y46.003 F9000.000
G1 X99.980 Y46.826 E18.71139 F600.000
G1 X99.980 Y46.266 E18.73909
G1 X96.974 Y43.260 E18.94917
G1 X97.535 Y43.260 E18.97687
G1 X99.980 Y45.705 E19.14779
G1 X99.980 Y45.145 E19.17549
G1 X98.095 Y43.260 E19.30723
G1 X98.656 Y43.260 E19.33493
G1 X99.980 Y44.584 E19.42750
G1 X99.980 Y44.024 E19.45520
G1 X99.216 Y43.260 E19.50860
G1 X99.776 Y43.260 E19.53630
G1 X99.980 Y43.464 E19.55053
G1 X98.204 Y45.050 F9000.000
G1 X96.414 Y43.260 E19.67565 F600.000
G1 X95.853 Y43.260 E19.70335
G1 X97.353 Y44.759 E19.80816
G1 X96.746 Y44.713 E19.83825
G1 X95.293 Y43.260 E19.93979
G1 X94.733 Y43.260 E19.96749
G1 X96.258 Y44.786 E20.07413
G1 X95.835 Y44.923 E20.09611
G1 X94.172 Y43.260 E20.21235
G1 X93.646 Y43.294 E20.23842
G1 X95.462 Y45.111 E20.36538
G1 X95.143 Y45.351 E20.38516
G1 X93.640 Y43.849 E20.49020
G1 X93.640 Y44.409 E20.51790
G1 X94.846 Y45.615 E20.60218
G1 X94.610 Y45.939 E20.62201
G1 X93.640 Y44.969 E20.68981
G1 X93.640 Y45.530 E20.71751
G1 X94.406 Y46.295 E20.77102
G1 X94.247 Y46.697 E20.79237
G1 X93.640 Y46.090 E20.83477
G1 X93.640 Y46.651 E20.86247
G1 X94.151 Y47.162 E20.89818
G1 X93.640 Y47.211 E20.92355
G1 X94.151 Y47.722 E20.95926
G1 X93.640 Y47.771 E20.98463
G1 X94.346 Y48.477 E21.03398
G1 E15.03398 F1800.00000
G92 E0
G1 X110.139 Y26.139 F9000.000
G1 E6.00000 F1800.00000
G1 X109.908 Y25.859 E6.01745 F600.000
G1 X109.647 Y25.385 E6.04351
G1 X109.533 Y25.023 E6.06174
G1 X109.466 Y24.479 E6.08813
G1 X109.537 Y23.916 E6.11540
G1 X109.649 Y23.571 E6.13286
G1 X109.908 Y23.101 E6.15867
G1 X110.119 Y22.845 E6.17461
G1 X110.361 Y22.618 E6.19055
G1 X110.814 Y22.331 E6.21636
G1 X111.151 Y22.197 E6.23382
G1 X111.679 Y22.096 E6.25964
G1 X112.041 Y22.096 E6.27709 F600.000
G1 X112.600 Y22.203 E6.30444
G1 X113.114 Y22.445 E6.33178
G1 X113.408 Y22.658 E6.34923
G1 X113.797 Y23.073 E6.37657
G1 X114.073 Y23.575 E6.40415
G1 X114.187 Y23.937 E6.42239
G1 X114.254 Y24.481 E6.44877
G1 X114.183 Y25.044 E6.47604
G1 X114.071 Y25.389 E6.49350
G1 X113.812 Y25.859 E6.51931
G1 X113.601 Y26.115 E6.53525
G1 X113.359 Y26.342 E6.55119
G1 X112.906 Y26.629 E6.57700
G1 X112.569 Y26.763 E6.59446
G1 X112.041 Y26.864 E6.62028
G1 X111.679 Y26.864 E6.63774
G1 X111.120 Y26.757 E6.66508
G1 X110.577 Y26.501 E6.69394
G1 X110.185 Y26.177 E6.71840
G1 X110.413 Y25.865 F9000.000
G1 X110.228 Y25.642 E6.73235 F600.000
G1 X110.003 Y25.233 E6.75480
G1 X109.912 Y24.941 E6.76950
G1 X109.855 Y24.479 E6.79189
G1 X109.915 Y24.000 E6.81509
G1 X110.005 Y23.725 E6.82904
G1 X110.228 Y23.318 E6.85135
G1 X110.401 Y23.110 E6.86436
G1 X110.598 Y22.924 E6.87738
G1 X110.990 Y22.676 E6.89969
G1 X111.259 Y22.569 E6.91364
G1 X111.715 Y22.482 E6.93595
G1 X112.005 Y22.482 E6.94990 F600.000
G1 X112.480 Y22.573 E6.97315
G1 X112.917 Y22.778 E6.99639
G1 X113.152 Y22.949 E7.01034
G1 X113.482 Y23.301 E7.03358
G1 X113.717 Y23.727 E7.05697
G1 X113.808 Y24.019 E7.07168
G1 X113.865 Y24.481 E7.09406
G1 X113.805 Y24.959 E7.11726
G1 X113.715 Y25.235 E7.13121
G1 X113.492 Y25.642 E7.15352
G1 X113.319 Y25.850 E7.16654
G1 X113.122 Y26.036 E7.17956
G1 X112.730 Y26.284 E7.20186
G1 X112.461 Y26.391 E7.21581
G1 X112.005 Y26.478 E7.23813
G1 X111.715 Y26.478 E7.25208
G1 X111.240 Y26.387 E7.27532
G1 X110.785 Y26.173 E7.29950
G1 X110.459 Y25.903 E7.31986
G1 X110.687 Y25.591 F9000.000
G1 X110.549 Y25.424 E7.33030 F600.000
G1 X110.360 Y25.080 E7.34916
G1 X110.290 Y24.859 E7.36033
