; generated by Slic3r 1.2.9 on 2018-06-02 at 21:44:46

; external perimeters extrusion width = 0.40mm
; perimeters extrusion width = 0.62mm
; infill extrusion width = 0.33mm
; solid infill extrusion width = 0.62mm
; top infill extrusion width = 0.20mm

M106 S256; Turn on fan to 100% power
M104 S140; turn on extruder temperature at S value
M140 S60; turn on bed temperature at S value
G28; home all axes
M84; disable motors
G1 Z15 F15000; have Z move to 20mm at 15000 mm/min
M190 S55; turn on bed temperature at S value and wait
M140 S55; turn on bed temperature at S value (printing temperature)
M109 S200; turn on extruder temperature at S value and wait (printing temperature)
M104 S200; turn on extruder temperature at S value
G1 Z0 F12000; move Z back to home
G21 ; set units to millimeters
G90 ; use absolute coordinates
M82 ; use absolute distances for extrusion
G92 E0
M106 S255
;Layer change
G1 E-6.00000 F1800.00000
G92 E0
G1 Z0.300 F9000.000
G1 X90.295 Y10.150 F9000.000
G1 E6.00000 F1800.00000
G1 X90.686 Y8.840 E6.06650 F600.000
G1 X91.733 Y7.961 E6.13300
G1 X92.680 Y7.764 E6.18009
G1 X158.180 Y7.764 E9.36670
G1 X159.489 Y8.156 E9.43320
G1 X160.369 Y9.202 E9.49971 F600.000
G1 X160.565 Y10.150 E9.54679
G1 X160.565 Y13.150 E9.69274
G1 X160.549 Y13.427 E9.70626
G1 X154.758 Y62.847 E12.12704
G1 X154.711 Y63.094 E12.13925
G1 X154.560 Y63.619 E12.16584
G1 X154.341 Y64.131 E12.19292
G1 X154.062 Y64.604 E12.21965
G1 X153.886 Y64.846 E12.23422
G1 X153.725 Y65.041 E12.24648
G1 X153.338 Y65.430 E12.27321
G1 X152.905 Y65.768 E12.29994
G1 X152.651 Y65.929 E12.31456
G1 X152.431 Y66.050 E12.32678
G1 X151.926 Y66.270 E12.35360
G1 X151.399 Y66.425 E12.38032
G1 X151.104 Y66.481 E12.39489
G1 X150.504 Y66.534 E12.42421
G1 X100.430 Y66.536 E14.86036
G1 X100.029 Y66.515 E14.87988
G1 X99.733 Y66.478 E14.89439
G1 X99.486 Y66.431 E14.90664
G1 X98.957 Y66.278 E14.93345
G1 X98.678 Y66.168 E14.94803
G1 X98.188 Y65.917 E14.97480
G1 X97.734 Y65.606 E15.00156
G1 X97.540 Y65.446 E15.01381
G1 X97.322 Y65.241 E15.02839
G1 X96.960 Y64.828 E15.05511
G1 X96.651 Y64.371 E15.08194
G1 X96.530 Y64.151 E15.09417
G1 X96.310 Y63.645 E15.12098
G1 X96.155 Y63.119 E15.14770
G1 X96.099 Y62.824 E15.16229
G1 X90.311 Y13.428 E17.58192
G1 X90.295 Y13.150 E17.59544
G1 X90.295 Y10.210 E17.73847
G1 E11.73847 F1800.00000
G92 E0
G1 X144.562 Y44.831 F9000.000
G1 E6.00000 F1800.00000
G1 X145.114 Y45.700 E6.05009 F600.000
G1 X145.553 Y46.632 E6.10018
G1 X145.871 Y47.611 E6.15026
G1 X146.064 Y48.622 E6.20035
G1 X146.128 Y49.650 E6.25044
G1 X146.064 Y50.678 E6.30053
G1 X145.871 Y51.689 E6.35062
G1 X145.553 Y52.668 E6.40071
G1 X145.114 Y53.599 E6.45079
G1 X144.562 Y54.469 E6.50088
G1 X143.906 Y55.262 E6.55097
G1 X143.156 Y55.967 E6.60105
G1 X142.323 Y56.572 E6.65114
G1 X141.421 Y57.068 E6.70124
G1 X140.463 Y57.447 E6.75132
G1 X139.466 Y57.703 E6.80141
G1 X138.445 Y57.832 E6.85150
G1 X137.415 Y57.832 E6.90159
G1 X136.394 Y57.703 E6.95167
G1 X135.397 Y57.447 E7.00176
G1 X134.439 Y57.068 E7.05185
G1 X133.537 Y56.572 E7.10194
G1 X132.704 Y55.967 E7.15203
G1 X131.954 Y55.262 E7.20212
G1 X131.298 Y54.469 E7.25220
G1 X130.746 Y53.599 E7.30229
G1 X130.308 Y52.668 E7.35238
G1 X129.989 Y51.689 E7.40247
G1 X129.796 Y50.678 E7.45256
G1 X129.732 Y49.650 E7.50264
G1 X129.796 Y48.622 E7.55273
G1 X129.989 Y47.611 E7.60282
G1 X130.308 Y46.632 E7.65291
G1 X130.746 Y45.700 E7.70300
G1 X131.298 Y44.831 E7.75309
G1 X131.954 Y44.038 E7.80317
G1 X132.704 Y43.333 E7.85326
G1 X133.537 Y42.728 E7.90335
G1 X134.439 Y42.232 E7.95344
G1 X135.397 Y41.853 E8.00353
G1 X136.394 Y41.597 E8.05362
G1 X137.415 Y41.468 E8.10370
G1 X138.445 Y41.468 E8.15379 F600.000
G1 X139.466 Y41.597 E8.20388
G1 X140.463 Y41.853 E8.25397
G1 X141.421 Y42.232 E8.30405
G1 X142.323 Y42.728 E8.35414
G1 X143.156 Y43.333 E8.40423
G1 X143.906 Y44.038 E8.45432
G1 X144.524 Y44.785 E8.50149
G1 X144.250 Y45.058 F9000.000
G1 X144.776 Y45.887 E8.54922 F600.000
G1 X145.193 Y46.774 E8.59694
G1 X145.496 Y47.707 E8.64467
G1 X145.680 Y48.671 E8.69240
G1 X145.742 Y49.650 E8.74013
G1 X145.680 Y50.629 E8.78785
G1 X145.496 Y51.593 E8.83558
G1 X145.193 Y52.526 E8.88331
G1 X144.776 Y53.413 E8.93104
G1 X144.250 Y54.242 E8.97877
G1 X143.625 Y54.998 E9.02649
G1 X142.910 Y55.669 E9.07422
G1 X142.116 Y56.246 E9.12195
G1 X141.256 Y56.718 E9.16968
G1 X140.344 Y57.079 E9.21740
G1 X139.394 Y57.323 E9.26513
G1 X138.421 Y57.446 E9.31286
G1 X137.439 Y57.446 E9.36058
G1 X136.466 Y57.323 E9.40831
G1 X135.516 Y57.079 E9.45604
G1 X134.604 Y56.718 E9.50377
G1 X133.744 Y56.246 E9.55149
G1 X132.951 Y55.669 E9.59922
G1 X132.235 Y54.998 E9.64695
G1 X131.610 Y54.242 E9.69468
G1 X131.084 Y53.413 E9.74241
G1 X130.667 Y52.526 E9.79013
G1 X130.364 Y51.593 E9.83786
G1 X130.180 Y50.629 E9.88559
G1 X130.118 Y49.650 E9.93331
G1 X130.180 Y48.671 E9.98104
G1 X130.364 Y47.707 E10.02877
G1 X130.667 Y46.774 E10.07650
G1 X131.084 Y45.887 E10.12423
G1 X131.610 Y45.058 E10.17195
G1 X132.235 Y44.302 E10.21968
G1 X132.951 Y43.631 E10.26741
G1 X133.744 Y43.054 E10.31514
G1 X134.604 Y42.582 E10.36286
G1 X135.516 Y42.221 E10.41059
G1 X136.466 Y41.977 E10.45832
G1 X137.439 Y41.854 E10.50604
G1 X138.421 Y41.854 E10.55377 F600.000
G1 X139.394 Y41.977 E10.60150
G1 X140.344 Y42.221 E10.64923
G1 X141.256 Y42.582 E10.69695
G1 X142.116 Y43.054 E10.74468
G1 X142.909 Y43.631 E10.79241
G1 X143.625 Y44.302 E10.84014
G1 X144.212 Y45.012 E10.88495
G1 X143.937 Y45.285 F9000.000
G1 X144.437 Y46.073 E10.93031 F600.000
G1 X144.834 Y46.917 E10.97568
G1 X145.122 Y47.803 E11.02105
G1 X145.297 Y48.719 E11.06641
G1 X145.355 Y49.650 E11.11178
G1 X145.297 Y50.581 E11.15715
G1 X145.122 Y51.497 E11.20252
G1 X144.834 Y52.383 E11.24788
G1 X144.437 Y53.227 E11.29325
G1 X143.937 Y54.015 E11.33862
G1 X143.343 Y54.733 E11.38398
G1 X142.663 Y55.371 E11.42935
G1 X141.909 Y55.920 E11.47471
G1 X141.092 Y56.369 E11.52008
G1 X140.225 Y56.712 E11.56545
G1 X139.321 Y56.944 E11.61082
G1 X138.396 Y57.061 E11.65618
G1 X137.464 Y57.061 E11.70155
G1 X136.539 Y56.944 E11.74691
G1 X135.635 Y56.712 E11.79228
G1 X134.768 Y56.369 E11.83765
G1 X133.951 Y55.920 E11.88302
G1 X133.197 Y55.371 E11.92838
G1 X132.517 Y54.733 E11.97375
G1 X131.923 Y54.015 E12.01912
G1 X131.423 Y53.227 E12.06449
G1 X131.026 Y52.383 E12.10985
G1 X130.738 Y51.497 E12.15522
G1 X130.563 Y50.581 E12.20059
G1 X130.505 Y49.650 E12.24595
G1 X130.563 Y48.719 E12.29132
G1 X130.738 Y47.803 E12.33669
G1 X131.026 Y46.917 E12.38205
G1 X131.423 Y46.073 E12.42742
G1 X131.923 Y45.285 E12.47279
G1 X132.517 Y44.567 E12.51815
G1 X133.197 Y43.929 E12.56352
G1 X133.951 Y43.380 E12.60889
G1 X134.768 Y42.931 E12.65425
G1 X135.635 Y42.588 E12.69962
G1 X136.539 Y42.356 E12.74499
G1 X137.464 Y42.239 E12.79035
G1 X138.396 Y42.239 E12.83572 F600.000
G1 X139.321 Y42.356 E12.88109
G1 X140.225 Y42.588 E12.92645
G1 X141.092 Y42.931 E12.97182
G1 X141.909 Y43.380 E13.01719
G1 X142.663 Y43.929 E13.06256
G1 X143.343 Y44.567 E13.10792
G1 X143.899 Y45.239 E13.15037
G1 X144.336 Y45.252 F9000.000
G1 E7.15037 F1800.00000
G92 E0
G1 X121.064 Y48.622 F9000.000
G1 E6.00000 F1800.00000
G1 X121.128 Y49.650 E6.05009 F600.000
G1 X121.064 Y50.678 E6.10018
G1 X120.871 Y51.689 E6.15027
G1 X120.552 Y52.668 E6.20035
G1 X120.114 Y53.599 E6.25044
G1 X119.562 Y54.469 E6.30053
G1 X118.906 Y55.262 E6.35062
G1 X118.156 Y55.967 E6.40070
G1 X117.323 Y56.572 E6.45079
G1 X116.421 Y57.068 E6.50088
G1 X115.463 Y57.447 E6.55097
G1 X114.466 Y57.703 E6.60106
G1 X113.445 Y57.832 E6.65115
G1 X112.415 Y57.832 E6.70123
G1 X111.394 Y57.703 E6.75132
G1 X110.397 Y57.447 E6.80141
G1 X109.439 Y57.068 E6.85149
G1 X108.537 Y56.572 E6.90159
G1 X107.704 Y55.967 E6.95168
G1 X106.954 Y55.262 E7.00177
G1 X106.298 Y54.469 E7.05185
G1 X105.746 Y53.599 E7.10194
G1 X105.307 Y52.668 E7.15203
G1 X104.989 Y51.689 E7.20212
G1 X104.796 Y50.678 E7.25220
G1 X104.732 Y49.650 E7.30229
G1 X104.796 Y48.622 E7.35238
G1 X104.989 Y47.611 E7.40247
G1 X105.307 Y46.632 E7.45256
G1 X105.746 Y45.700 E7.50265
G1 X106.298 Y44.831 E7.55273
G1 X106.954 Y44.038 E7.60282
G1 X107.704 Y43.333 E7.65291
G1 X108.537 Y42.728 E7.70300
G1 X109.439 Y42.232 E7.75309
G1 X110.397 Y41.853 E7.80318
G1 X111.394 Y41.597 E7.85326
G1 X112.415 Y41.468 E7.90335
G1 X113.445 Y41.468 E7.95344 F600.000
G1 X114.466 Y41.597 E8.00352
G1 X115.463 Y41.853 E8.05361
G1 X116.421 Y42.232 E8.10370
G1 X117.323 Y42.728 E8.15379
G1 X118.156 Y43.333 E8.20388
G1 X118.906 Y44.038 E8.25397
G1 X119.562 Y44.831 E8.30405
G1 X120.114 Y45.700 E8.35414
G1 X120.552 Y46.632 E8.40423
G1 X120.871 Y47.611 E8.45432
G1 X121.052 Y48.564 E8.50149
G1 X120.680 Y48.671 F9000.000
G1 X120.742 Y49.650 E8.54922 F600.000
G1 X120.680 Y50.629 E8.59694
G1 X120.496 Y51.593 E8.64467
G1 X120.193 Y52.526 E8.69240
G1 X119.776 Y53.413 E8.74012
G1 X119.250 Y54.242 E8.78786
G1 X118.625 Y54.998 E8.83558
G1 X117.909 Y55.669 E8.88331
G1 X117.116 Y56.246 E8.93104
G1 X116.256 Y56.718 E8.97877
G1 X115.344 Y57.079 E9.02649
G1 X114.394 Y57.323 E9.07422
G1 X113.421 Y57.446 E9.12195
G1 X112.439 Y57.446 E9.16967
G1 X111.466 Y57.323 E9.21740
G1 X110.516 Y57.079 E9.26513
G1 X109.604 Y56.718 E9.31285
G1 X108.744 Y56.246 E9.36059
G1 X107.950 Y55.669 E9.40832
G1 X107.235 Y54.998 E9.45604
G1 X106.610 Y54.242 E9.50376
G1 X106.084 Y53.413 E9.55150
G1 X105.667 Y52.526 E9.59922
G1 X105.364 Y51.593 E9.64695
G1 X105.180 Y50.629 E9.69468
G1 X105.118 Y49.650 E9.74240
G1 X105.180 Y48.671 E9.79013
G1 X105.364 Y47.707 E9.83786
G1 X105.667 Y46.774 E9.88559
G1 X106.084 Y45.887 E9.93332
G1 X106.610 Y45.058 E9.98104
G1 X107.235 Y44.302 E10.02877
G1 X107.951 Y43.631 E10.07650
G1 X108.744 Y43.054 E10.12422
G1 X109.604 Y42.582 E10.17195
G1 X110.516 Y42.221 E10.21968
G1 X111.466 Y41.977 E10.26741
G1 X112.439 Y41.854 E10.31513
G1 X113.421 Y41.854 E10.36286 F600.000
G1 X114.394 Y41.977 E10.41059
G1 X115.344 Y42.221 E10.45832
G1 X116.256 Y42.582 E10.50604
G1 X117.116 Y43.054 E10.55377
G1 X117.909 Y43.631 E10.60150
G1 X118.625 Y44.302 E10.64923
G1 X119.250 Y45.058 E10.69695
G1 X119.776 Y45.887 E10.74468
G1 X120.193 Y46.774 E10.79241
G1 X120.496 Y47.707 E10.84014
G1 X120.669 Y48.612 E10.88495
G1 X120.297 Y48.719 F9000.000
G1 X120.355 Y49.650 E10.93031 F600.000
G1 X120.297 Y50.581 E10.97568
G1 X120.122 Y51.497 E11.02105
G1 X119.834 Y52.383 E11.06641
G1 X119.437 Y53.227 E11.11178
G1 X118.937 Y54.015 E11.15715
G1 X118.343 Y54.733 E11.20251
G1 X117.663 Y55.371 E11.24788
G1 X116.909 Y55.920 E11.29325
G1 X116.092 Y56.369 E11.33861
G1 X115.225 Y56.712 E11.38398
G1 X114.321 Y56.944 E11.42935
G1 X113.396 Y57.061 E11.47471
G1 X112.464 Y57.061 E11.52008
G1 X111.539 Y56.944 E11.56545
G1 X110.635 Y56.712 E11.61081
G1 X109.768 Y56.369 E11.65618
G1 X108.951 Y55.920 E11.70155
G1 X108.197 Y55.371 E11.74692
G1 X107.517 Y54.733 E11.79229
G1 X106.923 Y54.015 E11.83765
G1 X106.423 Y53.227 E11.88302
G1 X106.026 Y52.383 E11.92838
G1 X105.738 Y51.497 E11.97375
G1 X105.563 Y50.581 E12.01912
G1 X105.505 Y49.650 E12.06448
G1 X105.563 Y48.719 E12.10985
G1 X105.738 Y47.803 E12.15522
G1 X106.026 Y46.917 E12.20058
G1 X106.423 Y46.073 E12.24595
G1 X106.923 Y45.285 E12.29132
G1 X107.517 Y44.567 E12.33668
G1 X108.197 Y43.929 E12.38205
G1 X108.951 Y43.380 E12.42742
G1 X109.768 Y42.931 E12.47279
G1 X110.635 Y42.588 E12.51815
G1 X111.539 Y42.356 E12.56352
G1 X112.464 Y42.239 E12.60889
G1 X113.396 Y42.239 E12.65425 F600.000
G1 X114.321 Y42.356 E12.69962
G1 X115.225 Y42.588 E12.74499
G1 X116.092 Y42.931 E12.79035
G1 X116.909 Y43.380 E12.83572
G1 X117.663 Y43.929 E12.88109
G1 X118.343 Y44.567 E12.92645
G1 X118.937 Y45.285 E12.97182
G1 X119.437 Y46.073 E13.01719
G1 X119.834 Y46.917 E13.06255
G1 X120.122 Y47.803 E13.10792
G1 X120.286 Y48.660 E13.15037
G1 X120.662 Y48.882 F9000.000
G1 X115.463 Y32.447 F9000.000
G1 X114.466 Y32.703 E13.20046 F600.000
G1 X113.445 Y32.832 E13.25054
G1 X112.415 Y32.832 E13.30063
G1 X111.394 Y32.703 E13.35072
G1 X110.397 Y32.447 E13.40081
G1 X109.439 Y32.068 E13.45089
G1 X108.537 Y31.572 E13.50099
G1 X107.704 Y30.967 E13.55107
G1 X106.954 Y30.262 E13.60116
G1 X106.298 Y29.469 E13.65125
G1 X105.746 Y28.600 E13.70134
G1 X105.307 Y27.668 E13.75142
G1 X104.989 Y26.689 E13.80151
G1 X104.796 Y25.678 E13.85160
G1 X104.732 Y24.650 E13.90169
G1 X104.796 Y23.622 E13.95178
G1 X104.989 Y22.611 E14.00187
G1 X105.307 Y21.632 E14.05195
G1 X105.746 Y20.701 E14.10204
G1 X106.298 Y19.831 E14.15213
G1 X106.954 Y19.038 E14.20221
G1 X107.704 Y18.333 E14.25230
G1 X108.537 Y17.728 E14.30239
G1 X109.439 Y17.232 E14.35249
G1 X110.397 Y16.853 E14.40257
G1 X111.394 Y16.597 E14.45266
G1 X112.415 Y16.468 E14.50275
G1 X113.445 Y16.468 E14.55284 F600.000
G1 X114.466 Y16.597 E14.60292
G1 X115.463 Y16.853 E14.65301
G1 X116.421 Y17.232 E14.70310
G1 X117.323 Y17.728 E14.75319
G1 X118.156 Y18.333 E14.80328
G1 X118.906 Y19.038 E14.85337
G1 X119.562 Y19.831 E14.90345
G1 X120.114 Y20.701 E14.95354
G1 X120.552 Y21.632 E15.00363
G1 X120.871 Y22.611 E15.05372
G1 X121.064 Y23.622 E15.10381
G1 X121.128 Y24.650 E15.15389
G1 X121.064 Y25.678 E15.20398
G1 X120.871 Y26.689 E15.25407
G1 X120.552 Y27.668 E15.30416
G1 X120.114 Y28.600 E15.35425
G1 X119.562 Y29.469 E15.40434
G1 X118.906 Y30.262 E15.45442
G1 X118.156 Y30.967 E15.50451
G1 X117.323 Y31.572 E15.55460
G1 X116.421 Y32.068 E15.60469
G1 X115.519 Y32.425 E15.65186
G1 X115.344 Y32.079 F9000.000
G1 X114.394 Y32.323 E15.69959 F600.000
G1 X113.421 Y32.446 E15.74731
G1 X112.439 Y32.446 E15.79504
G1 X111.466 Y32.323 E15.84276
G1 X110.516 Y32.079 E15.89049
G1 X109.604 Y31.718 E15.93822
G1 X108.744 Y31.246 E15.98595
G1 X107.951 Y30.669 E16.03368
G1 X107.235 Y29.998 E16.08141
G1 X106.610 Y29.242 E16.12913
G1 X106.084 Y28.413 E16.17686
G1 X105.667 Y27.526 E16.22459
G1 X105.364 Y26.593 E16.27231
G1 X105.180 Y25.629 E16.32004
G1 X105.118 Y24.650 E16.36777
G1 X105.180 Y23.671 E16.41550
G1 X105.364 Y22.707 E16.46322
G1 X105.667 Y21.774 E16.51095
G1 X106.084 Y20.887 E16.55868
G1 X106.610 Y20.058 E16.60641
G1 X107.235 Y19.302 E16.65413
G1 X107.950 Y18.631 E16.70186
G1 X108.744 Y18.054 E16.74959
G1 X109.604 Y17.582 E16.79732
G1 X110.516 Y17.221 E16.84505
G1 X111.466 Y16.977 E16.89277
G1 X112.439 Y16.854 E16.94050
G1 X113.421 Y16.854 E16.98823 F600.000
G1 X114.394 Y16.977 E17.03595
G1 X115.344 Y17.221 E17.08368
G1 X116.256 Y17.582 E17.13141
G1 X117.116 Y18.054 E17.17914
G1 X117.909 Y18.631 E17.22687
G1 X118.625 Y19.302 E17.27459
G1 X119.250 Y20.058 E17.32232
G1 X119.776 Y20.887 E17.37005
G1 X120.193 Y21.774 E17.41777
G1 X120.496 Y22.707 E17.46550
G1 X120.680 Y23.671 E17.51323
G1 X120.742 Y24.650 E17.56096
G1 X120.680 Y25.629 E17.60868
G1 X120.496 Y26.593 E17.65641
G1 X120.193 Y27.526 E17.70414
G1 X119.776 Y28.413 E17.75187
G1 X119.250 Y29.242 E17.79959
G1 X118.625 Y29.998 E17.84732
G1 X117.909 Y30.669 E17.89505
G1 X117.116 Y31.246 E17.94278
G1 X116.256 Y31.718 E17.99050
G1 X115.400 Y32.057 E18.03531
G1 X115.225 Y31.712 F9000.000
G1 X114.321 Y31.944 E18.08068 F600.000
G1 X113.396 Y32.061 E18.12605
G1 X112.464 Y32.061 E18.17141
G1 X111.539 Y31.944 E18.21678
G1 X110.635 Y31.712 E18.26215
G1 X109.768 Y31.369 E18.30751
G1 X108.951 Y30.920 E18.35288
G1 X108.197 Y30.371 E18.39825
G1 X107.517 Y29.733 E18.44362
G1 X106.923 Y29.015 E18.48898
G1 X106.423 Y28.227 E18.53435
G1 X106.026 Y27.383 E18.57972
G1 X105.738 Y26.497 E18.62508
G1 X105.563 Y25.581 E18.67045
G1 X105.505 Y24.650 E18.71582
G1 X105.563 Y23.719 E18.76118
G1 X105.738 Y22.803 E18.80655
G1 X106.026 Y21.917 E18.85192
G1 X106.423 Y21.073 E18.89728
G1 X106.923 Y20.285 E18.94265
G1 X107.517 Y19.567 E18.98801
G1 X108.197 Y18.929 E19.03338
G1 X108.951 Y18.380 E19.07875
G1 X109.768 Y17.931 E19.12412
G1 X110.635 Y17.588 E19.16949
G1 X111.539 Y17.356 E19.21485
G1 X112.464 Y17.239 E19.26022
G1 X113.396 Y17.239 E19.30559 F600.000
G1 X114.321 Y17.356 E19.35095
G1 X115.225 Y17.588 E19.39632
G1 X116.092 Y17.931 E19.44168
G1 X116.909 Y18.380 E19.48705
G1 X117.663 Y18.929 E19.53242
G1 X118.343 Y19.567 E19.57779
G1 X118.937 Y20.285 E19.62315
G1 X119.437 Y21.073 E19.66852
G1 X119.834 Y21.917 E19.71389
G1 X120.122 Y22.803 E19.75925
G1 X120.297 Y23.719 E19.80462
G1 X120.355 Y24.650 E19.84999
G1 X120.297 Y25.581 E19.89535
G1 X120.122 Y26.497 E19.94072
