; generated by Slic3r 1.2.9 on 2018-07-19 at 15:08:24

; external perimeters extrusion width = 0.40mm
; perimeters extrusion width = 0.62mm
; infill extrusion width = 0.33mm
; solid infill extrusion width = 0.62mm
; top infill extrusion width = 0.20mm

M106 S256; Turn on fan to 100% power
M104 S140; turn on extruder temperature at S value
M140 S60; turn on bed temperature at S value
G28; home all axes
M84; disable motors
G1 Z15 F15000; have Z move to 20mm at 15000 mm/min
M190 S55; turn on bed temperature at S value and wait
M140 S55; turn on bed temperature at S value (printing temperature)
M109 S200; turn on extruder temperature at S value and wait (printing temperature)
M104 S200; turn on extruder temperature at S value
G1 Z0 F12000; move Z back to home
G21 ; set units to millimeters
G90 ; use absolute coordinates
M82 ; use absolute distances for extrusion
G92 E0
M106 S255
;Layer change
G1 E-6.00000 F1800.00000
G92 E0
G1 Z0.300 F9000.000
G1 X55.154 Y10.740 F9000.000
G1 E6.00000 F1800.00000
G1 X55.546 Y9.430 E6.06727 F600.000
G1 X56.592 Y8.551 E6.13455
G1 X57.342 Y8.363 E6.17258
G1 X87.342 Y5.863 E7.65415
G1 X96.540 Y5.854 E8.10684
G1 X97.850 Y6.246 E8.17411
G1 X98.729 Y7.292 E8.24139 F600.000
G1 X98.926 Y8.240 E8.28902
G1 X98.926 Y28.240 E9.27332
G1 X98.534 Y29.550 E9.34059
G1 X97.488 Y30.429 E9.40787
G1 X96.540 Y30.626 E9.45550
G1 X87.342 Y30.617 E9.90819
G1 X57.342 Y28.117 E11.38976
G1 X56.069 Y27.618 E11.45703
G1 X55.280 Y26.503 E11.52430
G1 X55.154 Y25.740 E11.56234
G1 X55.154 Y10.800 E12.29761
G1 E6.29761 F1800.00000
G92 E0
G1 X93.953 Y24.749 F9000.000
G1 E6.00000 F1800.00000
G1 X94.000 Y24.999 E6.01253 F600.000
G1 X94.015 Y25.240 E6.02440
G1 X94.000 Y25.488 E6.03661
G1 X93.953 Y25.731 E6.04882
G1 X93.877 Y25.967 E6.06102
G1 X93.771 Y26.192 E6.07323
G1 X93.638 Y26.401 E6.08544
G1 X93.480 Y26.592 E6.09765
G1 X93.299 Y26.762 E6.10986
G1 X93.098 Y26.908 E6.12207
G1 X92.881 Y27.027 E6.13428
G1 X92.650 Y27.119 E6.14649
G1 X92.410 Y27.180 E6.15870
G1 X92.164 Y27.212 E6.17091
G1 X91.916 Y27.212 E6.18312
G1 X91.670 Y27.180 E6.19532
G1 X91.430 Y27.119 E6.20753
G1 X91.199 Y27.027 E6.21974
G1 X90.982 Y26.908 E6.23195
G1 X90.781 Y26.762 E6.24416
G1 X90.600 Y26.592 E6.25637
G1 X90.442 Y26.401 E6.26858
G1 X90.309 Y26.192 E6.28079
G1 X90.203 Y25.967 E6.29300
G1 X90.127 Y25.731 E6.30521
G1 X90.080 Y25.488 E6.31742
G1 X90.065 Y25.240 E6.32965
G1 X90.081 Y24.986 E6.34218
G1 X90.127 Y24.749 E6.35404
G1 X90.203 Y24.513 E6.36625
G1 X90.309 Y24.288 E6.37846
G1 X90.442 Y24.079 E6.39067
G1 X90.600 Y23.888 E6.40288
G1 X90.781 Y23.718 E6.41509
G1 X90.982 Y23.572 E6.42730
G1 X91.199 Y23.453 E6.43951
G1 X91.430 Y23.361 E6.45171
G1 X91.670 Y23.300 E6.46393
G1 X91.916 Y23.268 E6.47613
G1 X92.164 Y23.268 E6.48834 F600.000
G1 X92.410 Y23.300 E6.50055
G1 X92.650 Y23.361 E6.51276
G1 X92.881 Y23.453 E6.52497
G1 X93.098 Y23.572 E6.53718
G1 X93.299 Y23.718 E6.54939
G1 X93.480 Y23.888 E6.56160
G1 X93.638 Y24.079 E6.57381
G1 X93.771 Y24.288 E6.58602
G1 X93.877 Y24.513 E6.59822
G1 X93.935 Y24.692 E6.60750
G1 X94.197 Y24.823 F9000.000
G1 X92.410 Y13.180 F9000.000
G1 X92.164 Y13.212 E6.61971 F600.000
G1 X91.916 Y13.212 E6.63192
G1 X91.670 Y13.180 E6.64413
G1 X91.430 Y13.119 E6.65634
G1 X91.199 Y13.027 E6.66855
G1 X90.982 Y12.908 E6.68076
G1 X90.781 Y12.762 E6.69297
G1 X90.600 Y12.592 E6.70517
G1 X90.442 Y12.401 E6.71738
G1 X90.309 Y12.192 E6.72959
G1 X90.203 Y11.967 E6.74180
G1 X90.127 Y11.731 E6.75401
G1 X90.080 Y11.488 E6.76622
G1 X90.065 Y11.240 E6.77845
G1 X90.081 Y10.986 E6.79098
G1 X90.127 Y10.749 E6.80285
G1 X90.203 Y10.513 E6.81505
G1 X90.309 Y10.288 E6.82726
G1 X90.442 Y10.079 E6.83947
G1 X90.600 Y9.888 E6.85168
G1 X90.781 Y9.718 E6.86389
G1 X90.982 Y9.572 E6.87610
G1 X91.199 Y9.453 E6.88831
G1 X91.430 Y9.361 E6.90052
G1 X91.670 Y9.300 E6.91273
G1 X91.916 Y9.268 E6.92494
G1 X92.164 Y9.268 E6.93715 F600.000
G1 X92.410 Y9.300 E6.94935
G1 X92.650 Y9.361 E6.96157
G1 X92.881 Y9.453 E6.97377
G1 X93.098 Y9.572 E6.98598
G1 X93.299 Y9.718 E6.99819
G1 X93.480 Y9.888 E7.01040
G1 X93.638 Y10.079 E7.02261
G1 X93.771 Y10.288 E7.03482
G1 X93.877 Y10.513 E7.04703
G1 X93.953 Y10.749 E7.05926
G1 X94.000 Y10.999 E7.07179
G1 X94.015 Y11.240 E7.08365
G1 X94.000 Y11.488 E7.09586
G1 X93.953 Y11.731 E7.10807
G1 X93.877 Y11.967 E7.12028
G1 X93.771 Y12.192 E7.13249
G1 X93.638 Y12.401 E7.14470
G1 X93.480 Y12.592 E7.15691
G1 X93.299 Y12.762 E7.16912
G1 X93.098 Y12.908 E7.18133
G1 X92.881 Y13.027 E7.19354
G1 X92.650 Y13.119 E7.20574
G1 X92.468 Y13.166 E7.21500
G1 X92.324 Y13.413 F9000.000
G1 X88.922 Y26.386 F9000.000
G1 X89.103 Y26.346 E7.22412 F600.000
G1 X89.344 Y26.858 E7.25201
G1 X88.922 Y26.858 E7.27279
G1 X88.922 Y26.446 E7.29307
G1 E1.29307 F1800.00000
G92 E0
G1 X94.736 Y26.858 F9000.000
G1 E6.00000 F1800.00000
G1 X94.977 Y26.346 E6.02788 F600.000
G1 X95.158 Y26.386 E6.03701
G1 X95.158 Y26.858 E6.06025
G1 X94.796 Y26.858 E6.07807
G1 X95.158 Y24.094 F9000.000
G1 X94.977 Y24.134 E6.08719 F600.000
G1 X94.787 Y23.730 E6.10920
G1 X94.576 Y23.398 E6.12856
G1 X94.325 Y23.094 E6.14795
G1 X94.038 Y22.825 E6.16732
G1 X93.720 Y22.593 E6.18669
G1 X93.375 Y22.404 E6.20606
G1 X93.009 Y22.259 E6.22544
G1 X92.627 Y22.161 E6.24481
G1 X92.237 Y22.112 E6.26418
G1 X91.843 Y22.112 E6.28356
G1 X91.453 Y22.161 E6.30293
G1 X91.071 Y22.259 E6.32231
G1 X90.705 Y22.404 E6.34168
G1 X90.360 Y22.593 E6.36105
G1 X90.042 Y22.825 E6.38042
G1 X89.755 Y23.094 E6.39980
G1 X89.504 Y23.398 E6.41918
G1 X89.293 Y23.730 E6.43855
G1 X89.103 Y24.134 E6.46055
G1 X88.922 Y24.094 E6.46967
G1 X88.922 Y12.386 E7.04589
G1 X89.103 Y12.346 E7.05501
G1 X89.293 Y12.750 E7.07702
G1 X89.504 Y13.082 E7.09638
G1 X89.755 Y13.386 E7.11576
G1 X90.042 Y13.655 E7.13514
G1 X90.360 Y13.887 E7.15451
G1 X90.705 Y14.076 E7.17388
G1 X91.071 Y14.221 E7.19326
G1 X91.453 Y14.319 E7.21263
G1 X91.843 Y14.368 E7.23200
G1 X92.237 Y14.368 E7.25138
G1 X92.627 Y14.319 E7.27075
G1 X93.009 Y14.221 E7.29012
G1 X93.375 Y14.076 E7.30950
G1 X93.720 Y13.887 E7.32887
G1 X94.038 Y13.655 E7.34824
G1 X94.325 Y13.386 E7.36762
G1 X94.576 Y13.082 E7.38700
G1 X94.787 Y12.750 E7.40637
G1 X94.977 Y12.346 E7.42837
G1 X95.158 Y12.386 E7.43749
G1 X95.158 Y24.034 E8.01075
G1 X89.103 Y10.134 F9000.000
G1 X88.922 Y10.094 E8.01988 F600.000
G1 X88.922 Y9.622 E8.04311
G1 X89.344 Y9.622 E8.06389
G1 X89.128 Y10.080 E8.08882
G1 E2.08882 F1800.00000
G92 E0
G1 X94.736 Y9.622 F9000.000
G1 E6.00000 F1800.00000
G1 X95.158 Y9.622 E6.02078 F600.000
G1 X95.158 Y10.094 E6.04402
G1 X94.977 Y10.134 E6.05314
G1 X94.762 Y9.676 E6.07807
G1 X93.942 Y9.236 F9000.000
G1 X95.544 Y9.236 E6.15690 F600.000
G1 X95.544 Y27.244 E7.04314
G1 X93.942 Y27.244 E7.12197
G1 X94.263 Y26.855 E7.14678
G1 X94.448 Y26.564 E7.16377
G1 X94.595 Y26.252 E7.18075
G1 X94.702 Y25.923 E7.19773
G1 X94.767 Y25.584 E7.21472
G1 X94.788 Y25.240 E7.23170
G1 X94.767 Y24.904 E7.24828
G1 X94.702 Y24.558 E7.26558
G1 X94.595 Y24.228 E7.28266
G1 X94.448 Y23.916 E7.29964
G1 X94.263 Y23.625 E7.31662
G1 X94.043 Y23.359 E7.33361
G1 X93.792 Y23.122 E7.35060
G1 X93.513 Y22.920 E7.36759
G1 X93.210 Y22.753 E7.38457
G1 X92.889 Y22.626 E7.40155
G1 X92.555 Y22.540 E7.41854
G1 X92.213 Y22.497 E7.43552
G1 X91.867 Y22.497 E7.45251
G1 X91.525 Y22.540 E7.46949
G1 X91.191 Y22.626 E7.48648
G1 X90.870 Y22.753 E7.50347
G1 X90.567 Y22.920 E7.52045
G1 X90.288 Y23.122 E7.53744
G1 X90.037 Y23.359 E7.55442
G1 X89.817 Y23.625 E7.57141
G1 X89.632 Y23.916 E7.58839
G1 X89.485 Y24.228 E7.60538
G1 X89.378 Y24.557 E7.62236
G1 X89.315 Y24.887 E7.63893
G1 X89.292 Y25.238 E7.65624
G1 X89.313 Y25.584 E7.67332
G1 X89.378 Y25.923 E7.69030
G1 X89.485 Y26.252 E7.70729
G1 X89.632 Y26.564 E7.72427
G1 X89.817 Y26.855 E7.74125
G1 X90.138 Y27.244 E7.76607
G1 X88.536 Y27.244 E7.84489
G1 X88.536 Y9.236 E8.73114
G1 X90.138 Y9.236 E8.80997
G1 X89.817 Y9.625 E8.83478
G1 X89.632 Y9.916 E8.85176
G1 X89.485 Y10.228 E8.86874
G1 X89.378 Y10.557 E8.88573
G1 X89.315 Y10.887 E8.90230
G1 X89.292 Y11.238 E8.91961
G1 X89.313 Y11.584 E8.93669
G1 X89.378 Y11.923 E8.95367
G1 X89.485 Y12.252 E8.97066
G1 X89.632 Y12.564 E8.98764
G1 X89.817 Y12.855 E9.00462
G1 X90.037 Y13.121 E9.02161
G1 X90.288 Y13.358 E9.03859
G1 X90.567 Y13.560 E9.05558
G1 X90.870 Y13.727 E9.07257
G1 X91.191 Y13.854 E9.08955
G1 X91.525 Y13.940 E9.10654
G1 X91.867 Y13.983 E9.12352
G1 X92.213 Y13.983 E9.14051
G1 X92.555 Y13.940 E9.15749
G1 X92.889 Y13.854 E9.17448
G1 X93.210 Y13.727 E9.19146
G1 X93.513 Y13.560 E9.20845
G1 X93.792 Y13.358 E9.22543
G1 X94.043 Y13.121 E9.24242
G1 X94.263 Y12.855 E9.25941
G1 X94.448 Y12.564 E9.27639
G1 X94.595 Y12.252 E9.29337
G1 X94.702 Y11.923 E9.31036
G1 X94.767 Y11.584 E9.32734
G1 X94.788 Y11.240 E9.34433
G1 X94.767 Y10.904 E9.36090
G1 X94.702 Y10.558 E9.37821
G1 X94.595 Y10.228 E9.39528
G1 X94.448 Y9.916 E9.41227
G1 X94.263 Y9.625 E9.42925
G1 X93.980 Y9.282 E9.45111
G1 X92.919 Y8.851 F9000.000
G1 X95.929 Y8.851 E9.59926 F600.000
G1 X95.929 Y27.629 E10.52346
G1 X92.919 Y27.629 E10.67161
G1 X92.883 Y27.441 E10.68103
G1 X93.046 Y27.377 E10.68963
G1 X93.306 Y27.234 E10.70423
G1 X93.545 Y27.060 E10.71883
G1 X93.762 Y26.857 E10.73343
G1 X93.951 Y26.628 E10.74803
G1 X94.110 Y26.378 E10.76262
G1 X94.236 Y26.109 E10.77722
G1 X94.328 Y25.827 E10.79181
G1 X94.383 Y25.536 E10.80641
G1 X94.402 Y25.240 E10.82101
G1 X94.384 Y24.952 E10.83523
G1 X94.328 Y24.654 E10.85015
G1 X94.236 Y24.371 E10.86480
G1 X94.110 Y24.102 E10.87939
G1 X93.951 Y23.852 E10.89399
G1 X93.762 Y23.623 E10.90859
G1 X93.545 Y23.420 E10.92319
G1 X93.306 Y23.246 E10.93778
G1 X93.046 Y23.103 E10.95238
G1 X92.770 Y22.994 E10.96698
G1 X92.483 Y22.920 E10.98158
G1 X92.188 Y22.883 E10.99617
G1 X91.892 Y22.883 E11.01077
G1 X91.597 Y22.920 E11.02537
G1 X91.310 Y22.994 E11.03997
G1 X91.034 Y23.103 E11.05456
G1 X90.774 Y23.246 E11.06916
G1 X90.535 Y23.420 E11.08376
G1 X90.318 Y23.623 E11.09835
G1 X90.129 Y23.852 E11.11295
G1 X89.970 Y24.102 E11.12755
G1 X89.844 Y24.371 E11.14214
G1 X89.752 Y24.653 E11.15674
G1 X89.698 Y24.936 E11.17096
G1 X89.678 Y25.239 E11.18588
G1 X89.697 Y25.536 E11.20053
G1 X89.752 Y25.827 E11.21513
G1 X89.844 Y26.109 E11.22973
G1 X89.970 Y26.378 E11.24432
G1 X90.129 Y26.628 E11.25892
G1 X90.318 Y26.857 E11.27352
G1 X90.535 Y27.060 E11.28811
G1 X90.774 Y27.234 E11.30271
G1 X91.034 Y27.377 E11.31731
G1 X91.197 Y27.441 E11.32591
G1 X91.161 Y27.629 E11.33533
G1 X88.151 Y27.629 E11.48348
G1 X88.151 Y8.851 E12.40768
G1 X91.161 Y8.851 E12.55583
G1 X91.197 Y9.039 E12.56525
G1 X91.034 Y9.103 E12.57385
G1 X90.774 Y9.246 E12.58845
G1 X90.535 Y9.420 E12.60305
G1 X90.318 Y9.623 E12.61765
G1 X90.129 Y9.852 E12.63225
G1 X89.970 Y10.102 E12.64684
G1 X89.844 Y10.371 E12.66144
G1 X89.752 Y10.653 E12.67603
G1 X89.698 Y10.936 E12.69025
G1 X89.678 Y11.239 E12.70517
G1 X89.697 Y11.536 E12.71982
G1 X89.752 Y11.827 E12.73442
G1 X89.844 Y12.109 E12.74902
G1 X89.970 Y12.378 E12.76361
G1 X90.129 Y12.628 E12.77821
G1 X90.318 Y12.857 E12.79281
G1 X90.535 Y13.060 E12.80741
G1 X90.774 Y13.234 E12.82200
G1 X91.034 Y13.377 E12.83660
G1 X91.310 Y13.486 E12.85120
G1 X91.597 Y13.560 E12.86580
G1 X91.892 Y13.597 E12.88039
G1 X92.188 Y13.597 E12.89499
G1 X92.483 Y13.560 E12.90959
G1 X92.770 Y13.486 E12.92419
G1 X93.046 Y13.377 E12.93878
G1 X93.306 Y13.234 E12.95338
G1 X93.545 Y13.060 E12.96798
G1 X93.762 Y12.857 E12.98257
G1 X93.951 Y12.628 E12.99717
G1 X94.110 Y12.378 E13.01177
G1 X94.236 Y12.109 E13.02636
G1 X94.328 Y11.827 E13.04096
G1 X94.383 Y11.536 E13.05556
G1 X94.402 Y11.240 E13.07016
G1 X94.384 Y10.952 E13.08437
G1 X94.328 Y10.654 E13.09929
G1 X94.236 Y10.371 E13.11395
G1 X94.110 Y10.102 E13.12854
G1 X93.951 Y9.852 E13.14314
G1 X93.762 Y9.623 E13.15774
G1 X93.545 Y9.420 E13.17233
G1 X93.306 Y9.246 E13.18693
G1 X93.046 Y9.103 E13.20153
G1 X92.883 Y9.039 E13.21013
G1 X92.908 Y8.910 E13.21659
G1 X96.315 Y8.465 F9000.000
G1 X96.315 Y28.015 E14.17875 F600.000
G1 X87.765 Y28.015 E14.59954
G1 X87.765 Y8.465 E15.56169
G1 X96.255 Y8.465 E15.97953
G1 X96.115 Y8.811 F9000.000
G1 X95.103 Y10.304 F9000.000
G1 X95.153 Y10.844 E16.03734 F600.000
G1 X95.166 Y11.252 E16.08086
G1 X95.153 Y11.646 E16.12293
G1 X95.103 Y12.176 E16.17972
G1 X94.874 Y13.552 F9000.000
G1 X94.677 Y13.354 E16.19379 F600.000
G1 X94.412 Y13.647 E16.21363
G1 X94.874 Y14.109 E16.24649
G1 X94.874 Y14.666 E16.27451
G1 X94.117 Y13.909 E16.32838
G1 X93.790 Y14.139 E16.34850
G1 X94.874 Y15.223 E16.42564
G1 X94.874 Y15.781 E16.45366
G1 X93.428 Y14.334 E16.55653
G1 X93.028 Y14.491 E16.57816
G1 X94.874 Y16.338 E16.70950
G1 X94.874 Y16.895 E16.73752
G1 X92.581 Y14.601 E16.90065
G1 X92.074 Y14.652 E16.92624
G1 X94.874 Y17.452 E17.12538
G1 X94.874 Y18.010 E17.15340
G1 X91.485 Y14.620 E17.39444
G1 X90.742 Y14.435 E17.43294
G1 X94.874 Y18.567 E17.72681
G1 X94.874 Y19.124 E17.75484
G1 X89.206 Y13.455 E18.15799
G1 X89.206 Y14.013 E18.18601
G1 X94.874 Y19.681 E18.58916
G1 X94.874 Y20.238 E18.61718
G1 X89.206 Y14.570 E19.02033
G1 X89.206 Y15.127 E19.04836
G1 X94.874 Y20.796 E19.45151
G1 X94.874 Y21.353 E19.47953
G1 X89.206 Y15.684 E19.88268
G1 X89.206 Y16.242 E19.91071
G1 X94.874 Y21.910 E20.31386
G1 X94.874 Y22.467 E20.34188
G1 X89.206 Y16.799 E20.74503
G1 X89.206 Y17.356 E20.77305
G1 X94.874 Y23.025 E21.17620
G1 X93.338 Y22.045 F9000.000
G1 X89.206 Y17.913 E21.47007 F600.000
G1 X89.206 Y18.471 E21.49809
G1 X92.595 Y21.860 E21.73914
G1 X92.006 Y21.828 E21.76881
G1 X89.206 Y19.028 E21.96795
G1 X89.206 Y19.585 E21.99597
G1 X91.499 Y21.879 E22.15909
G1 X91.052 Y21.989 E22.18224
G1 X89.206 Y20.142 E22.31358
G1 X89.206 Y20.699 E22.34161
G1 X90.652 Y22.146 E22.44447
G1 X90.290 Y22.341 E22.46515
G1 X89.206 Y21.257 E22.54229
G1 X89.206 Y21.814 E22.57031
G1 X89.963 Y22.571 E22.62418
G1 X89.668 Y22.833 E22.64403
G1 X89.206 Y22.371 E22.67689
G1 X89.206 Y22.928 E22.70491
G1 X89.403 Y23.126 E22.71898
G1 X88.977 Y24.304 F9000.000
G1 X88.928 Y24.825 E22.77483 F600.000
G1 X88.914 Y25.249 E22.82008
G1 X88.927 Y25.646 E22.86238
G1 X88.977 Y26.176 E22.91917
G1 X91.367 Y27.580 F9000.000
G1 X91.904 Y27.613 E22.97656 F600.000
G1 X92.713 Y27.580 E23.06297
G1 X95.103 Y26.176 F9000.000
G1 X95.153 Y25.646 E23.11976 F600.000
G1 X95.166 Y25.252 E23.16183
G1 X95.153 Y24.844 E23.20535
G1 X95.103 Y24.304 E23.26316
G1 X88.977 Y12.176 F9000.000
G1 X88.927 Y11.646 E23.31995 F600.000
G1 X88.914 Y11.249 E23.36225
G1 X88.928 Y10.825 E23.40750
G1 X88.977 Y10.304 E23.46335
G1 X91.367 Y8.900 F9000.000
G1 X91.904 Y8.867 E23.52074 F600.000
G1 X92.713 Y8.900 E23.60715
G1 E17.60715 F1800.00000
G92 E0
G1 X75.158 Y13.414 F9000.000
G1 E6.00000 F1800.00000
G1 X75.158 Y23.066 E6.47500 F600.000
G1 X74.963 Y23.097 E6.48473
G1 X74.802 Y22.600 E6.51041
G1 X74.487 Y22.027 E6.54259
G1 X74.218 Y21.699 E6.56351
G1 X73.942 Y21.440 E6.58208
G1 X73.639 Y21.220 E6.60053
G1 X73.311 Y21.039 E6.61897
G1 X72.962 Y20.901 E6.63742
G1 X72.599 Y20.808 E6.65587
G1 X72.227 Y20.761 E6.67431
G1 X71.850 Y20.761 E6.69288
G1 X71.428 Y20.816 E6.71381
G1 X70.805 Y21.020 E6.74611
G1 X70.395 Y21.247 E6.76915
G1 X69.858 Y21.691 E6.80345
G1 X69.448 Y22.255 E6.83776
G1 X69.247 Y22.678 E6.86080
G1 X69.124 Y23.156 E6.88509
G1 X68.922 Y23.130 E6.89512
G1 X68.922 Y13.414 E7.37329
G1 X69.117 Y13.383 E7.38301
G1 X69.265 Y13.839 E7.40658
G1 X69.425 Y14.178 E7.42502
G1 X69.625 Y14.494 E7.44347
G1 X69.864 Y14.783 E7.46192
G1 X70.138 Y15.040 E7.48036
G1 X70.441 Y15.260 E7.49881
G1 X70.769 Y15.441 E7.51726
G1 X71.118 Y15.579 E7.53570
G1 X71.481 Y15.672 E7.55415
G1 X71.853 Y15.719 E7.57259
G1 X72.227 Y15.719 E7.59104
G1 X72.599 Y15.672 E7.60949
G1 X72.962 Y15.579 E7.62793
G1 X73.311 Y15.441 E7.64638
G1 X73.639 Y15.260 E7.66483
G1 X73.942 Y15.040 E7.68327
G1 X74.216 Y14.783 E7.70172
G1 X74.455 Y14.494 E7.72016
G1 X74.655 Y14.178 E7.73861
G1 X74.815 Y13.839 E7.75706
G1 X74.963 Y13.383 E7.78062
G1 X75.099 Y13.405 E7.78740
G1 X75.544 Y11.736 F9000.000
G1 X75.544 Y24.744 E8.42756 F600.000
G1 X74.440 Y24.744 E8.48186
G1 X74.557 Y24.386 E8.50037
G1 X74.618 Y24.066 E8.51643
G1 X74.638 Y23.740 E8.53249
G1 X74.618 Y23.414 E8.54855
G1 X74.557 Y23.094 E8.56460
G1 X74.446 Y22.754 E8.58219
G1 X74.166 Y22.244 E8.61081
G1 X73.935 Y21.963 E8.62874
G1 X73.696 Y21.738 E8.64488
