; generated by Slic3r 1.2.9 on 2018-06-24 at 13:35:12

; external perimeters extrusion width = 0.40mm
; perimeters extrusion width = 0.62mm
; infill extrusion width = 0.33mm
; solid infill extrusion width = 0.62mm
; top infill extrusion width = 0.20mm

M106 S256; Turn on fan to 100% power
M104 S140; turn on extruder temperature at S value
M140 S60; turn on bed temperature at S value
G28; home all axes
M84; disable motors
G1 Z15 F15000; have Z move to 20mm at 15000 mm/min
M190 S55; turn on bed temperature at S value and wait
M140 S55; turn on bed temperature at S value (printing temperature)
M109 S200; turn on extruder temperature at S value and wait (printing temperature)
M104 S200; turn on extruder temperature at S value
G1 Z0 F12000; move Z back to home
G21 ; set units to millimeters
G90 ; use absolute coordinates
M82 ; use absolute distances for extrusion
G92 E0
M106 S255
;Layer change
G1 E-6.00000 F1800.00000
G92 E0
G1 Z0.300 F9000.000
G1 X112.334 Y5.850 F9000.000
G1 E6.00000 F1800.00000
G1 X112.726 Y4.540 E6.06727 F600.000
G1 X113.772 Y3.661 E6.13455
G1 X114.720 Y3.464 E6.18218
G1 X122.720 Y3.464 E6.57590
G1 X124.030 Y3.856 E6.64317
G1 X124.909 Y4.902 E6.71045 F600.000
G1 X125.106 Y5.850 E6.75808
G1 X125.106 Y25.850 E7.74238
G1 X124.714 Y27.160 E7.80966
G1 X123.668 Y28.039 E7.87693
G1 X122.720 Y28.236 E7.92456
G1 X114.720 Y28.236 E8.31828
G1 X113.410 Y27.844 E8.38556
G1 X112.531 Y26.798 E8.45283
G1 X112.334 Y25.850 E8.50046
G1 X112.334 Y5.910 E9.48181
G1 E3.48181 F1800.00000
G92 E0
G1 X120.680 Y22.602 F9000.000
G1 E6.00000 F1800.00000
G1 X120.695 Y22.850 E6.01223 F600.000
G1 X120.679 Y23.104 E6.02476
G1 X120.633 Y23.341 E6.03663
G1 X120.557 Y23.577 E6.04884
G1 X120.451 Y23.802 E6.06104
G1 X120.318 Y24.011 E6.07325
G1 X120.160 Y24.202 E6.08546
G1 X119.979 Y24.372 E6.09767
G1 X119.778 Y24.518 E6.10988
G1 X119.561 Y24.637 E6.12209
G1 X119.330 Y24.729 E6.13430
G1 X119.090 Y24.790 E6.14651
G1 X118.844 Y24.822 E6.15872
G1 X118.596 Y24.822 E6.17093
G1 X118.350 Y24.790 E6.18314
G1 X118.110 Y24.729 E6.19535
G1 X117.879 Y24.637 E6.20755
G1 X117.662 Y24.518 E6.21976
G1 X117.461 Y24.372 E6.23197
G1 X117.280 Y24.202 E6.24418
G1 X117.122 Y24.011 E6.25639
G1 X116.989 Y23.802 E6.26860
G1 X116.883 Y23.577 E6.28081
G1 X116.807 Y23.341 E6.29304
G1 X116.760 Y23.091 E6.30557
G1 X116.745 Y22.850 E6.31743
G1 X116.760 Y22.602 E6.32964
G1 X116.807 Y22.359 E6.34185
G1 X116.883 Y22.123 E6.35406
G1 X116.989 Y21.898 E6.36627
G1 X117.122 Y21.689 E6.37848
G1 X117.280 Y21.498 E6.39069
G1 X117.461 Y21.328 E6.40290
G1 X117.662 Y21.182 E6.41511
G1 X117.879 Y21.063 E6.42732
G1 X118.110 Y20.971 E6.43953
G1 X118.350 Y20.910 E6.45174
G1 X118.596 Y20.878 E6.46394
G1 X118.844 Y20.878 E6.47615 F600.000
G1 X119.090 Y20.910 E6.48836
G1 X119.330 Y20.971 E6.50057
G1 X119.561 Y21.063 E6.51278
G1 X119.778 Y21.182 E6.52499
G1 X119.979 Y21.328 E6.53720
G1 X120.160 Y21.498 E6.54941
G1 X120.318 Y21.689 E6.56162
G1 X120.451 Y21.898 E6.57383
G1 X120.557 Y22.123 E6.58604
G1 X120.633 Y22.359 E6.59824
G1 X120.669 Y22.543 E6.60750
G1 X120.907 Y22.703 F9000.000
G1 X119.090 Y10.790 F9000.000
G1 X118.844 Y10.822 E6.61971 F600.000
G1 X118.596 Y10.822 E6.63192
G1 X118.350 Y10.790 E6.64413
G1 X118.110 Y10.729 E6.65634
G1 X117.879 Y10.637 E6.66855
G1 X117.662 Y10.518 E6.68076
G1 X117.461 Y10.372 E6.69296
G1 X117.280 Y10.202 E6.70517
G1 X117.122 Y10.011 E6.71738
G1 X116.989 Y9.802 E6.72959
G1 X116.883 Y9.577 E6.74180
G1 X116.807 Y9.341 E6.75401
G1 X116.760 Y9.098 E6.76622
G1 X116.745 Y8.850 E6.77845
G1 X116.761 Y8.596 E6.79098
G1 X116.807 Y8.359 E6.80285
G1 X116.883 Y8.123 E6.81505
G1 X116.989 Y7.898 E6.82726
G1 X117.122 Y7.689 E6.83947
G1 X117.280 Y7.498 E6.85168
G1 X117.461 Y7.328 E6.86389
G1 X117.662 Y7.182 E6.87610
G1 X117.879 Y7.063 E6.88831
G1 X118.110 Y6.971 E6.90052
G1 X118.350 Y6.910 E6.91273
G1 X118.596 Y6.878 E6.92494
G1 X118.844 Y6.878 E6.93715 F600.000
G1 X119.090 Y6.910 E6.94935
G1 X119.330 Y6.971 E6.96156
G1 X119.561 Y7.063 E6.97377
G1 X119.772 Y7.179 E6.98564
G1 X119.979 Y7.328 E6.99817
G1 X120.160 Y7.498 E7.01040
G1 X120.318 Y7.689 E7.02261
G1 X120.451 Y7.898 E7.03482
G1 X120.557 Y8.123 E7.04703
G1 X120.633 Y8.359 E7.05923
G1 X120.680 Y8.602 E7.07144
G1 X120.695 Y8.850 E7.08367
G1 X120.679 Y9.104 E7.09621
G1 X120.633 Y9.341 E7.10807
G1 X120.557 Y9.577 E7.12028
G1 X120.451 Y9.802 E7.13249
G1 X120.318 Y10.011 E7.14469
G1 X120.160 Y10.202 E7.15691
G1 X119.979 Y10.372 E7.16911
G1 X119.778 Y10.518 E7.18132
G1 X119.561 Y10.637 E7.19353
G1 X119.330 Y10.729 E7.20574
G1 X119.148 Y10.776 E7.21500
G1 X119.004 Y11.023 F9000.000
G1 E1.21500 F1800.00000
G92 E0
G1 X120.622 Y6.846 F9000.000
G1 E6.00000 F1800.00000
G1 X121.724 Y6.846 E6.05422 F600.000
G1 X121.724 Y24.854 E6.94046
G1 X120.622 Y24.854 E6.99469
G1 X120.943 Y24.465 E7.01950
G1 X121.128 Y24.174 E7.03648
G1 X121.275 Y23.862 E7.05346
G1 X121.382 Y23.533 E7.07045
G1 X121.445 Y23.203 E7.08702
G1 X121.468 Y22.852 E7.10433
G1 X121.447 Y22.506 E7.12141
G1 X121.382 Y22.167 E7.13839
G1 X121.275 Y21.838 E7.15538
G1 X121.128 Y21.526 E7.17236
G1 X120.943 Y21.235 E7.18934
G1 X120.723 Y20.969 E7.20633
G1 X120.472 Y20.732 E7.22331
G1 X120.193 Y20.530 E7.24030
G1 X119.890 Y20.363 E7.25728
G1 X119.569 Y20.236 E7.27427
G1 X119.235 Y20.150 E7.29126
G1 X118.893 Y20.107 E7.30824
G1 X118.547 Y20.107 E7.32523
G1 X118.205 Y20.150 E7.34221
G1 X117.871 Y20.236 E7.35920
G1 X117.550 Y20.363 E7.37618
G1 X117.247 Y20.530 E7.39317
G1 X116.968 Y20.732 E7.41015
G1 X116.717 Y20.969 E7.42714
G1 X116.497 Y21.235 E7.44413
G1 X116.312 Y21.526 E7.46111
G1 X116.165 Y21.838 E7.47809
G1 X116.058 Y22.167 E7.49508
G1 X115.993 Y22.506 E7.51206
G1 X115.972 Y22.850 E7.52905
G1 X115.993 Y23.186 E7.54562
G1 X116.058 Y23.532 E7.56293
G1 X116.165 Y23.862 E7.58000
G1 X116.312 Y24.174 E7.59699
G1 X116.497 Y24.465 E7.61397
G1 X116.818 Y24.854 E7.63878
G1 X115.716 Y24.854 E7.69300
G1 X115.716 Y6.846 E8.57924
G1 X116.818 Y6.846 E8.63347
G1 X116.497 Y7.235 E8.65828
G1 X116.312 Y7.526 E8.67526
G1 X116.165 Y7.838 E8.69224
G1 X116.058 Y8.167 E8.70923
G1 X115.995 Y8.497 E8.72580
G1 X115.972 Y8.848 E8.74311
G1 X115.993 Y9.194 E8.76018
G1 X116.058 Y9.533 E8.77717
G1 X116.165 Y9.862 E8.79415
G1 X116.312 Y10.174 E8.81114
G1 X116.497 Y10.465 E8.82812
G1 X116.717 Y10.731 E8.84511
G1 X116.968 Y10.968 E8.86209
G1 X117.247 Y11.170 E8.87908
G1 X117.550 Y11.337 E8.89606
G1 X117.871 Y11.464 E8.91305
G1 X118.205 Y11.550 E8.93004
G1 X118.547 Y11.593 E8.94702
G1 X118.893 Y11.593 E8.96401
G1 X119.235 Y11.550 E8.98099
G1 X119.569 Y11.464 E8.99798
G1 X119.890 Y11.337 E9.01496
G1 X120.193 Y11.170 E9.03195
G1 X120.472 Y10.968 E9.04893
G1 X120.723 Y10.731 E9.06592
G1 X120.943 Y10.465 E9.08291
G1 X121.128 Y10.174 E9.09989
G1 X121.275 Y9.862 E9.11687
G1 X121.382 Y9.533 E9.13386
G1 X121.445 Y9.203 E9.15043
G1 X121.468 Y8.852 E9.16774
G1 X121.447 Y8.506 E9.18481
G1 X121.382 Y8.167 E9.20180
G1 X121.275 Y7.838 E9.21878
G1 X121.128 Y7.526 E9.23576
G1 X120.943 Y7.235 E9.25275
G1 X120.660 Y6.892 E9.27461
G1 X119.599 Y6.461 F9000.000
G1 X122.109 Y6.461 E9.39815 F600.000
G1 X122.109 Y25.239 E10.32235
G1 X119.599 Y25.239 E10.44590
G1 X119.563 Y25.051 E10.45532
G1 X119.726 Y24.987 E10.46392
G1 X119.986 Y24.844 E10.47851
G1 X120.225 Y24.670 E10.49311
G1 X120.442 Y24.467 E10.50771
G1 X120.631 Y24.238 E10.52231
G1 X120.790 Y23.988 E10.53690
G1 X120.916 Y23.719 E10.55150
G1 X121.008 Y23.437 E10.56610
G1 X121.062 Y23.154 E10.58032
G1 X121.082 Y22.851 E10.59524
G1 X121.063 Y22.554 E10.60989
G1 X121.008 Y22.263 E10.62449
G1 X120.916 Y21.981 E10.63908
G1 X120.790 Y21.712 E10.65368
G1 X120.631 Y21.462 E10.66827
G1 X120.442 Y21.233 E10.68287
G1 X120.225 Y21.030 E10.69747
G1 X119.986 Y20.856 E10.71207
G1 X119.726 Y20.713 E10.72667
G1 X119.450 Y20.604 E10.74126
G1 X119.163 Y20.530 E10.75586
G1 X118.868 Y20.493 E10.77046
G1 X118.572 Y20.493 E10.78506
G1 X118.277 Y20.530 E10.79965
G1 X117.990 Y20.604 E10.81425
G1 X117.714 Y20.713 E10.82885
G1 X117.454 Y20.856 E10.84344
G1 X117.215 Y21.030 E10.85804
G1 X116.998 Y21.233 E10.87264
G1 X116.809 Y21.462 E10.88724
G1 X116.650 Y21.712 E10.90183
G1 X116.524 Y21.981 E10.91643
G1 X116.432 Y22.263 E10.93103
G1 X116.377 Y22.554 E10.94562
G1 X116.358 Y22.850 E10.96022
G1 X116.376 Y23.138 E10.97444
G1 X116.432 Y23.436 E10.98936
G1 X116.524 Y23.719 E11.00401
G1 X116.650 Y23.988 E11.01861
G1 X116.809 Y24.238 E11.03320
G1 X116.998 Y24.467 E11.04780
G1 X117.215 Y24.670 E11.06240
G1 X117.454 Y24.844 E11.07700
G1 X117.714 Y24.987 E11.09159
G1 X117.877 Y25.051 E11.10019
G1 X117.841 Y25.239 E11.10961
G1 X115.331 Y25.239 E11.23316
G1 X115.331 Y6.461 E12.15736
G1 X117.841 Y6.461 E12.28090
G1 X117.877 Y6.649 E12.29032
G1 X117.714 Y6.713 E12.29892
G1 X117.454 Y6.856 E12.31352
G1 X117.215 Y7.030 E12.32812
G1 X116.998 Y7.233 E12.34271
G1 X116.809 Y7.462 E12.35732
G1 X116.650 Y7.712 E12.37191
G1 X116.524 Y7.981 E12.38650
G1 X116.432 Y8.263 E12.40110
G1 X116.378 Y8.546 E12.41532
G1 X116.358 Y8.849 E12.43024
G1 X116.377 Y9.146 E12.44489
G1 X116.432 Y9.437 E12.45949
G1 X116.524 Y9.719 E12.47409
G1 X116.650 Y9.988 E12.48868
G1 X116.809 Y10.238 E12.50328
G1 X116.998 Y10.467 E12.51788
G1 X117.215 Y10.670 E12.53248
G1 X117.454 Y10.844 E12.54707
G1 X117.714 Y10.987 E12.56167
G1 X117.990 Y11.096 E12.57627
G1 X118.277 Y11.170 E12.59087
G1 X118.572 Y11.207 E12.60546
G1 X118.868 Y11.207 E12.62006
G1 X119.163 Y11.170 E12.63465
G1 X119.450 Y11.096 E12.64925
G1 X119.726 Y10.987 E12.66385
G1 X119.986 Y10.844 E12.67845
G1 X120.225 Y10.670 E12.69304
G1 X120.442 Y10.467 E12.70764
G1 X120.631 Y10.238 E12.72224
G1 X120.790 Y9.988 E12.73684
G1 X120.916 Y9.719 E12.75143
G1 X121.008 Y9.437 E12.76603
G1 X121.062 Y9.154 E12.78025
G1 X121.082 Y8.851 E12.79517
G1 X121.063 Y8.554 E12.80982
G1 X121.008 Y8.263 E12.82442
G1 X120.916 Y7.981 E12.83902
G1 X120.790 Y7.712 E12.85361
G1 X120.631 Y7.462 E12.86821
G1 X120.442 Y7.233 E12.88281
G1 X120.225 Y7.029 E12.89746
G1 X119.979 Y6.852 E12.91238
G1 X119.726 Y6.713 E12.92659
G1 X119.563 Y6.649 E12.93519
G1 X119.588 Y6.520 E12.94166
G1 X122.495 Y6.075 F9000.000
G1 X122.495 Y25.625 E13.90382 F600.000
G1 X114.945 Y25.625 E14.27539
G1 X114.945 Y6.075 E15.23754
G1 X122.435 Y6.075 E15.60616
G1 X122.295 Y6.421 F9000.000
G1 X119.393 Y6.510 F9000.000
G1 X118.856 Y6.477 E15.66356 F600.000
G1 X118.047 Y6.510 E15.74997
G1 E9.74997 F1800.00000
G92 E0
G1 X117.240 Y11.547 F9000.000
G1 E6.00000 F1800.00000
G1 X121.440 Y15.747 E6.30268 F600.000
G1 X121.440 Y16.311 E6.33145
G1 X116.000 Y10.871 E6.72348
G1 X116.000 Y11.436 E6.75226
G1 X121.440 Y16.876 E7.14429
G1 X121.440 Y17.441 E7.17307
G1 X116.000 Y12.001 E7.56510
G1 X116.000 Y12.565 E7.59387
G1 X121.440 Y18.005 E7.98591
G1 X121.440 Y18.570 E8.01468
G1 X116.000 Y13.130 E8.40672
G1 X116.000 Y13.695 E8.43549
G1 X121.440 Y19.135 E8.82752
G1 X121.440 Y19.699 E8.85630
G1 X116.000 Y14.259 E9.24833
G1 X116.000 Y14.824 E9.27711
G1 X121.440 Y20.264 E9.66914
G1 X121.440 Y20.829 E9.69791
G1 X116.000 Y15.389 E10.08995
G1 X116.000 Y15.953 E10.11872
G1 X120.200 Y20.153 E10.42140
G1 X119.350 Y19.868 F9000.000
G1 X116.000 Y16.518 E10.66281 F600.000
G1 X116.000 Y17.083 E10.69159
G1 X118.741 Y19.823 E10.88910
G1 X118.224 Y19.872 E10.91553
G1 X116.000 Y17.647 E11.07583
G1 X116.000 Y18.212 E11.10460
G1 X117.781 Y19.993 E11.23294
G1 X117.386 Y20.163 E11.25483
G1 X116.000 Y18.777 E11.35473
G1 X116.000 Y19.341 E11.38351
G1 X117.033 Y20.375 E11.45796
G1 X116.718 Y20.624 E11.47845
G1 X116.000 Y19.906 E11.53021
G1 X116.000 Y20.471 E11.55898
G1 X116.440 Y20.910 E11.59067
G1 X116.198 Y21.233 E11.61123
G1 X116.000 Y21.035 E11.62551
G1 X118.090 Y11.832 F9000.000
G1 X121.440 Y15.182 E11.86692 F600.000
G1 X121.440 Y14.617 E11.89570
G1 X118.699 Y11.877 E12.09321
G1 X119.216 Y11.828 E12.11964
G1 X121.440 Y14.053 E12.27994
G1 X121.440 Y13.488 E12.30871
G1 X119.659 Y11.707 E12.43705
G1 X120.054 Y11.537 E12.45895
G1 X121.440 Y12.923 E12.55885
G1 X121.440 Y12.359 E12.58762
G1 X120.407 Y11.325 E12.66208
G1 X120.722 Y11.076 E12.68256
G1 X121.440 Y11.794 E12.73432
G1 X121.440 Y11.229 E12.76310
G1 X121.000 Y10.790 E12.79479
G1 X121.242 Y10.467 E12.81535
G1 X121.440 Y10.665 E12.82962
G1 E6.82962 F1800.00000
G92 E0
G1 X119.393 Y25.190 F9000.000
G1 E6.00000 F1800.00000
G1 X118.584 Y25.223 E6.08641 F600.000
G1 X118.047 Y25.190 E6.14380
M104 S205 ; set temperature
M140 S55 ; wait for bed temperature to be reached
;Layer change
G1 E0.14380 F1800.00000
G92 E0
G1 Z0.520 F9000.000
G1 X119.085 Y20.934 F9000.000
G1 E6.00000 F1800.00000
G1 X119.323 Y20.995 E6.00809 F900.000
G1 X119.550 Y21.085 E6.01618
G1 X119.765 Y21.203 E6.02426
G1 X119.963 Y21.347 E6.03235
G1 X120.142 Y21.515 E6.04044
G1 X120.298 Y21.704 E6.04853
G1 X120.429 Y21.910 E6.05661
G1 X120.533 Y22.132 E6.06470
G1 X120.609 Y22.365 E6.07279
G1 X120.655 Y22.606 E6.08087
G1 X120.670 Y22.850 E6.08896
G1 X120.655 Y23.094 E6.09705
G1 X120.609 Y23.335 E6.10513
G1 X120.533 Y23.568 E6.11322
G1 X120.429 Y23.790 E6.12131
G1 X120.298 Y23.996 E6.12940
G1 X120.142 Y24.185 E6.13748
G1 X119.963 Y24.353 E6.14557
G1 X119.765 Y24.497 E6.15366
G1 X119.550 Y24.615 E6.16175
G1 X119.323 Y24.705 E6.16983
G1 X119.085 Y24.766 E6.17792
G1 X118.842 Y24.797 E6.18601
G1 X118.598 Y24.797 E6.19410
G1 X118.355 Y24.766 E6.20218
G1 X118.117 Y24.705 E6.21027
G1 X117.890 Y24.615 E6.21836
G1 X117.675 Y24.497 E6.22644
G1 X117.477 Y24.353 E6.23453
G1 X117.298 Y24.185 E6.24262
G1 X117.142 Y23.996 E6.25071
G1 X117.011 Y23.790 E6.25879
G1 X116.907 Y23.568 E6.26688
G1 X116.831 Y23.335 E6.27497
G1 X116.785 Y23.094 E6.28305
G1 X116.770 Y22.850 E6.29114
G1 X116.785 Y22.606 E6.29923
G1 X116.879 Y22.191 E6.31326
G1 X117.011 Y21.910 E6.32353
G1 X117.154 Y21.689 E6.33221
G1 X117.298 Y21.515 E6.33967
G1 X117.477 Y21.347 E6.34776
G1 X117.675 Y21.203 E6.35585
G1 X117.890 Y21.085 E6.36393
G1 X118.177 Y20.971 E6.37415
G1 X118.594 Y20.903 E6.38809
G1 X118.842 Y20.903 E6.39630 F900.000
G1 X119.026 Y20.927 E6.40240
G1 X119.249 Y20.752 F9000.000
G1 X118.842 Y10.797 F9000.000
G1 X118.598 Y10.797 E6.41049 F900.000
G1 X118.355 Y10.766 E6.41858
G1 X118.117 Y10.705 E6.42666
G1 X117.890 Y10.615 E6.43475
G1 X117.675 Y10.497 E6.44284
G1 X117.477 Y10.353 E6.45093
G1 X117.298 Y10.185 E6.45901
G1 X117.142 Y9.996 E6.46710
G1 X117.011 Y9.790 E6.47519
G1 X116.907 Y9.568 E6.48327
G1 X116.831 Y9.334 E6.49139
G1 X116.784 Y9.076 E6.50007
G1 X116.770 Y8.850 E6.50753
G1 X116.785 Y8.606 E6.51562
G1 X116.831 Y8.365 E6.52371
G1 X116.907 Y8.132 E6.53179
G1 X117.011 Y7.910 E6.53988
G1 X117.142 Y7.704 E6.54797
G1 X117.298 Y7.515 E6.55606
G1 X117.477 Y7.347 E6.56414
G1 X117.675 Y7.203 E6.57223
G1 X117.890 Y7.085 E6.58032
G1 X118.117 Y6.995 E6.58840
G1 X118.355 Y6.934 E6.59649
G1 X118.598 Y6.903 E6.60458
G1 X118.842 Y6.903 E6.61267 F900.000
G1 X119.085 Y6.934 E6.62075
G1 X119.323 Y6.995 E6.62884
G1 X119.550 Y7.085 E6.63693
G1 X119.748 Y7.194 E6.64439
G1 X119.963 Y7.347 E6.65307
G1 X120.142 Y7.515 E6.66119
G1 X120.298 Y7.704 E6.66927
G1 X120.429 Y7.910 E6.67736
G1 X120.533 Y8.132 E6.68545
G1 X120.609 Y8.365 E6.69353
G1 X120.655 Y8.606 E6.70162
G1 X120.670 Y8.851 E6.70974
G1 X120.651 Y9.113 E6.71842
G1 X120.609 Y9.335 E6.72588
G1 X120.533 Y9.568 E6.73397
G1 X120.429 Y9.790 E6.74205
G1 X120.298 Y9.996 E6.75014
G1 X120.142 Y10.185 E6.75823
G1 X119.963 Y10.353 E6.76631
G1 X119.765 Y10.497 E6.77440
G1 X119.550 Y10.615 E6.78249
G1 X119.323 Y10.705 E6.79058
G1 X119.085 Y10.766 E6.79866
G1 X118.902 Y10.789 E6.80477
G1 X118.729 Y11.014 F9000.000
G1 X121.487 Y10.512 F9000.000
G1 X121.487 Y21.188 E7.37546 F900.000
G1 X121.240 Y21.259 E7.38922
G1 X121.136 Y21.095 E7.39962
G1 X120.896 Y20.806 E7.41967
G1 X120.623 Y20.550 E7.43971
G1 X120.320 Y20.329 E7.45976
G1 X119.991 Y20.149 E7.47980
G1 X119.643 Y20.010 E7.49984
G1 X119.279 Y19.917 E7.51989
G1 X118.908 Y19.870 E7.53993
G1 X118.510 Y19.870 E7.56116
G1 X117.901 Y19.970 E7.59418
G1 X117.449 Y20.149 E7.62017
G1 X117.120 Y20.329 E7.64021
G1 X116.817 Y20.550 E7.66026
G1 X116.544 Y20.806 E7.68030
G1 X116.320 Y21.077 E7.69907
G1 X116.199 Y21.263 E7.71097
G1 X115.953 Y21.191 E7.72466
G1 X115.953 Y10.512 E8.29553
G1 X116.200 Y10.441 E8.30929
G1 X116.304 Y10.605 E8.31968
