; generated by Slic3r 1.2.9 on 2018-06-01 at 20:33:45

; external perimeters extrusion width = 0.40mm
; perimeters extrusion width = 0.62mm
; infill extrusion width = 0.33mm
; solid infill extrusion width = 0.62mm
; top infill extrusion width = 0.20mm

M106 S256; Turn on fan to 100% power
M104 S140; turn on extruder temperature at S value
M140 S60; turn on bed temperature at S value
G28; home all axes
M84; disable motors
G1 Z15 F15000; have Z move to 20mm at 15000 mm/min
M190 S55; turn on bed temperature at S value and wait
M140 S55; turn on bed temperature at S value (printing temperature)
M109 S200; turn on extruder temperature at S value and wait (printing temperature)
M104 S200; turn on extruder temperature at S value
G1 Z0 F12000; move Z back to home
G21 ; set units to millimeters
G90 ; use absolute coordinates
M82 ; use absolute distances for extrusion
G92 E0
M106 S255
;Layer change
G1 E-6.00000 F1800.00000
G92 E0
G1 Z0.300 F9000.000
G1 X96.814 Y9.390 F9000.000
G1 E6.00000 F1800.00000
G1 X97.206 Y8.080 E6.06650 F600.000
G1 X98.252 Y7.201 E6.13300
G1 X99.200 Y7.004 E6.18009
G1 X189.200 Y7.004 E10.55868
G1 X190.510 Y7.396 E10.62518
G1 X191.389 Y8.442 E10.69169 F600.000
G1 X191.586 Y9.390 E10.73877
G1 X191.586 Y43.390 E12.39291
G1 X191.194 Y44.700 E12.45941
G1 X190.148 Y45.579 E12.52591
G1 X189.200 Y45.776 E12.57300
G1 X99.200 Y45.776 E16.95159
G1 X97.890 Y45.384 E17.01809
G1 X97.011 Y44.338 E17.08459
G1 X96.814 Y43.390 E17.13168
G1 X96.814 Y9.450 E18.78290
G1 E12.78290 F1800.00000
G92 E0
G1 X154.024 Y39.532 F9000.000
G1 E6.00000 F1800.00000
G1 X154.180 Y40.012 E6.02458 F600.000
G1 X154.211 Y40.517 E6.04916
G1 X154.117 Y41.013 E6.07373
G1 X153.902 Y41.470 E6.09831
G1 X153.580 Y41.859 E6.12290
G1 X153.171 Y42.156 E6.14747
G1 X152.701 Y42.342 E6.17205
G1 X152.200 Y42.405 E6.19663
G1 X151.699 Y42.342 E6.22121
G1 X151.229 Y42.156 E6.24579
G1 X150.820 Y41.859 E6.27037
G1 X150.498 Y41.470 E6.29495
G1 X150.283 Y41.013 E6.31953
G1 X150.189 Y40.517 E6.34411
G1 X150.220 Y40.012 E6.36868
G1 X150.376 Y39.532 E6.39327
G1 X150.647 Y39.105 E6.41785
G1 X151.015 Y38.759 E6.44242
G1 X151.458 Y38.516 E6.46700
G1 X151.947 Y38.390 E6.49158
G1 X152.453 Y38.390 E6.51616 F600.000
G1 X152.942 Y38.516 E6.54075
G1 X153.385 Y38.759 E6.56532
G1 X153.753 Y39.105 E6.58990
G1 X153.992 Y39.481 E6.61156
G1 X153.672 Y39.697 F9000.000
G1 X153.798 Y40.085 E6.63140 F600.000
G1 X153.824 Y40.492 E6.65124
G1 X153.747 Y40.893 E6.67107
G1 X153.574 Y41.262 E6.69092
G1 X153.314 Y41.576 E6.71076
G1 X152.984 Y41.816 E6.73059
G1 X152.605 Y41.966 E6.75043
G1 X152.200 Y42.017 E6.77027
G1 X151.795 Y41.966 E6.79011
G1 X151.416 Y41.816 E6.80995
G1 X151.086 Y41.576 E6.82979
G1 X150.826 Y41.262 E6.84963
G1 X150.653 Y40.893 E6.86947
G1 X150.576 Y40.492 E6.88931
G1 X150.602 Y40.085 E6.90914
G1 X150.728 Y39.697 E6.92898
G1 X150.947 Y39.353 E6.94883
G1 X151.244 Y39.074 E6.96866
G1 X151.601 Y38.877 E6.98850
G1 X151.996 Y38.776 E7.00834
G1 X152.404 Y38.776 E7.02818 F600.000
G1 X152.799 Y38.877 E7.04802
G1 X153.156 Y39.074 E7.06786
G1 X153.453 Y39.353 E7.08770
G1 X153.640 Y39.647 E7.10462
G1 X154.069 Y39.747 F9000.000
G1 E1.10462 F1800.00000
G92 E0
G1 X150.196 Y41.710 F9000.000
G1 E6.00000 F1800.00000
G1 X150.554 Y42.143 E6.02733 F600.000
G1 X150.680 Y42.234 E6.03488
G1 X150.628 Y42.394 E6.04306
G1 X150.196 Y42.394 E6.06406
G1 X150.196 Y41.770 E6.09441
G1 E0.09441 F1800.00000
G92 E0
G1 X152.589 Y38.001 F9000.000
G1 E6.00000 F1800.00000
G1 X152.589 Y14.779 E7.12974 F600.000
G1 X185.811 Y14.779 E8.74598
G1 X185.811 Y38.001 E9.87572
G1 X152.649 Y38.001 E11.48905
G1 X152.975 Y37.615 F9000.000
G1 X152.975 Y15.165 E12.58126 F600.000
G1 X185.425 Y15.165 E14.15999
G1 X185.425 Y37.615 E15.25220
G1 X153.035 Y37.615 E16.82801
G1 X152.575 Y37.615 F9000.000
G1 X152.204 Y38.005 F9000.000
G1 X151.899 Y38.005 E16.84285 F600.000
G1 X151.315 Y38.155 E16.87218
G1 X150.787 Y38.445 E16.90149
G1 X150.196 Y39.000 E16.94091
G1 X150.196 Y13.710 E18.17128
G1 X150.554 Y14.143 E18.19861
G1 X151.042 Y14.497 E18.22792
G1 X151.602 Y14.719 E18.25724
G1 X152.204 Y14.795 E18.28674
G1 X152.204 Y37.945 E19.41302
G1 X150.196 Y11.000 F9000.000
G1 X150.196 Y10.386 E19.44286 F600.000
G1 X150.849 Y10.386 E19.47464
G1 X150.240 Y10.959 E19.51532
G1 X150.565 Y11.234 F9000.000
G1 X150.647 Y11.105 E19.52274 F600.000
G1 X151.015 Y10.759 E19.54731
G1 X151.458 Y10.516 E19.57189
G1 X151.947 Y10.390 E19.59647
G1 X152.453 Y10.390 E19.62106 F600.000
G1 X152.942 Y10.516 E19.64564
G1 X153.385 Y10.759 E19.67022
G1 X153.753 Y11.105 E19.69479
G1 X154.024 Y11.532 E19.71937
G1 X154.180 Y12.012 E19.74396
G1 X154.211 Y12.517 E19.76853
G1 X154.117 Y13.013 E19.79310
G1 X153.902 Y13.470 E19.81769
G1 X153.580 Y13.859 E19.84227
G1 X153.171 Y14.156 E19.86685
G1 X152.701 Y14.342 E19.89142
G1 X152.200 Y14.405 E19.91601
G1 X151.699 Y14.342 E19.94059
G1 X151.229 Y14.156 E19.96516
G1 X150.820 Y13.859 E19.98974
G1 X150.498 Y13.470 E20.01432
G1 X150.283 Y13.013 E20.03891
G1 X150.189 Y12.517 E20.06348
G1 X150.220 Y12.012 E20.08805
G1 X150.376 Y11.532 E20.11264
G1 X150.533 Y11.285 E20.12688
G1 X150.891 Y11.441 F9000.000
G1 X150.947 Y11.353 E20.13193 F600.000
G1 X151.244 Y11.074 E20.15177
G1 X151.601 Y10.877 E20.17161
G1 X151.996 Y10.776 E20.19145
G1 X152.404 Y10.776 E20.21129 F600.000
G1 X152.799 Y10.877 E20.23113
G1 X153.156 Y11.074 E20.25097
G1 X153.453 Y11.353 E20.27080
G1 X153.672 Y11.697 E20.29065
G1 X153.798 Y12.085 E20.31049
G1 X153.824 Y12.492 E20.33032
G1 X153.747 Y12.893 E20.35016
G1 X153.574 Y13.262 E20.37000
G1 X153.314 Y13.576 E20.38984
G1 X152.984 Y13.816 E20.40968
G1 X152.605 Y13.966 E20.42952
G1 X152.200 Y14.017 E20.44936
G1 X151.795 Y13.966 E20.46920
G1 X151.416 Y13.816 E20.48904
G1 X151.086 Y13.576 E20.50887
G1 X150.826 Y13.262 E20.52871
G1 X150.653 Y12.893 E20.54856
G1 X150.576 Y12.492 E20.56839
G1 X150.602 Y12.085 E20.58823
G1 X150.728 Y11.697 E20.60807
G1 X150.859 Y11.491 E20.61994
G1 X150.843 Y11.349 F9000.000
G1 E14.61994 F1800.00000
G92 E0
G1 X153.551 Y10.386 F9000.000
G1 E6.00000 F1800.00000
G1 X184.849 Y10.386 E7.52273 F600.000
G1 X184.348 Y10.857 E7.55622
G1 X184.025 Y11.366 E7.58554
G1 X183.838 Y11.940 E7.61487
G1 X183.801 Y12.541 E7.64418
G1 X183.913 Y13.133 E7.67349
G1 X184.170 Y13.678 E7.70282
G1 X184.554 Y14.143 E7.73214
G1 X184.680 Y14.234 E7.73969
G1 X184.628 Y14.394 E7.74787
G1 X153.772 Y14.394 E9.24904
G1 X153.720 Y14.234 E9.25722
G1 X153.846 Y14.143 E9.26477
G1 X154.230 Y13.678 E9.29410
G1 X154.487 Y13.133 E9.32342
G1 X154.599 Y12.541 E9.35273
G1 X154.562 Y11.940 E9.38204
G1 X154.375 Y11.366 E9.41137
G1 X154.052 Y10.857 E9.44069
G1 X153.594 Y10.427 E9.47127
G1 X184.201 Y12.312 F9000.000
G1 X184.220 Y12.012 E9.48585 F600.000
G1 X184.376 Y11.532 E9.51044
G1 X184.647 Y11.105 E9.53502
G1 X185.015 Y10.759 E9.55959
G1 X185.458 Y10.516 E9.58417
G1 X185.947 Y10.390 E9.60875
G1 X186.453 Y10.390 E9.63334 F600.000
G1 X186.942 Y10.516 E9.65792
G1 X187.385 Y10.759 E9.68249
G1 X187.753 Y11.105 E9.70707
G1 X188.024 Y11.532 E9.73165
G1 X188.180 Y12.012 E9.75624
G1 X188.211 Y12.517 E9.78081
G1 X188.117 Y13.013 E9.80538
G1 X187.902 Y13.470 E9.82997
G1 X187.580 Y13.859 E9.85455
G1 X187.171 Y14.156 E9.87913
G1 X186.701 Y14.342 E9.90370
G1 X186.200 Y14.405 E9.92828
G1 X185.699 Y14.342 E9.95287
G1 X185.229 Y14.156 E9.97744
G1 X184.820 Y13.859 E10.00202
G1 X184.498 Y13.470 E10.02660
G1 X184.283 Y13.013 E10.05119
G1 X184.189 Y12.517 E10.07576
G1 X184.198 Y12.372 E10.08283
G1 X184.586 Y12.336 F9000.000
G1 X184.602 Y12.085 E10.09504 F600.000
G1 X184.728 Y11.697 E10.11489
G1 X184.947 Y11.353 E10.13473
G1 X185.244 Y11.074 E10.15456
G1 X185.601 Y10.877 E10.17440
G1 X185.996 Y10.776 E10.19424
G1 X186.404 Y10.776 E10.21408 F600.000
G1 X186.799 Y10.877 E10.23392
G1 X187.156 Y11.074 E10.25376
G1 X187.453 Y11.353 E10.27360
G1 X187.672 Y11.697 E10.29344
G1 X187.798 Y12.085 E10.31328
G1 X187.824 Y12.492 E10.33312
G1 X187.747 Y12.893 E10.35295
G1 X187.574 Y13.262 E10.37279
G1 X187.314 Y13.576 E10.39263
G1 X186.984 Y13.816 E10.41247
G1 X186.605 Y13.966 E10.43231
G1 X186.200 Y14.017 E10.45215
G1 X185.795 Y13.966 E10.47199
G1 X185.416 Y13.816 E10.49183
G1 X185.086 Y13.576 E10.51167
G1 X184.826 Y13.262 E10.53151
G1 X184.653 Y12.893 E10.55135
G1 X184.576 Y12.492 E10.57119
G1 X184.583 Y12.396 E10.57588
G1 X184.377 Y12.197 F9000.000
G1 E4.57588 F1800.00000
G92 E0
G1 X187.551 Y10.386 F9000.000
G1 E6.00000 F1800.00000
G1 X188.204 Y10.386 E6.03178 F600.000
G1 X188.204 Y11.000 E6.06162
G1 X187.594 Y10.427 E6.10230
G1 E0.10230 F1800.00000
G92 E0
G1 X186.453 Y38.390 F9000.000
G1 E6.00000 F1800.00000
G1 X186.942 Y38.516 E6.02458 F600.000
G1 X187.385 Y38.759 E6.04916
G1 X187.753 Y39.105 E6.07373
G1 X188.024 Y39.532 E6.09831
G1 X188.180 Y40.012 E6.12290
G1 X188.211 Y40.517 E6.14747
G1 X188.117 Y41.013 E6.17205
G1 X187.902 Y41.470 E6.19663
G1 X187.580 Y41.859 E6.22121
G1 X187.171 Y42.156 E6.24579
G1 X186.701 Y42.342 E6.27036
G1 X186.200 Y42.405 E6.29495
G1 X185.699 Y42.342 E6.31953
G1 X185.229 Y42.156 E6.34411
G1 X184.820 Y41.859 E6.36868
G1 X184.498 Y41.470 E6.39327
G1 X184.283 Y41.013 E6.41785
G1 X184.189 Y40.517 E6.44242
G1 X184.220 Y40.012 E6.46700
G1 X184.376 Y39.532 E6.49158
G1 X184.647 Y39.105 E6.51616
G1 X185.015 Y38.759 E6.54074
G1 X185.458 Y38.516 E6.56531
G1 X185.947 Y38.390 E6.58990
G1 X186.393 Y38.390 E6.61156 F600.000
G1 X186.404 Y38.776 F9000.000
G1 X186.799 Y38.877 E6.63140 F600.000
G1 X187.156 Y39.074 E6.65124
G1 X187.453 Y39.353 E6.67107
G1 X187.672 Y39.697 E6.69092
G1 X187.798 Y40.085 E6.71076
G1 X187.824 Y40.492 E6.73059
G1 X187.747 Y40.893 E6.75043
G1 X187.574 Y41.262 E6.77027
G1 X187.314 Y41.576 E6.79011
G1 X186.984 Y41.816 E6.80995
G1 X186.605 Y41.966 E6.82979
G1 X186.200 Y42.017 E6.84963
G1 X185.795 Y41.966 E6.86947
G1 X185.416 Y41.816 E6.88931
G1 X185.086 Y41.576 E6.90914
G1 X184.826 Y41.262 E6.92898
G1 X184.653 Y40.893 E6.94883
G1 X184.576 Y40.492 E6.96866
G1 X184.602 Y40.085 E6.98850
G1 X184.728 Y39.697 E7.00834
G1 X184.947 Y39.353 E7.02818
G1 X185.244 Y39.074 E7.04802
G1 X185.601 Y38.877 E7.06786
G1 X185.996 Y38.776 E7.08770
G1 X186.344 Y38.776 E7.10462 F600.000
G1 X186.659 Y38.468 F9000.000
G1 X184.849 Y38.386 F9000.000
G1 X184.348 Y38.857 E7.13811 F600.000
G1 X184.025 Y39.366 E7.16743
G1 X183.838 Y39.940 E7.19676
G1 X183.801 Y40.541 E7.22607
G1 X183.913 Y41.133 E7.25538
G1 X184.170 Y41.678 E7.28471
G1 X184.554 Y42.143 E7.31404
G1 X184.680 Y42.234 E7.32159
G1 X184.628 Y42.394 E7.32977
G1 X153.772 Y42.394 E8.83093
G1 X153.720 Y42.234 E8.83911
G1 X153.846 Y42.143 E8.84666
G1 X154.230 Y41.678 E8.87599
G1 X154.487 Y41.133 E8.90531
G1 X154.599 Y40.541 E8.93463
G1 X154.562 Y39.940 E8.96394
G1 X154.375 Y39.366 E8.99326
G1 X154.052 Y38.857 E9.02259
G1 X153.551 Y38.386 E9.05608
G1 X184.789 Y38.386 E10.57588
G1 X186.196 Y38.005 F9000.000
G1 X186.196 Y14.795 E11.70508 F600.000
G1 X186.798 Y14.719 E11.73459
G1 X187.358 Y14.497 E11.76390
G1 X187.846 Y14.143 E11.79322
G1 X188.204 Y13.710 E11.82054
G1 X188.204 Y39.000 E13.05092
G1 X187.613 Y38.445 E13.09033
G1 X187.085 Y38.155 E13.11965
G1 X186.501 Y38.005 E13.14897
G1 X186.256 Y38.005 E13.16090
G1 E7.16090 F1800.00000
G92 E0
G1 X188.204 Y41.710 F9000.000
G1 E6.00000 F1800.00000
G1 X188.204 Y42.394 E6.03327 F600.000
G1 X187.772 Y42.394 E6.05427
G1 X187.720 Y42.234 E6.06245
G1 X187.846 Y42.143 E6.07000
G1 X188.166 Y41.756 E6.09441
G1 X188.589 Y42.779 F9000.000
G1 X149.811 Y42.779 E7.98103 F600.000
G1 X149.811 Y10.001 E9.57575
G1 X188.589 Y10.001 E11.46238
G1 X188.589 Y42.719 E13.05418
G1 X188.975 Y43.165 F9000.000
G1 X149.425 Y43.165 E14.97833 F600.000
G1 X149.425 Y9.615 E16.61057
G1 X188.975 Y9.615 E18.53472
G1 X188.975 Y43.105 E20.16404
G1 X188.629 Y42.965 F9000.000
G1 X187.517 Y38.012 F9000.000
G1 X186.480 Y36.975 E20.23604 F600.000
G1 X186.480 Y36.424 E20.26308
G1 X187.920 Y37.864 E20.36309
G1 X187.920 Y37.314 E20.39014
G1 X186.480 Y35.874 E20.49015
G1 X186.480 Y35.323 E20.51719
G1 X187.920 Y36.763 E20.61721
G1 X187.920 Y36.213 E20.64425
G1 X186.480 Y34.773 E20.74427
G1 X186.480 Y34.222 E20.77131
G1 X187.920 Y35.662 E20.87133
G1 X187.920 Y35.112 E20.89837
G1 X186.480 Y33.672 E20.99838
G1 X186.480 Y33.121 E21.02542
G1 X187.920 Y34.561 E21.12544
G1 X187.920 Y34.010 E21.15248
G1 X186.480 Y32.571 E21.25250
G1 X186.480 Y32.020 E21.27954
G1 X187.920 Y33.460 E21.37956
G1 X187.920 Y32.909 E21.40660
G1 X186.480 Y31.469 E21.50661
G1 X186.480 Y30.919 E21.53365
G1 X187.920 Y32.359 E21.63367
G1 X187.920 Y31.808 E21.66071
G1 X186.480 Y30.368 E21.76073
G1 X186.480 Y29.818 E21.78777
G1 X187.920 Y31.258 E21.88779
G1 X187.920 Y30.707 E21.91483
G1 X186.480 Y29.267 E22.01485
G1 X186.480 Y28.717 E22.04189
G1 X187.920 Y30.157 E22.14190
G1 X187.920 Y29.606 E22.16894
G1 X186.480 Y28.166 E22.26896
G1 X186.480 Y27.616 E22.29600
G1 X187.920 Y29.055 E22.39602
G1 X187.920 Y28.505 E22.42306
G1 X186.480 Y27.065 E22.52308
G1 X186.480 Y26.514 E22.55012
G1 X187.920 Y27.954 E22.65013
G1 X187.920 Y27.404 E22.67718
G1 X186.480 Y25.964 E22.77719
G1 X186.480 Y25.413 E22.80423
G1 X187.920 Y26.853 E22.90425
G1 X187.920 Y26.303 E22.93129
G1 X186.480 Y24.863 E23.03131
G1 X186.480 Y24.312 E23.05835
G1 X187.920 Y25.752 E23.15837
G1 X187.920 Y25.202 E23.18541
G1 X186.480 Y23.762 E23.28542
G1 X186.480 Y23.211 E23.31246
G1 X187.920 Y24.651 E23.41248
G1 X187.920 Y24.100 E23.43952
G1 X186.480 Y22.661 E23.53954
G1 X186.480 Y22.110 E23.56658
G1 X187.920 Y23.550 E23.66660
G1 X187.920 Y22.999 E23.69364
G1 X186.480 Y21.559 E23.79365
G1 X186.480 Y21.009 E23.82069
G1 X187.920 Y22.449 E23.92071
G1 X187.920 Y21.898 E23.94775
G1 X186.480 Y20.458 E24.04777
G1 X186.480 Y19.908 E24.07481
G1 X187.920 Y21.348 E24.17483
G1 X187.920 Y20.797 E24.20187
G1 X186.480 Y19.357 E24.30189
G1 X186.480 Y18.807 E24.32893
G1 X187.920 Y20.247 E24.42894
G1 X187.920 Y19.696 E24.45598
G1 X186.480 Y18.256 E24.55600
G1 X186.480 Y17.706 E24.58304
G1 X187.920 Y19.145 E24.68306
G1 X187.920 Y18.595 E24.71010
G1 X186.480 Y17.155 E24.81012
G1 X186.480 Y16.604 E24.83716
G1 X187.920 Y18.044 E24.93717
G1 X187.920 Y17.494 E24.96422
G1 X186.480 Y16.054 E25.06423
G1 X186.480 Y15.503 E25.09127
G1 X187.920 Y16.943 E25.19129
G1 X187.920 Y16.393 E25.21833
G1 X186.553 Y15.026 E25.31327
G1 X186.997 Y14.919 E25.33568
G1 X187.920 Y15.842 E25.39981
G1 X187.920 Y15.292 E25.42685
G1 X187.391 Y14.763 E25.46359
G1 X187.722 Y14.543 E25.48309
G1 X187.920 Y14.741 E25.49684
G1 X186.480 Y37.526 F9000.000
G1 X186.691 Y37.737 E25.51152 F600.000
G1 X185.894 Y14.574 F9000.000
G1 X185.640 Y14.557 E25.52393 F600.000
G1 X185.086 Y14.452 E25.55136
G1 X184.837 Y14.373 E25.56404
G1 X184.042 Y10.868 F9000.000
G1 X183.843 Y10.670 E25.57767 F600.000
G1 X183.830 Y11.202 E25.60355
G1 X183.298 Y10.670 E25.64013
G1 X182.753 Y10.670 E25.66667
G1 X183.675 Y11.592 E25.73014
G1 X183.554 Y12.017 E25.75162
G1 X182.207 Y10.670 E25.84430
G1 X181.662 Y10.670 E25.87084
G1 X183.522 Y12.530 E25.99883
G1 X183.614 Y13.168 E26.03017
G1 X181.116 Y10.670 E26.20204
G1 X180.571 Y10.670 E26.22858
G1 X184.008 Y14.107 E26.46505
G1 X183.466 Y14.110 E26.49142
G1 X180.026 Y10.670 E26.72813
G1 X179.480 Y10.670 E26.75466
G1 X182.920 Y14.110 E26.99136
G1 X182.375 Y14.110 E27.01790
G1 X178.935 Y10.670 E27.25460
G1 X178.389 Y10.670 E27.28114
G1 X181.829 Y14.110 E27.51784
G1 X181.284 Y14.110 E27.54438
G1 X177.844 Y10.670 E27.78108
G1 X177.299 Y10.670 E27.80761
G1 X180.739 Y14.110 E28.04432
G1 X180.193 Y14.110 E28.07085
G1 X176.753 Y10.670 E28.30755
G1 X176.208 Y10.670 E28.33409
G1 X179.648 Y14.110 E28.57079
G1 X179.102 Y14.110 E28.59733
G1 X175.662 Y10.670 E28.83403
G1 X175.117 Y10.670 E28.86057
G1 X178.557 Y14.110 E29.09727
G1 X178.012 Y14.110 E29.12380
G1 X174.572 Y10.670 E29.36051
G1 X174.026 Y10.670 E29.38704
G1 X177.466 Y14.110 E29.62374
G1 X176.921 Y14.110 E29.65028
G1 X173.481 Y10.670 E29.88698
G1 X172.935 Y10.670 E29.91352
G1 X176.375 Y14.110 E30.15022
G1 X175.830 Y14.110 E30.17676
G1 X172.390 Y10.670 E30.41346
G1 X171.845 Y10.670 E30.43999
G1 X175.285 Y14.110 E30.67669
G1 X174.739 Y14.110 E30.70323
G1 X171.299 Y10.670 E30.93993
G1 X170.754 Y10.670 E30.96647
G1 X174.194 Y14.110 E31.20317
G1 X173.648 Y14.110 E31.22971
