; generated by Slic3r 1.2.9 on 2018-06-26 at 21:35:05

; external perimeters extrusion width = 0.40mm
; perimeters extrusion width = 0.62mm
; infill extrusion width = 0.33mm
; solid infill extrusion width = 0.62mm
; top infill extrusion width = 0.20mm

M106 S256; Turn on fan to 100% power
M104 S140; turn on extruder temperature at S value
M140 S60; turn on bed temperature at S value
G28; home all axes
M84; disable motors
G1 Z15 F15000; have Z move to 20mm at 15000 mm/min
M190 S55; turn on bed temperature at S value and wait
M140 S55; turn on bed temperature at S value (printing temperature)
M109 S200; turn on extruder temperature at S value and wait (printing temperature)
M104 S200; turn on extruder temperature at S value
G1 Z0 F12000; move Z back to home
G21 ; set units to millimeters
G90 ; use absolute coordinates
M82 ; use absolute distances for extrusion
G92 E0
M106 S255
;Layer change
G1 E-6.00000 F1800.00000
G92 E0
G1 Z0.300 F9000.000
G1 X110.394 Y8.830 F9000.000
G1 E6.00000 F1800.00000
G1 X110.786 Y7.520 E6.06727 F600.000
G1 X111.832 Y6.641 E6.13455
G1 X112.780 Y6.444 E6.18218
G1 X115.780 Y6.444 E6.32983
G1 X116.373 Y6.519 E6.35922
G1 X131.973 Y10.519 E7.15181 F600.000
G1 X133.144 Y11.224 E7.21908
G1 X133.766 Y12.830 E7.30385
G1 X133.766 Y42.830 E8.78030
G1 X133.374 Y44.140 E8.84758
G1 X131.973 Y45.141 E8.93234
G1 X116.373 Y49.141 E9.72493
G1 X115.780 Y49.216 E9.75433
G1 X112.780 Y49.216 E9.90197
G1 X111.470 Y48.824 E9.96925
G1 X110.591 Y47.778 E10.03652
G1 X110.394 Y46.830 E10.08415
G1 X110.394 Y8.890 E11.95137
G1 E5.95137 F1800.00000
G92 E0
G1 X126.475 Y38.711 F9000.000
G1 E6.00000 F1800.00000
G1 X126.530 Y38.997 E6.01433 F600.000
G1 X126.530 Y39.483 E6.03824
G1 X126.409 Y39.953 E6.06215
G1 X126.285 Y40.217 E6.07649
G1 X125.999 Y40.609 E6.10038
G1 X125.630 Y40.916 E6.12400
G1 X125.371 Y41.059 E6.13859
G1 X124.926 Y41.204 E6.16159
G1 X124.637 Y41.240 E6.17592
G1 X124.172 Y41.211 E6.19887
G1 X123.890 Y41.139 E6.21319
G1 X123.473 Y40.943 E6.23586
G1 X123.248 Y40.781 E6.24949
G1 X123.049 Y40.594 E6.26292
G1 X122.764 Y40.201 E6.28684
G1 X122.585 Y39.748 E6.31080
G1 X122.530 Y39.457 E6.32539
G1 X122.530 Y38.977 E6.34900
G1 X122.651 Y38.507 E6.37290
G1 X122.775 Y38.243 E6.38723
G1 X123.061 Y37.851 E6.41113
G1 X123.430 Y37.544 E6.43474
G1 X123.689 Y37.401 E6.44933
G1 X124.134 Y37.256 E6.47234
G1 X124.423 Y37.220 E6.48667 F600.000
G1 X124.888 Y37.249 E6.50962
G1 X125.170 Y37.321 E6.52395
G1 X125.592 Y37.520 E6.54691
G1 X125.812 Y37.680 E6.56029
G1 X126.011 Y37.866 E6.57367
G1 X126.296 Y38.259 E6.59758
G1 X126.453 Y38.655 E6.61854
G1 X126.103 Y38.819 F9000.000
G1 X126.144 Y39.033 E6.62928 F600.000
G1 X126.144 Y39.434 E6.64900
G1 X126.044 Y39.822 E6.66872
G1 X125.951 Y40.020 E6.67947
G1 X125.716 Y40.344 E6.69918
G1 X125.412 Y40.596 E6.71863
G1 X125.216 Y40.704 E6.72963
G1 X124.842 Y40.826 E6.74901
G1 X124.625 Y40.853 E6.75976
G1 X124.232 Y40.828 E6.77912
G1 X124.021 Y40.774 E6.78986
G1 X123.670 Y40.609 E6.80896
G1 X123.494 Y40.483 E6.81961
G1 X123.340 Y40.338 E6.83002
G1 X123.104 Y40.014 E6.84974
G1 X122.957 Y39.641 E6.86947
G1 X122.916 Y39.421 E6.88047
G1 X122.916 Y39.026 E6.89992
G1 X123.016 Y38.638 E6.91964
G1 X123.109 Y38.440 E6.93038
G1 X123.344 Y38.116 E6.95009
G1 X123.648 Y37.864 E6.96955
G1 X123.844 Y37.756 E6.98054
G1 X124.218 Y37.634 E6.99993
G1 X124.435 Y37.607 E7.01067 F600.000
G1 X124.828 Y37.632 E7.03004
G1 X125.039 Y37.686 E7.04078
G1 X125.395 Y37.853 E7.06015
G1 X125.566 Y37.978 E7.07054
G1 X125.720 Y38.122 E7.08094
G1 X125.956 Y38.446 E7.10065
G1 X126.081 Y38.763 E7.11742
G1 X126.313 Y38.877 F9000.000
G1 E1.11742 F1800.00000
G92 E0
G1 X124.637 Y18.440 F9000.000
G1 E6.00000 F1800.00000
G1 X124.178 Y18.412 E6.02265 F600.000
G1 X123.891 Y18.339 E6.03724
G1 X123.468 Y18.140 E6.06025
G1 X123.248 Y17.980 E6.07364
G1 X123.049 Y17.794 E6.08701
G1 X122.764 Y17.401 E6.11093
G1 X122.585 Y16.949 E6.13484
G1 X122.534 Y16.681 E6.14827
G1 X122.517 Y16.404 E6.16191
G1 X122.578 Y15.928 E6.18553
G1 X122.764 Y15.459 E6.21038
G1 X123.061 Y15.050 E6.23524
G1 X123.435 Y14.741 E6.25915
G1 X123.690 Y14.600 E6.27348
G1 X124.134 Y14.456 E6.29644
G1 X124.423 Y14.420 E6.31077 F600.000
G1 X124.888 Y14.449 E6.33372
G1 X125.170 Y14.521 E6.34805
G1 X125.592 Y14.720 E6.37101
G1 X125.812 Y14.880 E6.38439
G1 X126.011 Y15.066 E6.39777
G1 X126.296 Y15.459 E6.42168
G1 X126.475 Y15.911 E6.44559
G1 X126.526 Y16.178 E6.45898
G1 X126.543 Y16.449 E6.47236
G1 X126.482 Y16.931 E6.49627
G1 X126.296 Y17.401 E6.52114
G1 X125.999 Y17.810 E6.54600
G1 X125.625 Y18.119 E6.56991
G1 X125.370 Y18.260 E6.58425
G1 X124.926 Y18.404 E6.60720
G1 X124.697 Y18.433 E6.61856
G1 X124.625 Y18.053 F9000.000
G1 X124.238 Y18.029 E6.63766 F600.000
G1 X124.021 Y17.974 E6.64866
G1 X123.665 Y17.807 E6.66804
G1 X123.494 Y17.682 E6.67844
G1 X123.340 Y17.538 E6.68883
G1 X123.104 Y17.214 E6.70855
G1 X122.957 Y16.841 E6.72827
G1 X122.917 Y16.633 E6.73868
G1 X122.904 Y16.417 E6.74933
G1 X122.954 Y16.025 E6.76878
G1 X123.104 Y15.646 E6.78885
G1 X123.344 Y15.316 E6.80892
G1 X123.653 Y15.061 E6.82863
G1 X123.844 Y14.956 E6.83938
G1 X124.218 Y14.834 E6.85874
G1 X124.435 Y14.807 E6.86949 F600.000
G1 X124.828 Y14.832 E6.88885
G1 X125.039 Y14.886 E6.89960
G1 X125.395 Y15.053 E6.91897
G1 X125.566 Y15.178 E6.92936
G1 X125.720 Y15.322 E6.93976
G1 X125.956 Y15.646 E6.95947
G1 X126.103 Y16.019 E6.97919
G1 X126.143 Y16.226 E6.98959
G1 X126.156 Y16.437 E6.99998
G1 X126.106 Y16.835 E7.01970
G1 X125.956 Y17.214 E7.03977
G1 X125.716 Y17.544 E7.05984
G1 X125.407 Y17.799 E7.07956
G1 X125.216 Y17.904 E7.09030
G1 X124.842 Y18.026 E7.10967
G1 X124.685 Y18.046 E7.11746
G1 X124.431 Y18.389 F9000.000
G1 X129.576 Y22.134 F9000.000
G1 X116.684 Y22.134 E7.75196 F600.000
G1 X116.684 Y22.834 E7.78641
G1 X113.776 Y22.834 E7.92951
G1 X113.776 Y9.826 E8.56967
G1 X114.784 Y9.826 E8.61926
G1 X114.784 Y13.826 E8.81612
G1 X124.314 Y13.826 E9.28515
G1 X124.328 Y14.043 E9.29584
G1 X124.049 Y14.078 E9.30964
G1 X123.537 Y14.245 E9.33618
G1 X123.217 Y14.420 E9.35411
G1 X122.777 Y14.784 E9.38221
G1 X122.423 Y15.272 E9.41187
G1 X122.202 Y15.832 E9.44151
G1 X122.130 Y16.391 E9.46928
G1 X122.150 Y16.729 E9.48591
G1 X122.213 Y17.057 E9.50237
G1 X122.423 Y17.588 E9.53047
G1 X122.759 Y18.050 E9.55858
G1 X123.001 Y18.278 E9.57494
G1 X123.270 Y18.473 E9.59131
G1 X123.760 Y18.704 E9.61794
G1 X124.118 Y18.794 E9.63613
G1 X124.650 Y18.827 E9.66234
G1 X125.010 Y18.782 E9.68023
G1 X125.523 Y18.615 E9.70678
G1 X125.843 Y18.440 E9.72470
G1 X126.283 Y18.076 E9.75280
G1 X126.637 Y17.588 E9.78246
G1 X126.859 Y17.028 E9.81212
G1 X126.930 Y16.461 E9.84022
G1 X126.909 Y16.129 E9.85659
G1 X126.847 Y15.803 E9.87297
G1 X126.637 Y15.272 E9.90107
G1 X126.301 Y14.810 E9.92917
G1 X126.059 Y14.582 E9.94554
G1 X125.790 Y14.387 E9.96191
G1 X125.302 Y14.157 E9.98845
G1 X124.949 Y14.066 E10.00638
G1 X124.693 Y14.050 E10.01900
G1 X124.700 Y13.826 E10.03003
G1 X130.384 Y13.826 E10.30976
G1 X130.384 Y41.834 E11.68815
G1 X124.746 Y41.834 E11.96562
G1 X124.732 Y41.617 E11.97631
G1 X125.011 Y41.582 E11.99011
G1 X125.525 Y41.415 E12.01674
G1 X125.848 Y41.236 E12.03493
G1 X126.283 Y40.875 E12.06270
G1 X126.618 Y40.414 E12.09078
G1 X126.773 Y40.084 E12.10870
G1 X126.915 Y39.531 E12.13680
G1 X126.915 Y38.960 E12.16490
G1 X126.847 Y38.603 E12.18282
G1 X126.637 Y38.072 E12.21093
G1 X126.301 Y37.610 E12.23903
G1 X126.059 Y37.382 E12.25539
G1 X125.790 Y37.187 E12.27176
G1 X125.302 Y36.957 E12.29831
G1 X124.949 Y36.866 E12.31623
G1 X124.411 Y36.833 E12.34277
G1 X124.049 Y36.878 E12.36069
G1 X123.535 Y37.045 E12.38731
G1 X123.212 Y37.224 E12.40550
G1 X122.777 Y37.585 E12.43327
G1 X122.442 Y38.046 E12.46135
G1 X122.287 Y38.376 E12.47928
G1 X122.145 Y38.928 E12.50735
G1 X122.144 Y39.493 E12.53513
G1 X122.212 Y39.856 E12.55331
G1 X122.423 Y40.388 E12.58150
G1 X122.759 Y40.850 E12.60960
G1 X123.003 Y41.079 E12.62605
G1 X123.277 Y41.277 E12.64268
G1 X123.759 Y41.503 E12.66890
G1 X124.111 Y41.594 E12.68680
G1 X124.367 Y41.610 E12.69943
G1 X124.360 Y41.834 E12.71046
G1 X114.784 Y41.834 E13.18176
G1 X114.784 Y45.834 E13.37862
G1 X113.776 Y45.834 E13.42821
G1 X113.776 Y32.826 E14.06837
G1 X116.684 Y32.826 E14.21147
G1 X116.684 Y33.526 E14.24592
G1 X129.576 Y33.526 E14.88042
G1 X129.576 Y22.194 E15.43815
G1 X129.191 Y22.519 F9000.000
G1 X117.069 Y22.519 E16.03470 F600.000
G1 X117.069 Y23.219 E16.06915
G1 X113.391 Y23.219 E16.25020
G1 X113.391 Y9.441 E16.92832
G1 X115.169 Y9.441 E17.01586
G1 X115.169 Y13.441 E17.21272
G1 X130.769 Y13.441 E17.98048
G1 X130.769 Y42.219 E19.39683
G1 X115.169 Y42.219 E20.16458
G1 X115.169 Y46.219 E20.36144
G1 X113.391 Y46.219 E20.44898
G1 X113.391 Y32.441 E21.12711
G1 X117.069 Y32.441 E21.30816
G1 X117.069 Y33.141 E21.34261
G1 X129.191 Y33.141 E21.93916
G1 X129.191 Y22.579 E22.45893
G1 X128.805 Y22.905 F9000.000
G1 X117.455 Y22.905 E23.01752 F600.000
G1 X117.455 Y23.605 E23.05197
G1 X113.005 Y23.605 E23.27098
G1 X113.005 Y9.055 E23.98706
G1 X115.555 Y9.055 E24.11256
G1 X115.555 Y13.055 E24.30942
G1 X131.155 Y13.055 E25.07717
G1 X131.155 Y42.605 E26.53148
G1 X115.555 Y42.605 E27.29923
G1 X115.555 Y46.605 E27.49609
G1 X113.005 Y46.605 E27.62159
G1 X113.005 Y32.055 E28.33767
G1 X117.455 Y32.055 E28.55668
G1 X117.455 Y32.755 E28.59113
G1 X128.805 Y32.755 E29.14972
G1 X128.805 Y22.965 E29.63153
G1 X128.805 Y22.505 F9000.000
G1 X129.980 Y21.941 F9000.000
G1 X129.980 Y33.719 E30.88763 F600.000
G1 X130.100 Y34.206 F9000.000
G1 X129.896 Y34.003 E30.90204 F600.000
G1 X129.342 Y34.003 E30.92981
G1 X130.100 Y34.761 E30.98349
G1 X130.100 Y35.316 E31.01126
G1 X128.594 Y33.810 E31.11786
G1 X128.039 Y33.810 E31.14562
G1 X130.100 Y35.871 E31.29149
G1 X130.100 Y36.425 E31.31926
G1 X127.485 Y33.810 E31.50439
G1 X126.930 Y33.810 E31.53216
G1 X130.100 Y36.980 E31.75656
G1 X130.100 Y37.535 E31.78433
G1 X126.375 Y33.810 E32.04800
G1 X125.821 Y33.810 E32.07577
G1 X130.100 Y38.089 E32.37871
G1 X130.100 Y38.644 E32.40648
G1 X125.266 Y33.810 E32.74869
G1 X124.711 Y33.810 E32.77645
G1 X130.100 Y39.199 E33.15793
G1 X130.100 Y39.753 E33.18570
G1 X124.157 Y33.810 E33.60644
G1 X123.602 Y33.810 E33.63421
G1 X130.100 Y40.308 E34.09423
G1 X130.100 Y40.863 E34.12199
G1 X123.047 Y33.810 E34.62127
G1 X122.493 Y33.810 E34.64904
G1 X125.330 Y36.648 E34.84993
G1 X124.688 Y36.560 E34.88236
G1 X121.938 Y33.810 E35.07706
G1 X121.383 Y33.810 E35.10483
G1 X124.161 Y36.588 E35.30148
G1 X123.726 Y36.707 E35.32406
G1 X120.828 Y33.810 E35.52917
G1 X120.274 Y33.810 E35.55694
G1 X123.331 Y36.867 E35.77338
G1 X122.991 Y37.082 E35.79351
G1 X119.719 Y33.810 E36.02514
G1 X119.164 Y33.810 E36.05291
G1 X122.688 Y37.333 E36.30234
G1 X122.432 Y37.632 E36.32203
G1 X118.610 Y33.810 E36.59262
G1 X118.055 Y33.810 E36.62038
G1 X122.201 Y37.956 E36.91386
G1 X122.023 Y38.333 E36.93473
G1 X117.500 Y33.810 E37.25491
G1 X116.946 Y33.810 E37.28268
G1 X121.910 Y38.774 E37.63411
G1 X121.861 Y39.280 E37.65955
G1 X115.691 Y33.110 E38.09633
G1 X115.136 Y33.110 E38.12410
G1 X121.913 Y39.886 E38.60382
G1 X122.349 Y40.878 F9000.000
G1 X114.582 Y33.110 E39.15373 F600.000
G1 X114.063 Y33.147 E39.17973
G1 X122.467 Y41.550 E39.77463
G1 X121.912 Y41.550 E39.80240
G1 X114.060 Y33.698 E40.35827
G1 X114.060 Y34.253 E40.38604
G1 X121.357 Y41.550 E40.90264
G1 X120.803 Y41.550 E40.93041
G1 X114.060 Y34.807 E41.40775
G1 X114.060 Y35.362 E41.43551
G1 X120.248 Y41.550 E41.87358
G1 X119.693 Y41.550 E41.90135
G1 X114.060 Y35.917 E42.30015
G1 X114.060 Y36.471 E42.32791
G1 X119.139 Y41.550 E42.68745
G1 X118.584 Y41.550 E42.71521
G1 X114.060 Y37.026 E43.03548
G1 X114.060 Y37.581 E43.06324
G1 X118.029 Y41.550 E43.34424
G1 X117.475 Y41.550 E43.37201
G1 X114.060 Y38.135 E43.61373
G1 X114.060 Y38.690 E43.64150
G1 X116.920 Y41.550 E43.84396
G1 X116.365 Y41.550 E43.87173
G1 X114.060 Y39.245 E44.03492
G1 X114.060 Y39.799 E44.06268
G1 X115.811 Y41.550 E44.18661
G1 X115.256 Y41.550 E44.21437
G1 X114.060 Y40.354 E44.29903
G1 X114.060 Y40.909 E44.32679
G1 X114.701 Y41.550 E44.37218
G1 X114.500 Y41.903 F9000.000
G1 X114.060 Y41.464 E44.40332 F600.000
G1 X114.060 Y42.018 E44.43109
G1 X114.500 Y42.458 E44.46223
G1 X114.060 Y42.573 E44.48499
G1 X114.500 Y43.013 E44.51614
G1 X114.060 Y43.128 E44.53890
G1 X114.500 Y43.568 E44.57004
G1 X114.060 Y43.682 E44.59280
G1 X114.500 Y44.122 E44.62394
G1 X114.060 Y44.237 E44.64670
G1 X114.500 Y44.677 E44.67785
G1 X114.060 Y44.792 E44.70061
G1 X114.500 Y45.232 E44.73175
G1 X114.264 Y45.550 E44.75160
G1 X114.060 Y45.346 E44.76601
G1 E38.76601 F1800.00000
G92 E0
G1 X126.128 Y41.329 F9000.000
G1 E6.00000 F1800.00000
G1 X126.350 Y41.550 E6.01567 F600.000
G1 X126.432 Y41.077 E6.03968
G1 X126.904 Y41.550 E6.07314
G1 X127.459 Y41.550 E6.10091
G1 X126.674 Y40.765 E6.15649
G1 X126.894 Y40.430 E6.17654
G1 X128.014 Y41.550 E6.25580
G1 X128.568 Y41.550 E6.28356
G1 X127.059 Y40.041 E6.39041
G1 X127.172 Y39.599 E6.41323
G1 X129.123 Y41.550 E6.55132
G1 X129.678 Y41.550 E6.57909
G1 X127.199 Y39.071 E6.75457
G1 X127.122 Y38.439 E6.78644
G1 X130.100 Y41.417 E6.99727
G1 E0.99727 F1800.00000
G92 E0
G1 X123.899 Y19.055 F9000.000
G1 E6.00000 F1800.00000
G1 X126.694 Y21.850 E6.19516 F600.000
G1 X127.241 Y21.850 E6.22217
G1 X124.499 Y19.108 E6.41366
G1 X124.998 Y19.060 E6.43843
G1 X127.788 Y21.850 E6.63325
G1 X128.335 Y21.850 E6.66027
G1 X125.413 Y18.927 E6.86435
G1 X125.791 Y18.758 E6.88480
G1 X128.883 Y21.850 E7.10067
G1 X129.246 Y21.666 E7.12078
G1 X126.117 Y18.538 E7.33925
G1 X126.417 Y18.290 E7.35844
G1 X129.784 Y21.657 E7.59356
G1 X130.100 Y21.426 E7.61289
G1 X126.659 Y17.985 E7.85315
G1 X126.886 Y17.665 E7.87253
G1 X130.100 Y20.879 E8.09698
G1 X130.100 Y20.332 E8.12399
G1 X127.041 Y17.273 E8.33760
G1 X127.158 Y16.843 E8.35958
G1 X130.100 Y19.785 E8.56498
G1 X130.100 Y19.238 E8.59199
G1 X127.213 Y16.351 E8.79358
G1 X127.139 Y15.730 E8.82446
G1 X130.100 Y18.690 E9.03121
G1 X130.100 Y18.143 E9.05822
G1 X126.636 Y14.679 E9.30010
G1 X126.614 Y14.110 E9.32823
G1 X130.100 Y17.596 E9.57165
G1 X130.100 Y17.049 E9.59867
G1 X127.161 Y14.110 E9.80389
G1 X127.708 Y14.110 E9.83090
G1 X130.100 Y16.502 E9.99793
G1 X130.100 Y15.955 E10.02494
G1 X128.255 Y14.110 E10.15376
G1 X128.802 Y14.110 E10.18077
G1 X130.100 Y15.408 E10.27139
G1 X130.100 Y14.861 E10.29841
G1 X129.349 Y14.110 E10.35083
G1 X129.896 Y14.110 E10.37784
G1 X130.100 Y14.314 E10.39206
G1 X122.972 Y14.298 F9000.000
G1 X122.784 Y14.110 E10.40519 F600.000
G1 X122.237 Y14.110 E10.43220
G1 X122.673 Y14.546 E10.46263
G1 X122.423 Y14.844 E10.48181
G1 X121.690 Y14.110 E10.53304
G1 X121.143 Y14.110 E10.56006
G1 X122.193 Y15.161 E10.63342
G1 X122.034 Y15.549 E10.65413
G1 X120.596 Y14.110 E10.75460
G1 X120.048 Y14.110 E10.78161
G1 X121.908 Y15.969 E10.91143
G1 X121.846 Y16.455 E10.93559
G1 X119.501 Y14.110 E11.09930
G1 X118.954 Y14.110 E11.12632
G1 X121.908 Y17.064 E11.33259
G1 X122.282 Y17.984 F9000.000
G1 X118.407 Y14.110 E11.60312 F600.000
G1 X117.860 Y14.110 E11.63013
G1 X125.600 Y21.850 E12.17057
G1 X126.147 Y21.850 E12.19758
G1 X123.008 Y18.710 E12.41680
G1 X117.313 Y14.110 F9000.000
G1 X125.053 Y21.850 E12.95724 F600.000
G1 X124.506 Y21.850 E12.98425
G1 X116.766 Y14.110 E13.52469
G1 X116.219 Y14.110 E13.55170
G1 X123.959 Y21.850 E14.09214
G1 X123.412 Y21.850 E14.11916
G1 X115.672 Y14.110 E14.65960
G1 X115.124 Y14.110 E14.68661
G1 X122.864 Y21.850 E15.22705
G1 X122.317 Y21.850 E15.25406
G1 X114.060 Y13.593 E15.83063
G1 X114.500 Y13.486 E15.85298
G1 X114.060 Y13.046 E15.88370
G1 X114.500 Y12.938 E15.90606
G1 X114.060 Y12.498 E15.93678
G1 X114.500 Y12.391 E15.95913
G1 X114.060 Y11.951 E15.98985
G1 X114.500 Y11.844 E16.01221
G1 X114.060 Y11.404 E16.04292
G1 X114.500 Y11.297 E16.06528
G1 X114.060 Y10.857 E16.09600
G1 X114.500 Y10.750 E16.11835
G1 X114.060 Y10.310 E16.14907
G1 X114.060 Y14.140 F9000.000
G1 X121.770 Y21.850 E16.68744 F600.000
G1 X121.223 Y21.850 E16.71445
G1 X114.060 Y14.687 E17.21461
G1 X114.060 Y15.234 E17.24162
G1 X120.676 Y21.850 E17.70358
G1 X120.129 Y21.850 E17.73059
G1 X114.060 Y15.781 E18.15435
G1 X114.060 Y16.328 E18.18136
G1 X119.582 Y21.850 E18.56692
G1 X119.035 Y21.850 E18.59393
G1 X114.060 Y16.875 E18.94129
G1 X114.060 Y17.422 E18.96830
