; generated by Slic3r 1.2.9 on 2018-06-04 at 21:31:44

; external perimeters extrusion width = 0.40mm
; perimeters extrusion width = 0.62mm
; infill extrusion width = 0.33mm
; solid infill extrusion width = 0.62mm
; top infill extrusion width = 0.20mm

M106 S256; Turn on fan to 100% power
M104 S140; turn on extruder temperature at S value
M140 S60; turn on bed temperature at S value
G28; home all axes
M84; disable motors
G1 Z15 F15000; have Z move to 20mm at 15000 mm/min
M190 S55; turn on bed temperature at S value and wait
M140 S55; turn on bed temperature at S value (printing temperature)
M109 S200; turn on extruder temperature at S value and wait (printing temperature)
M104 S200; turn on extruder temperature at S value
G1 Z0 F12000; move Z back to home
G21 ; set units to millimeters
G90 ; use absolute coordinates
M82 ; use absolute distances for extrusion
G92 E0
M106 S255
;Layer change
G1 E-6.00000 F1800.00000
G92 E0
G1 Z0.300 F9000.000
G1 X120.209 Y7.480 F9000.000
G1 E6.00000 F1800.00000
G1 X120.225 Y7.229 E6.01223 F600.000
G1 X120.309 Y6.686 E6.03896
G1 X120.458 Y6.169 E6.06515
G1 X120.572 Y5.877 E6.08037
G1 X120.823 Y5.388 E6.10713
G1 X120.958 Y5.176 E6.11936
G1 X121.294 Y4.740 E6.14613
G1 X121.499 Y4.522 E6.16070
G1 X121.682 Y4.350 E6.17293
G1 X122.116 Y4.012 E6.19968
G1 X122.589 Y3.730 E6.22648
G1 X122.860 Y3.602 E6.24107
G1 X123.379 Y3.417 E6.26783
G1 X123.916 Y3.299 E6.29462
G1 X124.165 Y3.267 E6.30684
G1 X124.464 Y3.248 E6.32142
G1 X173.916 Y3.248 E8.72727
G1 X174.214 Y3.267 E8.74182
G1 X174.464 Y3.299 E8.75406 F600.000
G1 X175.001 Y3.417 E8.78085
G1 X175.520 Y3.602 E8.80761
G1 X175.791 Y3.730 E8.82220
G1 X176.264 Y4.012 E8.84901
G1 X176.467 Y4.159 E8.86122
G1 X176.881 Y4.522 E8.88797
G1 X177.086 Y4.740 E8.90255
G1 X177.246 Y4.934 E8.91478
G1 X177.557 Y5.388 E8.94154
G1 X177.803 Y5.866 E8.96771
G1 X177.919 Y6.157 E8.98292
G1 X177.996 Y6.396 E8.99514
G1 X178.118 Y6.933 E9.02194
G1 X178.155 Y7.229 E9.03648
G1 X178.176 Y7.630 E9.05600
G1 X178.176 Y57.930 E11.50314
G1 X178.155 Y58.331 E11.52266
G1 X178.071 Y58.874 E11.54942
G1 X177.996 Y59.165 E11.56401
G1 X177.808 Y59.682 E11.59080
G1 X177.557 Y60.172 E11.61757
G1 X177.422 Y60.384 E11.62981
G1 X177.086 Y60.820 E11.65658
G1 X176.881 Y61.038 E11.67116
G1 X176.698 Y61.210 E11.68338
G1 X176.265 Y61.548 E11.71009
G1 X175.791 Y61.830 E11.73693
G1 X175.519 Y61.958 E11.75154
G1 X175.002 Y62.143 E11.77826
G1 X174.464 Y62.261 E11.80506
G1 X174.215 Y62.293 E11.81728
G1 X173.916 Y62.312 E11.83186
G1 X124.464 Y62.312 E14.23771
G1 X123.916 Y62.261 E14.26450
G1 X123.622 Y62.205 E14.27909
G1 X123.378 Y62.143 E14.29131
G1 X122.861 Y61.958 E14.31803
G1 X122.369 Y61.709 E14.34485
G1 X122.115 Y61.548 E14.35948
G1 X121.912 Y61.400 E14.37170
G1 X121.499 Y61.038 E14.39841
G1 X121.142 Y60.636 E14.42459
G1 X120.958 Y60.384 E14.43978
G1 X120.679 Y59.910 E14.46655
G1 X120.572 Y59.682 E14.47877
G1 X120.384 Y59.165 E14.50556
G1 X120.309 Y58.874 E14.52017
G1 X120.225 Y58.331 E14.54691
G1 X120.204 Y57.930 E14.56643
G1 X120.207 Y7.540 E17.01796
G1 E11.01796 F1800.00000
G92 E0
G1 X174.154 Y54.630 F9000.000
G1 E6.00000 F1800.00000
G1 X174.299 Y54.937 E6.01648 F600.000
G1 X174.403 Y55.259 E6.03297
G1 X174.467 Y55.592 E6.04946
G1 X174.488 Y55.930 E6.06594
G1 X174.467 Y56.268 E6.08243
G1 X174.403 Y56.601 E6.09892
G1 X174.299 Y56.923 E6.11540
G1 X174.153 Y57.233 E6.13203
G1 X173.964 Y57.527 E6.14903
G1 X173.757 Y57.777 E6.16484
G1 X173.510 Y58.009 E6.18133
G1 X173.236 Y58.208 E6.19782
G1 X172.939 Y58.371 E6.21431
G1 X172.624 Y58.496 E6.23079
G1 X172.295 Y58.580 E6.24728
G1 X171.959 Y58.623 E6.26377
G1 X171.621 Y58.623 E6.28024
G1 X171.285 Y58.580 E6.29672
G1 X170.956 Y58.496 E6.31321
G1 X170.641 Y58.371 E6.32969
G1 X170.344 Y58.208 E6.34618
G1 X170.070 Y58.009 E6.36268
G1 X169.823 Y57.777 E6.37916
G1 X169.607 Y57.516 E6.39563
G1 X169.426 Y57.230 E6.41212
G1 X169.281 Y56.923 E6.42861
G1 X169.177 Y56.601 E6.44509
G1 X169.113 Y56.268 E6.46158
G1 X169.092 Y55.930 E6.47807
G1 X169.113 Y55.592 E6.49455
G1 X169.177 Y55.259 E6.51104
G1 X169.281 Y54.937 E6.52752
G1 X169.427 Y54.627 E6.54415
G1 X169.616 Y54.333 E6.56116
G1 X169.823 Y54.083 E6.57697
G1 X170.070 Y53.851 E6.59345
G1 X170.344 Y53.652 E6.60995
G1 X170.641 Y53.489 E6.62643
G1 X170.956 Y53.364 E6.64291
G1 X171.285 Y53.280 E6.65941
G1 X171.621 Y53.237 E6.67589
G1 X171.959 Y53.237 E6.69236 F600.000
G1 X172.295 Y53.280 E6.70884
G1 X172.624 Y53.364 E6.72534
G1 X172.939 Y53.489 E6.74182
G1 X173.236 Y53.652 E6.75830
G1 X173.510 Y53.851 E6.77480
G1 X173.757 Y54.083 E6.79128
G1 X173.973 Y54.344 E6.80776
G1 X174.122 Y54.579 E6.82132
G1 X173.816 Y54.816 F9000.000
G1 X173.939 Y55.079 E6.83545 F600.000
G1 X174.029 Y55.355 E6.84957
G1 X174.084 Y55.640 E6.86370
G1 X174.102 Y55.930 E6.87782
G1 X174.084 Y56.220 E6.89195
G1 X174.029 Y56.505 E6.90608
G1 X173.939 Y56.781 E6.92020
G1 X173.815 Y57.045 E6.93441
G1 X173.652 Y57.298 E6.94905
G1 X173.475 Y57.512 E6.96256
G1 X173.264 Y57.711 E6.97669
G1 X173.029 Y57.882 E6.99082
G1 X172.774 Y58.022 E7.00494
G1 X172.504 Y58.129 E7.01907
G1 X172.223 Y58.201 E7.03320
G1 X171.935 Y58.237 E7.04732
G1 X171.645 Y58.237 E7.06143
G1 X171.357 Y58.201 E7.07556
G1 X171.076 Y58.129 E7.08969
G1 X170.806 Y58.022 E7.10381
G1 X170.551 Y57.882 E7.11793
G1 X170.316 Y57.711 E7.13206
G1 X170.105 Y57.512 E7.14619
G1 X169.920 Y57.289 E7.16031
G1 X169.764 Y57.044 E7.17443
G1 X169.641 Y56.781 E7.18856
G1 X169.551 Y56.505 E7.20268
G1 X169.496 Y56.220 E7.21680
G1 X169.478 Y55.930 E7.23093
G1 X169.496 Y55.640 E7.24506
G1 X169.551 Y55.355 E7.25918
G1 X169.641 Y55.079 E7.27330
G1 X169.765 Y54.815 E7.28752
G1 X169.928 Y54.561 E7.30216
G1 X170.105 Y54.348 E7.31567
G1 X170.316 Y54.149 E7.32979
G1 X170.551 Y53.978 E7.34392
G1 X170.806 Y53.838 E7.35805
G1 X171.076 Y53.731 E7.37217
G1 X171.357 Y53.659 E7.38630
G1 X171.645 Y53.623 E7.40042
G1 X171.935 Y53.623 E7.41454 F600.000
G1 X172.223 Y53.659 E7.42866
G1 X172.504 Y53.731 E7.44279
G1 X172.774 Y53.838 E7.45691
G1 X173.029 Y53.978 E7.47104
G1 X173.264 Y54.149 E7.48517
G1 X173.475 Y54.348 E7.49929
G1 X173.660 Y54.571 E7.51341
G1 X173.784 Y54.766 E7.52462
G1 X173.477 Y55.002 F9000.000
G1 X173.580 Y55.221 E7.53638 F600.000
G1 X173.655 Y55.451 E7.54814
G1 X173.700 Y55.689 E7.55991
G1 X173.715 Y55.930 E7.57167
G1 X173.700 Y56.171 E7.58344
G1 X173.655 Y56.409 E7.59520
G1 X173.580 Y56.639 E7.60697
G1 X173.477 Y56.858 E7.61876
G1 X173.340 Y57.070 E7.63104
G1 X173.194 Y57.248 E7.64225
G1 X173.017 Y57.414 E7.65401
G1 X172.822 Y57.556 E7.66578
G1 X172.610 Y57.672 E7.67755
G1 X172.385 Y57.761 E7.68931
G1 X172.151 Y57.821 E7.70107
G1 X171.911 Y57.852 E7.71284
G1 X171.669 Y57.852 E7.72459
G1 X171.429 Y57.821 E7.73636
G1 X171.195 Y57.761 E7.74812
G1 X170.970 Y57.672 E7.75989
G1 X170.758 Y57.556 E7.77165
G1 X170.563 Y57.414 E7.78342
G1 X170.386 Y57.248 E7.79518
G1 X170.232 Y57.062 E7.80694
G1 X170.103 Y56.858 E7.81871
G1 X170.000 Y56.639 E7.83047
G1 X169.925 Y56.409 E7.84223
G1 X169.880 Y56.171 E7.85400
G1 X169.865 Y55.930 E7.86576
G1 X169.880 Y55.689 E7.87753
G1 X169.925 Y55.451 E7.88929
G1 X170.000 Y55.221 E7.90105
G1 X170.103 Y55.002 E7.91285
G1 X170.240 Y54.789 E7.92513
G1 X170.386 Y54.612 E7.93634
G1 X170.563 Y54.446 E7.94810
G1 X170.758 Y54.304 E7.95987
G1 X170.970 Y54.188 E7.97163
G1 X171.195 Y54.099 E7.98340
G1 X171.429 Y54.039 E7.99516
G1 X171.669 Y54.008 E8.00693
G1 X171.911 Y54.008 E8.01868 F600.000
G1 X172.151 Y54.039 E8.03045
G1 X172.385 Y54.099 E8.04221
G1 X172.610 Y54.188 E8.05398
G1 X172.822 Y54.304 E8.06574
G1 X173.017 Y54.446 E8.07751
G1 X173.194 Y54.612 E8.08927
G1 X173.348 Y54.798 E8.10103
G1 X173.445 Y54.952 E8.10988
G1 X173.719 Y55.012 F9000.000
G1 X172.270 Y47.932 F9000.000
G1 X171.909 Y47.977 E8.12759 F600.000
G1 X171.371 Y47.944 E8.15381
G1 X171.019 Y47.853 E8.17153
G1 X170.530 Y47.623 E8.19778
G1 X170.261 Y47.428 E8.21396
G1 X170.019 Y47.200 E8.23014
G1 X169.702 Y46.764 E8.25638
G1 X169.547 Y46.434 E8.27409
G1 X169.405 Y45.881 E8.30187
G1 X169.405 Y45.279 E8.33120
G1 X169.547 Y44.725 E8.35898
G1 X169.702 Y44.396 E8.37669
G1 X170.037 Y43.934 E8.40446
G1 X170.477 Y43.570 E8.43225
G1 X170.797 Y43.395 E8.44997
G1 X171.310 Y43.228 E8.47621
G1 X171.671 Y43.183 E8.49392 F600.000
G1 X172.209 Y43.216 E8.52014
G1 X172.561 Y43.307 E8.53786
G1 X173.050 Y43.537 E8.56411
G1 X173.319 Y43.732 E8.58029
G1 X173.561 Y43.960 E8.59647
G1 X173.878 Y44.396 E8.62271
G1 X174.033 Y44.725 E8.64042
G1 X174.175 Y45.279 E8.66820
G1 X174.175 Y45.881 E8.69753
G1 X174.033 Y46.434 E8.72531
G1 X173.878 Y46.764 E8.74302
G1 X173.543 Y47.226 E8.77079
G1 X173.103 Y47.590 E8.79858
G1 X172.783 Y47.765 E8.81630
G1 X172.328 Y47.913 E8.83962
G1 X172.186 Y47.554 F9000.000
G1 X171.897 Y47.590 E8.85378 F600.000
G1 X171.432 Y47.561 E8.87647
G1 X171.150 Y47.489 E8.89064
G1 X170.728 Y47.290 E8.91334
G1 X170.508 Y47.130 E8.92656
G1 X170.309 Y46.944 E8.93979
G1 X170.035 Y46.567 E8.96248
G1 X169.911 Y46.303 E8.97665
G1 X169.790 Y45.833 E9.00029
G1 X169.790 Y45.327 E9.02487
G1 X169.911 Y44.857 E9.04851
G1 X170.035 Y44.593 E9.06268
G1 X170.321 Y44.200 E9.08630
G1 X170.695 Y43.891 E9.10994
G1 X170.950 Y43.750 E9.12412
G1 X171.394 Y43.606 E9.14681
G1 X171.683 Y43.570 E9.16097 F600.000
G1 X172.148 Y43.599 E9.18365
G1 X172.430 Y43.671 E9.19783
G1 X172.852 Y43.870 E9.22053
G1 X173.072 Y44.030 E9.23375
G1 X173.271 Y44.216 E9.24698
G1 X173.545 Y44.593 E9.26967
G1 X173.669 Y44.857 E9.28384
G1 X173.790 Y45.327 E9.30747
G1 X173.790 Y45.833 E9.33206
G1 X173.669 Y46.303 E9.35570
G1 X173.545 Y46.567 E9.36986
G1 X173.259 Y46.960 E9.39349
G1 X172.885 Y47.269 E9.41713
G1 X172.630 Y47.410 E9.43131
G1 X172.243 Y47.535 E9.45108
G1 X172.102 Y47.176 F9000.000
G1 X171.885 Y47.203 E9.46170 F600.000
G1 X171.492 Y47.178 E9.48084
G1 X171.281 Y47.124 E9.49146
G1 X170.925 Y46.957 E9.51061
G1 X170.754 Y46.832 E9.52088
G1 X170.600 Y46.688 E9.53116
G1 X170.369 Y46.370 E9.55030
G1 X170.276 Y46.172 E9.56092
G1 X170.176 Y45.784 E9.58042
G1 X170.176 Y45.376 E9.60026
G1 X170.276 Y44.988 E9.61975
G1 X170.369 Y44.790 E9.63037
G1 X170.604 Y44.466 E9.64986
G1 X170.913 Y44.211 E9.66935
G1 X171.104 Y44.106 E9.67998
G1 X171.478 Y43.984 E9.69912
G1 X171.695 Y43.957 E9.70974 F600.000
G1 X172.088 Y43.982 E9.72888
G1 X172.299 Y44.036 E9.73951
G1 X172.655 Y44.203 E9.75865
G1 X172.826 Y44.328 E9.76893
G1 X172.980 Y44.472 E9.77920
G1 X173.211 Y44.790 E9.79835
G1 X173.304 Y44.988 E9.80897
G1 X173.404 Y45.376 E9.82846
G1 X173.404 Y45.784 E9.84830
G1 X173.304 Y46.172 E9.86780
G1 X173.211 Y46.369 E9.87842
G1 X172.976 Y46.694 E9.89791
G1 X172.667 Y46.949 E9.91740
G1 X172.476 Y47.054 E9.92802
G1 X172.159 Y47.157 E9.94425
G1 X172.030 Y47.382 F9000.000
G1 E3.94425 F1800.00000
G92 E0
G1 X171.909 Y22.377 F9000.000
G1 E6.00000 F1800.00000
G1 X171.371 Y22.344 E6.02623 F600.000
G1 X171.019 Y22.253 E6.04394
G1 X170.530 Y22.023 E6.07019
G1 X170.261 Y21.828 E6.08637
G1 X170.019 Y21.600 E6.10255
G1 X169.702 Y21.164 E6.12879
G1 X169.547 Y20.834 E6.14650
G1 X169.405 Y20.281 E6.17429
G1 X169.405 Y19.679 E6.20361
G1 X169.547 Y19.125 E6.23139
G1 X169.702 Y18.796 E6.24911
G1 X170.037 Y18.334 E6.27688
G1 X170.477 Y17.970 E6.30466
G1 X170.797 Y17.795 E6.32238
G1 X171.310 Y17.628 E6.34862
G1 X171.671 Y17.583 E6.36633 F600.000
G1 X172.209 Y17.616 E6.39256
G1 X172.561 Y17.707 E6.41027
G1 X173.050 Y17.937 E6.43653
G1 X173.319 Y18.132 E6.45270
G1 X173.561 Y18.360 E6.46888
G1 X173.878 Y18.796 E6.49512
G1 X174.033 Y19.125 E6.51283
G1 X174.175 Y19.679 E6.54062
G1 X174.175 Y20.281 E6.56994
G1 X174.033 Y20.834 E6.59772
G1 X173.878 Y21.164 E6.61544
G1 X173.543 Y21.626 E6.64321
G1 X173.103 Y21.990 E6.67099
G1 X172.783 Y22.165 E6.68871
G1 X172.270 Y22.332 E6.71495
G1 X171.969 Y22.370 E6.72974
G1 X171.897 Y21.990 F9000.000
G1 X171.432 Y21.961 E6.75243 F600.000
G1 X171.150 Y21.889 E6.76660
G1 X170.728 Y21.690 E6.78930
G1 X170.508 Y21.530 E6.80252
G1 X170.309 Y21.344 E6.81575
G1 X170.035 Y20.967 E6.83844
G1 X169.911 Y20.703 E6.85261
G1 X169.790 Y20.233 E6.87625
G1 X169.790 Y19.727 E6.90083
G1 X169.911 Y19.257 E6.92447
G1 X170.035 Y18.993 E6.93864
G1 X170.321 Y18.600 E6.96226
G1 X170.695 Y18.291 E6.98590
G1 X170.950 Y18.150 E7.00008
G1 X171.394 Y18.006 E7.02277
G1 X171.683 Y17.970 E7.03693 F600.000
G1 X172.148 Y17.999 E7.05962
G1 X172.430 Y18.071 E7.07379
G1 X172.852 Y18.270 E7.09649
G1 X173.072 Y18.430 E7.10971
G1 X173.271 Y18.616 E7.12294
G1 X173.545 Y18.993 E7.14563
G1 X173.669 Y19.257 E7.15980
G1 X173.790 Y19.727 E7.18343
G1 X173.790 Y20.233 E7.20802
G1 X173.669 Y20.703 E7.23166
G1 X173.545 Y20.967 E7.24582
G1 X173.259 Y21.360 E7.26945
G1 X172.885 Y21.669 E7.29309
G1 X172.630 Y21.810 E7.30727
G1 X172.186 Y21.954 E7.32996
G1 X171.957 Y21.983 E7.34120
G1 X171.885 Y21.603 F9000.000
G1 X171.492 Y21.578 E7.36034 F600.000
G1 X171.281 Y21.524 E7.37096
G1 X170.925 Y21.357 E7.39011
G1 X170.754 Y21.232 E7.40039
G1 X170.600 Y21.088 E7.41066
G1 X170.369 Y20.770 E7.42980
G1 X170.276 Y20.572 E7.44043
G1 X170.176 Y20.184 E7.45992
G1 X170.176 Y19.776 E7.47976
G1 X170.276 Y19.388 E7.49926
G1 X170.369 Y19.190 E7.50988
G1 X170.604 Y18.866 E7.52937
G1 X170.913 Y18.611 E7.54886
G1 X171.104 Y18.506 E7.55948
G1 X171.478 Y18.384 E7.57863
G1 X171.695 Y18.357 E7.58925 F600.000
G1 X172.088 Y18.382 E7.60839
G1 X172.299 Y18.436 E7.61901
G1 X172.655 Y18.603 E7.63816
G1 X172.826 Y18.728 E7.64843
G1 X172.980 Y18.872 E7.65871
G1 X173.211 Y19.190 E7.67785
G1 X173.304 Y19.388 E7.68847
G1 X173.404 Y19.776 E7.70797
G1 X173.404 Y20.184 E7.72781
G1 X173.304 Y20.572 E7.74730
G1 X173.211 Y20.770 E7.75792
G1 X172.976 Y21.094 E7.77741
G1 X172.667 Y21.349 E7.79690
G1 X172.476 Y21.454 E7.80753
G1 X172.102 Y21.576 E7.82667
G1 X171.945 Y21.596 E7.83437
G1 X171.688 Y21.944 F9000.000
G1 E1.83437 F1800.00000
G92 E0
G1 X171.885 Y12.323 F9000.000
G1 E6.00000 F1800.00000
G1 X171.621 Y12.323 E6.01286 F600.000
G1 X171.298 Y12.282 E6.02868
G1 X170.959 Y12.197 E6.04568
G1 X170.641 Y12.071 E6.06231
G1 X170.344 Y11.908 E6.07880
G1 X170.070 Y11.709 E6.09529
G1 X169.823 Y11.477 E6.11177
G1 X169.607 Y11.216 E6.12825
G1 X169.426 Y10.930 E6.14474
G1 X169.281 Y10.623 E6.16122
G1 X169.177 Y10.301 E6.17771
G1 X169.113 Y9.968 E6.19420
G1 X169.092 Y9.630 E6.21068
G1 X169.113 Y9.292 E6.22717
G1 X169.177 Y8.959 E6.24365
G1 X169.281 Y8.637 E6.26014
G1 X169.427 Y8.327 E6.27677
G1 X169.616 Y8.033 E6.29377
G1 X169.823 Y7.783 E6.30959
G1 X170.070 Y7.551 E6.32607
G1 X170.344 Y7.352 E6.34256
G1 X170.641 Y7.189 E6.35904
G1 X170.956 Y7.064 E6.37553
G1 X171.284 Y6.980 E6.39202
G1 X171.621 Y6.937 E6.40850
G1 X171.959 Y6.937 E6.42498 F600.000
G1 X172.296 Y6.980 E6.44146
G1 X172.624 Y7.064 E6.45795
G1 X172.939 Y7.189 E6.47443
G1 X173.236 Y7.352 E6.49092
G1 X173.510 Y7.551 E6.50741
G1 X173.757 Y7.783 E6.52389
G1 X173.973 Y8.044 E6.54037
G1 X174.154 Y8.330 E6.55686
G1 X174.299 Y8.637 E6.57334
G1 X174.403 Y8.959 E6.58983
G1 X174.467 Y9.292 E6.60632
G1 X174.488 Y9.630 E6.62280
G1 X174.467 Y9.968 E6.63929
G1 X174.403 Y10.301 E6.65578
G1 X174.299 Y10.623 E6.67226
G1 X174.153 Y10.933 E6.68889
G1 X173.964 Y11.227 E6.70589
G1 X173.757 Y11.477 E6.72171
G1 X173.510 Y11.709 E6.73819
G1 X173.236 Y11.908 E6.75468
G1 X172.939 Y12.071 E6.77117
G1 X172.624 Y12.196 E6.78765
G1 X172.296 Y12.280 E6.80414
G1 X171.945 Y12.323 E6.82132
G1 X171.885 Y11.937 F9000.000
G1 X171.645 Y11.937 E6.83300 F600.000
G1 X171.369 Y11.902 E6.84651
G1 X171.077 Y11.829 E6.86115
G1 X170.806 Y11.722 E6.87537
G1 X170.551 Y11.582 E6.88949
G1 X170.316 Y11.411 E6.90362
G1 X170.105 Y11.213 E6.91774
G1 X169.920 Y10.989 E6.93186
G1 X169.764 Y10.744 E6.94599
G1 X169.641 Y10.481 E6.96011
G1 X169.551 Y10.205 E6.97424
G1 X169.496 Y9.920 E6.98836
G1 X169.478 Y9.630 E7.00249
G1 X169.496 Y9.340 E7.01661
G1 X169.551 Y9.055 E7.03074
G1 X169.641 Y8.779 E7.04486
G1 X169.765 Y8.515 E7.05908
G1 X169.928 Y8.261 E7.07372
G1 X170.105 Y8.047 E7.08723
G1 X170.316 Y7.849 E7.10135
G1 X170.551 Y7.678 E7.11548
G1 X170.806 Y7.538 E7.12961
G1 X171.076 Y7.431 E7.14373
G1 X171.357 Y7.359 E7.15786
G1 X171.645 Y7.323 E7.17198
G1 X171.935 Y7.323 E7.18610 F600.000
G1 X172.223 Y7.359 E7.20022
G1 X172.504 Y7.431 E7.21435
G1 X172.774 Y7.538 E7.22847
