; generated by Slic3r 1.2.9 on 2018-06-05 at 21:50:07

; external perimeters extrusion width = 0.40mm
; perimeters extrusion width = 0.62mm
; infill extrusion width = 0.33mm
; solid infill extrusion width = 0.62mm
; top infill extrusion width = 0.20mm

M106 S256; Turn on fan to 100% power
M104 S140; turn on extruder temperature at S value
M140 S60; turn on bed temperature at S value
G28; home all axes
M84; disable motors
G1 Z15 F15000; have Z move to 20mm at 15000 mm/min
M190 S55; turn on bed temperature at S value and wait
M140 S55; turn on bed temperature at S value (printing temperature)
M109 S200; turn on extruder temperature at S value and wait (printing temperature)
M104 S200; turn on extruder temperature at S value
G1 Z0 F12000; move Z back to home
G21 ; set units to millimeters
G90 ; use absolute coordinates
M82 ; use absolute distances for extrusion
G92 E0
M106 S255
;Layer change
G1 E-6.00000 F1800.00000
G92 E0
G1 Z0.300 F9000.000
G1 X53.820 Y6.559 F9000.000
G1 E6.00000 F1800.00000
G1 X53.904 Y6.016 E6.02673 F600.000
G1 X53.979 Y5.725 E6.04134
G1 X54.167 Y5.208 E6.06813
G1 X54.274 Y4.980 E6.08035
G1 X54.553 Y4.506 E6.10712
G1 X54.729 Y4.264 E6.12170
G1 X55.094 Y3.852 E6.14849
G1 X55.277 Y3.680 E6.16070
G1 X55.710 Y3.342 E6.18742
G1 X55.964 Y3.181 E6.20205
G1 X56.456 Y2.932 E6.22887
G1 X56.973 Y2.747 E6.25558
G1 X57.216 Y2.685 E6.26780
G1 X57.511 Y2.629 E6.28239
G1 X57.985 Y2.579 E6.30560
G1 X114.760 Y2.576 E9.06774
G1 X191.110 Y4.976 E12.78408 F600.000
G1 X192.407 Y5.408 E12.85058
G1 X193.253 Y6.482 E12.91708
G1 X193.421 Y7.360 E12.96059
G1 X193.421 Y52.560 E15.15962
G1 X193.029 Y53.870 E15.22612
G1 X191.983 Y54.749 E15.29262
G1 X191.110 Y54.944 E15.33613
G1 X114.759 Y57.344 E19.05251
G1 X58.185 Y57.346 E21.80490
G1 X57.784 Y57.325 E21.82442
G1 X57.488 Y57.288 E21.83895
G1 X56.950 Y57.166 E21.86577
G1 X56.712 Y57.088 E21.87798
G1 X56.205 Y56.871 E21.90478
G1 X55.943 Y56.727 E21.91934
G1 X55.489 Y56.417 E21.94608
G1 X55.077 Y56.051 E21.97292
G1 X54.715 Y55.638 E21.99963
G1 X54.567 Y55.434 E22.01188
G1 X54.285 Y54.961 E22.03869
G1 X54.064 Y54.455 E22.06555
G1 X53.910 Y53.928 E22.09225
G1 X53.854 Y53.634 E22.10681
G1 X53.804 Y53.160 E22.13002
G1 X53.799 Y6.960 E24.37767
G1 X53.816 Y6.619 E24.39429
G1 E18.39429 F1800.00000
G92 E0
G1 X112.031 Y6.364 F9000.000
G1 E6.00000 F1800.00000
G1 X112.031 Y53.556 E8.29596 F600.000
G1 X60.839 Y53.556 E10.78653
G1 X60.839 Y6.364 E13.08249
G1 X111.971 Y6.364 E15.57014
G1 X111.646 Y6.749 F9000.000
G1 X111.646 Y53.171 E17.82858 F600.000
G1 X61.224 Y53.171 E20.28162
G1 X61.224 Y6.749 E22.54006
G1 X111.586 Y6.749 E24.99018
G1 X111.260 Y7.135 F9000.000
G1 X111.260 Y52.785 E27.21110 F600.000
G1 X61.610 Y52.785 E29.62663
G1 X61.610 Y7.135 E31.84754
G1 X111.200 Y7.135 E34.26015
G1 X111.660 Y7.135 F9000.000
G1 X111.260 Y5.956 F9000.000
G1 X114.656 Y5.956 E34.42537 F600.000
G1 X114.811 Y5.966 E34.43291 F600.000
G1 X115.054 Y6.028 E34.44511
G1 X115.274 Y6.150 E34.45734
G1 X115.371 Y6.230 E34.46345
G1 X115.531 Y6.423 E34.47568
G1 X115.591 Y6.533 E34.48178
G1 X115.665 Y6.757 E34.49325
G1 X115.689 Y7.007 E34.50546
G1 X115.689 Y52.929 E36.73960
G1 X115.679 Y53.086 E36.74725
G1 X115.617 Y53.329 E36.75945
G1 X115.495 Y53.549 E36.77168
G1 X115.324 Y53.732 E36.78388
G1 X115.220 Y53.807 E36.79012
G1 X114.995 Y53.913 E36.80223
G1 X114.638 Y53.964 E36.81975
G1 X58.216 Y53.964 E39.56473
G1 X58.059 Y53.954 E39.57238
G1 X57.816 Y53.892 E39.58459
G1 X57.596 Y53.770 E39.59681
G1 X57.413 Y53.598 E39.60904
G1 X57.339 Y53.497 E39.61516
G1 X57.232 Y53.270 E39.62736
G1 X57.181 Y52.913 E39.64489
G1 X57.181 Y6.991 E41.87902
G1 X57.191 Y6.834 E41.88668
G1 X57.253 Y6.591 E41.89888
G1 X57.375 Y6.371 E41.91111
G1 X57.547 Y6.188 E41.92333
G1 X57.648 Y6.114 E41.92945
G1 X57.875 Y6.007 E41.94166
G1 X58.232 Y5.956 E41.95918
G1 X111.200 Y5.956 E44.53613
G1 X111.260 Y5.571 F9000.000
G1 X114.668 Y5.571 E44.70195 F600.000
G1 X114.859 Y5.583 E44.71125 F600.000
G1 X115.196 Y5.669 E44.72817
G1 X115.501 Y5.837 E44.74510
G1 X115.635 Y5.948 E44.75358
G1 X115.857 Y6.216 E44.77052
G1 X115.941 Y6.369 E44.77899
G1 X116.046 Y6.691 E44.79546
G1 X116.074 Y6.989 E44.81003
G1 X116.074 Y52.941 E47.04564
G1 X116.062 Y53.134 E47.05506
G1 X115.976 Y53.471 E47.07198
G1 X115.808 Y53.776 E47.08892
G1 X115.570 Y54.029 E47.10583
G1 X115.427 Y54.133 E47.11443
G1 X115.114 Y54.280 E47.13126
G1 X114.954 Y54.321 E47.13927
G1 X114.656 Y54.349 E47.15384
G1 X58.204 Y54.349 E49.90029
G1 X58.011 Y54.337 E49.90971
G1 X57.674 Y54.251 E49.92663
G1 X57.369 Y54.083 E49.94357
G1 X57.115 Y53.845 E49.96050
G1 X57.013 Y53.704 E49.96898
G1 X56.865 Y53.389 E49.98590
G1 X56.824 Y53.229 E49.99392
G1 X56.796 Y52.931 E50.00849
G1 X56.796 Y6.979 E52.24410
G1 X56.808 Y6.786 E52.25352
G1 X56.894 Y6.449 E52.27044
G1 X57.062 Y6.144 E52.28738
G1 X57.300 Y5.890 E52.30431
G1 X57.441 Y5.788 E52.31279
G1 X57.756 Y5.640 E52.32972
G1 X57.916 Y5.599 E52.33773
G1 X58.214 Y5.571 E52.35230
G1 X111.200 Y5.571 E54.93014
G1 X111.260 Y5.185 F9000.000
G1 X114.680 Y5.185 E55.09654 F600.000
G1 X114.907 Y5.199 E55.10761 F600.000
G1 X115.126 Y5.241 E55.11845
G1 X115.338 Y5.310 E55.12929
G1 X115.540 Y5.405 E55.14013
G1 X115.728 Y5.524 E55.15098
G1 X115.900 Y5.666 E55.16182
G1 X116.052 Y5.829 E55.17266
G1 X116.183 Y6.009 E55.18350
G1 X116.291 Y6.204 E55.19434
G1 X116.373 Y6.412 E55.20519
G1 X116.427 Y6.624 E55.21585
G1 X116.460 Y6.971 E55.23279
G1 X116.460 Y52.953 E57.46988
G1 X116.446 Y53.182 E57.48107
G1 X116.404 Y53.401 E57.49191
G1 X116.335 Y53.613 E57.50274
G1 X116.240 Y53.815 E57.51359
G1 X116.121 Y54.003 E57.52443
G1 X115.979 Y54.175 E57.53527
G1 X115.816 Y54.327 E57.54611
G1 X115.634 Y54.459 E57.55707
G1 X115.441 Y54.566 E57.56780
G1 X115.233 Y54.648 E57.57864
G1 X115.021 Y54.702 E57.58931
G1 X114.674 Y54.735 E57.60625
G1 X58.192 Y54.735 E60.35417
G1 X57.963 Y54.721 E60.36536
G1 X57.744 Y54.679 E60.37620
G1 X57.532 Y54.610 E60.38703
G1 X57.330 Y54.515 E60.39788
G1 X57.142 Y54.396 E60.40872
G1 X56.970 Y54.254 E60.41956
G1 X56.818 Y54.091 E60.43041
G1 X56.687 Y53.911 E60.44125
G1 X56.579 Y53.716 E60.45209
G1 X56.497 Y53.508 E60.46293
G1 X56.443 Y53.296 E60.47360
G1 X56.410 Y52.949 E60.49054
G1 X56.410 Y6.967 E62.72762
G1 X56.424 Y6.738 E62.73881
G1 X56.466 Y6.519 E62.74965
G1 X56.535 Y6.307 E62.76049
G1 X56.630 Y6.105 E62.77133
G1 X56.749 Y5.917 E62.78218
G1 X56.891 Y5.745 E62.79302
G1 X57.054 Y5.593 E62.80386
G1 X57.234 Y5.462 E62.81470
G1 X57.429 Y5.354 E62.82554
G1 X57.637 Y5.272 E62.83639
G1 X57.849 Y5.218 E62.84706
G1 X58.196 Y5.185 E62.86399
G1 X111.200 Y5.185 E65.44271
G1 X111.460 Y5.532 F9000.000
G1 X115.314 Y6.721 F9000.000
G1 X114.939 Y6.346 E65.46858 F600.000
G1 X114.287 Y6.240 E65.50082
G1 X115.405 Y7.358 E65.57796
G1 X115.405 Y7.905 E65.60463
G1 X113.740 Y6.240 E65.71948
G1 X113.193 Y6.240 E65.74615
G1 X115.405 Y8.452 E65.89872
G1 X115.405 Y8.999 E65.92539
G1 X112.646 Y6.240 E66.11567
G1 X112.315 Y6.456 E66.13495
G1 X115.405 Y9.545 E66.34809
G1 X115.405 Y10.092 E66.37476
G1 X112.315 Y7.002 E66.58791
G1 X112.315 Y7.549 E66.61457
G1 X115.405 Y10.639 E66.82772
G1 X115.405 Y11.186 E66.85439
G1 X112.315 Y8.096 E67.06753
G1 X112.315 Y8.643 E67.09420
G1 X115.405 Y11.732 E67.30734
G1 X115.405 Y12.279 E67.33401
G1 X112.315 Y9.189 E67.54716
G1 X112.315 Y9.736 E67.57383
G1 X115.405 Y12.826 E67.78697
G1 X115.405 Y13.373 E67.81364
G1 X112.315 Y10.283 E68.02678
G1 X112.315 Y10.830 E68.05345
G1 X115.405 Y13.919 E68.26660
G1 X115.405 Y14.466 E68.29326
G1 X112.315 Y11.376 E68.50641
G1 X112.315 Y11.923 E68.53308
G1 X115.405 Y15.013 E68.74622
G1 X115.405 Y15.560 E68.77289
G1 X112.315 Y12.470 E68.98603
G1 X112.315 Y13.017 E69.01270
G1 X115.405 Y16.107 E69.22585
G1 X115.405 Y16.653 E69.25252
G1 X112.315 Y13.563 E69.46566
G1 X112.315 Y14.110 E69.49233
G1 X115.405 Y17.200 E69.70547
G1 X115.405 Y17.747 E69.73214
G1 X112.315 Y14.657 E69.94529
G1 X112.315 Y15.204 E69.97196
G1 X115.405 Y18.294 E70.18510
G1 X115.405 Y18.840 E70.21177
G1 X112.315 Y15.750 E70.42491
G1 X112.315 Y16.297 E70.45158
G1 X115.405 Y19.387 E70.66473
G1 X115.405 Y19.934 E70.69139
G1 X112.315 Y16.844 E70.90454
G1 X112.315 Y17.391 E70.93121
G1 X115.405 Y20.481 E71.14435
G1 X115.405 Y21.027 E71.17102
G1 X112.315 Y17.937 E71.38416
G1 X112.315 Y18.484 E71.41083
G1 X115.405 Y21.574 E71.62398
G1 X115.405 Y22.121 E71.65065
G1 X112.315 Y19.031 E71.86379
G1 X112.315 Y19.578 E71.89046
G1 X115.405 Y22.668 E72.10360
G1 X115.405 Y23.214 E72.13027
G1 X112.315 Y20.124 E72.34342
G1 X112.315 Y20.671 E72.37009
G1 X115.405 Y23.761 E72.58323
G1 X115.405 Y24.308 E72.60990
G1 X112.315 Y21.218 E72.82304
G1 X112.315 Y21.765 E72.84971
G1 X115.405 Y24.855 E73.06286
G1 X115.405 Y25.401 E73.08952
G1 X112.315 Y22.311 E73.30267
G1 X112.315 Y22.858 E73.32934
G1 X115.405 Y25.948 E73.54248
G1 X115.405 Y26.495 E73.56915
G1 X112.315 Y23.405 E73.78229
G1 X112.315 Y23.952 E73.80896
G1 X115.405 Y27.042 E74.02211
G1 X115.405 Y27.588 E74.04878
G1 X112.315 Y24.498 E74.26192
G1 X112.315 Y25.045 E74.28859
G1 X115.405 Y28.135 E74.50173
G1 X115.405 Y28.682 E74.52840
G1 X112.315 Y25.592 E74.74155
G1 X112.315 Y26.139 E74.76822
G1 X115.405 Y29.229 E74.98136
G1 X115.405 Y29.775 E75.00803
G1 X112.315 Y26.685 E75.22117
G1 X112.315 Y27.232 E75.24784
G1 X115.405 Y30.322 E75.46099
G1 X115.405 Y30.869 E75.48765
G1 X112.315 Y27.779 E75.70080
G1 X112.315 Y28.326 E75.72747
G1 X115.405 Y31.416 E75.94061
G1 X115.405 Y31.962 E75.96728
G1 X112.315 Y28.872 E76.18042
G1 X112.315 Y29.419 E76.20709
G1 X115.405 Y32.509 E76.42024
G1 X115.405 Y33.056 E76.44691
G1 X112.315 Y29.966 E76.66005
G1 X112.315 Y30.513 E76.68672
G1 X115.405 Y33.603 E76.89986
G1 X115.405 Y34.149 E76.92653
G1 X112.315 Y31.059 E77.13968
G1 X112.315 Y31.606 E77.16635
G1 X115.405 Y34.696 E77.37949
G1 X115.405 Y35.243 E77.40616
G1 X112.315 Y32.153 E77.61930
G1 X112.315 Y32.700 E77.64597
G1 X115.405 Y35.790 E77.85912
G1 X115.405 Y36.336 E77.88578
G1 X112.315 Y33.247 E78.09893
G1 X112.315 Y33.793 E78.12560
G1 X115.405 Y36.883 E78.33874
G1 X115.405 Y37.430 E78.36541
G1 X112.315 Y34.340 E78.57856
G1 X112.315 Y34.887 E78.60522
G1 X115.405 Y37.977 E78.81837
G1 X115.405 Y38.523 E78.84504
G1 X112.315 Y35.434 E79.05818
G1 X112.315 Y35.980 E79.08485
G1 X115.405 Y39.070 E79.29799
G1 X115.405 Y39.617 E79.32466
G1 X112.315 Y36.527 E79.53781
G1 X112.315 Y37.074 E79.56448
G1 X115.405 Y40.164 E79.77762
G1 X115.405 Y40.710 E79.80429
G1 X112.315 Y37.621 E80.01743
G1 X112.315 Y38.167 E80.04410
G1 X115.405 Y41.257 E80.25725
G1 X115.405 Y41.804 E80.28392
G1 X112.315 Y38.714 E80.49706
G1 X112.315 Y39.261 E80.52373
G1 X115.405 Y42.351 E80.73687
G1 X115.405 Y42.897 E80.76354
G1 X112.315 Y39.808 E80.97669
G1 X112.315 Y40.354 E81.00335
G1 X115.405 Y43.444 E81.21650
G1 X115.405 Y43.991 E81.24317
G1 X112.315 Y40.901 E81.45631
G1 X112.315 Y41.448 E81.48298
G1 X115.405 Y44.538 E81.69613
G1 X115.405 Y45.085 E81.72279
G1 X112.315 Y41.995 E81.93594
G1 X112.315 Y42.541 E81.96261
G1 X115.405 Y45.631 E82.17575
G1 X115.405 Y46.178 E82.20242
G1 X112.315 Y43.088 E82.41556
G1 X112.315 Y43.635 E82.44223
G1 X115.405 Y46.725 E82.65538
G1 X115.405 Y47.272 E82.68205
G1 X112.315 Y44.182 E82.89519
G1 X112.315 Y44.728 E82.92186
G1 X115.405 Y47.818 E83.13500
G1 X115.405 Y48.365 E83.16167
G1 X112.315 Y45.275 E83.37482
G1 X112.315 Y45.822 E83.40149
G1 X115.405 Y48.912 E83.61463
G1 X115.405 Y49.459 E83.64130
G1 X112.315 Y46.369 E83.85444
G1 X112.315 Y46.915 E83.88111
G1 X115.405 Y50.005 E84.09426
G1 X115.405 Y50.552 E84.12092
G1 X112.315 Y47.462 E84.33407
G1 X112.315 Y48.009 E84.36074
G1 X115.405 Y51.099 E84.57388
G1 X115.405 Y51.646 E84.60055
G1 X112.315 Y48.556 E84.81370
G1 X112.315 Y49.102 E84.84036
G1 X115.405 Y52.192 E85.05351
G1 X115.405 Y52.739 E85.08018
G1 X112.315 Y49.649 E85.29332
G1 X112.315 Y50.196 E85.31999
G1 X115.363 Y53.244 E85.53027
G1 X115.122 Y53.550 E85.54926
G1 X112.315 Y50.743 E85.74291
G1 X112.315 Y51.289 E85.76958
G1 X114.704 Y53.678 E85.93438
G1 X114.159 Y53.680 E85.96098
G1 X112.315 Y51.836 E86.08816
G1 X112.315 Y52.383 E86.11483
G1 X113.612 Y53.680 E86.20430
G1 X113.065 Y53.680 E86.23097
G1 X112.315 Y52.930 E86.28273
G1 X112.315 Y53.476 E86.30940
G1 X112.519 Y53.680 E86.32344
G1 X57.941 Y53.580 F9000.000
G1 X57.559 Y53.198 E86.34975 F600.000
G1 X57.465 Y52.557 E86.38134
G1 X58.588 Y53.680 E86.45879
G1 X59.135 Y53.680 E86.48545
G1 X57.465 Y52.010 E86.60061
G1 X57.465 Y51.464 E86.62727
G1 X59.681 Y53.680 E86.78014
G1 X60.228 Y53.680 E86.80680
G1 X57.465 Y50.917 E86.99737
G1 X57.465 Y50.370 E87.02404
G1 X60.555 Y53.460 E87.23716
G1 X60.555 Y52.914 E87.26383
G1 X57.465 Y49.824 E87.47695
G1 X57.465 Y49.277 E87.50361
G1 X60.555 Y52.367 E87.71674
G1 X60.555 Y51.820 E87.74340
G1 X57.465 Y48.730 E87.95653
G1 X57.465 Y48.183 E87.98319
G1 X60.555 Y51.273 E88.19632
G1 X60.555 Y50.727 E88.22298
G1 X57.465 Y47.637 E88.43610
G1 X57.465 Y47.090 E88.46277
G1 X60.555 Y50.180 E88.67589
G1 X60.555 Y49.633 E88.70256
G1 X57.465 Y46.543 E88.91568
G1 X57.465 Y45.997 E88.94235
G1 X60.555 Y49.087 E89.15547
G1 X60.555 Y48.540 E89.18213
G1 X57.465 Y45.450 E89.39526
G1 X57.465 Y44.903 E89.42192
G1 X60.555 Y47.993 E89.63505
G1 X60.555 Y47.446 E89.66171
G1 X57.465 Y44.357 E89.87484
G1 X57.465 Y43.810 E89.90150
G1 X60.555 Y46.900 E90.11462
G1 X60.555 Y46.353 E90.14129
G1 X57.465 Y43.263 E90.35441
G1 X57.465 Y42.716 E90.38108
G1 X60.555 Y45.806 E90.59420
G1 X60.555 Y45.260 E90.62087
G1 X57.465 Y42.170 E90.83399
G1 X57.465 Y41.623 E90.86065
G1 X60.555 Y44.713 E91.07378
G1 X60.555 Y44.166 E91.10044
G1 X57.465 Y41.076 E91.31357
G1 X57.465 Y40.530 E91.34023
G1 X60.555 Y43.620 E91.55336
G1 X60.555 Y43.073 E91.58002
G1 X57.465 Y39.983 E91.79314
G1 X57.465 Y39.436 E91.81981
G1 X60.555 Y42.526 E92.03293
G1 X60.555 Y41.979 E92.05960
G1 X57.465 Y38.890 E92.27272
G1 X57.465 Y38.343 E92.29939
G1 X60.555 Y41.433 E92.51251
G1 X60.555 Y40.886 E92.53917
G1 X57.465 Y37.796 E92.75230
G1 X57.465 Y37.249 E92.77896
G1 X60.555 Y40.339 E92.99209
G1 X60.555 Y39.793 E93.01875
G1 X57.465 Y36.703 E93.23188
G1 X57.465 Y36.156 E93.25854
G1 X60.555 Y39.246 E93.47166
G1 X60.555 Y38.699 E93.49833
G1 X57.465 Y35.609 E93.71145
G1 X57.465 Y35.063 E93.73812
G1 X60.555 Y38.153 E93.95124
G1 X60.555 Y37.606 E93.97791
G1 X57.465 Y34.516 E94.19103
G1 X57.465 Y33.969 E94.21769
G1 X60.555 Y37.059 E94.43082
G1 X60.555 Y36.512 E94.45748
G1 X57.465 Y33.422 E94.67061
G1 X57.465 Y32.876 E94.69727
G1 X60.555 Y35.966 E94.91040
G1 X60.555 Y35.419 E94.93706
G1 X57.465 Y32.329 E95.15018
G1 X57.465 Y31.782 E95.17685
G1 X60.555 Y34.872 E95.38997
G1 X60.555 Y34.326 E95.41664
G1 X57.465 Y31.236 E95.62976
G1 X57.465 Y30.689 E95.65643
G1 X60.555 Y33.779 E95.86955
G1 X60.555 Y33.232 E95.89621
G1 X57.465 Y30.142 E96.10934
G1 X57.465 Y29.596 E96.13600
G1 X60.555 Y32.685 E96.34913
G1 X60.555 Y32.139 E96.37579
G1 X57.465 Y29.049 E96.58892
G1 X57.465 Y28.502 E96.61558
G1 X60.555 Y31.592 E96.82870
G1 X60.555 Y31.045 E96.85537
G1 X57.465 Y27.955 E97.06849
G1 X57.465 Y27.409 E97.09516
G1 X60.555 Y30.499 E97.30828
G1 X60.555 Y29.952 E97.33495
G1 X57.465 Y26.862 E97.54807
G1 X57.465 Y26.315 E97.57473
G1 X60.555 Y29.405 E97.78786
G1 X60.555 Y28.859 E97.81452
G1 X57.465 Y25.769 E98.02765
G1 X57.465 Y25.222 E98.05431
G1 X60.555 Y28.312 E98.26744
G1 X60.555 Y27.765 E98.29410
G1 X57.465 Y24.675 E98.50722
G1 X57.465 Y24.128 E98.53389
G1 X60.555 Y27.218 E98.74701
G1 X60.555 Y26.672 E98.77368
G1 X57.465 Y23.582 E98.98680
G1 X57.465 Y23.035 E99.01346
G1 X60.555 Y26.125 E99.22659
G1 X60.555 Y25.578 E99.25325
G1 X57.465 Y22.488 E99.46638
G1 X57.465 Y21.942 E99.49304
G1 X60.555 Y25.032 E99.70617
G1 X60.555 Y24.485 E99.73283
G1 X57.465 Y21.395 E99.94595
G1 X57.465 Y20.848 E99.97262
G1 X60.555 Y23.938 E100.18574
G1 X60.555 Y23.391 E100.21241
G1 X57.465 Y20.302 E100.42553
G1 X57.465 Y19.755 E100.45220
G1 X60.555 Y22.845 E100.66532
G1 X60.555 Y22.298 E100.69198
G1 X57.465 Y19.208 E100.90511
G1 X57.465 Y18.661 E100.93177
G1 X60.555 Y21.751 E101.14490
G1 X60.555 Y21.205 E101.17156
G1 X57.465 Y18.115 E101.38469
G1 X57.465 Y17.568 E101.41135
G1 X60.555 Y20.658 E101.62447
G1 X60.555 Y20.111 E101.65114
G1 X57.465 Y17.021 E101.86426
