; generated by Slic3r 1.2.9 on 2018-06-06 at 20:31:55

; external perimeters extrusion width = 0.40mm
; perimeters extrusion width = 0.62mm
; infill extrusion width = 0.33mm
; solid infill extrusion width = 0.62mm
; top infill extrusion width = 0.20mm

M106 S256; Turn on fan to 100% power
M104 S140; turn on extruder temperature at S value
M140 S60; turn on bed temperature at S value
G28; home all axes
M84; disable motors
G1 Z15 F15000; have Z move to 20mm at 15000 mm/min
M190 S55; turn on bed temperature at S value and wait
M140 S55; turn on bed temperature at S value (printing temperature)
M109 S200; turn on extruder temperature at S value and wait (printing temperature)
M104 S200; turn on extruder temperature at S value
G1 Z0 F12000; move Z back to home
G21 ; set units to millimeters
G90 ; use absolute coordinates
M82 ; use absolute distances for extrusion
G92 E0
M106 S255
;Layer change
G1 E-6.00000 F1800.00000
G92 E0
G1 Z0.300 F9000.000
G1 X131.364 Y6.100 F9000.000
G1 E6.00000 F1800.00000
G1 X131.756 Y4.790 E6.06650 F600.000
G1 X132.802 Y3.911 E6.13300
G1 X133.750 Y3.714 E6.18009
G1 X183.950 Y3.714 E8.62237
G1 X185.260 Y4.106 E8.68888
G1 X186.139 Y5.152 E8.75538 F600.000
G1 X186.336 Y6.100 E8.80246
G1 X186.336 Y52.300 E11.05014
G1 X185.944 Y53.610 E11.11664
G1 X184.898 Y54.489 E11.18315
G1 X183.950 Y54.686 E11.23023
G1 X133.750 Y54.686 E13.67251
G1 X132.440 Y54.294 E13.73902
G1 X131.561 Y53.248 E13.80552
G1 X131.364 Y52.300 E13.85261
G1 X131.364 Y6.160 E16.09736
G1 E10.09736 F1800.00000
G92 E0
G1 X183.061 Y6.989 F9000.000
G1 E6.00000 F1800.00000
G1 X183.061 Y51.411 E8.16114 F600.000
G1 X134.639 Y51.411 E10.51688
G1 X134.639 Y6.989 E12.67802
G1 X183.001 Y6.989 E15.03084
G1 X182.675 Y7.375 F9000.000
G1 X182.675 Y51.025 E17.15446 F600.000
G1 X135.025 Y51.025 E19.47268
G1 X135.025 Y7.375 E21.59630
G1 X182.615 Y7.375 E23.91160
G1 X183.075 Y7.375 F9000.000
G1 X183.339 Y6.711 F9000.000
G1 X183.339 Y51.689 E26.09986 F600.000
G1 X134.361 Y51.689 E28.48273
G1 X134.361 Y6.711 E30.67099
G1 X183.279 Y6.711 E33.05094
G1 X183.725 Y6.325 F9000.000
G1 X183.725 Y52.075 E35.27672 F600.000
G1 X133.975 Y52.075 E37.69711
G1 X133.975 Y6.325 E39.92289
G1 X183.665 Y6.325 E42.34036
G1 X183.525 Y6.671 F9000.000
M104 S205 ; set temperature
M140 S55 ; wait for bed temperature to be reached
;Layer change
G1 E36.34036 F1800.00000
G92 E0
G1 Z0.520 F9000.000
G1 X182.650 Y7.400 F9000.000
G1 E6.00000 F1800.00000
G1 X182.650 Y51.000 E7.42310 F1800.000
G1 X135.050 Y51.000 E8.97675
G1 X135.050 Y7.400 E10.39985
G1 X182.590 Y7.400 E11.95154
G1 X183.050 Y7.400 F9000.000
G1 X183.750 Y6.300 F9000.000
G1 X183.750 Y52.100 E13.44645 F1800.000
G1 X133.950 Y52.100 E15.07191
G1 X133.950 Y6.300 E16.56681
G1 X183.690 Y6.300 E18.19032
G1 X183.550 Y6.646 F9000.000
G1 X183.145 Y6.905 F9000.000
G1 X183.200 Y7.169 E18.22002 F1800.000
G1 X183.200 Y51.231 E23.06959
G1 X183.145 Y51.495 E23.09929
G1 X182.881 Y51.550 E23.12899
G1 X134.819 Y51.550 E28.41881
G1 X134.555 Y51.495 E28.44851
G1 X134.500 Y51.231 E28.47822
G1 X134.500 Y7.169 E33.32778
G1 X134.555 Y6.905 E33.35749
G1 X134.819 Y6.850 E33.38719
G1 X182.881 Y6.850 E38.67701
G1 X183.087 Y6.893 E38.70011
;Layer change
G1 E32.70011 F1800.00000
G92 E0
G1 Z0.740 F9000.000
G1 X182.650 Y7.400 F9000.000
G1 E6.00000 F1800.00000
G1 X182.650 Y51.000 E7.42310 F1800.000
G1 X135.050 Y51.000 E8.97675
G1 X135.050 Y7.400 E10.39985
G1 X182.590 Y7.400 E11.95154
G1 X183.050 Y7.400 F9000.000
G1 X183.750 Y6.300 F9000.000
G1 X183.750 Y52.100 E13.44645 F1800.000
G1 X133.950 Y52.100 E15.07191
G1 X133.950 Y6.300 E16.56681
G1 X183.690 Y6.300 E18.19032
G1 X183.550 Y6.646 F9000.000
G1 X183.145 Y6.905 F9000.000
G1 X183.200 Y7.169 E18.22002 F1800.000
G1 X183.200 Y51.231 E23.06959
G1 X183.145 Y51.495 E23.09929
G1 X182.881 Y51.550 E23.12899
G1 X134.819 Y51.550 E28.41881
G1 X134.555 Y51.495 E28.44851
G1 X134.500 Y51.231 E28.47822
G1 X134.500 Y7.169 E33.32778
G1 X134.555 Y6.905 E33.35749
G1 X134.819 Y6.850 E33.38719
G1 X182.881 Y6.850 E38.67701
G1 X183.087 Y6.893 E38.70011
;Layer change
G1 E32.70011 F1800.00000
G92 E0
G1 Z0.960 F9000.000
G1 X182.650 Y7.400 F9000.000
G1 E6.00000 F1800.00000
G1 X182.650 Y51.000 E7.42310 F1800.000
G1 X135.050 Y51.000 E8.97675
G1 X135.050 Y7.400 E10.39985
G1 X182.590 Y7.400 E11.95154
G1 X183.050 Y7.400 F9000.000
G1 X183.750 Y6.300 F9000.000
G1 X183.750 Y52.100 E13.44645 F1800.000
G1 X133.950 Y52.100 E15.07191
G1 X133.950 Y6.300 E16.56681
G1 X183.690 Y6.300 E18.19032
G1 X183.550 Y6.646 F9000.000
G1 X183.145 Y6.905 F9000.000
G1 X183.200 Y7.169 E18.22002 F1800.000
G1 X183.200 Y51.231 E23.06959
G1 X183.145 Y51.495 E23.09929
G1 X182.881 Y51.550 E23.12899
G1 X134.819 Y51.550 E28.41881
G1 X134.555 Y51.495 E28.44851
G1 X134.500 Y51.231 E28.47822
G1 X134.500 Y7.169 E33.32778
G1 X134.555 Y6.905 E33.35749
G1 X134.819 Y6.850 E33.38719
G1 X182.881 Y6.850 E38.67701
G1 X183.087 Y6.893 E38.70011
;Layer change
G1 E32.70011 F1800.00000
G92 E0
G1 Z1.180 F9000.000
G1 X182.650 Y7.400 F9000.000
G1 E6.00000 F1800.00000
G1 X182.650 Y51.000 E7.42310 F1800.000
G1 X135.050 Y51.000 E8.97675
G1 X135.050 Y7.400 E10.39985
G1 X182.590 Y7.400 E11.95154
G1 X183.050 Y7.400 F9000.000
G1 X183.750 Y6.300 F9000.000
G1 X183.750 Y52.100 E13.44645 F1800.000
G1 X133.950 Y52.100 E15.07191
G1 X133.950 Y6.300 E16.56681
G1 X183.690 Y6.300 E18.19032
G1 X183.550 Y6.646 F9000.000
G1 X183.145 Y6.905 F9000.000
G1 X183.200 Y7.169 E18.22002 F1800.000
G1 X183.200 Y51.231 E23.06959
G1 X183.145 Y51.495 E23.09929
G1 X182.881 Y51.550 E23.12899
G1 X134.819 Y51.550 E28.41881
G1 X134.555 Y51.495 E28.44851
G1 X134.500 Y51.231 E28.47822
G1 X134.500 Y7.169 E33.32778
G1 X134.555 Y6.905 E33.35749
G1 X134.819 Y6.850 E33.38719
G1 X182.881 Y6.850 E38.67701
G1 X183.087 Y6.893 E38.70011
;Layer change
G1 E32.70011 F1800.00000
G92 E0
G1 Z1.400 F9000.000
G1 X182.650 Y7.400 F9000.000
G1 E6.00000 F1800.00000
G1 X182.650 Y51.000 E7.42310 F1800.000
G1 X135.050 Y51.000 E8.97675
G1 X135.050 Y7.400 E10.39985
G1 X182.590 Y7.400 E11.95154
G1 X183.050 Y7.400 F9000.000
G1 X183.750 Y6.300 F9000.000
G1 X183.750 Y52.100 E13.44645 F1800.000
G1 X133.950 Y52.100 E15.07191
G1 X133.950 Y6.300 E16.56681
G1 X183.690 Y6.300 E18.19032
G1 X183.550 Y6.646 F9000.000
G1 X183.145 Y6.905 F9000.000
G1 X183.200 Y7.169 E18.22002 F1800.000
G1 X183.200 Y51.231 E23.06959
G1 X183.145 Y51.495 E23.09929
G1 X182.881 Y51.550 E23.12899
G1 X134.819 Y51.550 E28.41881
G1 X134.555 Y51.495 E28.44851
G1 X134.500 Y51.231 E28.47822
G1 X134.500 Y7.169 E33.32778
G1 X134.555 Y6.905 E33.35749
G1 X134.819 Y6.850 E33.38719
G1 X182.881 Y6.850 E38.67701
G1 X183.087 Y6.893 E38.70011
;Layer change
G1 E32.70011 F1800.00000
G92 E0
G1 Z1.620 F9000.000
G1 X182.650 Y7.400 F9000.000
G1 E6.00000 F1800.00000
G1 X182.650 Y51.000 E7.42310 F1800.000
G1 X135.050 Y51.000 E8.97675
G1 X135.050 Y7.400 E10.39985
G1 X182.590 Y7.400 E11.95154
G1 X183.050 Y7.400 F9000.000
G1 X183.750 Y6.300 F9000.000
G1 X183.750 Y52.100 E13.44645 F1800.000
G1 X133.950 Y52.100 E15.07191
G1 X133.950 Y6.300 E16.56681
G1 X183.690 Y6.300 E18.19032
G1 X183.550 Y6.646 F9000.000
G1 X183.145 Y6.905 F9000.000
G1 X183.200 Y7.169 E18.22002 F1800.000
G1 X183.200 Y51.231 E23.06959
G1 X183.145 Y51.495 E23.09929
G1 X182.881 Y51.550 E23.12899
G1 X134.819 Y51.550 E28.41881
G1 X134.555 Y51.495 E28.44851
G1 X134.500 Y51.231 E28.47822
G1 X134.500 Y7.169 E33.32778
G1 X134.555 Y6.905 E33.35749
G1 X134.819 Y6.850 E33.38719
G1 X182.881 Y6.850 E38.67701
G1 X183.087 Y6.893 E38.70011
;Layer change
G1 E32.70011 F1800.00000
G92 E0
G1 Z1.840 F9000.000
G1 X182.650 Y7.400 F9000.000
G1 E6.00000 F1800.00000
G1 X182.650 Y51.000 E7.42310 F1800.000
G1 X135.050 Y51.000 E8.97675
G1 X135.050 Y7.400 E10.39985
G1 X182.590 Y7.400 E11.95154
G1 X183.050 Y7.400 F9000.000
G1 X183.750 Y6.300 F9000.000
G1 X183.750 Y52.100 E13.44645 F1800.000
G1 X133.950 Y52.100 E15.07191
G1 X133.950 Y6.300 E16.56681
G1 X183.690 Y6.300 E18.19032
G1 X183.550 Y6.646 F9000.000
G1 X183.145 Y6.905 F9000.000
G1 X183.200 Y7.169 E18.22002 F1800.000
G1 X183.200 Y51.231 E23.06959
G1 X183.145 Y51.495 E23.09929
G1 X182.881 Y51.550 E23.12899
G1 X134.819 Y51.550 E28.41881
G1 X134.555 Y51.495 E28.44851
G1 X134.500 Y51.231 E28.47822
G1 X134.500 Y7.169 E33.32778
G1 X134.555 Y6.905 E33.35749
G1 X134.819 Y6.850 E33.38719
G1 X182.881 Y6.850 E38.67701
G1 X183.087 Y6.893 E38.70011
;Layer change
G1 E32.70011 F1800.00000
G92 E0
G1 Z2.060 F9000.000
G1 X182.650 Y7.400 F9000.000
G1 E6.00000 F1800.00000
G1 X182.650 Y51.000 E7.42310 F1800.000
G1 X135.050 Y51.000 E8.97675
G1 X135.050 Y7.400 E10.39985
G1 X182.590 Y7.400 E11.95154
G1 X183.050 Y7.400 F9000.000
G1 X183.750 Y6.300 F9000.000
G1 X183.750 Y52.100 E13.44645 F1800.000
G1 X133.950 Y52.100 E15.07191
G1 X133.950 Y6.300 E16.56681
G1 X183.690 Y6.300 E18.19032
G1 X183.550 Y6.646 F9000.000
G1 X183.145 Y6.905 F9000.000
G1 X183.200 Y7.169 E18.22002 F1800.000
G1 X183.200 Y51.231 E23.06959
G1 X183.145 Y51.495 E23.09929
G1 X182.881 Y51.550 E23.12899
G1 X134.819 Y51.550 E28.41881
G1 X134.555 Y51.495 E28.44851
G1 X134.500 Y51.231 E28.47822
G1 X134.500 Y7.169 E33.32778
G1 X134.555 Y6.905 E33.35749
G1 X134.819 Y6.850 E33.38719
G1 X182.881 Y6.850 E38.67701
G1 X183.087 Y6.893 E38.70011
;Layer change
G1 E32.70011 F1800.00000
G92 E0
G1 Z2.280 F9000.000
G1 X182.650 Y7.400 F9000.000
G1 E6.00000 F1800.00000
G1 X182.650 Y51.000 E7.42310 F1800.000
G1 X135.050 Y51.000 E8.97675
G1 X135.050 Y7.400 E10.39985
G1 X182.590 Y7.400 E11.95154
G1 X183.050 Y7.400 F9000.000
G1 X183.750 Y6.300 F9000.000
G1 X183.750 Y52.100 E13.44645 F1800.000
G1 X133.950 Y52.100 E15.07191
G1 X133.950 Y6.300 E16.56681
G1 X183.690 Y6.300 E18.19032
G1 X183.550 Y6.646 F9000.000
G1 X183.145 Y6.905 F9000.000
G1 X183.200 Y7.169 E18.22002 F1800.000
G1 X183.200 Y51.231 E23.06959
G1 X183.145 Y51.495 E23.09929
G1 X182.881 Y51.550 E23.12899
G1 X134.819 Y51.550 E28.41881
G1 X134.555 Y51.495 E28.44851
G1 X134.500 Y51.231 E28.47822
G1 X134.500 Y7.169 E33.32778
G1 X134.555 Y6.905 E33.35749
G1 X134.819 Y6.850 E33.38719
G1 X182.881 Y6.850 E38.67701
G1 X183.087 Y6.893 E38.70011
;Layer change
G1 E32.70011 F1800.00000
G92 E0
G1 Z2.500 F9000.000
G1 X182.650 Y7.400 F9000.000
G1 E6.00000 F1800.00000
G1 X182.650 Y51.000 E7.42310 F1800.000
G1 X135.050 Y51.000 E8.97675
G1 X135.050 Y7.400 E10.39985
G1 X182.590 Y7.400 E11.95154
G1 X183.050 Y7.400 F9000.000
G1 X183.750 Y6.300 F9000.000
G1 X183.750 Y52.100 E13.44645 F1800.000
G1 X133.950 Y52.100 E15.07191
G1 X133.950 Y6.300 E16.56681
G1 X183.690 Y6.300 E18.19032
G1 X183.550 Y6.646 F9000.000
G1 X183.145 Y6.905 F9000.000
G1 X183.200 Y7.169 E18.22002 F1800.000
G1 X183.200 Y51.231 E23.06959
G1 X183.145 Y51.495 E23.09929
G1 X182.881 Y51.550 E23.12899
G1 X134.819 Y51.550 E28.41881
G1 X134.555 Y51.495 E28.44851
G1 X134.500 Y51.231 E28.47822
G1 X134.500 Y7.169 E33.32778
G1 X134.555 Y6.905 E33.35749
G1 X134.819 Y6.850 E33.38719
G1 X182.881 Y6.850 E38.67701
G1 X183.087 Y6.893 E38.70011
;Layer change
G1 E32.70011 F1800.00000
G92 E0
G1 Z2.720 F9000.000
G1 X182.650 Y7.400 F9000.000
G1 E6.00000 F1800.00000
G1 X182.650 Y51.000 E7.42310 F1800.000
G1 X135.050 Y51.000 E8.97675
G1 X135.050 Y7.400 E10.39985
G1 X182.590 Y7.400 E11.95154
G1 X183.050 Y7.400 F9000.000
G1 X183.750 Y6.300 F9000.000
G1 X183.750 Y52.100 E13.44645 F1800.000
G1 X133.950 Y52.100 E15.07191
G1 X133.950 Y6.300 E16.56681
G1 X183.690 Y6.300 E18.19032
G1 X183.550 Y6.646 F9000.000
G1 X183.145 Y6.905 F9000.000
G1 X183.200 Y7.169 E18.22002 F1800.000
G1 X183.200 Y51.231 E23.06959
G1 X183.145 Y51.495 E23.09929
G1 X182.881 Y51.550 E23.12899
G1 X134.819 Y51.550 E28.41881
G1 X134.555 Y51.495 E28.44851
G1 X134.500 Y51.231 E28.47822
G1 X134.500 Y7.169 E33.32778
G1 X134.555 Y6.905 E33.35749
G1 X134.819 Y6.850 E33.38719
G1 X182.881 Y6.850 E38.67701
G1 X183.087 Y6.893 E38.70011
;Layer change
G1 E32.70011 F1800.00000
G92 E0
G1 Z2.940 F9000.000
G1 X182.650 Y7.400 F9000.000
G1 E6.00000 F1800.00000
G1 X182.650 Y51.000 E7.42310 F1800.000
G1 X135.050 Y51.000 E8.97675
G1 X135.050 Y7.400 E10.39985
G1 X182.590 Y7.400 E11.95154
G1 X183.050 Y7.400 F9000.000
G1 X183.750 Y6.300 F9000.000
G1 X183.750 Y52.100 E13.44645 F1800.000
G1 X133.950 Y52.100 E15.07191
G1 X133.950 Y6.300 E16.56681
G1 X183.690 Y6.300 E18.19032
G1 X183.550 Y6.646 F9000.000
G1 X183.145 Y6.905 F9000.000
G1 X183.200 Y7.169 E18.22002 F1800.000
G1 X183.200 Y51.231 E23.06959
G1 X183.145 Y51.495 E23.09929
G1 X182.881 Y51.550 E23.12899
G1 X134.819 Y51.550 E28.41881
G1 X134.555 Y51.495 E28.44851
G1 X134.500 Y51.231 E28.47822
G1 X134.500 Y7.169 E33.32778
G1 X134.555 Y6.905 E33.35749
G1 X134.819 Y6.850 E33.38719
G1 X182.881 Y6.850 E38.67701
G1 X183.087 Y6.893 E38.70011
;Layer change
G1 E32.70011 F1800.00000
G92 E0
G1 Z3.160 F9000.000
G1 X182.650 Y7.400 F9000.000
G1 E6.00000 F1800.00000
G1 X182.650 Y51.000 E7.42310 F1800.000
G1 X135.050 Y51.000 E8.97675
G1 X135.050 Y7.400 E10.39985
G1 X182.590 Y7.400 E11.95154
G1 X183.050 Y7.400 F9000.000
G1 X183.750 Y6.300 F9000.000
G1 X183.750 Y52.100 E13.44645 F1800.000
G1 X133.950 Y52.100 E15.07191
G1 X133.950 Y6.300 E16.56681
G1 X183.690 Y6.300 E18.19032
G1 X183.550 Y6.646 F9000.000
G1 X183.145 Y6.905 F9000.000
G1 X183.200 Y7.169 E18.22002 F1800.000
G1 X183.200 Y51.231 E23.06959
G1 X183.145 Y51.495 E23.09929
G1 X182.881 Y51.550 E23.12899
G1 X134.819 Y51.550 E28.41881
G1 X134.555 Y51.495 E28.44851
G1 X134.500 Y51.231 E28.47822
G1 X134.500 Y7.169 E33.32778
G1 X134.555 Y6.905 E33.35749
G1 X134.819 Y6.850 E33.38719
G1 X182.881 Y6.850 E38.67701
G1 X183.087 Y6.893 E38.70011
;Layer change
G1 E32.70011 F1800.00000
G92 E0
G1 Z3.380 F9000.000
G1 X182.650 Y7.400 F9000.000
G1 E6.00000 F1800.00000
G1 X182.650 Y51.000 E7.42310 F1800.000
G1 X135.050 Y51.000 E8.97675
G1 X135.050 Y7.400 E10.39985
G1 X182.590 Y7.400 E11.95154
G1 X183.050 Y7.400 F9000.000
G1 X183.750 Y6.300 F9000.000
G1 X183.750 Y52.100 E13.44645 F1800.000
G1 X133.950 Y52.100 E15.07191
G1 X133.950 Y6.300 E16.56681
G1 X183.690 Y6.300 E18.19032
G1 X183.550 Y6.646 F9000.000
G1 X183.145 Y6.905 F9000.000
G1 X183.200 Y7.169 E18.22002 F1800.000
G1 X183.200 Y51.231 E23.06959
G1 X183.145 Y51.495 E23.09929
G1 X182.881 Y51.550 E23.12899
G1 X134.819 Y51.550 E28.41881
G1 X134.555 Y51.495 E28.44851
G1 X134.500 Y51.231 E28.47822
G1 X134.500 Y7.169 E33.32778
G1 X134.555 Y6.905 E33.35749
G1 X134.819 Y6.850 E33.38719
G1 X182.881 Y6.850 E38.67701
G1 X183.087 Y6.893 E38.70011
;Layer change
G1 E32.70011 F1800.00000
G92 E0
G1 Z3.600 F9000.000
G1 X182.650 Y7.400 F9000.000
G1 E6.00000 F1800.00000
G1 X182.650 Y51.000 E7.42310 F1800.000
G1 X135.050 Y51.000 E8.97675
G1 X135.050 Y7.400 E10.39985
G1 X182.590 Y7.400 E11.95154
G1 X183.050 Y7.400 F9000.000
G1 X183.750 Y6.300 F9000.000
G1 X183.750 Y52.100 E13.44645 F1800.000
G1 X133.950 Y52.100 E15.07191
G1 X133.950 Y6.300 E16.56681
G1 X183.690 Y6.300 E18.19032
G1 X183.550 Y6.646 F9000.000
G1 X183.145 Y6.905 F9000.000
G1 X183.200 Y7.169 E18.22002 F1800.000
G1 X183.200 Y51.231 E23.06959
G1 X183.145 Y51.495 E23.09929
G1 X182.881 Y51.550 E23.12899
G1 X134.819 Y51.550 E28.41881
G1 X134.555 Y51.495 E28.44851
G1 X134.500 Y51.231 E28.47822
G1 X134.500 Y7.169 E33.32778
G1 X134.555 Y6.905 E33.35749
G1 X134.819 Y6.850 E33.38719
G1 X182.881 Y6.850 E38.67701
G1 X183.087 Y6.893 E38.70011
;Layer change
G1 E32.70011 F1800.00000
G92 E0
G1 Z3.820 F9000.000
G1 X182.650 Y7.400 F9000.000
G1 E6.00000 F1800.00000
G1 X182.650 Y51.000 E7.42310 F1800.000
G1 X135.050 Y51.000 E8.97675
G1 X135.050 Y7.400 E10.39985
G1 X182.590 Y7.400 E11.95154
G1 X183.050 Y7.400 F9000.000
G1 X183.750 Y6.300 F9000.000
G1 X183.750 Y52.100 E13.44645 F1800.000
G1 X133.950 Y52.100 E15.07191
G1 X133.950 Y6.300 E16.56681
G1 X183.690 Y6.300 E18.19032
G1 X183.550 Y6.646 F9000.000
G1 X183.145 Y6.905 F9000.000
G1 X183.200 Y7.169 E18.22002 F1800.000
G1 X183.200 Y51.231 E23.06959
G1 X183.145 Y51.495 E23.09929
G1 X182.881 Y51.550 E23.12899
G1 X134.819 Y51.550 E28.41881
G1 X134.555 Y51.495 E28.44851
G1 X134.500 Y51.231 E28.47822
G1 X134.500 Y7.169 E33.32778
G1 X134.555 Y6.905 E33.35749
G1 X134.819 Y6.850 E33.38719
G1 X182.881 Y6.850 E38.67701
G1 X183.087 Y6.893 E38.70011
;Layer change
G1 E32.70011 F1800.00000
G92 E0
