; generated by Slic3r 1.2.9 on 2018-06-06 at 15:16:07

; external perimeters extrusion width = 0.40mm
; perimeters extrusion width = 0.62mm
; infill extrusion width = 0.33mm
; solid infill extrusion width = 0.62mm
; top infill extrusion width = 0.20mm

M106 S256; Turn on fan to 100% power
M104 S140; turn on extruder temperature at S value
M140 S60; turn on bed temperature at S value
G28; home all axes
M84; disable motors
G1 Z15 F15000; have Z move to 20mm at 15000 mm/min
M190 S55; turn on bed temperature at S value and wait
M140 S55; turn on bed temperature at S value (printing temperature)
M109 S200; turn on extruder temperature at S value and wait (printing temperature)
M104 S200; turn on extruder temperature at S value
G1 Z0 F12000; move Z back to home
G21 ; set units to millimeters
G90 ; use absolute coordinates
M82 ; use absolute distances for extrusion
G92 E0
M106 S255
;Layer change
G1 E-6.00000 F1800.00000
G92 E0
G1 Z0.300 F9000.000
G1 X144.504 Y10.180 F9000.000
G1 E6.00000 F1800.00000
G1 X144.896 Y8.870 E6.06650 F600.000
G1 X145.942 Y7.991 E6.13300
G1 X146.890 Y7.794 E6.18009
G1 X197.090 Y7.794 E8.62237
G1 X198.400 Y8.186 E8.68888
G1 X199.279 Y9.232 E8.75538 F600.000
G1 X199.476 Y10.180 E8.80246
G1 X199.476 Y56.380 E11.05014
G1 X199.084 Y57.690 E11.11664
G1 X197.975 Y58.595 E11.18630
G1 X155.436 Y75.590 E13.41493
G1 X154.950 Y75.761 E13.44000
G1 X154.256 Y75.940 E13.47486
G1 X153.682 Y76.031 E13.50314
G1 X153.248 Y76.067 E13.52430
G1 X152.532 Y76.067 E13.55915
G1 X151.953 Y76.012 E13.58743
G1 X151.248 Y75.878 E13.62237
G1 X150.688 Y75.715 E13.65073
G1 X150.021 Y75.451 E13.68565
G1 X149.502 Y75.187 E13.71395
G1 X148.897 Y74.803 E13.74880
G1 X148.437 Y74.445 E13.77717
G1 X147.915 Y73.955 E13.81202
G1 X147.529 Y73.518 E13.84038
G1 X147.107 Y72.937 E13.87528
G1 X146.811 Y72.437 E13.90356
G1 X146.506 Y71.788 E13.93845
G1 X146.309 Y71.240 E13.96681
G1 X146.131 Y70.546 E14.00167
G1 X146.044 Y70.016 E14.02779
G1 X144.520 Y56.650 E14.68225
G1 X144.504 Y56.380 E14.69542
G1 X144.504 Y10.240 E16.94018
G1 E10.94018 F1800.00000
G92 E0
G1 X156.151 Y67.872 F9000.000
G1 E6.00000 F1800.00000
G1 X156.298 Y68.321 E6.02299 F600.000
G1 X156.374 Y68.724 E6.04294
G1 X156.403 Y69.180 E6.06517
G1 X156.374 Y69.636 E6.08739
G1 X156.298 Y70.039 E6.10734
G1 X156.151 Y70.488 E6.13033
G1 X156.076 Y70.662 E6.13955
G1 X155.856 Y71.062 E6.16178
G1 X155.588 Y71.432 E6.18400
G1 X155.462 Y71.574 E6.19322
G1 X155.118 Y71.898 E6.21621
G1 X154.968 Y72.014 E6.22543
G1 X154.582 Y72.259 E6.24765
G1 X154.183 Y72.446 E6.26912
G1 X153.749 Y72.588 E6.29134
G1 X153.549 Y72.632 E6.30131
G1 X153.344 Y72.665 E6.31142
G1 X152.890 Y72.693 E6.33353
G1 X152.436 Y72.665 E6.35564
G1 X152.247 Y72.635 E6.36499
G1 X151.789 Y72.517 E6.38796
G1 X151.611 Y72.453 E6.39718
G1 X151.183 Y72.252 E6.42017
G1 X151.020 Y72.155 E6.42939
G1 X150.638 Y71.878 E6.45238
G1 X150.496 Y71.752 E6.46159
G1 X150.172 Y71.408 E6.48459
G1 X150.056 Y71.258 E6.49380
G1 X149.811 Y70.872 E6.51603
G1 X149.624 Y70.473 E6.53749
G1 X149.482 Y70.039 E6.55972
G1 X149.441 Y69.854 E6.56894
G1 X149.382 Y69.385 E6.59193
G1 X149.382 Y68.975 E6.61188
G1 X149.441 Y68.506 E6.63487
G1 X149.482 Y68.321 E6.64408
G1 X149.624 Y67.887 E6.66631
G1 X149.811 Y67.488 E6.68777
G1 X150.056 Y67.102 E6.71000
G1 X150.172 Y66.952 E6.71922
G1 X150.496 Y66.608 E6.74221
G1 X150.638 Y66.482 E6.75142
G1 X151.020 Y66.205 E6.77441
G1 X151.183 Y66.108 E6.78363
G1 X151.611 Y65.907 E6.80662
G1 X151.789 Y65.843 E6.81584
G1 X152.232 Y65.729 E6.83807
G1 X152.685 Y65.672 E6.86028
G1 X152.877 Y65.666 E6.86963
G1 X153.343 Y65.695 E6.89238
G1 X153.533 Y65.725 E6.90173 F600.000
G1 X153.976 Y65.839 E6.92395
G1 X154.398 Y66.006 E6.94605
G1 X154.569 Y66.093 E6.95540
G1 X154.968 Y66.346 E6.97838
G1 X155.118 Y66.462 E6.98759
G1 X155.462 Y66.786 E7.01058
G1 X155.588 Y66.928 E7.01980
G1 X155.856 Y67.298 E7.04203
G1 X156.128 Y67.817 E7.07053
G1 X156.518 Y67.753 F9000.000
G1 X156.670 Y68.219 E7.09441 F600.000
G1 X156.758 Y68.682 E7.11730
G1 X156.789 Y69.180 E7.14159
G1 X156.758 Y69.678 E7.16589
G1 X156.670 Y70.141 E7.18878
G1 X156.513 Y70.625 E7.21354
G1 X156.423 Y70.832 E7.22453
G1 X156.182 Y71.269 E7.24882
G1 X155.889 Y71.673 E7.27311
G1 X155.740 Y71.843 E7.28410
G1 X155.369 Y72.191 E7.30886
G1 X155.190 Y72.330 E7.31984
G1 X154.769 Y72.597 E7.34414
G1 X154.325 Y72.806 E7.36796
G1 X153.851 Y72.960 E7.39225
G1 X153.621 Y73.011 E7.40370
G1 X153.386 Y73.048 E7.41528
G1 X152.890 Y73.079 E7.43945
G1 X152.394 Y73.048 E7.46362
G1 X152.168 Y73.013 E7.47474
G1 X151.676 Y72.886 E7.49949
G1 X151.463 Y72.810 E7.51047
G1 X151.003 Y72.593 E7.53523
G1 X150.808 Y72.478 E7.54622
G1 X150.397 Y72.179 E7.57098
G1 X150.227 Y72.030 E7.58197
G1 X149.879 Y71.659 E7.60673
G1 X149.740 Y71.480 E7.61771
G1 X149.473 Y71.059 E7.64201
G1 X149.264 Y70.615 E7.66583
G1 X149.110 Y70.141 E7.69012
G1 X149.061 Y69.920 E7.70111
G1 X148.997 Y69.415 E7.72587
G1 X148.997 Y68.945 E7.74876
G1 X149.061 Y68.440 E7.77352
G1 X149.110 Y68.219 E7.78451
G1 X149.264 Y67.745 E7.80880
G1 X149.473 Y67.301 E7.83263
G1 X149.740 Y66.880 E7.85692
G1 X149.879 Y66.701 E7.86790
G1 X150.227 Y66.330 E7.89266
G1 X150.397 Y66.181 E7.90365
G1 X150.808 Y65.882 E7.92841
G1 X151.003 Y65.767 E7.93940
G1 X151.463 Y65.550 E7.96416
G1 X151.676 Y65.474 E7.97514
G1 X152.159 Y65.350 E7.99943
G1 X152.655 Y65.287 E8.02372
G1 X152.883 Y65.280 E8.03484
G1 X153.386 Y65.312 E8.05934
G1 X153.612 Y65.347 E8.07047 F600.000
G1 X154.095 Y65.471 E8.09475
G1 X154.557 Y65.654 E8.11892
G1 X154.761 Y65.758 E8.13004
G1 X155.190 Y66.030 E8.15479
G1 X155.369 Y66.169 E8.16577
G1 X155.740 Y66.517 E8.19053
G1 X155.889 Y66.687 E8.20152
G1 X156.182 Y67.091 E8.22581
G1 X156.423 Y67.528 E8.25010
G1 X156.496 Y67.697 E8.25905
G1 X156.885 Y67.633 F9000.000
G1 X157.042 Y68.118 E8.28382 F600.000
G1 X157.100 Y68.377 E8.29674
G1 X157.142 Y68.639 E8.30967
G1 X157.176 Y69.180 E8.33603
G1 X157.142 Y69.721 E8.36239
G1 X157.042 Y70.242 E8.38823
G1 X156.874 Y70.761 E8.41476
G1 X156.770 Y71.002 E8.42751
G1 X156.509 Y71.476 E8.45387
G1 X156.190 Y71.915 E8.48023
G1 X156.017 Y72.111 E8.49298
G1 X155.619 Y72.485 E8.51951
G1 X155.412 Y72.645 E8.53227
G1 X154.955 Y72.936 E8.55863
G1 X154.468 Y73.165 E8.58481
G1 X153.952 Y73.332 E8.61117
G1 X153.693 Y73.390 E8.62409
G1 X153.428 Y73.432 E8.63716
G1 X152.890 Y73.466 E8.66338
G1 X152.352 Y73.432 E8.68960
G1 X152.090 Y73.391 E8.70250
G1 X151.562 Y73.255 E8.72902
G1 X151.315 Y73.166 E8.74178
G1 X150.822 Y72.934 E8.76831
G1 X150.596 Y72.801 E8.78106
G1 X150.155 Y72.480 E8.80759
G1 X149.959 Y72.307 E8.82035
G1 X149.585 Y71.909 E8.84688
G1 X149.425 Y71.702 E8.85963
G1 X149.134 Y71.245 E8.88599
G1 X148.905 Y70.758 E8.91217
G1 X148.738 Y70.242 E8.93853
G1 X148.681 Y69.987 E8.95129
G1 X148.612 Y69.446 E8.97782
G1 X148.612 Y68.914 E9.00366
G1 X148.681 Y68.373 E9.03019
G1 X148.738 Y68.118 E9.04294
G1 X148.905 Y67.602 E9.06930
G1 X149.134 Y67.115 E9.09549
G1 X149.425 Y66.658 E9.12184
G1 X149.585 Y66.451 E9.13460
G1 X149.959 Y66.053 E9.16113
G1 X150.155 Y65.880 E9.17388
G1 X150.596 Y65.559 E9.20041
G1 X150.822 Y65.426 E9.21317
G1 X151.315 Y65.194 E9.23970
G1 X151.562 Y65.105 E9.25245
G1 X152.087 Y64.970 E9.27881
G1 X152.624 Y64.902 E9.30517
G1 X152.889 Y64.894 E9.31806
G1 X153.428 Y64.928 E9.34432
G1 X153.690 Y64.969 E9.35721 F600.000
G1 X154.214 Y65.104 E9.38357
G1 X154.716 Y65.302 E9.40979
G1 X154.952 Y65.422 E9.42268
G1 X155.412 Y65.715 E9.44921
G1 X155.619 Y65.875 E9.46196
G1 X156.017 Y66.249 E9.48849
G1 X156.190 Y66.445 E9.50125
G1 X156.509 Y66.884 E9.52761
G1 X156.770 Y67.358 E9.55396
G1 X156.864 Y67.577 E9.56557
G1 X156.626 Y67.938 F9000.000
G1 X155.422 Y67.292 F9000.000
G1 X154.759 Y66.628 E9.61183 F600.000
G1 X153.650 Y66.072 F9000.000
G1 X156.002 Y68.424 E9.77577 F600.000
G1 X156.107 Y69.082 E9.80863
G1 X152.988 Y65.963 E10.02607
G1 X152.451 Y65.978 E10.05257
G1 X156.096 Y69.623 E10.30669
G1 X156.006 Y70.086 E10.32993
G1 X151.987 Y66.067 E10.61013
G1 X151.575 Y66.208 E10.63158
G1 X155.866 Y70.498 E10.93070
G1 X155.676 Y70.861 E10.95089
G1 X151.205 Y66.390 E11.26260
G1 X150.880 Y66.617 E11.28216
G1 X155.453 Y71.190 E11.60095
G1 X155.182 Y71.472 E11.62022
G1 X150.598 Y66.888 E11.93980
G1 X150.324 Y67.166 E11.95906
G1 X154.904 Y71.746 E12.27835
G1 X154.571 Y71.966 E12.29801
G1 X150.104 Y67.499 E12.60946
G1 X149.918 Y67.865 E12.62972
G1 X154.205 Y72.152 E12.92860
G1 X153.796 Y72.296 E12.94996
G1 X149.774 Y68.274 E13.23036
G1 X149.688 Y68.741 E13.25374
G1 X153.333 Y72.386 E13.50786
G1 X152.792 Y72.397 E13.53455
G1 X149.665 Y69.270 E13.75254
G1 X149.778 Y69.936 E13.78585
G1 X152.130 Y72.288 E13.94979
G1 X151.002 Y71.712 F9000.000
G1 X150.338 Y71.049 E13.99604 F600.000
G1 E7.99604 F1800.00000
G92 E0
G1 X147.665 Y55.605 F9000.000
G1 E6.00000 F1800.00000
G1 X147.665 Y10.955 E8.17227 F600.000
G1 X196.315 Y10.955 E10.53914
G1 X196.315 Y55.605 E12.71141
G1 X147.725 Y55.605 E15.07536
G1 X147.265 Y55.605 F9000.000
G1 X147.115 Y56.155 F9000.000
G1 X147.115 Y10.405 E17.30114 F600.000
G1 X196.865 Y10.405 E19.72153
G1 X196.865 Y56.155 E21.94732
G1 X147.175 Y56.155 E24.36478
G1 X147.315 Y55.809 F9000.000
G1 X147.404 Y55.866 F9000.000
G1 X147.390 Y55.798 E24.36817 F600.000
G1 X147.390 Y10.762 E26.55920
G1 X147.404 Y10.694 E26.56258
G1 X147.472 Y10.680 E26.56596
G1 X196.508 Y10.680 E28.95159
G1 X196.576 Y10.694 E28.95498
G1 X196.590 Y10.762 E28.95836
G1 X196.590 Y55.798 E31.14939
G1 X196.576 Y55.866 E31.15277
G1 X196.508 Y55.880 E31.15615
G1 X147.463 Y55.878 E33.54224
M104 S205 ; set temperature
M140 S55 ; wait for bed temperature to be reached
;Layer change
G1 E27.54224 F1800.00000
G92 E0
G1 Z0.520 F9000.000
G1 X151.677 Y66.116 F9000.000
G1 E6.00000 F1800.00000
G1 X152.253 Y65.946 E6.03178 F900.000
G1 X152.701 Y65.889 E6.05564
G1 X153.303 Y65.911 E6.08745
G1 X153.709 Y65.988 E6.10933 F900.000
G1 X154.121 Y66.122 E6.13222
G1 X154.461 Y66.282 E6.15205
G1 X154.843 Y66.525 E6.17598
G1 X155.306 Y66.938 E6.20877
G1 X155.683 Y67.429 E6.24150
G1 X155.954 Y67.967 E6.27330
G1 X156.129 Y68.562 E6.30610
G1 X156.185 Y69.180 E6.33888
G1 X156.129 Y69.798 E6.37167
G1 X155.954 Y70.393 E6.40447
G1 X155.683 Y70.931 E6.43627
G1 X155.418 Y71.296 E6.46014
G1 X154.976 Y71.732 E6.49293
G1 X154.477 Y72.068 E6.52469
G1 X154.103 Y72.244 E6.54655
G1 X153.691 Y72.378 E6.56945
G1 X153.316 Y72.449 E6.58962
G1 X152.890 Y72.475 E6.61218
G1 X152.271 Y72.418 E6.64501
G1 X151.677 Y72.244 E6.67776
G1 X151.139 Y71.973 E6.70956
G1 X150.643 Y71.592 E6.74263
G1 X150.351 Y71.281 E6.76517
G1 X150.096 Y70.930 E6.78808
G1 X149.826 Y70.393 E6.81984
G1 X149.692 Y69.981 E6.84274
G1 X149.599 Y69.368 E6.87553
G1 X149.593 Y69.180 E6.88545
G1 X149.599 Y68.992 E6.89537
G1 X149.656 Y68.543 E6.91929
G1 X149.826 Y67.967 E6.95105
G1 X150.002 Y67.593 E6.97292
G1 X150.338 Y67.094 E7.00468
G1 X150.648 Y66.764 E7.02860
G1 X151.139 Y66.387 E7.06134
G1 X151.622 Y66.142 E7.08997
G1 X151.500 Y65.573 F9000.000
G1 X151.938 Y65.431 E7.11430 F900.000
G1 X152.155 Y65.382 E7.12604
G1 X152.657 Y65.319 E7.15279
G1 X152.887 Y65.312 E7.16493
G1 X153.375 Y65.343 E7.19077
G1 X153.852 Y65.434 E7.21644 F900.000
G1 X154.324 Y65.587 E7.24266
G1 X154.744 Y65.785 E7.26723
G1 X155.172 Y66.057 E7.29400
G1 X155.348 Y66.193 E7.30574
G1 X155.717 Y66.540 E7.33251
G1 X155.864 Y66.706 E7.34425
G1 X156.161 Y67.116 E7.37099
G1 X156.278 Y67.314 E7.38314
G1 X156.486 Y67.756 E7.40897
G1 X156.639 Y68.228 E7.43520
G1 X156.690 Y68.455 E7.44749
G1 X156.726 Y68.685 E7.45979
G1 X156.757 Y69.180 E7.48600
G1 X156.726 Y69.675 E7.51222
G1 X156.690 Y69.905 E7.52451
G1 X156.639 Y70.132 E7.53681
G1 X156.486 Y70.604 E7.56303
G1 X156.278 Y71.046 E7.58887
G1 X156.161 Y71.244 E7.60101
G1 X155.864 Y71.654 E7.62775
G1 X155.717 Y71.820 E7.63949
G1 X155.348 Y72.167 E7.66626
G1 X155.172 Y72.303 E7.67801
G1 X154.753 Y72.569 E7.70422
G1 X154.314 Y72.776 E7.72989
G1 X153.842 Y72.929 E7.75611
G1 X153.378 Y73.017 E7.78105
G1 X152.890 Y73.047 E7.80690
G1 X152.402 Y73.017 E7.83274
G1 X152.165 Y72.980 E7.84544
G1 X151.938 Y72.929 E7.85770
G1 X151.466 Y72.776 E7.88393
G1 X151.024 Y72.568 E7.90976
G1 X150.826 Y72.451 E7.92191
G1 X150.417 Y72.154 E7.94862
G1 X150.245 Y72.002 E7.96076
G1 X149.910 Y71.645 E7.98660
G1 X149.618 Y71.244 E8.01283
G1 X149.505 Y71.053 E8.02457
G1 X149.294 Y70.604 E8.05078
G1 X149.141 Y70.132 E8.07700
G1 X149.092 Y69.915 E8.08875
G1 X149.029 Y69.412 E8.11551
G1 X149.022 Y69.180 E8.12781
G1 X149.029 Y68.948 E8.14010
G1 X149.092 Y68.445 E8.16687
G1 X149.141 Y68.228 E8.17861
G1 X149.294 Y67.756 E8.20483
G1 X149.501 Y67.317 E8.23050
G1 X149.767 Y66.898 E8.25671
G1 X149.903 Y66.722 E8.26845
G1 X150.250 Y66.353 E8.29522
G1 X150.416 Y66.206 E8.30697
G1 X150.826 Y65.909 E8.33371
G1 X151.024 Y65.792 E8.34585
G1 X151.444 Y65.594 E8.37041
G1 X151.357 Y65.134 F9000.000
G1 X151.816 Y64.985 E8.38615 F900.000
G1 X152.075 Y64.927 E8.39482
G1 X152.621 Y64.858 E8.41277
G1 X152.894 Y64.850 E8.42170
G1 X153.433 Y64.884 E8.43930
G1 X153.967 Y64.986 E8.45706 F900.000
G1 X154.487 Y65.155 E8.47491
G1 X154.973 Y65.384 E8.49245
G1 X155.438 Y65.678 E8.51041
G1 X155.648 Y65.841 E8.51908
G1 X156.049 Y66.218 E8.53704
G1 X156.225 Y66.417 E8.54571
G1 X156.548 Y66.862 E8.56366
G1 X156.687 Y67.098 E8.57259
G1 X156.916 Y67.586 E8.59020
G1 X157.085 Y68.106 E8.60805
G1 X157.144 Y68.369 E8.61683
G1 X157.186 Y68.634 E8.62560
G1 X157.220 Y69.180 E8.64346
G1 X157.186 Y69.726 E8.66131
G1 X157.144 Y69.991 E8.67009
G1 X157.085 Y70.254 E8.67886
G1 X156.916 Y70.774 E8.69672
G1 X156.687 Y71.262 E8.71432
G1 X156.548 Y71.498 E8.72325
G1 X156.225 Y71.943 E8.74120
G1 X156.049 Y72.142 E8.74987
G1 X155.648 Y72.519 E8.76783
G1 X155.438 Y72.682 E8.77650
G1 X154.976 Y72.975 E8.79436
G1 X154.484 Y73.206 E8.81211
G1 X153.964 Y73.375 E8.82996
G1 X153.428 Y73.477 E8.84775
G1 X152.890 Y73.510 E8.86536
G1 X152.352 Y73.477 E8.88296
G1 X151.816 Y73.375 E8.90075
G1 X151.296 Y73.206 E8.91861
G1 X150.808 Y72.977 E8.93621
G1 X150.572 Y72.838 E8.94514
G1 X150.127 Y72.515 E8.96308
G1 X149.923 Y72.334 E8.97201
G1 X149.553 Y71.940 E8.98961
G1 X149.232 Y71.498 E9.00747
G1 X149.097 Y71.269 E9.01614
G1 X148.864 Y70.774 E9.03400
G1 X148.695 Y70.254 E9.05185
G1 X148.637 Y69.995 E9.06052
G1 X148.568 Y69.449 E9.07848
G1 X148.559 Y69.180 E9.08726
G1 X148.568 Y68.911 E9.09603
G1 X148.637 Y68.365 E9.11399
G1 X148.695 Y68.106 E9.12266
G1 X148.864 Y67.586 E9.14052
G1 X149.095 Y67.094 E9.15827
G1 X149.388 Y66.632 E9.17612
G1 X149.551 Y66.422 E9.18479
G1 X149.928 Y66.021 E9.20275
G1 X150.127 Y65.845 E9.21142
G1 X150.572 Y65.522 E9.22937
G1 X150.808 Y65.383 E9.23830
G1 X151.300 Y65.152 E9.25606
G1 X151.664 Y65.390 F9000.000
G1 X151.267 Y66.955 F9000.000
G1 X150.668 Y67.554 E9.30341 F1800.000
G1 X152.744 Y66.333 F9000.000
G1 X150.043 Y69.034 E9.51705 F1800.000
G1 X150.083 Y69.849 E9.56271
G1 X153.556 Y66.376 E9.83748
G1 X154.198 Y66.589 E9.87531
G1 X150.306 Y70.482 E10.18323
G1 X150.630 Y71.012 E10.21802
G1 X154.715 Y66.927 E10.54115
G1 X155.143 Y67.355 E10.57498
G1 X151.064 Y71.434 E10.89767
G1 X151.588 Y71.764 E10.93236
G1 X155.479 Y67.874 E11.24014
G1 X155.696 Y68.512 E11.27784
G1 X152.222 Y71.986 E11.55269
G1 X153.035 Y72.027 E11.59825
G1 X155.737 Y69.325 E11.81200
G1 X155.115 Y70.803 F9000.000
G1 X154.516 Y71.402 E11.85936 F1800.000
G1 E5.85936 F1800.00000
G92 E0
G1 X147.690 Y55.580 F9000.000
G1 E6.00000 F1800.00000
G1 X147.690 Y10.980 E7.45574 F1800.000
G1 X196.290 Y10.980 E9.04203
G1 X196.290 Y55.580 E10.49777
G1 X147.750 Y55.580 E12.08210
G1 X147.290 Y55.580 F9000.000
G1 X147.090 Y56.180 F9000.000
G1 X147.090 Y10.380 E13.57701 F1800.000
G1 X196.890 Y10.380 E15.20247
G1 X196.890 Y56.180 E16.69737
G1 X147.150 Y56.180 E18.32088
G1 X147.290 Y55.834 F9000.000
G1 X147.402 Y55.868 F9000.000
G1 X147.402 Y10.692 E20.70832 F1800.000
G1 X196.578 Y10.692 E23.30714
G1 X196.578 Y55.868 E25.69458
G1 X147.461 Y55.880 E28.29030
;Layer change
G1 E22.29030 F1800.00000
G92 E0
G1 Z0.740 F9000.000
G1 X151.687 Y66.093 F9000.000
G1 E6.00000 F1800.00000
G1 X152.269 Y65.927 E6.03201 F900.000
G1 X152.700 Y65.873 E6.05495
G1 X153.305 Y65.894 E6.08694
G1 X153.714 Y65.972 E6.10894 F900.000
G1 X154.128 Y66.107 E6.13194
