; generated by Slic3r 1.2.9 on 2018-06-07 at 16:07:18

; external perimeters extrusion width = 0.40mm
; perimeters extrusion width = 0.62mm
; infill extrusion width = 0.33mm
; solid infill extrusion width = 0.62mm
; top infill extrusion width = 0.20mm

M106 S256; Turn on fan to 100% power
M104 S140; turn on extruder temperature at S value
M140 S60; turn on bed temperature at S value
G28; home all axes
M84; disable motors
G1 Z15 F15000; have Z move to 20mm at 15000 mm/min
M190 S55; turn on bed temperature at S value and wait
M140 S55; turn on bed temperature at S value (printing temperature)
M109 S200; turn on extruder temperature at S value and wait (printing temperature)
M104 S200; turn on extruder temperature at S value
G1 Z0 F12000; move Z back to home
G21 ; set units to millimeters
G90 ; use absolute coordinates
M82 ; use absolute distances for extrusion
G92 E0
M106 S255
;Layer change
G1 E-6.00000 F1800.00000
G92 E0
G1 Z0.300 F9000.000
G1 X122.824 Y7.330 F9000.000
G1 E6.00000 F1800.00000
G1 X123.216 Y6.020 E6.06727 F600.000
G1 X124.262 Y5.141 E6.13455
G1 X125.210 Y4.944 E6.18218
G1 X179.210 Y4.944 E8.83979
G1 X180.520 Y5.336 E8.90707
G1 X181.399 Y6.382 E8.97434 F600.000
G1 X181.596 Y7.330 E9.02197
G1 X181.596 Y58.830 E11.55655
G1 X181.204 Y60.140 E11.62382
G1 X180.158 Y61.019 E11.69110
G1 X179.210 Y61.216 E11.73873
G1 X125.210 Y61.216 E14.39634
G1 X123.900 Y60.824 E14.46362
G1 X123.021 Y59.778 E14.53089
G1 X122.824 Y58.830 E14.57852
G1 X122.824 Y7.390 E17.11015
G1 E11.11015 F1800.00000
G92 E0
G1 X129.474 Y55.488 F9000.000
G1 E6.00000 F1800.00000
G1 X129.574 Y55.876 E6.01972 F600.000
G1 X129.574 Y56.284 E6.03979
G1 X129.474 Y56.672 E6.05952
G1 X129.379 Y56.873 E6.07046
G1 X129.146 Y57.194 E6.08997
G1 X128.837 Y57.449 E6.10969
G1 X128.646 Y57.554 E6.12043
G1 X128.272 Y57.676 E6.13980
G1 X128.055 Y57.703 E6.15054
G1 X127.662 Y57.678 E6.16990
G1 X127.451 Y57.624 E6.18065
G1 X127.098 Y57.459 E6.19982
G1 X126.924 Y57.333 E6.21040
G1 X126.770 Y57.188 E6.22081
G1 X126.539 Y56.870 E6.24017
G1 X126.446 Y56.672 E6.25092
G1 X126.346 Y56.284 E6.27064
G1 X126.346 Y55.876 E6.29071
G1 X126.446 Y55.488 E6.31044
G1 X126.541 Y55.287 E6.32138
G1 X126.774 Y54.966 E6.34089
G1 X127.083 Y54.711 E6.36060
G1 X127.274 Y54.606 E6.37135
G1 X127.648 Y54.484 E6.39072
G1 X127.865 Y54.457 E6.40146 F600.000
G1 X128.258 Y54.482 E6.42082
G1 X128.469 Y54.536 E6.43157
G1 X128.822 Y54.701 E6.45074
G1 X128.996 Y54.827 E6.46132
G1 X129.150 Y54.972 E6.47173
G1 X129.381 Y55.290 E6.49109
G1 X129.449 Y55.434 E6.49889
G1 X129.866 Y55.571 F9000.000
G1 E0.49889 F1800.00000
G92 E0
G1 X127.405 Y58.219 F9000.000
G1 E6.00000 F1800.00000
G1 X125.821 Y58.219 E6.07796 F600.000
G1 X125.821 Y56.602 E6.15757
G1 X126.023 Y56.576 E6.16760
G1 X126.081 Y56.803 E6.17913
G1 X126.205 Y57.067 E6.19346
G1 X126.479 Y57.444 E6.21642
G1 X126.678 Y57.631 E6.22983
G1 X126.902 Y57.792 E6.24341
G1 X127.320 Y57.989 E6.26615
G1 X127.430 Y58.017 E6.27176
G1 X127.412 Y58.160 E6.27884
G1 E0.27884 F1800.00000
G92 E0
G1 X128.055 Y11.703 F9000.000
G1 E6.00000 F1800.00000
G1 X127.662 Y11.678 E6.01936 F600.000
G1 X127.451 Y11.624 E6.03011
G1 X127.095 Y11.457 E6.04948
G1 X126.924 Y11.332 E6.05987
G1 X126.770 Y11.188 E6.07027
G1 X126.539 Y10.870 E6.08963
G1 X126.446 Y10.672 E6.10038
G1 X126.346 Y10.284 E6.12009
G1 X126.346 Y9.876 E6.14017
G1 X126.446 Y9.488 E6.15989
G1 X126.539 Y9.290 E6.17063
G1 X126.774 Y8.966 E6.19035
G1 X127.083 Y8.711 E6.21006
G1 X127.274 Y8.606 E6.22081
G1 X127.648 Y8.484 E6.24018
G1 X127.865 Y8.457 E6.25092 F600.000
G1 X128.258 Y8.482 E6.27028
G1 X128.469 Y8.536 E6.28103
G1 X128.825 Y8.703 E6.30040
G1 X128.996 Y8.828 E6.31079
G1 X129.150 Y8.972 E6.32119
G1 X129.384 Y9.294 E6.34078
G1 X129.526 Y9.629 E6.35868
G1 X129.574 Y9.883 E6.37140
G1 X129.574 Y10.284 E6.39112
G1 X129.474 Y10.672 E6.41084
G1 X129.381 Y10.870 E6.42159
G1 X129.146 Y11.194 E6.44130
G1 X128.837 Y11.449 E6.46102
G1 X128.646 Y11.554 E6.47177
G1 X128.272 Y11.676 E6.49114
G1 X128.115 Y11.696 E6.49893
G1 X127.858 Y12.044 F9000.000
G1 E0.49893 F1800.00000
G92 E0
G1 X125.821 Y9.558 F9000.000
G1 E6.00000 F1800.00000
G1 X125.821 Y7.941 E6.07960 F600.000
G1 X127.442 Y7.941 E6.15939
G1 X127.473 Y8.136 E6.16912
G1 X127.120 Y8.250 E6.18736
G1 X126.865 Y8.391 E6.20170
G1 X126.491 Y8.700 E6.22561
G1 X126.205 Y9.093 E6.24951
G1 X126.081 Y9.357 E6.26384
G1 X126.023 Y9.584 E6.27537
G1 X125.880 Y9.566 E6.28246
G1 E0.28246 F1800.00000
G92 E0
G1 X150.945 Y53.086 F9000.000
G1 E6.00000 F1800.00000
G1 X151.204 Y52.943 E6.01460 F600.000
G1 X151.480 Y52.834 E6.02919
G1 X151.767 Y52.760 E6.04379
G1 X152.062 Y52.723 E6.05839
G1 X152.358 Y52.723 E6.07298 F600.000
G1 X152.653 Y52.760 E6.08758
G1 X152.940 Y52.834 E6.10218
G1 X153.216 Y52.943 E6.11677
G1 X153.475 Y53.086 E6.13137
G1 X153.715 Y53.260 E6.14597
G1 X153.932 Y53.463 E6.16056
G1 X154.121 Y53.692 E6.17516
G1 X154.280 Y53.942 E6.18976
G1 X154.406 Y54.211 E6.20436
G1 X154.498 Y54.493 E6.21895
G1 X154.553 Y54.784 E6.23355
G1 X154.572 Y55.080 E6.24815
G1 X154.553 Y55.376 E6.26274
G1 X154.498 Y55.667 E6.27734
G1 X154.406 Y55.949 E6.29194
G1 X154.280 Y56.218 E6.30654
G1 X154.121 Y56.468 E6.32113
G1 X153.932 Y56.697 E6.33573
G1 X153.715 Y56.900 E6.35033
G1 X153.475 Y57.074 E6.36493
G1 X153.216 Y57.217 E6.37953
G1 X152.940 Y57.326 E6.39412
G1 X152.653 Y57.400 E6.40872
G1 X152.358 Y57.437 E6.42332
G1 X152.062 Y57.437 E6.43791
G1 X151.767 Y57.400 E6.45251
G1 X151.480 Y57.326 E6.46711
G1 X151.204 Y57.217 E6.48170
G1 X150.945 Y57.074 E6.49630
G1 X150.705 Y56.900 E6.51090
G1 X150.488 Y56.697 E6.52549
G1 X150.299 Y56.468 E6.54009
G1 X150.140 Y56.218 E6.55469
G1 X150.014 Y55.949 E6.56929
G1 X149.922 Y55.666 E6.58397
G1 X149.866 Y55.363 E6.59911
G1 X149.848 Y55.080 E6.61307
G1 X149.867 Y54.775 E6.62810
G1 X149.973 Y54.299 E6.65212
G1 X150.140 Y53.942 E6.67151
G1 X150.299 Y53.692 E6.68611
G1 X150.488 Y53.463 E6.70071
G1 X150.705 Y53.260 E6.71530
G1 X150.896 Y53.121 E6.72695
G1 X151.152 Y53.412 F9000.000
G1 X151.369 Y53.293 E6.73916 F600.000
G1 X151.600 Y53.201 E6.75137
G1 X151.840 Y53.140 E6.76358
G1 X152.086 Y53.108 E6.77579
G1 X152.334 Y53.108 E6.78799 F600.000
G1 X152.580 Y53.140 E6.80020
G1 X152.820 Y53.201 E6.81241
G1 X153.051 Y53.293 E6.82462
G1 X153.268 Y53.412 E6.83683
G1 X153.469 Y53.558 E6.84904
G1 X153.650 Y53.728 E6.86125
G1 X153.808 Y53.919 E6.87346
G1 X153.941 Y54.128 E6.88567
G1 X154.047 Y54.353 E6.89788
G1 X154.123 Y54.589 E6.91009
G1 X154.170 Y54.832 E6.92230
G1 X154.185 Y55.080 E6.93450
G1 X154.170 Y55.328 E6.94671
G1 X154.123 Y55.571 E6.95892
G1 X154.047 Y55.807 E6.97113
G1 X153.941 Y56.032 E6.98334
G1 X153.808 Y56.241 E6.99555
G1 X153.650 Y56.432 E7.00776
G1 X153.469 Y56.602 E7.01997
G1 X153.268 Y56.748 E7.03218
G1 X153.051 Y56.867 E7.04439
G1 X152.820 Y56.959 E7.05659
G1 X152.580 Y57.020 E7.06881
G1 X152.334 Y57.052 E7.08102
G1 X152.086 Y57.052 E7.09322
G1 X151.840 Y57.020 E7.10543
G1 X151.600 Y56.959 E7.11764
G1 X151.369 Y56.867 E7.12985
G1 X151.152 Y56.748 E7.14206
G1 X150.951 Y56.602 E7.15427
G1 X150.770 Y56.432 E7.16648
G1 X150.612 Y56.241 E7.17869
G1 X150.479 Y56.032 E7.19090
G1 X150.373 Y55.807 E7.20311
G1 X150.296 Y55.571 E7.21535
G1 X150.249 Y55.316 E7.22810
G1 X150.235 Y55.080 E7.23973
G1 X150.250 Y54.829 E7.25210
G1 X150.340 Y54.424 E7.27252
G1 X150.479 Y54.128 E7.28860
G1 X150.612 Y53.919 E7.30081
G1 X150.770 Y53.728 E7.31302
G1 X150.951 Y53.558 E7.32523
G1 X151.103 Y53.447 E7.33449
G1 X151.146 Y53.164 F9000.000
G1 E1.33449 F1800.00000
G92 E0
G1 X173.738 Y34.697 F9000.000
G1 E6.00000 F1800.00000
G1 X173.549 Y34.468 E6.01460 F600.000
G1 X173.389 Y34.216 E6.02929
G1 X173.260 Y33.937 E6.04442
G1 X173.172 Y33.667 E6.05838
G1 X173.117 Y33.376 E6.07298
G1 X173.098 Y33.080 E6.08758
G1 X173.117 Y32.784 E6.10218
G1 X173.172 Y32.493 E6.11678
G1 X173.264 Y32.211 E6.13137
G1 X173.391 Y31.941 E6.14606
G1 X173.557 Y31.682 E6.16119
G1 X173.738 Y31.463 E6.17516
G1 X173.955 Y31.260 E6.18976
G1 X174.194 Y31.086 E6.20435
G1 X174.454 Y30.943 E6.21895
G1 X174.730 Y30.834 E6.23355
G1 X175.017 Y30.760 E6.24815
G1 X175.312 Y30.723 E6.26274
G1 X175.608 Y30.723 E6.27734 F600.000
G1 X175.903 Y30.760 E6.29194
G1 X176.190 Y30.834 E6.30654
G1 X176.466 Y30.943 E6.32113
G1 X176.726 Y31.086 E6.33573
G1 X176.965 Y31.260 E6.35033
G1 X177.182 Y31.463 E6.36492
G1 X177.371 Y31.692 E6.37952
G1 X177.530 Y31.942 E6.39412
G1 X177.656 Y32.211 E6.40871
G1 X177.748 Y32.493 E6.42331
G1 X177.803 Y32.784 E6.43791
G1 X177.822 Y33.080 E6.45251
G1 X177.803 Y33.376 E6.46711
G1 X177.748 Y33.667 E6.48170
G1 X177.656 Y33.949 E6.49630
G1 X177.530 Y34.218 E6.51089
G1 X177.371 Y34.468 E6.52549
G1 X177.182 Y34.697 E6.54009
G1 X176.975 Y34.891 E6.55406
G1 X176.727 Y35.073 E6.56919
G1 X176.466 Y35.217 E6.58388
G1 X176.190 Y35.326 E6.59847
G1 X175.903 Y35.400 E6.61307
G1 X175.608 Y35.437 E6.62767
G1 X175.312 Y35.437 E6.64227
G1 X175.017 Y35.400 E6.65686
G1 X174.730 Y35.326 E6.67146
G1 X174.454 Y35.217 E6.68606
G1 X174.194 Y35.074 E6.70065
G1 X173.955 Y34.900 E6.71525
G1 X173.782 Y34.738 E6.72690
G1 X174.020 Y34.432 F9000.000
G1 X173.862 Y34.241 E6.73911 F600.000
G1 X173.729 Y34.031 E6.75135
G1 X173.620 Y33.796 E6.76409
G1 X173.547 Y33.571 E6.77573
G1 X173.500 Y33.328 E6.78794
G1 X173.485 Y33.080 E6.80015
G1 X173.500 Y32.832 E6.81236
G1 X173.547 Y32.589 E6.82457
G1 X173.623 Y32.353 E6.83678
G1 X173.729 Y32.128 E6.84902
G1 X173.869 Y31.910 E6.86176
G1 X174.020 Y31.728 E6.87340
G1 X174.201 Y31.558 E6.88561
G1 X174.402 Y31.412 E6.89782
G1 X174.619 Y31.293 E6.91003
G1 X174.850 Y31.201 E6.92223
G1 X175.090 Y31.140 E6.93444
G1 X175.336 Y31.108 E6.94665
G1 X175.584 Y31.108 E6.95886 F600.000
G1 X175.830 Y31.140 E6.97107
G1 X176.070 Y31.201 E6.98328
G1 X176.301 Y31.293 E6.99549
G1 X176.518 Y31.412 E7.00770
G1 X176.719 Y31.558 E7.01991
G1 X176.900 Y31.728 E7.03212
G1 X177.058 Y31.919 E7.04433
G1 X177.191 Y32.128 E7.05654
G1 X177.297 Y32.353 E7.06874
G1 X177.373 Y32.589 E7.08095
G1 X177.420 Y32.832 E7.09316
G1 X177.435 Y33.080 E7.10537
G1 X177.420 Y33.328 E7.11758
G1 X177.373 Y33.571 E7.12979
G1 X177.297 Y33.807 E7.14200
G1 X177.191 Y34.032 E7.15421
G1 X177.058 Y34.241 E7.16642
G1 X176.900 Y34.432 E7.17863
G1 X176.728 Y34.594 E7.19026
G1 X176.519 Y34.748 E7.20301
G1 X176.301 Y34.867 E7.21525
G1 X176.070 Y34.959 E7.22746
G1 X175.830 Y35.020 E7.23967
G1 X175.584 Y35.052 E7.25188
G1 X175.336 Y35.052 E7.26409
G1 X175.090 Y35.020 E7.27630
G1 X174.850 Y34.959 E7.28851
G1 X174.619 Y34.867 E7.30071
G1 X174.402 Y34.748 E7.31292
G1 X174.201 Y34.602 E7.32513
G1 X174.064 Y34.473 E7.33439
G1 X173.777 Y34.484 F9000.000
G1 E1.33439 F1800.00000
G92 E0
G1 X153.763 Y12.855 F9000.000
G1 E6.00000 F1800.00000
G1 X153.475 Y13.074 E6.01779 F600.000
G1 X153.216 Y13.217 E6.03239
G1 X152.940 Y13.326 E6.04698
G1 X152.653 Y13.400 E6.06158
G1 X152.358 Y13.437 E6.07618
G1 X152.062 Y13.437 E6.09077
G1 X151.767 Y13.400 E6.10537
G1 X151.480 Y13.326 E6.11997
G1 X151.204 Y13.217 E6.13456
G1 X150.945 Y13.074 E6.14915
G1 X150.705 Y12.900 E6.16375
G1 X150.488 Y12.697 E6.17835
G1 X150.299 Y12.468 E6.19295
G1 X150.140 Y12.218 E6.20755
G1 X150.014 Y11.949 E6.22215
G1 X149.922 Y11.666 E6.23683
G1 X149.866 Y11.363 E6.25197
G1 X149.848 Y11.080 E6.26593
G1 X149.867 Y10.784 E6.28053
G1 X149.922 Y10.493 E6.29513
G1 X150.014 Y10.211 E6.30972
G1 X150.140 Y9.942 E6.32432
G1 X150.299 Y9.692 E6.33892
G1 X150.488 Y9.463 E6.35352
G1 X150.705 Y9.260 E6.36811
G1 X150.945 Y9.086 E6.38271
G1 X151.204 Y8.943 E6.39731
G1 X151.480 Y8.834 E6.41190
G1 X151.767 Y8.760 E6.42650
G1 X152.062 Y8.723 E6.44110
G1 X152.358 Y8.723 E6.45569 F600.000
G1 X152.653 Y8.760 E6.47029
G1 X152.940 Y8.834 E6.48489
G1 X153.216 Y8.943 E6.49948
G1 X153.475 Y9.086 E6.51408
G1 X153.715 Y9.260 E6.52868
G1 X153.932 Y9.463 E6.54328
G1 X154.121 Y9.692 E6.55788
G1 X154.280 Y9.942 E6.57247
G1 X154.406 Y10.211 E6.58707
G1 X154.498 Y10.494 E6.60176
G1 X154.554 Y10.797 E6.61689
G1 X154.572 Y11.080 E6.63086
G1 X154.553 Y11.376 E6.64545
G1 X154.498 Y11.667 E6.66005
G1 X154.406 Y11.949 E6.67465
G1 X154.280 Y12.218 E6.68925
G1 X154.121 Y12.468 E6.70384
G1 X153.932 Y12.697 E6.71844
G1 X153.807 Y12.814 E6.72688
G1 X153.499 Y12.574 F9000.000
G1 X153.268 Y12.748 E6.74109 F600.000
G1 X153.051 Y12.867 E6.75330
G1 X152.820 Y12.959 E6.76551
G1 X152.580 Y13.020 E6.77772
G1 X152.334 Y13.052 E6.78993
G1 X152.086 Y13.052 E6.80213
G1 X151.840 Y13.020 E6.81434
G1 X151.600 Y12.959 E6.82656
G1 X151.369 Y12.867 E6.83876
G1 X151.152 Y12.748 E6.85097
G1 X150.951 Y12.602 E6.86318
G1 X150.770 Y12.432 E6.87539
G1 X150.612 Y12.241 E6.88760
G1 X150.479 Y12.032 E6.89981
G1 X150.373 Y11.807 E6.91202
G1 X150.296 Y11.571 E6.92426
G1 X150.249 Y11.316 E6.93701
G1 X150.235 Y11.080 E6.94864
G1 X150.250 Y10.832 E6.96085
G1 X150.297 Y10.589 E6.97306
G1 X150.373 Y10.353 E6.98527
G1 X150.479 Y10.128 E6.99748
G1 X150.612 Y9.919 E7.00969
G1 X150.770 Y9.728 E7.02190
G1 X150.951 Y9.558 E7.03411
G1 X151.152 Y9.412 E7.04632
G1 X151.369 Y9.293 E7.05852
G1 X151.600 Y9.201 E7.07073
G1 X151.840 Y9.140 E7.08294
G1 X152.086 Y9.108 E7.09515
G1 X152.334 Y9.108 E7.10736 F600.000
G1 X152.580 Y9.140 E7.11957
G1 X152.820 Y9.201 E7.13178
G1 X153.051 Y9.293 E7.14399
G1 X153.268 Y9.412 E7.15619
G1 X153.469 Y9.558 E7.16840
G1 X153.650 Y9.728 E7.18061
G1 X153.808 Y9.919 E7.19283
G1 X153.941 Y10.128 E7.20503
G1 X154.047 Y10.353 E7.21724
G1 X154.124 Y10.589 E7.22948
G1 X154.171 Y10.844 E7.24223
G1 X154.185 Y11.080 E7.25387
G1 X154.170 Y11.328 E7.26607
G1 X154.123 Y11.571 E7.27828
G1 X154.047 Y11.807 E7.29049
G1 X153.941 Y12.032 E7.30270
G1 X153.808 Y12.241 E7.31491
G1 X153.543 Y12.533 E7.33432
G1 X153.551 Y12.858 F9000.000
G1 X172.206 Y14.334 F9000.000
G1 X172.206 Y51.826 E9.17952 F600.000
G1 X132.214 Y51.826 E11.14775
G1 X132.214 Y14.334 E12.99295
G1 X172.146 Y14.334 E14.95823
G1 X171.821 Y14.719 F9000.000
G1 X171.821 Y51.441 E16.76547 F600.000
G1 X132.599 Y51.441 E18.69574
G1 X132.599 Y14.719 E20.50298
G1 X171.761 Y14.719 E22.43030
G1 X171.435 Y15.105 F9000.000
G1 X171.435 Y51.055 E24.19958 F600.000
G1 X132.985 Y51.055 E26.09190
G1 X132.985 Y15.105 E27.86119
G1 X171.375 Y15.105 E29.75055
G1 X171.835 Y15.105 F9000.000
G1 X174.786 Y8.326 F9000.000
G1 X174.372 Y8.896 E29.78522 F600.000
G1 X174.217 Y9.226 E29.80313
G1 X174.075 Y9.778 E29.83122
G1 X174.074 Y10.344 E29.85908
G1 X174.143 Y10.706 E29.87721
G1 X174.353 Y11.238 E29.90536
G1 X174.689 Y11.700 E29.93347
G1 X174.931 Y11.928 E29.94983
G1 X175.200 Y12.123 E29.96620
G1 X175.689 Y12.353 E29.99276
G1 X176.041 Y12.444 E30.01068
G1 X176.579 Y12.477 E30.03721
G1 X176.940 Y12.432 E30.05512
G1 X177.453 Y12.265 E30.08167
G1 X177.773 Y12.090 E30.09959
G1 X178.214 Y11.725 E30.12777
G1 X178.214 Y32.065 E31.12883
G1 X178.033 Y32.106 E31.13795
G1 X177.868 Y31.756 E31.15698
G1 X177.683 Y31.465 E31.17396
G1 X177.463 Y31.199 E31.19095
G1 X177.212 Y30.962 E31.20794
G1 X176.933 Y30.760 E31.22492
G1 X176.630 Y30.593 E31.24191
G1 X176.309 Y30.466 E31.25889
G1 X175.975 Y30.380 E31.27588
G1 X175.633 Y30.337 E31.29286
G1 X175.287 Y30.337 E31.30985
G1 X174.945 Y30.380 E31.32683
G1 X174.611 Y30.466 E31.34382
G1 X174.290 Y30.593 E31.36080
G1 X173.987 Y30.760 E31.37779
G1 X173.708 Y30.962 E31.39477
G1 X173.457 Y31.199 E31.41176
G1 X173.245 Y31.454 E31.42806
G1 X173.053 Y31.753 E31.44558
G1 X172.905 Y32.068 E31.46271
G1 X172.798 Y32.397 E31.47969
G1 X172.733 Y32.736 E31.49668
G1 X172.712 Y33.080 E31.51367
G1 X172.733 Y33.424 E31.53065
G1 X172.798 Y33.763 E31.54764
G1 X172.900 Y34.078 E31.56394
G1 X173.050 Y34.401 E31.58145
G1 X173.237 Y34.695 E31.59858
G1 X173.457 Y34.961 E31.61558
G1 X173.708 Y35.198 E31.63256
G1 X173.987 Y35.400 E31.64954
G1 X174.290 Y35.567 E31.66653
G1 X174.611 Y35.694 E31.68351
G1 X174.945 Y35.780 E31.70050
G1 X175.287 Y35.823 E31.71748
G1 X175.633 Y35.823 E31.73447
G1 X175.975 Y35.780 E31.75145
G1 X176.309 Y35.694 E31.76844
G1 X176.630 Y35.567 E31.78543
G1 X176.935 Y35.399 E31.80256
G1 X177.222 Y35.188 E31.82008
G1 X177.463 Y34.961 E31.83638
G1 X177.683 Y34.695 E31.85337
G1 X177.868 Y34.404 E31.87035
G1 X178.033 Y34.054 E31.88937
G1 X178.214 Y34.095 E31.89850
G1 X178.214 Y54.443 E32.89996
G1 X177.989 Y54.232 E32.91515
