; generated by Slic3r 1.2.9 on 2017-08-30 at 08:58:39

; external perimeters extrusion width = 0.40mm
; perimeters extrusion width = 0.62mm
; infill extrusion width = 0.33mm
; solid infill extrusion width = 0.62mm
; top infill extrusion width = 0.20mm

M106 S256; Turn on fan to 100% power
M104 S140; turn on extruder temperature at S value
M140 S60; turn on bed temperature at S value
G28; home all axes
M84; disable motors
G1 Z15 F15000; have Z move to 20mm at 15000 mm/min
M190 S55; turn on bed temperature at S value and wait
M140 S55; turn on bed temperature at S value (printing temperature)
M109 S200; turn on extruder temperature at S value and wait (printing temperature)
M104 S200; turn on extruder temperature at S value
G1 Z0 F12000; move Z back to home
G21 ; set units to millimeters
G90 ; use absolute coordinates
M82 ; use absolute distances for extrusion
G92 E0
M106 S255
;Layer change
G1 E-6.00000 F1800.00000
G92 E0
G1 Z0.300 F9000.000
G1 X9.297 Y8.948 F9000.000
G1 E6.00000 F1800.00000
G1 X10.800 Y8.414 E6.07942 F600.000
G1 X169.200 Y8.414 E13.96600
G1 X170.510 Y8.806 E14.03406
G1 X171.473 Y10.077 E14.11347 F600.000
G1 X180.285 Y37.785 E15.56110
G1 X180.496 Y38.801 E15.61277
G1 X180.534 Y39.098 E15.62769
G1 X180.586 Y40.000 E15.67266
G1 X180.586 Y140.000 E20.65156
G1 X180.534 Y140.902 E20.69654
G1 X180.496 Y141.199 E20.71145
G1 X180.285 Y142.215 E20.76312
G1 X171.473 Y169.923 E22.21075
G1 X170.703 Y171.052 E22.27881
G1 X169.200 Y171.586 E22.35823
G1 X10.800 Y171.586 E30.24480
G1 X9.490 Y171.194 E30.31286
G1 X8.527 Y169.923 E30.39228
G1 X-0.285 Y142.215 E31.83991
G1 X-0.496 Y141.199 E31.89158
G1 X-0.534 Y140.902 E31.90650
G1 X-0.586 Y140.000 E31.95147
G1 X-0.586 Y40.000 E36.93037
G1 X-0.534 Y39.098 E36.97535
G1 X-0.496 Y38.801 E36.99026
G1 X-0.285 Y37.785 E37.04193
G1 X8.527 Y10.077 E38.48956
G1 X9.263 Y8.997 E38.55463
G1 E32.55463 F1800.00000
G92 E0
G1 X23.761 Y116.505 F9000.000
G1 E6.00000 F1800.00000
G1 X24.575 Y116.402 E6.04087 F600.000
G1 X24.990 Y116.389 E6.06154
G1 X57.019 Y116.389 E7.65622 F600.000
G1 X57.829 Y116.440 E7.69661
G1 X58.644 Y116.596 E7.73795
G1 X59.434 Y116.852 E7.77929
G1 X60.185 Y117.206 E7.82063
G1 X60.886 Y117.651 E7.86197
G1 X61.526 Y118.180 E7.90331
G1 X62.095 Y118.785 E7.94465
G1 X62.583 Y119.457 E7.98599
G1 X62.983 Y120.185 E8.02733
G1 X63.288 Y120.957 E8.06868
G1 X63.495 Y121.761 E8.11001
G1 X63.599 Y122.585 E8.15135
G1 X63.611 Y155.019 E9.76622
G1 X63.560 Y155.829 E9.80661
G1 X63.404 Y156.646 E9.84804
G1 X63.131 Y157.470 E9.89125
G1 X62.794 Y158.185 E9.93062
G1 X62.349 Y158.886 E9.97196
G1 X61.820 Y159.526 E10.01330
G1 X61.215 Y160.094 E10.05465
G1 X60.543 Y160.583 E10.09598
G1 X59.815 Y160.983 E10.13733
G1 X59.043 Y161.288 E10.17867
G1 X58.239 Y161.495 E10.22000
G1 X57.415 Y161.599 E10.26134
G1 X24.981 Y161.611 E11.87622
G1 X24.171 Y161.560 E11.91661
G1 X23.356 Y161.404 E11.95794
G1 X22.566 Y161.148 E11.99929
G1 X21.815 Y160.794 E12.04063
G1 X21.114 Y160.349 E12.08197
G1 X20.474 Y159.820 E12.12331
G1 X19.905 Y159.215 E12.16465
G1 X19.417 Y158.543 E12.20599
G1 X19.017 Y157.815 E12.24733
G1 X18.712 Y157.043 E12.28867
G1 X18.505 Y156.239 E12.33001
G1 X18.401 Y155.415 E12.37135
G1 X18.389 Y122.981 E13.98622
G1 X18.440 Y122.171 E14.02661
G1 X18.596 Y121.356 E14.06795
G1 X18.852 Y120.566 E14.10929
G1 X19.206 Y119.815 E14.15064
G1 X19.651 Y119.114 E14.19197
G1 X20.180 Y118.474 E14.23332
G1 X20.785 Y117.905 E14.27466
G1 X21.457 Y117.417 E14.31600
G1 X22.185 Y117.017 E14.35734
G1 X22.957 Y116.712 E14.39868
G1 X23.703 Y116.520 E14.43703
G1 X23.833 Y116.885 F9000.000
G1 X24.606 Y116.787 E14.47578 F600.000
G1 X24.996 Y116.775 E14.49525
G1 X57.007 Y116.775 E16.08903 F600.000
G1 X57.780 Y116.824 E16.12760
G1 X58.548 Y116.970 E16.16652
G1 X59.292 Y117.212 E16.20545
G1 X59.999 Y117.545 E16.24438
G1 X60.659 Y117.964 E16.28330
G1 X61.262 Y118.462 E16.32223
G1 X61.797 Y119.032 E16.36115
G1 X62.256 Y119.664 E16.40007
G1 X62.633 Y120.349 E16.43900
G1 X62.921 Y121.076 E16.47792
G1 X63.115 Y121.833 E16.51685
G1 X63.213 Y122.609 E16.55577
G1 X63.225 Y155.007 E18.16884
G1 X63.176 Y155.780 E18.20741
G1 X63.030 Y156.549 E18.24637
G1 X62.772 Y157.326 E18.28715
G1 X62.455 Y157.999 E18.32417
G1 X62.036 Y158.659 E18.36309
G1 X61.538 Y159.262 E18.40202
G1 X60.968 Y159.797 E18.44095
G1 X60.336 Y160.256 E18.47987
G1 X59.651 Y160.633 E18.51880
G1 X58.924 Y160.921 E18.55772
G1 X58.167 Y161.115 E18.59664
G1 X57.391 Y161.213 E18.63557
G1 X24.993 Y161.225 E20.24863
G1 X24.220 Y161.176 E20.28721
G1 X23.452 Y161.030 E20.32613
G1 X22.708 Y160.788 E20.36505
G1 X22.001 Y160.455 E20.40398
G1 X21.341 Y160.036 E20.44290
G1 X20.738 Y159.538 E20.48183
G1 X20.203 Y158.968 E20.52076
G1 X19.744 Y158.336 E20.55968
G1 X19.367 Y157.651 E20.59860
G1 X19.079 Y156.924 E20.63753
G1 X18.885 Y156.167 E20.67645
G1 X18.787 Y155.391 E20.71538
G1 X18.775 Y122.993 E22.32844
G1 X18.824 Y122.220 E22.36701
G1 X18.970 Y121.452 E22.40594
G1 X19.212 Y120.708 E22.44486
G1 X19.545 Y120.001 E22.48379
G1 X19.964 Y119.341 E22.52271
G1 X20.462 Y118.738 E22.56164
G1 X21.032 Y118.203 E22.60057
G1 X21.664 Y117.744 E22.63949
G1 X22.349 Y117.367 E22.67841
G1 X23.076 Y117.079 E22.71734
G1 X23.775 Y116.900 E22.75327
G1 X23.973 Y116.510 F9000.000
G1 E16.75327 F1800.00000
G92 E0
G1 X8.830 Y138.329 F9000.000
G1 E6.00000 F1800.00000
G1 X9.065 Y138.499 E6.01444 F600.000
G1 X9.377 Y138.831 E6.03709
G1 X9.519 Y139.055 E6.05032
G1 X9.632 Y139.295 E6.06354
G1 X9.750 Y139.754 E6.08711
G1 X9.750 Y140.227 E6.11068
G1 X9.700 Y140.489 E6.12396
G1 X9.615 Y140.746 E6.13744
G1 X9.390 Y141.155 E6.16070
G1 X9.053 Y141.514 E6.18522
G1 X8.637 Y141.778 E6.20975
G1 X8.187 Y141.925 E6.23331
G1 X7.904 Y141.960 E6.24750
G1 X7.451 Y141.932 E6.27010
G1 X7.175 Y141.861 E6.28428
G1 X6.770 Y141.671 E6.30658
G1 X6.535 Y141.501 E6.32101
G1 X6.223 Y141.169 E6.34367
G1 X6.071 Y140.929 E6.35786
G1 X5.903 Y140.506 E6.38050
G1 X5.850 Y140.221 E6.39495
G1 X5.850 Y139.753 E6.41822
G1 X5.973 Y139.276 E6.44274
G1 X6.201 Y138.862 E6.46630
G1 X6.370 Y138.657 E6.47952
G1 X6.564 Y138.475 E6.49275
G1 X6.963 Y138.222 E6.51631
G1 X7.413 Y138.075 E6.53988
G1 X7.696 Y138.040 E6.55407 F600.000
G1 X8.149 Y138.068 E6.57666
G1 X8.425 Y138.139 E6.59084
G1 X8.776 Y138.304 E6.61015
G1 X8.634 Y138.663 F9000.000
G1 X8.810 Y138.790 E6.62095 F600.000
G1 X9.071 Y139.068 E6.63994
G1 X9.181 Y139.241 E6.65014
G1 X9.268 Y139.426 E6.66035
G1 X9.364 Y139.802 E6.67967
G1 X9.364 Y140.190 E6.69900
G1 X9.326 Y140.392 E6.70922
G1 X9.260 Y140.592 E6.71967
G1 X9.076 Y140.927 E6.73873
G1 X8.805 Y141.215 E6.75841
G1 X8.471 Y141.427 E6.77808
G1 X8.102 Y141.547 E6.79741
G1 X7.892 Y141.573 E6.80797
G1 X7.512 Y141.549 E6.82694
G1 X7.306 Y141.497 E6.83749
G1 X6.966 Y141.337 E6.85619
G1 X6.790 Y141.210 E6.86699
G1 X6.529 Y140.932 E6.88598
G1 X6.416 Y140.753 E6.89654
G1 X6.275 Y140.398 E6.91553
G1 X6.235 Y140.185 E6.92633
G1 X6.236 Y139.802 E6.94539
G1 X6.334 Y139.420 E6.96507
G1 X6.521 Y139.079 E6.98439
G1 X6.652 Y138.922 E6.99460
G1 X6.801 Y138.781 E7.00480
G1 X7.129 Y138.573 E7.02412
G1 X7.498 Y138.453 E7.04344
G1 X7.708 Y138.427 E7.05400 F600.000
G1 X8.088 Y138.451 E7.07297
G1 X8.294 Y138.503 E7.08353
G1 X8.579 Y138.638 E7.09924
G1 X8.826 Y138.562 F9000.000
G1 E1.09924 F1800.00000
G92 E0
G1 X7.943 Y91.958 F9000.000
G1 E6.00000 F1800.00000
G1 X7.657 Y91.958 E6.01419 F600.000
G1 X7.193 Y91.869 E6.03776
G1 X6.764 Y91.668 E6.06132
G1 X6.534 Y91.500 E6.07551
G1 X6.223 Y91.169 E6.09810
G1 X6.080 Y90.944 E6.11138
G1 X5.966 Y90.699 E6.12486
G1 X5.850 Y90.246 E6.14813
G1 X5.850 Y89.773 E6.17168
G1 X5.900 Y89.512 E6.18491
G1 X5.982 Y89.259 E6.19814
G1 X6.201 Y88.862 E6.22073
G1 X6.382 Y88.642 E6.23492
G1 X6.747 Y88.341 E6.25848
G1 X7.193 Y88.131 E6.28301
G1 X7.657 Y88.042 E6.30658
G1 X7.943 Y88.042 E6.32077 F600.000
G1 X8.407 Y88.131 E6.34432
G1 X8.830 Y88.329 E6.36759
G1 X9.065 Y88.499 E6.38203
G1 X9.377 Y88.831 E6.40468
G1 X9.520 Y89.056 E6.41796
G1 X9.634 Y89.301 E6.43144
G1 X9.750 Y89.754 E6.45471
G1 X9.750 Y90.227 E6.47826
G1 X9.700 Y90.488 E6.49149
G1 X9.618 Y90.741 E6.50471
G1 X9.399 Y91.138 E6.52731
G1 X9.218 Y91.358 E6.54150
G1 X8.853 Y91.659 E6.56506
G1 X8.407 Y91.869 E6.58959
G1 X8.001 Y91.947 E6.61017
G1 X7.906 Y91.572 F9000.000
G1 X7.694 Y91.572 E6.62073 F600.000
G1 X7.313 Y91.500 E6.64005
G1 X6.962 Y91.334 E6.65937
G1 X6.790 Y91.210 E6.66993
G1 X6.529 Y90.932 E6.68890
G1 X6.419 Y90.759 E6.69912
G1 X6.331 Y90.568 E6.70957
G1 X6.236 Y90.198 E6.72863
G1 X6.236 Y89.810 E6.74795
G1 X6.274 Y89.608 E6.75816
G1 X6.337 Y89.413 E6.76836
G1 X6.521 Y89.079 E6.78733
G1 X6.656 Y88.916 E6.79789
G1 X6.955 Y88.669 E6.81721
G1 X7.313 Y88.500 E6.83689
G1 X7.694 Y88.428 E6.85621
G1 X7.906 Y88.428 E6.86677 F600.000
G1 X8.287 Y88.500 E6.88609
G1 X8.634 Y88.663 E6.90515
G1 X8.810 Y88.790 E6.91595
G1 X9.071 Y89.068 E6.93494
G1 X9.181 Y89.241 E6.94517
G1 X9.269 Y89.432 E6.95561
G1 X9.364 Y89.802 E6.97468
G1 X9.364 Y90.190 E6.99399
G1 X9.326 Y90.392 E7.00420
G1 X9.263 Y90.587 E7.01440
G1 X9.079 Y90.921 E7.03337
G1 X8.944 Y91.084 E7.04393
G1 X8.645 Y91.331 E7.06325
G1 X8.287 Y91.500 E7.08293
G1 X7.965 Y91.561 E7.09927
G1 X7.812 Y91.762 F9000.000
G1 X18.396 Y91.569 F9000.000
G1 X18.389 Y73.981 E7.97493 F600.000
G1 X18.440 Y73.171 E8.01532
G1 X18.596 Y72.356 E8.05666
G1 X18.852 Y71.566 E8.09800
G1 X19.206 Y70.815 E8.13935
G1 X19.651 Y70.114 E8.18069
G1 X20.180 Y69.474 E8.22203
G1 X20.785 Y68.905 E8.26337
G1 X21.457 Y68.417 E8.30471
G1 X22.185 Y68.017 E8.34605
G1 X22.957 Y67.712 E8.38739
G1 X23.761 Y67.505 E8.42873
G1 X24.575 Y67.402 E8.46960
G1 X24.990 Y67.389 E8.49027
G1 X57.019 Y67.389 E10.08495 F600.000
G1 X57.829 Y67.440 E10.12534
G1 X58.644 Y67.596 E10.16668
G1 X59.434 Y67.852 E10.20802
G1 X60.185 Y68.206 E10.24936
G1 X60.886 Y68.651 E10.29070
G1 X61.526 Y69.180 E10.33204
G1 X62.095 Y69.785 E10.37338
G1 X62.583 Y70.457 E10.41472
G1 X62.983 Y71.185 E10.45606
G1 X63.288 Y71.957 E10.49740
G1 X63.495 Y72.761 E10.53874
G1 X63.599 Y73.585 E10.58008
G1 X63.611 Y106.019 E12.19495
G1 X63.560 Y106.829 E12.23534
G1 X63.404 Y107.644 E12.27668
G1 X63.148 Y108.434 E12.31802
G1 X62.794 Y109.185 E12.35937
G1 X62.349 Y109.886 E12.40070
G1 X61.820 Y110.526 E12.44205
G1 X61.215 Y111.095 E12.48339
G1 X60.543 Y111.583 E12.52473
G1 X59.815 Y111.983 E12.56607
G1 X59.043 Y112.288 E12.60741
G1 X58.277 Y112.485 E12.64678
G1 X57.417 Y112.599 E12.68998
G1 X24.981 Y112.611 E14.30495
G1 X24.171 Y112.560 E14.34534
G1 X23.356 Y112.404 E14.38667
G1 X22.566 Y112.148 E14.42801
G1 X21.815 Y111.794 E14.46936
G1 X21.114 Y111.349 E14.51070
G1 X20.474 Y110.820 E14.55204
G1 X19.905 Y110.214 E14.59338
G1 X19.417 Y109.543 E14.63472
G1 X19.017 Y108.815 E14.67606
G1 X18.712 Y108.043 E14.71740
G1 X18.505 Y107.239 E14.75874
G1 X18.401 Y106.415 E14.80008
G1 X18.396 Y91.629 E15.53630
G1 X18.781 Y91.568 F9000.000
G1 X18.775 Y73.993 E16.41136 F600.000
G1 X18.824 Y73.220 E16.44993
G1 X18.970 Y72.452 E16.48886
G1 X19.212 Y71.708 E16.52778
G1 X19.545 Y71.001 E16.56671
G1 X19.964 Y70.341 E16.60563
G1 X20.462 Y69.738 E16.64456
G1 X21.032 Y69.203 E16.68348
G1 X21.664 Y68.744 E16.72241
G1 X22.349 Y68.367 E16.76133
G1 X23.076 Y68.079 E16.80026
G1 X23.833 Y67.885 E16.83918
G1 X24.606 Y67.787 E16.87793
G1 X24.996 Y67.775 E16.89740
G1 X57.007 Y67.775 E18.49118 F600.000
G1 X57.780 Y67.824 E18.52975
G1 X58.548 Y67.970 E18.56867
G1 X59.292 Y68.212 E18.60760
G1 X59.999 Y68.545 E18.64653
G1 X60.659 Y68.964 E18.68545
G1 X61.262 Y69.462 E18.72438
G1 X61.797 Y70.032 E18.76330
G1 X62.256 Y70.664 E18.80222
G1 X62.633 Y71.349 E18.84115
G1 X62.921 Y72.076 E18.88007
G1 X63.115 Y72.833 E18.91900
G1 X63.213 Y73.609 E18.95792
G1 X63.225 Y106.007 E20.57099
G1 X63.176 Y106.780 E20.60956
G1 X63.030 Y107.548 E20.64848
G1 X62.788 Y108.292 E20.68741
G1 X62.455 Y108.999 E20.72633
G1 X62.036 Y109.659 E20.76526
G1 X61.538 Y110.262 E20.80418
G1 X60.968 Y110.797 E20.84311
G1 X60.336 Y111.256 E20.88203
G1 X59.651 Y111.633 E20.92096
G1 X58.924 Y111.921 E20.95988
G1 X58.204 Y112.106 E20.99690
G1 X57.392 Y112.213 E21.03769
G1 X24.993 Y112.225 E22.65078
G1 X24.220 Y112.176 E22.68935
G1 X23.452 Y112.030 E22.72828
G1 X22.708 Y111.788 E22.76720
G1 X22.001 Y111.455 E22.80613
G1 X21.341 Y111.036 E22.84505
G1 X20.738 Y110.538 E22.88398
G1 X20.203 Y109.968 E22.92291
G1 X19.744 Y109.336 E22.96183
G1 X19.367 Y108.651 E23.00075
G1 X19.079 Y107.924 E23.03968
G1 X18.885 Y107.167 E23.07860
G1 X18.787 Y106.391 E23.11753
G1 X18.781 Y91.628 E23.85254
G1 X18.435 Y91.369 F9000.000
G1 E17.85254 F1800.00000
G92 E0
G1 X8.389 Y41.873 F9000.000
G1 E6.00000 F1800.00000
G1 X7.923 Y41.962 E6.02361 F600.000
G1 X7.451 Y41.932 E6.04718
G1 X7.194 Y41.866 E6.06041
G1 X6.947 Y41.768 E6.07364
G1 X6.547 Y41.514 E6.09720
G1 X6.223 Y41.169 E6.12076
G1 X6.080 Y40.944 E6.13404
G1 X5.966 Y40.699 E6.14752
G1 X5.850 Y40.246 E6.17079
G1 X5.850 Y39.773 E6.19435
G1 X5.900 Y39.512 E6.20757
G1 X5.982 Y39.259 E6.22080
G1 X6.210 Y38.845 E6.24436
G1 X6.547 Y38.486 E6.26889
G1 X6.963 Y38.222 E6.29342
G1 X7.413 Y38.075 E6.31699
G1 X7.696 Y38.040 E6.33117 F600.000
G1 X8.149 Y38.068 E6.35377
G1 X8.406 Y38.134 E6.36700
G1 X8.653 Y38.232 E6.38022
G1 X9.053 Y38.486 E6.40378
G1 X9.377 Y38.831 E6.42735
G1 X9.519 Y39.055 E6.44058
G1 X9.632 Y39.295 E6.45380
G1 X9.750 Y39.754 E6.47737
G1 X9.750 Y40.227 E6.50094
G1 X9.700 Y40.488 E6.51416
G1 X9.618 Y40.741 E6.52739
G1 X9.390 Y41.155 E6.55095
G1 X9.053 Y41.514 E6.57547
G1 X8.659 Y41.765 E6.59873
G1 X8.445 Y41.850 E6.61019
G1 X8.281 Y41.501 F9000.000
G1 X7.899 Y41.574 E6.62953 F600.000
G1 X7.512 Y41.549 E6.64886
G1 X7.313 Y41.498 E6.65906
G1 X7.123 Y41.423 E6.66926
G1 X6.795 Y41.215 E6.68859
G1 X6.529 Y40.932 E6.70791
G1 X6.419 Y40.759 E6.71813
G1 X6.331 Y40.568 E6.72858
G1 X6.236 Y40.198 E6.74765
G1 X6.236 Y39.810 E6.76696
G1 X6.274 Y39.608 E6.77717
G1 X6.337 Y39.413 E6.78737
G1 X6.524 Y39.073 E6.80670
G1 X6.795 Y38.785 E6.82638
G1 X7.129 Y38.573 E6.84605
G1 X7.498 Y38.453 E6.86538
G1 X7.708 Y38.427 E6.87593 F600.000
G1 X8.088 Y38.451 E6.89490
G1 X8.287 Y38.502 E6.90511
G1 X8.477 Y38.577 E6.91531
G1 X8.805 Y38.785 E6.93463
G1 X9.071 Y39.068 E6.95396
G1 X9.181 Y39.241 E6.96416
G1 X9.268 Y39.426 E6.97436
G1 X9.364 Y39.802 E6.99369
G1 X9.364 Y40.190 E7.01301
G1 X9.326 Y40.392 E7.02322
G1 X9.263 Y40.587 E7.03342
G1 X9.076 Y40.927 E7.05274
G1 X8.805 Y41.215 E7.07242
G1 X8.482 Y41.420 E7.09148
G1 X8.336 Y41.479 E7.09930
G1 X8.177 Y41.875 F9000.000
G1 X18.395 Y41.497 F9000.000
G1 X18.389 Y24.981 E7.92162 F600.000
G1 X18.440 Y24.171 E7.96201
G1 X18.596 Y23.356 E8.00335
G1 X18.852 Y22.566 E8.04469
G1 X19.206 Y21.815 E8.08604
G1 X19.651 Y21.114 E8.12737
G1 X20.180 Y20.474 E8.16872
G1 X20.785 Y19.905 E8.21006
G1 X21.457 Y19.417 E8.25140
G1 X22.185 Y19.017 E8.29274
G1 X22.957 Y18.712 E8.33408
G1 X23.761 Y18.505 E8.37542
G1 X24.575 Y18.402 E8.41628
G1 X24.990 Y18.389 E8.43696
G1 X57.019 Y18.389 E10.03164 F600.000
G1 X57.829 Y18.440 E10.07203
G1 X58.644 Y18.596 E10.11336
G1 X59.434 Y18.852 E10.15470
G1 X60.185 Y19.206 E10.19605
G1 X60.886 Y19.651 E10.23739
G1 X61.526 Y20.180 E10.27873
G1 X62.095 Y20.785 E10.32007
G1 X62.583 Y21.457 E10.36141
G1 X62.983 Y22.185 E10.40275
G1 X63.288 Y22.957 E10.44409
G1 X63.495 Y23.761 E10.48543
G1 X63.599 Y24.585 E10.52677
G1 X63.611 Y57.018 E12.14158
G1 X63.564 Y57.805 E12.18085
G1 X63.404 Y58.644 E12.22338
G1 X63.148 Y59.434 E12.26472
G1 X62.794 Y60.185 E12.30606
G1 X62.349 Y60.886 E12.34740
G1 X61.820 Y61.526 E12.38875
G1 X61.215 Y62.095 E12.43009
G1 X60.543 Y62.583 E12.47142
G1 X59.815 Y62.983 E12.51277
G1 X59.043 Y63.288 E12.55411
G1 X58.239 Y63.495 E12.59545
G1 X57.415 Y63.599 E12.63679
G1 X24.981 Y63.611 E14.25166
G1 X24.171 Y63.560 E14.29205
G1 X23.356 Y63.404 E14.33339
G1 X22.566 Y63.148 E14.37473
G1 X21.815 Y62.794 E14.41607
G1 X21.114 Y62.349 E14.45741
G1 X20.474 Y61.820 E14.49875
G1 X19.905 Y61.215 E14.54009
G1 X19.417 Y60.543 E14.58143
G1 X19.017 Y59.815 E14.62278
G1 X18.712 Y59.043 E14.66412
G1 X18.505 Y58.239 E14.70545
G1 X18.401 Y57.415 E14.74679
G1 X18.395 Y41.557 E15.53635
G1 X18.781 Y41.497 F9000.000
G1 X18.775 Y24.993 E16.35807 F600.000
G1 X18.824 Y24.220 E16.39665
G1 X18.970 Y23.452 E16.43557
