; generated by Slic3r 1.2.9 on 2017-03-15 at 13:07:10

; external perimeters extrusion width = 0.40mm
; perimeters extrusion width = 0.56mm
; infill extrusion width = 0.38mm
; solid infill extrusion width = 0.56mm
; top infill extrusion width = 0.22mm

M106 S256; Turn on fan to 100% power
M104 S140; turn on extruder temperature at S value
M140 S60; turn on bed temperature at S value
G28; home all axes
M84; disable motors
G1 Z15 F15000; have Z move to 20mm at 15000 mm/min
M190 S55; turn on bed temperature at S value and wait
M140 S55; turn on bed temperature at S value (printing temperature)
M109 S200; turn on extruder temperature at S value and wait (printing temperature)
M104 S200; turn on extruder temperature at S value
G1 Z0 F12000; move Z back to home
G21 ; set units to millimeters
G90 ; use absolute coordinates
M82 ; use absolute distances for extrusion
G92 E0
M106 S255
;Layer change
G1 E-6.00000 F1800.00000
G92 E0
G1 Z0.300 F9000.000
G1 X45.562 Y19.579 F9000.000
G1 E6.00000 F1800.00000
G1 X45.803 Y19.066 E6.02824 F600.000
G1 X46.121 Y18.487 E6.06113
G1 X46.568 Y17.802 E6.10187
G1 X46.911 Y17.350 E6.13010
G1 X47.343 Y16.850 E6.16300
G1 X47.923 Y16.273 E6.20373
G1 X48.549 Y15.746 E6.24447
G1 X49.008 Y15.413 E6.27271
G1 X49.566 Y15.059 E6.30560
G1 X50.063 Y14.785 E6.33384
G1 X50.806 Y14.443 E6.37457
G1 X51.425 Y14.213 E6.40746
G1 X51.968 Y14.049 E6.43570
G1 X52.611 Y13.898 E6.46858
G1 X53.419 Y13.772 E6.50932
G1 X53.985 Y13.724 E6.53756
G1 X54.519 Y13.709 E6.56419
G1 X138.519 Y13.709 E10.74647
G1 X140.199 Y14.104 E10.83238
G1 X141.527 Y15.205 E10.91828 F600.000
G1 X142.290 Y17.450 E11.03632
G1 X142.632 Y59.549 E13.13245
G1 X142.632 Y71.579 E13.73144
G1 X142.237 Y73.259 E13.81735
G1 X141.136 Y74.587 E13.90325
G1 X140.169 Y75.116 E13.95811
G1 X80.169 Y97.316 E17.14338
G1 X78.861 Y97.551 E17.20957
G1 X54.861 Y97.551 E18.40451
G1 X54.036 Y97.513 E18.44561
G1 X53.450 Y97.435 E18.47506
G1 X52.223 Y97.175 E18.53752
G1 X51.473 Y96.931 E18.57677
G1 X50.327 Y96.421 E18.63923
G1 X49.644 Y96.027 E18.67849
G1 X48.629 Y95.289 E18.74094
G1 X48.043 Y94.762 E18.78018
G1 X47.204 Y93.830 E18.84263
G1 X46.741 Y93.192 E18.88189
G1 X46.113 Y92.105 E18.94435
G1 X45.793 Y91.385 E18.98360
G1 X45.405 Y90.192 E19.04606
G1 X45.241 Y89.421 E19.08531
G1 X45.110 Y88.174 E19.14776
G1 X45.090 Y87.810 E19.16589
G1 X44.748 Y45.681 E21.26355
G1 X44.754 Y23.150 E22.38532
G1 X44.816 Y22.334 E22.42605
G1 X44.979 Y21.372 E22.47465
G1 X45.189 Y20.581 E22.51539
G1 X45.318 Y20.193 E22.53577
G1 X45.538 Y19.634 E22.56566
G1 X45.917 Y19.728 F9000.000
G1 X46.256 Y19.031 E22.60427 F600.000
G1 X46.529 Y18.558 E22.63143
G1 X46.885 Y18.022 E22.66351
G1 X47.369 Y17.402 E22.70264
G1 X47.727 Y17.004 E22.72927
G1 X48.187 Y16.554 E22.76135
G1 X48.789 Y16.048 E22.80049
G1 X49.221 Y15.734 E22.82712
G1 X49.766 Y15.388 E22.85920
G1 X50.234 Y15.131 E22.88583
G1 X50.948 Y14.802 E22.92496
G1 X51.552 Y14.577 E22.95704
G1 X52.064 Y14.422 E22.98367
G1 X52.691 Y14.275 E23.01575
G1 X53.468 Y14.154 E23.05489
G1 X54.001 Y14.110 E23.08152
G1 X54.519 Y14.095 E23.10734
G1 X138.519 Y14.095 E27.28962
G1 X140.105 Y14.489 E27.37095
G1 X141.321 Y15.580 E27.45229 F600.000
G1 X141.905 Y17.453 E27.54999
G1 X142.246 Y59.552 E29.64613
G1 X142.246 Y71.579 E30.24496
G1 X141.852 Y73.165 E30.32629
G1 X140.035 Y74.755 E30.44649
G1 X80.035 Y96.955 E33.63176
G1 X78.861 Y97.165 E33.69118
G1 X54.861 Y97.165 E34.88612
G1 X54.056 Y97.128 E34.92622
G1 X53.530 Y97.058 E34.95266
G1 X52.303 Y96.797 E35.01511
G1 X51.630 Y96.579 E35.05035
G1 X50.484 Y96.069 E35.11281
G1 X49.871 Y95.715 E35.14805
G1 X48.856 Y94.977 E35.21051
G1 X48.330 Y94.504 E35.24574
G1 X47.491 Y93.572 E35.30819
G1 X47.074 Y92.999 E35.34343
G1 X46.447 Y91.913 E35.40589
G1 X46.159 Y91.266 E35.44113
G1 X45.772 Y90.073 E35.50358
G1 X45.625 Y89.381 E35.53882
G1 X45.494 Y88.133 E35.60127
G1 X45.475 Y87.807 E35.61755
G1 X45.134 Y45.681 E37.71505
G1 X45.140 Y23.158 E38.83641
G1 X45.200 Y22.375 E38.87555
G1 X45.354 Y21.460 E38.92173
G1 X45.556 Y20.700 E38.96086
G1 X45.894 Y19.783 E39.00951
G1 E33.00951 F1800.00000
G92 E0
G1 X56.807 Y84.960 F9000.000
G1 E6.00000 F1800.00000
G1 X57.894 Y86.187 E6.08164 F600.000
G1 X58.287 Y87.779 E6.16329
G1 X57.894 Y89.372 E6.24494
G1 X56.807 Y90.599 E6.32658
G1 X55.274 Y91.180 E6.40822
G1 X53.646 Y90.983 E6.48987
G1 X52.296 Y90.051 E6.57151
G1 X51.534 Y88.599 E6.65316
G1 X51.534 Y86.960 E6.73480
G1 X52.296 Y85.508 E6.81645
G1 X53.646 Y84.576 E6.89809
G1 X54.935 Y84.420 E6.96275
G1 X55.274 Y84.378 E6.97974 F600.000
G1 X56.751 Y84.939 E7.05840
G1 X56.581 Y85.287 F9000.000
G1 X57.543 Y86.372 E7.13057 F600.000
G1 X57.890 Y87.779 E7.20276
G1 X57.543 Y89.187 E7.27494
G1 X56.581 Y90.272 E7.34712
G1 X55.226 Y90.786 E7.41930
G1 X53.787 Y90.612 E7.49148
G1 X52.593 Y89.788 E7.56366
G1 X51.920 Y88.504 E7.63584
G1 X51.920 Y87.055 E7.70802
G1 X52.593 Y85.771 E7.78020
G1 X53.787 Y84.947 E7.85238
G1 X54.981 Y84.802 E7.91230
G1 X55.226 Y84.773 E7.92456 F600.000
G1 X56.525 Y85.265 E7.99375
G1 X56.356 Y85.614 F9000.000
G1 X57.191 Y86.556 E8.05647 F600.000
G1 X57.492 Y87.779 E8.11918
G1 X57.191 Y89.002 E8.18190
G1 X56.356 Y89.945 E8.24461
G1 X55.178 Y90.392 E8.30733
G1 X53.927 Y90.240 E8.37004
G1 X52.891 Y89.525 E8.43276
G1 X52.305 Y88.409 E8.49548
G1 X52.305 Y87.150 E8.55819
G1 X52.891 Y86.034 E8.62091
G1 X53.927 Y85.319 E8.68362
G1 X55.028 Y85.185 E8.73881
G1 X55.178 Y85.167 E8.74634 F600.000
G1 X56.300 Y85.592 E8.80607
G1 X56.730 Y85.472 F9000.000
G1 X77.864 Y82.776 F9000.000
G1 X77.864 Y92.783 E9.30433 F600.000
G1 X55.857 Y92.783 E10.40007
G1 X55.857 Y92.750 E10.40170
G1 X54.338 Y92.750 E10.47732
G1 X53.316 Y92.533 E10.52934
G1 X52.362 Y92.108 E10.58137
G1 X51.516 Y91.494 E10.63340
G1 X50.817 Y90.717 E10.68542
G1 X50.294 Y89.812 E10.73744
G1 X49.972 Y88.819 E10.78947
G1 X49.862 Y87.779 E10.84150
G1 X49.972 Y86.740 E10.89352
G1 X50.294 Y85.746 E10.94555
G1 X50.817 Y84.842 E10.99757
G1 X51.516 Y84.065 E11.04960
G1 X52.362 Y83.451 E11.10163
G1 X53.316 Y83.026 E11.15365
G1 X54.338 Y82.809 E11.20568
G1 X55.857 Y82.809 E11.28129
G1 X55.857 Y82.776 E11.28293
G1 X77.804 Y82.776 E12.37568
G1 X78.250 Y82.390 F9000.000
G1 X78.250 Y93.169 E12.91234 F600.000
G1 X55.471 Y93.169 E14.04647
G1 X55.471 Y93.136 E14.04811
G1 X54.298 Y93.136 E14.10654
G1 X53.196 Y92.902 E14.16260
G1 X52.168 Y92.444 E14.21866
G1 X51.257 Y91.782 E14.27473
G1 X50.503 Y90.945 E14.33079
G1 X49.940 Y89.970 E14.38685
G1 X49.592 Y88.899 E14.44291
G1 X49.475 Y87.779 E14.49897
G1 X49.592 Y86.660 E14.55503
G1 X49.940 Y85.589 E14.61110
G1 X50.483 Y84.649 E14.66515
G1 X51.257 Y83.777 E14.72318
G1 X52.168 Y83.115 E14.77924
G1 X53.196 Y82.657 E14.83530
G1 X54.298 Y82.423 E14.89136
G1 X55.471 Y82.423 E14.94979
G1 X55.471 Y82.390 E14.95143
G1 X78.190 Y82.390 E16.08258
G1 X78.636 Y82.004 F9000.000
G1 X78.636 Y93.554 E16.65764 F600.000
G1 X55.086 Y93.554 E17.83017
G1 X55.086 Y93.522 E17.83181
G1 X54.257 Y93.522 E17.87306
G1 X53.076 Y93.271 E17.93316
G1 X51.974 Y92.780 E17.99325
G1 X50.997 Y92.070 E18.05335
G1 X50.190 Y91.173 E18.11345
G1 X49.586 Y90.128 E18.17355
G1 X49.213 Y88.980 E18.23364
G1 X49.087 Y87.779 E18.29374
G1 X49.213 Y86.579 E18.35384
G1 X49.586 Y85.431 E18.41394
G1 X50.149 Y84.456 E18.47001
G1 X50.190 Y84.386 E18.47404
G1 X50.997 Y83.489 E18.53413
G1 X51.974 Y82.779 E18.59423
G1 X53.076 Y82.288 E18.65433
G1 X54.257 Y82.037 E18.71443
G1 X55.086 Y82.037 E18.75568
G1 X55.086 Y82.004 E18.75731
G1 X78.576 Y82.004 E19.92686
G1 X78.436 Y82.351 F9000.000
G1 X77.581 Y83.263 F9000.000
G1 X77.377 Y83.059 E19.94140 F600.000
G1 X76.824 Y83.059 E19.96935
G1 X77.581 Y83.816 E20.02341
G1 X77.581 Y84.370 E20.05135
G1 X76.271 Y83.059 E20.14493
G1 X75.717 Y83.059 E20.17288
G1 X77.581 Y84.923 E20.30598
G1 X77.581 Y85.476 E20.33392
G1 X75.164 Y83.059 E20.50654
G1 X74.611 Y83.059 E20.53448
G1 X77.581 Y86.029 E20.74662
G1 X77.581 Y86.583 E20.77457
G1 X74.058 Y83.059 E21.02622
G1 X73.504 Y83.059 E21.05417
G1 X77.581 Y87.136 E21.34534
G1 X77.581 Y87.689 E21.37329
G1 X72.951 Y83.059 E21.70398
G1 X72.398 Y83.059 E21.73192
G1 X77.581 Y88.242 E22.10214
G1 X77.581 Y88.795 E22.13008
G1 X71.845 Y83.059 E22.53981
G1 X71.291 Y83.059 E22.56776
G1 X77.581 Y89.349 E23.01701
G1 X77.581 Y89.902 E23.04495
G1 X70.738 Y83.059 E23.53372
G1 X70.185 Y83.059 E23.56166
G1 X77.581 Y90.455 E24.08995
G1 X77.581 Y91.008 E24.11790
G1 X69.632 Y83.059 E24.68570
G1 X69.078 Y83.059 E24.71365
G1 X77.581 Y91.562 E25.32097
G1 X77.581 Y92.115 E25.34892
G1 X68.525 Y83.059 E25.99576
G1 X67.972 Y83.059 E26.02370
G1 X77.412 Y92.499 E26.69801
G1 X76.859 Y92.499 E26.72596
G1 X67.419 Y83.059 E27.40026
G1 X66.865 Y83.059 E27.42821
G1 X76.305 Y92.499 E28.10251
G1 X75.752 Y92.499 E28.13046
G1 X66.312 Y83.059 E28.80477
G1 X65.759 Y83.059 E28.83271
G1 X75.199 Y92.499 E29.50702
G1 X74.646 Y92.499 E29.53496
G1 X65.206 Y83.059 E30.20927
G1 X64.652 Y83.059 E30.23721
G1 X74.092 Y92.499 E30.91152
G1 X73.539 Y92.499 E30.93946
G1 X64.099 Y83.059 E31.61377
G1 X63.546 Y83.059 E31.64171
G1 X72.986 Y92.499 E32.31602
G1 X72.433 Y92.499 E32.34397
G1 X62.993 Y83.059 E33.01827
G1 X62.439 Y83.059 E33.04622
G1 X71.879 Y92.499 E33.72052
G1 X71.326 Y92.499 E33.74847
G1 X61.886 Y83.059 E34.42277
G1 X61.333 Y83.059 E34.45072
G1 X70.773 Y92.499 E35.12503
G1 X70.220 Y92.499 E35.15297
G1 X60.780 Y83.059 E35.82728
G1 X60.227 Y83.059 E35.85522
G1 X69.666 Y92.499 E36.52953
G1 X69.113 Y92.499 E36.55747
G1 X59.673 Y83.059 E37.23178
G1 X59.120 Y83.059 E37.25972
G1 X68.560 Y92.499 E37.93403
G1 X68.007 Y92.499 E37.96197
G1 X58.567 Y83.059 E38.63628
G1 X58.014 Y83.059 E38.66423
G1 X67.453 Y92.499 E39.33853
G1 X66.900 Y92.499 E39.36648
G1 X57.460 Y83.059 E40.04078
G1 X56.907 Y83.059 E40.06873
G1 X66.347 Y92.499 E40.74304
G1 X65.794 Y92.499 E40.77098
G1 X56.354 Y83.059 E41.44529
G1 X55.833 Y83.092 E41.47162
G1 X65.241 Y92.499 E42.14358
G1 X64.687 Y92.499 E42.17152
G1 X58.155 Y85.967 E42.63814
G1 X58.336 Y86.701 E42.67634
G1 X64.134 Y92.499 E43.09051
G1 X63.581 Y92.499 E43.11846
G1 X58.517 Y87.435 E43.48018
G1 X58.511 Y87.983 E43.50784
G1 X63.028 Y92.499 E43.83046
G1 X62.474 Y92.499 E43.85840
G1 X58.402 Y88.427 E44.14932
G1 X58.292 Y88.871 E44.17240
G1 X61.921 Y92.499 E44.43161
G1 X61.368 Y92.499 E44.45956
G1 X58.183 Y89.314 E44.68706
G1 X57.974 Y89.659 E44.70740
G1 X60.815 Y92.499 E44.91031
G1 X60.261 Y92.499 E44.93825
G1 X57.714 Y89.952 E45.12021
G1 X57.454 Y90.246 E45.14000
G1 X59.708 Y92.499 E45.30100
G1 X59.155 Y92.499 E45.32895
G1 X57.194 Y90.539 E45.46899
G1 X56.932 Y90.830 E45.48878
G1 X58.602 Y92.499 E45.60804
G1 X58.048 Y92.499 E45.63599
G1 X56.531 Y90.982 E45.74439
G1 X56.130 Y91.134 E45.76606
G1 X57.495 Y92.499 E45.86359
G1 X56.942 Y92.499 E45.89153
G1 X55.729 Y91.286 E45.97820
G1 X55.327 Y91.438 E45.99987
G1 X56.389 Y92.499 E46.07567
G1 X55.803 Y92.467 E46.10532
G1 X54.749 Y91.413 E46.18056
G1 X54.120 Y91.337 E46.21260
G1 X55.249 Y92.467 E46.29329
G1 X54.696 Y92.467 E46.32124
G1 X53.490 Y91.260 E46.40739
G1 X53.290 Y92.166 F9000.000
G1 X50.474 Y89.351 E46.60854 F600.000
G1 X50.239 Y88.563 E46.65005
G1 X54.058 Y92.381 E46.92282
G1 X51.948 Y91.378 F9000.000
G1 X51.424 Y90.854 E46.96024 F600.000
G1 X51.526 Y89.296 F9000.000
G1 X50.174 Y87.945 E47.05680 F600.000
G1 X50.180 Y87.397 E47.08446
G1 X51.250 Y88.468 E47.16093
G1 X51.250 Y87.914 E47.18888
G1 X50.232 Y86.896 E47.26159
G1 X50.341 Y86.452 E47.28470
G1 X51.250 Y87.361 E47.34964
G1 X51.300 Y86.857 E47.37521
G1 X50.477 Y86.034 E47.43398
G1 X50.644 Y85.648 E47.45523
G1 X51.490 Y86.494 E47.51565
G1 X51.681 Y86.132 E47.53635
G1 X50.847 Y85.298 E47.59591
G1 X51.054 Y84.952 E47.61628
G1 X51.871 Y85.769 E47.67463
G1 X52.061 Y85.406 E47.69533
G1 X51.316 Y84.661 E47.74855
G1 X51.587 Y84.378 E47.76832
G1 X52.364 Y85.155 E47.82380
G1 X52.691 Y84.929 E47.84389
G1 X51.876 Y84.114 E47.90210
G1 X52.197 Y83.881 E47.92211
G1 X53.018 Y84.703 E47.98081
G1 X53.346 Y84.477 E48.00090
G1 X52.527 Y83.659 E48.05935
G1 X52.910 Y83.488 E48.08051
G1 X53.713 Y84.291 E48.13786
G1 X54.206 Y84.231 E48.16296
G1 X53.293 Y83.318 E48.22820
G1 X53.739 Y83.211 E48.25136
G1 X54.700 Y84.172 E48.32001
G1 X55.193 Y84.112 E48.34511
G1 X54.195 Y83.114 E48.41640
G1 X54.727 Y83.092 E48.44329
G1 X55.917 Y84.282 E48.52827
G1 X56.808 Y84.620 F9000.000
G1 X55.280 Y83.092 E48.63740 F600.000
G1 E42.63740 F1800.00000
G92 E0
G1 X69.603 Y49.013 F9000.000
G1 E6.00000 F1800.00000
G1 X67.898 Y49.013 E6.08489 F600.000
G1 X66.232 Y44.947 E6.30368
G1 X66.076 Y45.282 E6.32211
G1 X65.892 Y45.561 E6.33874
G1 X65.526 Y45.907 E6.36380
G1 X65.169 Y46.119 E6.38448
G1 X64.793 Y46.273 E6.40470
G1 X64.812 Y46.446 E6.41336
G1 X66.387 Y46.723 E6.49298
G1 X66.030 Y47.728 E6.54610
G1 X65.856 Y48.062 E6.56484
G1 X65.584 Y48.411 E6.58685
G1 X65.304 Y48.651 E6.60521
G1 X64.994 Y48.830 E6.62304
G1 X64.654 Y48.961 E6.64121
G1 X64.282 Y49.052 E6.66026
G1 X63.782 Y49.114 E6.68534
G1 X63.102 Y49.124 E6.71920
G1 X62.441 Y49.049 E6.75234
G1 X62.117 Y48.969 E6.76896
G1 X61.810 Y48.859 E6.78517
G1 X61.388 Y48.625 E6.80919
G1 X61.145 Y48.426 E6.82487
G1 X60.944 Y48.203 E6.83980
G1 X60.783 Y47.950 E6.85471
G1 X60.664 Y47.675 E6.86963
G1 X60.590 Y47.384 E6.88459
G1 X60.556 Y47.067 E6.90046
G1 X60.594 Y46.543 E6.92660
G1 X60.730 Y46.121 E6.94872
G1 X60.994 Y45.706 E6.97319
G1 X61.306 Y45.411 E6.99457
G1 X61.682 Y45.179 E7.01655
G1 X61.952 Y45.058 E7.03128
G1 X61.933 Y44.890 E7.03969
G1 X60.115 Y44.527 E7.13197
G1 X60.424 Y43.529 E7.18395
G1 X60.696 Y43.039 E7.21188
G1 X60.965 Y42.737 E7.23200
G1 X61.274 Y42.496 E7.25153
G1 X61.632 Y42.300 E7.27183
G1 X62.198 Y42.111 E7.30156
G1 X62.641 Y42.033 E7.32394
G1 X63.317 Y41.993 E7.35766
G1 X63.844 Y42.014 E7.38394
G1 X64.424 Y42.105 E7.41312
G1 X64.865 Y42.238 E7.43609
G1 X65.188 Y42.399 E7.45403
G1 X65.053 Y42.070 E7.47173
G1 X67.183 Y42.070 E7.57779
G1 X67.844 Y43.730 E7.66673
G1 X69.633 Y43.730 E7.75584
G1 X70.290 Y42.070 E7.84471
G1 X72.403 Y42.070 E7.94991
G1 X69.626 Y48.957 E8.31965
G1 E2.31965 F1800.00000
G92 E0
G1 X65.871 Y47.024 F9000.000
G1 E6.00000 F1800.00000
G1 X65.675 Y47.574 E6.02907 F600.000
G1 X65.530 Y47.853 E6.04473
G1 X65.304 Y48.143 E6.06306
G1 X65.080 Y48.335 E6.07771
G1 X64.827 Y48.481 E6.09227
G1 X64.539 Y48.592 E6.10768
G1 X64.212 Y48.672 E6.12439
G1 X63.755 Y48.729 E6.14732
G1 X63.121 Y48.738 E6.17890
G1 X62.509 Y48.668 E6.20957
G1 X62.229 Y48.599 E6.22396
G1 X61.970 Y48.506 E6.23765
G1 X61.605 Y48.305 E6.25839
G1 X61.412 Y48.146 E6.27084
G1 X61.252 Y47.968 E6.28274
G1 X61.124 Y47.769 E6.29453
G1 X61.030 Y47.551 E6.30637
G1 X60.970 Y47.316 E6.31845
G1 X60.943 Y47.060 E6.33122
G1 X60.975 Y46.617 E6.35333
G1 X61.082 Y46.286 E6.37068
G1 X61.293 Y45.954 E6.39029
G1 X61.542 Y45.719 E6.40733
G1 X61.863 Y45.521 E6.42609
G1 X62.140 Y45.396 E6.44121
G1 X62.543 Y45.263 E6.46237
G1 X64.105 Y44.873 E6.54251
G1 X64.364 Y44.765 E6.55648
G1 X64.512 Y44.669 E6.56527
G1 X64.650 Y44.509 E6.57578
G1 X64.703 Y44.327 E6.58522
G1 X64.693 Y44.068 E6.59814
G1 X64.610 Y43.857 E6.60942
G1 X64.520 Y43.750 E6.61640
G1 X64.290 Y43.597 E6.63015
G1 X64.109 Y43.529 E6.63976
G1 X63.894 Y43.477 E6.65077
G1 X63.648 Y43.446 E6.66311
G1 X63.080 Y43.446 E6.69141
G1 X62.839 Y43.474 E6.70347
G1 X62.572 Y43.538 E6.71717
G1 X62.396 Y43.607 E6.72656
G1 X62.248 Y43.691 E6.73502
G1 X62.126 Y43.792 E6.74291
G1 X62.026 Y43.912 E6.75070
G1 X61.945 Y44.054 E6.75883
G1 X61.798 Y44.470 E6.78080
G1 X60.610 Y44.232 E6.84115
G1 X60.780 Y43.681 E6.86987
G1 X61.012 Y43.263 E6.89365
G1 X61.230 Y43.020 E6.90992
G1 X61.487 Y42.819 E6.92617
G1 X61.787 Y42.655 E6.94318
G1 X62.294 Y42.486 E6.96978
G1 X62.686 Y42.416 E6.98964
G1 X63.321 Y42.379 E7.02127
G1 X63.807 Y42.399 E7.04549
G1 X64.338 Y42.482 E7.07225
G1 X64.722 Y42.598 E7.09227
G1 X65.138 Y42.805 E7.11538
G1 X65.476 Y43.079 E7.13706
G1 X65.689 Y43.353 E7.15432
G1 X65.835 Y43.666 E7.17153
G1 X65.922 Y44.086 E7.19289
G1 X65.920 Y44.483 E7.21266
G1 X65.889 Y44.685 E7.22282
G1 X65.818 Y44.922 E7.23516
G1 X65.738 Y45.094 E7.24457
G1 X65.594 Y45.312 E7.25756
G1 X65.292 Y45.598 E7.27827
G1 X64.997 Y45.773 E7.29539
G1 X64.500 Y45.976 E7.32209
G1 X63.075 Y46.331 E7.39521
G1 X62.616 Y46.472 E7.41915
G1 X62.431 Y46.563 E7.42939
