; generated by Slic3r 1.2.9 on 2017-10-21 at 21:56:03

; external perimeters extrusion width = 0.40mm
; perimeters extrusion width = 0.62mm
; infill extrusion width = 0.33mm
; solid infill extrusion width = 0.62mm
; top infill extrusion width = 0.20mm

M106 S256; Turn on fan to 100% power
M104 S140; turn on extruder temperature at S value
M140 S60; turn on bed temperature at S value
G28; home all axes
M84; disable motors
G1 Z15 F15000; have Z move to 20mm at 15000 mm/min
M190 S55; turn on bed temperature at S value and wait
M140 S55; turn on bed temperature at S value (printing temperature)
M109 S200; turn on extruder temperature at S value and wait (printing temperature)
M104 S200; turn on extruder temperature at S value
G1 Z0 F12000; move Z back to home
G21 ; set units to millimeters
G90 ; use absolute coordinates
M82 ; use absolute distances for extrusion
G92 E0
M106 S255
;Layer change
G1 E-6.00000 F1800.00000
G92 E0
G1 Z0.300 F9000.000
G1 X74.333 Y20.379 F9000.000
G1 E6.00000 F1800.00000
G1 X74.543 Y19.673 E6.03671 F600.000
G1 X74.797 Y18.981 E6.07341
G1 X75.030 Y18.442 E6.10265
G1 X75.361 Y17.783 E6.13936
G1 X75.812 Y17.019 E6.18352
G1 X76.143 Y16.533 E6.21278
G1 X76.586 Y15.954 E6.24910
G1 X77.075 Y15.392 E6.28617
G1 X77.702 Y14.765 E6.33033
G1 X78.258 Y14.281 E6.36704
G1 X78.722 Y13.921 E6.39628
G1 X79.455 Y13.422 E6.44043
G1 X80.093 Y13.051 E6.47715
G1 X80.751 Y12.721 E6.51384
G1 X81.291 Y12.487 E6.54310
G1 X82.125 Y12.187 E6.58726
G1 X82.689 Y12.023 E6.61650
G1 X83.408 Y11.857 E6.65321
G1 X84.135 Y11.737 E6.68991
G1 X85.018 Y11.654 E6.73407
G1 X85.762 Y11.636 E6.77112
G1 X86.491 Y11.663 E6.80747 F600.000
G1 X87.076 Y11.719 E6.83673
G1 X87.805 Y11.829 E6.87343
G1 X88.526 Y11.986 E6.91014
G1 X89.377 Y12.233 E6.95429
G1 X90.069 Y12.487 E6.99100
G1 X90.744 Y12.784 E7.02770
G1 X91.267 Y13.051 E7.05695
G1 X92.031 Y13.502 E7.10111
G1 X92.638 Y13.921 E7.13781
G1 X93.218 Y14.376 E7.17452
G1 X93.658 Y14.765 E7.20376
G1 X94.183 Y15.283 E7.24047
G1 X94.674 Y15.833 E7.27718
G1 X95.217 Y16.533 E7.32133
G1 X95.548 Y17.019 E7.35058
G1 X95.927 Y17.651 E7.38728
G1 X96.266 Y18.306 E7.42399
G1 X96.563 Y18.981 E7.46069
G1 X96.863 Y19.815 E7.50485
G1 X97.027 Y20.379 E7.53410
G1 X97.191 Y21.090 E7.57043
G1 X97.313 Y21.825 E7.60750
G1 X97.387 Y22.559 E7.64422
G1 X97.414 Y23.445 E7.68837
G1 X97.396 Y24.032 E7.71761
G1 X97.331 Y24.766 E7.75432
G1 X97.221 Y25.495 E7.79102
G1 X97.064 Y26.216 E7.82773
G1 X96.817 Y27.067 E7.87189
G1 X96.618 Y27.620 E7.90115
G1 X96.330 Y28.298 E7.93784
G1 X95.999 Y28.958 E7.97455
G1 X95.548 Y29.721 E8.01870
G1 X95.129 Y30.328 E8.05541
G1 X94.674 Y30.908 E8.09211
G1 X94.183 Y31.457 E8.12881
G1 X93.658 Y31.975 E8.16551
G1 X93.218 Y32.364 E8.19476
G1 X92.638 Y32.819 E8.23147
G1 X91.904 Y33.318 E8.27562
G1 X91.267 Y33.689 E8.31233
G1 X90.608 Y34.020 E8.34904
G1 X89.930 Y34.308 E8.38574
G1 X89.235 Y34.553 E8.42244
G1 X88.526 Y34.754 E8.45913
G1 X87.952 Y34.883 E8.48839
G1 X87.076 Y35.021 E8.53255
G1 X86.342 Y35.086 E8.56926
G1 X85.605 Y35.104 E8.60595
G1 X84.868 Y35.077 E8.64267
G1 X84.284 Y35.021 E8.67191
G1 X83.408 Y34.883 E8.71607
G1 X82.689 Y34.717 E8.75277
G1 X81.983 Y34.507 E8.78948
G1 X81.430 Y34.308 E8.81873
G1 X80.752 Y34.020 E8.85543
G1 X80.093 Y33.689 E8.89213
G1 X79.329 Y33.238 E8.93628
G1 X78.716 Y32.815 E8.97336
G1 X78.142 Y32.364 E9.00970
G1 X77.702 Y31.975 E9.03895
G1 X77.177 Y31.457 E9.07565
G1 X76.591 Y30.792 E9.11981
G1 X76.143 Y30.207 E9.15652
G1 X75.812 Y29.721 E9.18577
G1 X75.433 Y29.089 E9.22247
G1 X75.094 Y28.434 E9.25917
G1 X74.742 Y27.620 E9.30333
G1 X74.497 Y26.925 E9.34004
G1 X74.333 Y26.361 E9.36929
G1 X74.167 Y25.642 E9.40598
G1 X74.047 Y24.915 E9.44271
G1 X73.964 Y24.032 E9.48685
G1 X73.946 Y23.295 E9.52356
G1 X73.964 Y22.708 E9.55281
G1 X74.029 Y21.974 E9.58950
G1 X74.139 Y21.245 E9.62622
G1 X74.318 Y20.437 E9.66738
G1 E3.66738 F1800.00000
G92 E0
G1 X89.765 Y30.445 F9000.000
G1 E6.00000 F1800.00000
G1 X81.595 Y30.445 E6.40678 F600.000
G1 X77.510 Y23.370 E6.81356
G1 X81.595 Y16.294 E7.22034
G1 X89.765 Y16.294 E7.62712
G1 X93.850 Y23.370 E8.03390
G1 X89.795 Y30.394 E8.43769
G1 X89.542 Y30.060 F9000.000
G1 X81.818 Y30.060 E8.82231 F600.000
G1 X77.955 Y23.370 E9.20692
G1 X81.818 Y16.680 E9.59153
G1 X89.542 Y16.680 E9.97614
G1 X93.405 Y23.370 E10.36075
G1 X89.572 Y30.008 E10.74237
G1 X89.473 Y30.454 F9000.000
G1 X90.057 Y30.930 F9000.000
G1 X89.401 Y31.277 E10.77933 F600.000
G1 X88.897 Y31.495 E10.80666
G1 X88.381 Y31.681 E10.83400
G1 X87.853 Y31.835 E10.86133
G1 X87.318 Y31.954 E10.88867
G1 X86.775 Y32.040 E10.91600
G1 X86.229 Y32.092 E10.94334
G1 X85.680 Y32.109 E10.97067
G1 X85.131 Y32.092 E10.99800
G1 X84.585 Y32.040 E11.02534
G1 X84.042 Y31.954 E11.05267
G1 X83.507 Y31.835 E11.08001
G1 X82.979 Y31.681 E11.10734
G1 X82.463 Y31.495 E11.13467
G1 X81.959 Y31.277 E11.16201
G1 X81.470 Y31.028 E11.18934
G1 X80.997 Y30.749 E11.21668
G1 X80.543 Y30.440 E11.24401
G1 X80.110 Y30.104 E11.27135
G1 X79.698 Y29.741 E11.29868
G1 X79.315 Y29.357 E11.32566
G1 X78.946 Y28.940 E11.35336
G1 X78.610 Y28.507 E11.38068
G1 X78.301 Y28.053 E11.40802
G1 X78.022 Y27.580 E11.43535
G1 X77.773 Y27.091 E11.46269
G1 X77.555 Y26.587 E11.49002
G1 X77.369 Y26.071 E11.51735
G1 X77.215 Y25.543 E11.54469
G1 X77.096 Y25.008 E11.57202
G1 X77.010 Y24.465 E11.59936
G1 X76.958 Y23.919 E11.62669
G1 X76.941 Y23.370 E11.65403
G1 X76.958 Y22.821 E11.68136
G1 X77.009 Y22.282 E11.70834
G1 X77.096 Y21.732 E11.73604
G1 X77.215 Y21.197 E11.76336
G1 X77.369 Y20.669 E11.79070
G1 X77.555 Y20.153 E11.81803
G1 X77.770 Y19.656 E11.84501
G1 X78.022 Y19.160 E11.87271
G1 X78.301 Y18.687 E11.90003
G1 X78.610 Y18.233 E11.92737
G1 X78.946 Y17.800 E11.95470
G1 X79.309 Y17.388 E11.98204
G1 X79.698 Y16.999 E12.00937
G1 X80.110 Y16.636 E12.03670
G1 X80.543 Y16.300 E12.06404
G1 X80.997 Y15.991 E12.09137
G1 X81.470 Y15.712 E12.11871
G1 X81.959 Y15.463 E12.14604
G1 X82.463 Y15.245 E12.17336
G1 X82.986 Y15.057 E12.20106
G1 X83.507 Y14.905 E12.22804
G1 X84.042 Y14.786 E12.25538
G1 X84.585 Y14.700 E12.28271
G1 X85.131 Y14.648 E12.31003
G1 X85.687 Y14.631 E12.33773
G1 X86.229 Y14.648 E12.36471
G1 X86.775 Y14.700 E12.39205 F600.000
G1 X87.318 Y14.786 E12.41938
G1 X87.853 Y14.905 E12.44671
G1 X88.387 Y15.061 E12.47440
G1 X88.897 Y15.245 E12.50138
G1 X89.401 Y15.463 E12.52871
G1 X89.896 Y15.715 E12.55641
G1 X90.363 Y15.991 E12.58339
G1 X90.817 Y16.300 E12.61072
G1 X91.250 Y16.636 E12.63806
G1 X91.662 Y16.999 E12.66539
G1 X92.051 Y17.388 E12.69272
G1 X92.414 Y17.799 E12.72006
G1 X92.750 Y18.233 E12.74739
G1 X93.059 Y18.687 E12.77473
G1 X93.338 Y19.160 E12.80206
G1 X93.587 Y19.649 E12.82940
G1 X93.805 Y20.153 E12.85673
G1 X93.991 Y20.669 E12.88406
G1 X94.145 Y21.197 E12.91140
G1 X94.264 Y21.732 E12.93873
G1 X94.350 Y22.275 E12.96607
G1 X94.402 Y22.821 E12.99340
G1 X94.419 Y23.370 E13.02074
G1 X94.402 Y23.919 E13.04807
G1 X94.350 Y24.465 E13.07540
G1 X94.264 Y25.008 E13.10274
G1 X94.145 Y25.543 E13.13007
G1 X93.991 Y26.071 E13.15741
G1 X93.805 Y26.587 E13.18474
G1 X93.587 Y27.091 E13.21208
G1 X93.341 Y27.574 E13.23906
G1 X93.059 Y28.053 E13.26675
G1 X92.750 Y28.507 E13.29408
G1 X92.414 Y28.940 E13.32141
G1 X92.051 Y29.352 E13.34875
G1 X91.662 Y29.741 E13.37608
G1 X91.250 Y30.104 E13.40341
G1 X90.817 Y30.440 E13.43075
G1 X90.108 Y30.899 E13.47277
G1 X90.253 Y31.261 F9000.000
G1 X89.565 Y31.626 E13.51154 F600.000
G1 X89.039 Y31.854 E13.54008
G1 X88.500 Y32.048 E13.56862
G1 X87.949 Y32.208 E13.59716
G1 X87.390 Y32.333 E13.62570
G1 X86.824 Y32.423 E13.65425
G1 X86.253 Y32.477 E13.68279
G1 X85.680 Y32.495 E13.71133
G1 X85.107 Y32.477 E13.73987
G1 X84.536 Y32.423 E13.76841
G1 X83.970 Y32.333 E13.79695
G1 X83.411 Y32.208 E13.82549
G1 X82.860 Y32.048 E13.85403
G1 X82.321 Y31.854 E13.88257
G1 X81.795 Y31.626 E13.91111
G1 X81.284 Y31.366 E13.93966
G1 X80.791 Y31.074 E13.96820
G1 X80.317 Y30.752 E13.99674
G1 X79.864 Y30.401 E14.02528
G1 X79.434 Y30.022 E14.05382
G1 X79.033 Y29.622 E14.08200
G1 X78.649 Y29.186 E14.11091
G1 X78.298 Y28.733 E14.13944
G1 X77.976 Y28.259 E14.16798
G1 X77.684 Y27.766 E14.19652
G1 X77.424 Y27.255 E14.22507
G1 X77.196 Y26.729 E14.25361
G1 X77.002 Y26.190 E14.28215
G1 X76.842 Y25.639 E14.31069
G1 X76.717 Y25.080 E14.33923
G1 X76.627 Y24.514 E14.36777
G1 X76.573 Y23.943 E14.39631
G1 X76.555 Y23.370 E14.42485
G1 X76.573 Y22.797 E14.45339
G1 X76.626 Y22.234 E14.48157
G1 X76.717 Y21.660 E14.51048
G1 X76.842 Y21.101 E14.53902
G1 X77.002 Y20.550 E14.56756
G1 X77.196 Y20.011 E14.59610
G1 X77.421 Y19.491 E14.62428
G1 X77.684 Y18.974 E14.65318
G1 X77.976 Y18.481 E14.68172
G1 X78.298 Y18.007 E14.71026
G1 X78.649 Y17.554 E14.73880
G1 X79.028 Y17.124 E14.76734
G1 X79.434 Y16.718 E14.79588
G1 X79.864 Y16.339 E14.82443
G1 X80.317 Y15.988 E14.85297
G1 X80.791 Y15.666 E14.88151
G1 X81.284 Y15.374 E14.91005
G1 X81.795 Y15.114 E14.93859
G1 X82.321 Y14.886 E14.96713
G1 X82.867 Y14.690 E14.99603
G1 X83.411 Y14.532 E15.02421
G1 X83.970 Y14.407 E15.05275
G1 X84.536 Y14.317 E15.08129
G1 X85.107 Y14.263 E15.10983
G1 X85.687 Y14.245 E15.13874
G1 X86.253 Y14.263 E15.16692
G1 X86.824 Y14.317 E15.19546 F600.000
G1 X87.390 Y14.407 E15.22400
G1 X87.949 Y14.532 E15.25253
G1 X88.507 Y14.694 E15.28144
G1 X89.039 Y14.886 E15.30962
G1 X89.565 Y15.114 E15.33816
G1 X90.082 Y15.377 E15.36706
G1 X90.569 Y15.666 E15.39524
G1 X91.043 Y15.988 E15.42378
G1 X91.496 Y16.339 E15.45232
G1 X91.926 Y16.718 E15.48087
G1 X92.332 Y17.124 E15.50941
G1 X92.711 Y17.554 E15.53795
G1 X93.062 Y18.007 E15.56649
G1 X93.384 Y18.481 E15.59503
G1 X93.676 Y18.974 E15.62357
G1 X93.936 Y19.485 E15.65211
G1 X94.164 Y20.011 E15.68065
G1 X94.358 Y20.550 E15.70919
G1 X94.518 Y21.101 E15.73774
G1 X94.643 Y21.660 E15.76628
G1 X94.733 Y22.226 E15.79482
G1 X94.787 Y22.797 E15.82336
G1 X94.805 Y23.370 E15.85190
G1 X94.787 Y23.943 E15.88044
G1 X94.733 Y24.514 E15.90898
G1 X94.643 Y25.080 E15.93752
G1 X94.518 Y25.639 E15.96606
G1 X94.358 Y26.190 E15.99460
G1 X94.164 Y26.729 E16.02314
G1 X93.936 Y27.255 E16.05169
G1 X93.679 Y27.759 E16.07987
G1 X93.384 Y28.259 E16.10877
G1 X93.062 Y28.733 E16.13731
G1 X92.711 Y29.186 E16.16585
G1 X92.332 Y29.616 E16.19439
G1 X91.926 Y30.022 E16.22293
G1 X91.496 Y30.401 E16.25147
G1 X91.043 Y30.752 E16.28001
G1 X90.569 Y31.074 E16.30855
G1 X90.305 Y31.231 E16.32387
G1 X89.911 Y31.054 F9000.000
G1 X90.423 Y30.180 F9000.000
G1 X89.946 Y30.678 E16.35822 F600.000
G1 X89.876 Y30.719 E16.36221
G1 X89.205 Y30.885 E16.39666
G1 X88.904 Y30.940 F9000.000
G1 X88.693 Y30.729 E16.41152 F600.000
G1 X88.147 Y30.729 E16.43875
G1 X88.705 Y31.287 E16.47809
G1 X88.301 Y31.429 E16.49945
G1 X87.601 Y30.729 E16.54882
G1 X87.055 Y30.729 E16.57605
G1 X87.878 Y31.552 E16.63409
G1 X87.433 Y31.654 E16.65683
G1 X86.509 Y30.729 E16.72203
G1 X85.963 Y30.729 E16.74927
G1 X86.968 Y31.734 E16.82014
G1 X86.478 Y31.791 E16.84473
G1 X85.416 Y30.729 E16.91958
G1 X84.870 Y30.729 E16.94682
G1 X85.960 Y31.819 E17.02366
G1 X85.409 Y31.814 E17.05114
G1 X84.324 Y30.729 E17.12763
G1 X83.778 Y30.729 E17.15487
G1 X84.817 Y31.769 E17.22819
G1 X84.175 Y31.673 E17.26058
G1 X83.232 Y30.729 E17.32712
G1 X82.685 Y30.729 E17.35435
G1 X83.452 Y31.496 E17.40842
G1 X82.622 Y31.212 F9000.000
G1 X82.404 Y30.994 E17.42384 F600.000
G1 X82.155 Y30.885 F9000.000
G1 X81.484 Y30.719 E17.45828 F600.000
G1 X81.414 Y30.678 E17.46228
G1 X80.937 Y30.180 E17.49663
G1 X80.055 Y28.449 F9000.000
G1 X77.721 Y26.115 E17.66282 F600.000
G1 X77.477 Y25.319 F9000.000
G1 X79.301 Y27.144 E17.79278 F600.000
G1 X78.141 Y27.087 F9000.000
G1 X80.808 Y29.754 E17.98274 F600.000
G1 X80.269 Y29.766 E18.00991
G1 X79.286 Y28.783 E18.07991
G1 X78.548 Y25.839 F9000.000
G1 X77.337 Y24.628 E18.16616 F600.000
G1 X77.560 Y24.300 E18.18615
G1 X77.795 Y24.535 E18.20284
G1 X77.404 Y24.069 F9000.000
G1 X77.211 Y23.370 E18.23898 F600.000
G1 X77.404 Y22.671 E18.27511
G1 X77.512 Y22.380 F9000.000
G1 X77.302 Y22.170 E18.29086 F600.000
G1 X77.384 Y21.671 E18.31765
G1 X77.900 Y22.187 E18.35631
G1 X78.112 Y21.819 E18.37883
G1 X77.491 Y21.197 E18.42543
G1 X77.621 Y20.747 E18.45025
G1 X78.325 Y21.451 E18.50299
G1 X78.537 Y21.083 E18.52551
G1 X77.773 Y20.318 E18.58282
G1 X77.942 Y19.907 E18.60638
G1 X78.750 Y20.715 E18.66691
G1 X78.962 Y20.347 E18.68942
G1 X78.129 Y19.513 E18.75188
G1 X78.331 Y19.135 E18.77461
G1 X79.175 Y19.979 E18.83783
G1 X79.387 Y19.611 E18.86035
G1 X78.548 Y18.772 E18.92321
G1 X78.783 Y18.426 E18.94535
G1 X79.600 Y19.243 E19.00653
G1 X79.812 Y18.875 E19.02905
G1 X79.034 Y18.096 E19.08739
G1 X79.298 Y17.781 E19.10923
G1 X80.025 Y18.507 E19.16366
G1 X80.237 Y18.139 E19.18618
G1 X79.589 Y17.490 E19.23478
G1 X79.879 Y17.200 E19.25653
G1 X80.449 Y17.771 E19.29930
G1 X80.662 Y17.403 E19.32182
G1 X80.173 Y16.914 E19.35846
G1 X80.495 Y16.655 E19.38034
G1 X80.874 Y17.035 E19.40880
G1 X80.937 Y16.560 F9000.000
G1 X81.414 Y16.062 E19.44315 F600.000
G1 X81.484 Y16.021 E19.44714
G1 X82.155 Y15.855 E19.48159
G1 X82.667 Y16.011 F9000.000
G1 X82.456 Y15.800 E19.49645 F600.000
G1 X82.655 Y15.453 E19.51640
G1 X83.213 Y16.011 E19.55573
G1 X83.759 Y16.011 E19.58297
G1 X83.059 Y15.311 E19.63234
G1 X83.482 Y15.188 E19.65431
G1 X84.305 Y16.011 E19.71235
G1 X84.851 Y16.011 E19.73959
G1 X83.927 Y15.086 E19.80479
G1 X84.392 Y15.006 E19.82836
G1 X85.397 Y16.011 E19.89923
G1 X85.944 Y16.011 E19.92647
G1 X84.882 Y14.949 E20.00132
G1 X85.401 Y14.921 E20.02719
G1 X86.490 Y16.011 E20.10402
G1 X87.036 Y16.011 E20.13125
G1 X85.951 Y14.926 E20.20775
G1 X86.543 Y14.971 E20.23731
G1 X87.582 Y16.011 E20.31064
G1 X88.128 Y16.011 E20.33787
G1 X87.185 Y15.067 E20.40441
G1 X87.908 Y15.244 E20.44155
G1 X88.675 Y16.011 E20.49559
G1 X88.738 Y15.528 E20.51989
G1 X88.956 Y15.746 E20.53530
G1 X89.205 Y15.855 F9000.000
G1 X89.876 Y16.021 E20.56975 F600.000
G1 X89.946 Y16.062 E20.57374
G1 X90.423 Y16.560 E20.60810
G1 X91.305 Y18.291 F9000.000
G1 X93.639 Y20.625 E20.77429 F600.000
G1 X92.812 Y20.901 F9000.000
G1 X94.023 Y22.112 E20.86054 F600.000
G1 X93.883 Y21.421 E20.89604
G1 X92.059 Y19.596 E21.02599
G1 X93.219 Y19.653 F9000.000
G1 X90.552 Y16.986 E21.21596 F600.000
G1 X91.091 Y16.974 E21.24313
G1 X92.076 Y17.959 E21.31328
G1 X93.565 Y22.205 F9000.000
G1 X93.800 Y22.440 E21.32997 F600.000
G1 X93.956 Y22.671 F9000.000
G1 X94.149 Y23.370 E21.36611 F600.000
G1 X93.956 Y24.069 E21.40225
G1 X94.058 Y24.571 F9000.000
G1 X93.848 Y24.360 E21.41800 F600.000
G1 X93.460 Y24.553 E21.44095
G1 X93.976 Y25.069 E21.47961
G1 X93.869 Y25.543 E21.50535
G1 X93.248 Y24.921 E21.55195
G1 X93.035 Y25.289 E21.57447
G1 X93.739 Y25.993 E21.62721
G1 X93.588 Y26.422 E21.65132
G1 X92.823 Y25.657 E21.70864
G1 X92.610 Y26.025 E21.73116
G1 X93.418 Y26.833 E21.79169
G1 X93.231 Y27.227 E21.81479
G1 X92.398 Y26.393 E21.87726
G1 X92.185 Y26.761 E21.89978
G1 X93.029 Y27.604 E21.96299
G1 X92.812 Y27.968 E21.98542
G1 X91.973 Y27.129 E22.04828
G1 X91.760 Y27.497 E22.07080
G1 X92.577 Y28.313 E22.13198
G1 X92.326 Y28.644 E22.15394
G1 X91.548 Y27.865 E22.21228
G1 X91.335 Y28.233 E22.23480
G1 X92.062 Y28.959 E22.28923
G1 X91.772 Y29.250 E22.31099
G1 X91.123 Y28.601 E22.35959
G1 X90.911 Y28.969 E22.38211
G1 X91.481 Y29.540 E22.42488
G1 X91.187 Y29.826 E22.44663
G1 X90.698 Y29.337 E22.48328
G1 X90.486 Y29.705 E22.50580
G1 X90.865 Y30.085 E22.53426
M104 S199 ; set temperature
M140 S55 ; wait for bed temperature to be reached
;Layer change
G1 E16.53426 F1800.00000
G92 E0
G1 Z0.520 F9000.000
G1 X89.795 Y30.497 F9000.000
G1 E6.00000 F1800.00000
G1 X81.565 Y30.497 E6.44507 F2566.248
G1 X77.451 Y23.370 E6.89015
G1 X81.565 Y16.243 E7.33522
G1 X89.795 Y16.243 E7.78029
G1 X93.909 Y23.370 E8.22537
G1 X89.825 Y30.445 E8.66719
G1 X89.528 Y30.035 F9000.000
G1 X81.832 Y30.035 E8.92426 F1539.749
G1 X77.984 Y23.370 E9.18133
G1 X81.832 Y16.705 E9.43840
G1 X89.528 Y16.705 E9.69547
G1 X93.376 Y23.370 E9.95254
G1 X89.558 Y29.983 E10.20761
G1 X89.459 Y30.429 F9000.000
G1 X90.031 Y30.885 F9000.000
G1 X89.379 Y31.231 E10.24751 F2566.248
G1 X88.878 Y31.448 E10.27703
G1 X88.365 Y31.632 E10.30655
G1 X87.841 Y31.785 E10.33606
G1 X87.308 Y31.904 E10.36558
G1 X86.769 Y31.989 E10.39510
G1 X86.226 Y32.041 E10.42461
G1 X85.680 Y32.058 E10.45413
G1 X85.134 Y32.041 E10.48365
