; generated by Slic3r 1.2.9 on 2017-07-28 at 15:27:43

; external perimeters extrusion width = 0.40mm
; perimeters extrusion width = 0.62mm
; infill extrusion width = 0.33mm
; solid infill extrusion width = 0.62mm
; top infill extrusion width = 0.20mm

M106 S256; Turn on fan to 100% power
M104 S140; turn on extruder temperature at S value
M140 S60; turn on bed temperature at S value
G28; home all axes
M84; disable motors
G1 Z15 F15000; have Z move to 20mm at 15000 mm/min
M190 S55; turn on bed temperature at S value and wait
M140 S55; turn on bed temperature at S value (printing temperature)
M109 S200; turn on extruder temperature at S value and wait (printing temperature)
M104 S200; turn on extruder temperature at S value
G1 Z0 F12000; move Z back to home
G21 ; set units to millimeters
G90 ; use absolute coordinates
M82 ; use absolute distances for extrusion
G92 E0
M106 S255
;Layer change
G1 E-6.00000 F1800.00000
G92 E0
G1 Z0.300 F9000.000
G1 X70.412 Y28.630 F9000.000
G1 E6.00000 F1800.00000
G1 X70.573 Y28.289 E6.01876 F600.000
G1 X70.915 Y27.714 E6.05210
G1 X71.335 Y27.176 E6.08608
G1 X71.815 Y26.699 E6.11973
G1 X72.046 Y26.508 E6.13465
G1 X72.603 Y26.127 E6.16830
G1 X73.210 Y25.815 E6.20225
G1 X73.840 Y25.586 E6.23561
G1 X74.205 Y25.492 E6.25438
G1 X74.873 Y25.389 E6.28803
G1 X75.172 Y25.370 E6.30295
G1 X75.847 Y25.389 E6.33660
G1 X76.515 Y25.492 E6.37025 F600.000
G1 X76.880 Y25.586 E6.38902
G1 X77.516 Y25.817 E6.42268
G1 X78.117 Y26.126 E6.45634
G1 X78.370 Y26.287 E6.47125
G1 X78.905 Y26.699 E6.50491
G1 X79.180 Y26.957 E6.52367
G1 X79.621 Y27.461 E6.55701
G1 X80.003 Y28.027 E6.59100
G1 X80.308 Y28.630 E6.62464
G1 X80.418 Y28.908 E6.63955
G1 X80.609 Y29.557 E6.67321
G1 X80.680 Y29.927 E6.69197
G1 X80.741 Y30.600 E6.72563
G1 X80.717 Y31.276 E6.75929
G1 X80.609 Y31.943 E6.79294
G1 X80.535 Y32.233 E6.80786
G1 X80.308 Y32.870 E6.84151
G1 X80.003 Y33.474 E6.87517
G1 X79.801 Y33.792 E6.89395
G1 X79.385 Y34.324 E6.92759
G1 X78.905 Y34.801 E6.96125
G1 X78.674 Y34.992 E6.97616
G1 X78.117 Y35.373 E7.00982
G1 X77.516 Y35.683 E7.04347
G1 X77.165 Y35.821 E7.06223
G1 X76.515 Y36.008 E7.09589
G1 X75.847 Y36.111 E7.12955
G1 X75.548 Y36.130 E7.14447
G1 X74.873 Y36.111 E7.17812
G1 X74.499 Y36.064 E7.19688
G1 X73.840 Y35.914 E7.23054
G1 X73.204 Y35.683 E7.26420
G1 X72.933 Y35.555 E7.27911
G1 X72.351 Y35.213 E7.31275
G1 X71.815 Y34.801 E7.34643
G1 X71.540 Y34.543 E7.36519
G1 X71.099 Y34.039 E7.39853
G1 X70.717 Y33.474 E7.43250
G1 X70.412 Y32.870 E7.46616
G1 X70.187 Y32.239 E7.49950
G1 X70.111 Y31.943 E7.51473
G1 X70.040 Y31.573 E7.53349
G1 X69.979 Y30.906 E7.56683
G1 X70.003 Y30.224 E7.60081
G1 X70.111 Y29.556 E7.63448
G1 X70.185 Y29.267 E7.64937
G1 X70.390 Y28.686 E7.68005
G1 E1.68005 F1800.00000
G92 E0
G1 X77.280 Y31.510 F9000.000
G1 E6.00000 F1800.00000
G1 X77.040 Y31.947 E6.02481 F600.000
G1 X76.863 Y32.161 E6.03866
G1 X76.660 Y32.352 E6.05252
G1 X76.239 Y32.619 E6.07733
G1 X75.766 Y32.773 E6.10214
G1 X75.470 Y32.810 E6.11695
G1 X74.992 Y32.780 E6.14080
G1 X74.723 Y32.711 E6.15465
G1 X74.464 Y32.608 E6.16850
G1 X74.060 Y32.352 E6.19235
G1 X73.843 Y32.148 E6.20716
G1 X73.561 Y31.761 E6.23100
G1 X73.435 Y31.492 E6.24582
G1 X73.311 Y31.009 E6.27063
G1 X73.311 Y30.491 E6.29641
G1 X73.440 Y29.990 E6.32219
G1 X73.680 Y29.553 E6.34700
G1 X73.857 Y29.339 E6.36085
G1 X74.060 Y29.148 E6.37470
G1 X74.481 Y28.881 E6.39951
G1 X74.955 Y28.727 E6.42433
G1 X75.250 Y28.690 E6.43914 F600.000
G1 X75.747 Y28.721 E6.46395
G1 X76.239 Y28.881 E6.48973
G1 X76.660 Y29.148 E6.51454
G1 X76.877 Y29.352 E6.52935
G1 X77.159 Y29.739 E6.55320
G1 X77.285 Y30.008 E6.56801
G1 X77.404 Y30.472 E6.59186
G1 X77.422 Y30.750 E6.60571
G1 X77.404 Y31.028 E6.61956
G1 X77.295 Y31.452 E6.64139
G1 X76.919 Y31.367 F9000.000
G1 X76.720 Y31.729 E6.66196 F600.000
G1 X76.581 Y31.897 E6.67279
G1 X76.423 Y32.046 E6.68362
G1 X76.074 Y32.267 E6.70419
G1 X75.681 Y32.395 E6.72476
G1 X75.458 Y32.423 E6.73594
G1 X75.053 Y32.398 E6.75616
G1 X74.842 Y32.343 E6.76699
G1 X74.640 Y32.263 E6.77782
G1 X74.297 Y32.046 E6.79803
G1 X74.133 Y31.892 E6.80921
G1 X73.895 Y31.564 E6.82943
G1 X73.799 Y31.360 E6.84061
G1 X73.696 Y30.960 E6.86118
G1 X73.696 Y30.540 E6.88211
G1 X73.801 Y30.133 E6.90304
G1 X74.000 Y29.771 E6.92361
G1 X74.139 Y29.603 E6.93444
G1 X74.297 Y29.454 E6.94527
G1 X74.646 Y29.233 E6.96584
G1 X75.039 Y29.105 E6.98641
G1 X75.262 Y29.077 E6.99760 F600.000
G1 X75.674 Y29.103 E7.01817
G1 X76.074 Y29.233 E7.03909
G1 X76.423 Y29.454 E7.05966
G1 X76.587 Y29.608 E7.07085
G1 X76.825 Y29.936 E7.09106
G1 X76.921 Y30.140 E7.10225
G1 X77.022 Y30.533 E7.12246
G1 X77.035 Y30.750 E7.13329
G1 X77.022 Y30.967 E7.14412
G1 X76.934 Y31.309 E7.16170
G1 X77.154 Y31.691 F9000.000
G1 X77.561 Y31.670 F9000.000
G1 X77.453 Y31.901 E7.17441 F600.000
G1 X77.292 Y32.154 E7.18935
G1 X77.105 Y32.380 E7.20400
G1 X76.882 Y32.590 E7.21924
G1 X76.640 Y32.766 E7.23414
G1 X76.377 Y32.911 E7.24907
G1 X76.098 Y33.021 E7.26400
G1 X75.807 Y33.096 E7.27894
G1 X75.510 Y33.133 E7.29387
G1 X75.210 Y33.133 E7.30880
G1 X74.913 Y33.096 E7.32373
G1 X74.622 Y33.021 E7.33866
G1 X74.343 Y32.911 E7.35360
G1 X74.080 Y32.766 E7.36853
G1 X73.838 Y32.590 E7.38346
G1 X73.619 Y32.385 E7.39839
G1 X73.432 Y32.158 E7.41304
G1 X73.267 Y31.900 E7.42829
G1 X73.140 Y31.629 E7.44319
G1 X73.047 Y31.344 E7.45812
G1 X72.991 Y31.049 E7.47305
G1 X72.972 Y30.756 E7.48770
G1 X72.991 Y30.450 E7.50294
G1 X73.047 Y30.156 E7.51785
G1 X73.140 Y29.871 E7.53278
G1 X73.267 Y29.599 E7.54771
G1 X73.428 Y29.346 E7.56264
G1 X73.619 Y29.115 E7.57757
G1 X73.838 Y28.910 E7.59251
G1 X74.080 Y28.734 E7.60744
G1 X74.343 Y28.589 E7.62237
G1 X74.622 Y28.479 E7.63730
G1 X74.913 Y28.404 E7.65223
G1 X75.209 Y28.367 E7.66714
G1 X75.516 Y28.367 E7.68238
G1 X75.807 Y28.404 E7.69703 F600.000
G1 X76.098 Y28.479 E7.71196
G1 X76.377 Y28.589 E7.72689
G1 X76.640 Y28.734 E7.74183
G1 X76.882 Y28.910 E7.75676
G1 X77.101 Y29.115 E7.77169
G1 X77.292 Y29.346 E7.78662
G1 X77.453 Y29.599 E7.80155
G1 X77.580 Y29.871 E7.81649
G1 X77.673 Y30.156 E7.83142
G1 X77.729 Y30.451 E7.84635
G1 X77.748 Y30.750 E7.86128
G1 X77.729 Y31.049 E7.87622
G1 X77.673 Y31.344 E7.89115
G1 X77.585 Y31.615 E7.90532
G1 X77.910 Y31.834 F9000.000
G1 X77.791 Y32.087 E7.91923 F600.000
G1 X77.605 Y32.381 E7.93658
G1 X77.386 Y32.645 E7.95363
G1 X77.128 Y32.888 E7.97129
G1 X76.847 Y33.093 E7.98862
G1 X76.541 Y33.260 E8.00597
G1 X76.217 Y33.389 E8.02332
G1 X75.880 Y33.475 E8.04067
G1 X75.534 Y33.519 E8.05801
G1 X75.186 Y33.519 E8.07536
G1 X74.840 Y33.475 E8.09271
G1 X74.503 Y33.389 E8.11006
G1 X74.179 Y33.260 E8.12741
G1 X73.873 Y33.093 E8.14475
G1 X73.591 Y32.888 E8.16210
G1 X73.337 Y32.649 E8.17945
G1 X73.119 Y32.386 E8.19650
G1 X72.929 Y32.086 E8.21416
G1 X72.780 Y31.771 E8.23149
G1 X72.673 Y31.440 E8.24884
G1 X72.607 Y31.098 E8.26619
G1 X72.586 Y30.756 E8.28324
G1 X72.607 Y30.402 E8.30089
G1 X72.673 Y30.060 E8.31823
G1 X72.780 Y29.729 E8.33558
G1 X72.929 Y29.413 E8.35293
G1 X73.115 Y29.119 E8.37027
G1 X73.337 Y28.851 E8.38762
G1 X73.591 Y28.612 E8.40497
G1 X73.873 Y28.407 E8.42232
G1 X74.179 Y28.240 E8.43967
G1 X74.503 Y28.111 E8.45701
G1 X74.840 Y28.025 E8.47436
G1 X75.186 Y27.981 E8.49170
G1 X75.540 Y27.982 E8.50936
G1 X75.880 Y28.025 E8.52640 F600.000
G1 X76.217 Y28.111 E8.54375
G1 X76.541 Y28.240 E8.56110
G1 X76.847 Y28.407 E8.57845
G1 X77.129 Y28.612 E8.59580
G1 X77.383 Y28.851 E8.61314
G1 X77.605 Y29.119 E8.63049
G1 X77.791 Y29.413 E8.64784
G1 X77.940 Y29.729 E8.66519
G1 X78.047 Y30.060 E8.68254
G1 X78.113 Y30.402 E8.69988
G1 X78.135 Y30.750 E8.71723
G1 X78.113 Y31.098 E8.73458
G1 X78.047 Y31.440 E8.75193
G1 X77.936 Y31.779 E8.76972
G1 X77.633 Y31.867 F9000.000
M104 S199 ; set temperature
M140 S55 ; wait for bed temperature to be reached
;Layer change
G1 E2.76972 F1800.00000
G92 E0
G1 Z0.520 F9000.000
G1 X76.896 Y31.358 F9000.000
G1 E6.00000 F1800.00000
G1 X76.699 Y31.715 E6.01362 F300.000
G1 X76.563 Y31.880 E6.02075
G1 X76.407 Y32.026 E6.02789
G1 X76.063 Y32.244 E6.04150
G1 X75.684 Y32.368 E6.05482
G1 X75.458 Y32.398 E6.06244
G1 X75.057 Y32.373 E6.07587
G1 X74.850 Y32.320 E6.08300
G1 X74.651 Y32.241 E6.09013
G1 X74.313 Y32.026 E6.10354
G1 X74.152 Y31.875 E6.11088
G1 X73.913 Y31.546 E6.12450
G1 X73.762 Y31.166 E6.13814
G1 X73.721 Y30.942 E6.14576
G1 X73.721 Y30.543 E6.15908
G1 X73.823 Y30.148 E6.17271
G1 X73.921 Y29.942 E6.18034
G1 X74.152 Y29.624 E6.19345
G1 X74.313 Y29.474 E6.20079
G1 X74.657 Y29.256 E6.21440
G1 X75.036 Y29.132 E6.22772
G1 X75.262 Y29.102 E6.23535 F300.000
G1 X75.670 Y29.128 E6.24899
G1 X76.089 Y29.266 E6.26373
G1 X76.408 Y29.475 E6.27649
G1 X76.563 Y29.621 E6.28359
G1 X76.704 Y29.792 E6.29101
G1 X76.896 Y30.142 E6.30433
G1 X76.997 Y30.537 E6.31794
G1 X77.010 Y30.750 E6.32508
G1 X76.997 Y30.963 E6.33221
G1 X76.911 Y31.300 E6.34382
G1 X77.131 Y31.682 F9000.000
G1 X77.932 Y31.846 F9000.000
G1 X77.813 Y32.099 E6.35316 F300.000
G1 X77.625 Y32.396 E6.36490
G1 X77.401 Y32.666 E6.37665
G1 X77.145 Y32.907 E6.38839
G1 X76.860 Y33.114 E6.40013
G1 X76.552 Y33.283 E6.41188
G1 X76.225 Y33.413 E6.42362
G1 X75.885 Y33.500 E6.43537
G1 X75.536 Y33.544 E6.44711
G1 X75.184 Y33.544 E6.45885
G1 X74.835 Y33.500 E6.47060
G1 X74.495 Y33.413 E6.48234
G1 X74.168 Y33.283 E6.49408
G1 X73.860 Y33.114 E6.50583
G1 X73.575 Y32.907 E6.51757
G1 X73.319 Y32.666 E6.52932
G1 X73.106 Y32.408 E6.54050
G1 X72.906 Y32.098 E6.55282
G1 X72.757 Y31.781 E6.56454
G1 X72.648 Y31.446 E6.57629
G1 X72.582 Y31.101 E6.58803
G1 X72.561 Y30.767 E6.59922
G1 X72.583 Y30.399 E6.61153
G1 X72.648 Y30.054 E6.62326
G1 X72.757 Y29.719 E6.63500
G1 X72.907 Y29.401 E6.64675
G1 X73.095 Y29.104 E6.65849
G1 X73.319 Y28.834 E6.67023
G1 X73.575 Y28.593 E6.68198
G1 X73.860 Y28.386 E6.69372
G1 X74.168 Y28.217 E6.70546
G1 X74.495 Y28.087 E6.71721
G1 X74.835 Y28.000 E6.72895
G1 X75.184 Y27.956 E6.74068
G1 X75.552 Y27.958 E6.75299
G1 X75.885 Y28.000 E6.76418 F300.000
G1 X76.225 Y28.087 E6.77592
G1 X76.552 Y28.217 E6.78767
G1 X76.860 Y28.386 E6.79941
G1 X77.145 Y28.593 E6.81115
G1 X77.401 Y28.834 E6.82290
G1 X77.625 Y29.104 E6.83464
G1 X77.813 Y29.401 E6.84639
G1 X77.963 Y29.719 E6.85813
G1 X78.072 Y30.054 E6.86987
G1 X78.138 Y30.399 E6.88162
G1 X78.159 Y30.733 E6.89281
G1 X78.137 Y31.101 E6.90512
G1 X78.072 Y31.446 E6.91684
G1 X77.958 Y31.792 E6.92899
G1 X77.655 Y31.879 F9000.000
G1 X77.414 Y31.602 F9000.000
G1 X77.191 Y32.010 E6.98142 F521.358
G1 X76.982 Y32.273 E7.01922
G1 X76.733 Y32.498 E7.05702
G1 X76.308 Y32.764 E7.11351
G1 X75.842 Y32.919 E7.16883
G1 X75.511 Y32.969 E7.20656
G1 X74.943 Y32.936 E7.27059
G1 X74.673 Y32.866 E7.30206
G1 X74.363 Y32.736 E7.33987
G1 X73.987 Y32.498 E7.38998
G1 X73.738 Y32.273 E7.42779
G1 X73.574 Y32.066 E7.45753
G1 X73.391 Y31.784 E7.49544
G1 X73.205 Y31.303 E7.55346
G1 X73.148 Y30.962 E7.59242
G1 X73.152 Y30.469 E7.64798 F521.358
G1 X73.291 Y29.931 E7.71058
G1 X73.413 Y29.675 E7.74247
G1 X73.565 Y29.446 E7.77348
G1 X73.738 Y29.227 E7.80491
G1 X73.942 Y29.036 E7.83638
G1 X74.412 Y28.736 E7.89922
G1 X74.878 Y28.581 E7.95454
G1 X75.218 Y28.530 E7.99326
G1 X75.777 Y28.563 E8.05633
G1 X76.308 Y28.736 E8.11919
G1 X76.739 Y29.007 E8.17656
G1 X76.998 Y29.246 E8.21623
G1 X77.162 Y29.446 E8.24534
G1 X77.304 Y29.681 E8.27636
G1 X77.430 Y29.931 E8.30780
G1 X77.567 Y30.471 E8.37064
G1 X77.584 Y30.735 E8.40041
G1 X77.567 Y31.031 E8.43381
G1 X77.437 Y31.547 E8.49371
;Layer change
G1 E2.49371 F1800.00000
G92 E0
G1 Z0.740 F9000.000
G1 X76.895 Y31.357 F9000.000
G1 E6.00000 F1800.00000
G1 X76.804 Y31.551 E6.00714 F300.000
G1 X76.568 Y31.875 E6.02054
G1 X76.407 Y32.026 E6.02789
G1 X76.063 Y32.244 E6.04150
G1 X75.676 Y32.370 E6.05512
G1 X75.457 Y32.398 E6.06247
G1 X75.057 Y32.373 E6.07587
G1 X74.850 Y32.320 E6.08300
G1 X74.651 Y32.241 E6.09014
G1 X74.312 Y32.026 E6.10357
G1 X74.144 Y31.865 E6.11135
G1 X73.916 Y31.550 E6.12432
G1 X73.819 Y31.339 E6.13209
G1 X73.721 Y30.957 E6.14526
G1 X73.721 Y30.543 E6.15908
G1 X73.824 Y30.142 E6.17291
G1 X74.021 Y29.785 E6.18652
G1 X74.157 Y29.620 E6.19366
G1 X74.313 Y29.474 E6.20079
G1 X74.657 Y29.256 E6.21441
G1 X75.044 Y29.130 E6.22802
G1 X75.263 Y29.102 E6.23537 F300.000
G1 X75.669 Y29.128 E6.24898
G1 X76.044 Y29.249 E6.26214
G1 X76.249 Y29.359 E6.26992
G1 X76.560 Y29.616 E6.28338
G1 X76.707 Y29.796 E6.29115
G1 X76.896 Y30.142 E6.30432
G1 X76.997 Y30.537 E6.31793
G1 X77.010 Y30.750 E6.32506
G1 X76.997 Y30.963 E6.33219
G1 X76.911 Y31.300 E6.34380
G1 X77.027 Y31.525 F9000.000
G1 X77.985 Y31.712 F9000.000
G1 X77.813 Y32.099 E6.35794 F300.000
G1 X77.625 Y32.396 E6.36969
G1 X77.401 Y32.666 E6.38143
G1 X77.145 Y32.907 E6.39318
G1 X76.860 Y33.114 E6.40492
G1 X76.552 Y33.283 E6.41666
G1 X76.225 Y33.413 E6.42841
G1 X75.885 Y33.500 E6.44015
G1 X75.536 Y33.544 E6.45189
G1 X75.184 Y33.544 E6.46364
G1 X74.835 Y33.500 E6.47538
G1 X74.495 Y33.413 E6.48713
G1 X74.168 Y33.283 E6.49887
G1 X73.860 Y33.114 E6.51061
G1 X73.575 Y32.907 E6.52236
G1 X73.319 Y32.666 E6.53410
G1 X73.111 Y32.415 E6.54499
G1 X72.906 Y32.098 E6.55761
G1 X72.757 Y31.781 E6.56933
G1 X72.648 Y31.446 E6.58107
G1 X72.582 Y31.101 E6.59281
G1 X72.562 Y30.775 E6.60370
G1 X72.583 Y30.398 E6.61632
G1 X72.648 Y30.054 E6.62804
G1 X72.757 Y29.719 E6.63978
G1 X72.907 Y29.401 E6.65153
G1 X73.095 Y29.104 E6.66327
G1 X73.319 Y28.834 E6.67501
G1 X73.575 Y28.593 E6.68676
G1 X73.860 Y28.386 E6.69850
G1 X74.168 Y28.217 E6.71025
G1 X74.495 Y28.087 E6.72199
G1 X74.835 Y28.000 E6.73373
G1 X75.183 Y27.956 E6.74545
G1 X75.561 Y27.959 E6.75807
G1 X75.885 Y28.000 E6.76896 F300.000
G1 X76.225 Y28.087 E6.78070
G1 X76.552 Y28.217 E6.79245
G1 X76.860 Y28.386 E6.80419
G1 X77.145 Y28.593 E6.81593
G1 X77.401 Y28.834 E6.82768
G1 X77.625 Y29.104 E6.83942
G1 X77.813 Y29.401 E6.85117
G1 X77.963 Y29.719 E6.86291
G1 X78.072 Y30.054 E6.87465
G1 X78.138 Y30.399 E6.88640
G1 X78.160 Y30.750 E6.89814
G1 X78.138 Y31.101 E6.90988
G1 X78.072 Y31.446 E6.92163
G1 X78.004 Y31.655 E6.92895
G1 X77.589 Y31.768 F9000.000
G1 X77.442 Y31.529 F9000.000
G1 X77.310 Y31.822 E6.96511 F521.351
G1 X76.982 Y32.273 E7.02793
G1 X76.733 Y32.498 E7.06574
G1 X76.345 Y32.743 E7.11740
G1 X76.046 Y32.860 E7.15363
G1 X75.777 Y32.936 E7.18506
G1 X75.443 Y32.971 E7.22287
G1 X74.943 Y32.936 E7.27934
G1 X74.673 Y32.866 E7.31081
G1 X74.413 Y32.763 E7.34228
G1 X74.171 Y32.623 E7.37371
G1 X73.933 Y32.456 E7.40654
G1 X73.732 Y32.265 E7.43771
G1 X73.579 Y32.072 E7.46543
G1 X73.409 Y31.819 E7.49982
G1 X73.289 Y31.560 E7.53203
G1 X73.211 Y31.302 E7.56235
G1 X73.152 Y31.029 E7.59380
G1 X73.152 Y30.468 E7.65700
G1 X73.290 Y29.931 E7.71949 F521.351
G1 X73.416 Y29.681 E7.75094
G1 X73.560 Y29.442 E7.78237
G1 X73.724 Y29.243 E7.81142
G1 X73.987 Y29.002 E7.85162
G1 X74.412 Y28.736 E7.90811
G1 X74.943 Y28.564 E7.97094
G1 X75.277 Y28.529 E8.00874
G1 X75.777 Y28.564 E8.06522
G1 X76.298 Y28.733 E8.12694
G1 X76.597 Y28.903 E8.16565
G1 X76.982 Y29.227 E8.22232
G1 X77.165 Y29.451 E8.25490
G1 X77.304 Y29.681 E8.28521
G1 X77.430 Y29.931 E8.31666
G1 X77.567 Y30.471 E8.37949
G1 X77.585 Y30.750 E8.41096
G1 X77.567 Y31.029 E8.44243
G1 X77.459 Y31.472 E8.49380
;Layer change
G1 E2.49380 F1800.00000
G92 E0
G1 Z0.960 F9000.000
G1 X76.896 Y31.358 F9000.000
G1 E6.00000 F1800.00000
G1 X76.699 Y31.715 E6.01362 F300.000
G1 X76.563 Y31.880 E6.02075
G1 X76.407 Y32.026 E6.02789
G1 X76.063 Y32.244 E6.04150
G1 X75.676 Y32.370 E6.05512
G1 X75.457 Y32.398 E6.06246
G1 X75.057 Y32.373 E6.07587
G1 X74.850 Y32.320 E6.08300
G1 X74.651 Y32.241 E6.09014
G1 X74.312 Y32.025 E6.10358
G1 X74.140 Y31.861 E6.11150
G1 X73.916 Y31.551 E6.12430
G1 X73.823 Y31.352 E6.13163
G1 X73.721 Y30.957 E6.14525
G1 X73.721 Y30.543 E6.15908
G1 X73.823 Y30.147 E6.17273
G1 X73.926 Y29.933 E6.18066
G1 X74.153 Y29.624 E6.19345
G1 X74.313 Y29.474 E6.20079
G1 X74.657 Y29.256 E6.21440
G1 X75.044 Y29.130 E6.22802
G1 X75.263 Y29.102 E6.23536 F300.000
G1 X75.669 Y29.128 E6.24897
G1 X76.040 Y29.247 E6.26198
G1 X76.249 Y29.359 E6.26990
G1 X76.560 Y29.616 E6.28338
G1 X76.709 Y29.801 E6.29131
G1 X76.896 Y30.142 E6.30431
G1 X76.997 Y30.537 E6.31792
G1 X77.010 Y30.750 E6.32505
G1 X76.997 Y30.963 E6.33219
G1 X76.911 Y31.300 E6.34380
G1 X77.131 Y31.682 F9000.000
G1 X77.932 Y31.846 F9000.000
