; generated by Slic3r 1.2.9 on 2017-10-17 at 23:06:16

; external perimeters extrusion width = 0.40mm
; perimeters extrusion width = 0.62mm
; infill extrusion width = 0.33mm
; solid infill extrusion width = 0.62mm
; top infill extrusion width = 0.20mm

M106 S256; Turn on fan to 100% power
M104 S140; turn on extruder temperature at S value
M140 S60; turn on bed temperature at S value
G28; home all axes
M84; disable motors
G1 Z15 F15000; have Z move to 20mm at 15000 mm/min
M190 S55; turn on bed temperature at S value and wait
M140 S55; turn on bed temperature at S value (printing temperature)
M109 S200; turn on extruder temperature at S value and wait (printing temperature)
M104 S200; turn on extruder temperature at S value
G1 Z0 F12000; move Z back to home
G21 ; set units to millimeters
G90 ; use absolute coordinates
M82 ; use absolute distances for extrusion
G92 E0
M106 S255
;Layer change
G1 E-6.00000 F1800.00000
G92 E0
G1 Z0.300 F9000.000
G1 X56.947 Y17.543 F9000.000
G1 E6.00000 F1800.00000
G1 X57.258 Y16.588 E6.05002 F600.000
G1 X57.368 Y16.309 E6.06494
G1 X57.796 Y15.400 E6.11496
G1 X57.940 Y15.138 E6.12987
G1 X58.479 Y14.289 E6.17989
G1 X58.655 Y14.047 E6.19481
G1 X59.295 Y13.273 E6.24483
G1 X59.500 Y13.055 E6.25975
G1 X60.233 Y12.367 E6.30977
G1 X60.463 Y12.176 E6.32468
G1 X61.276 Y11.585 E6.37471
G1 X61.529 Y11.425 E6.38961
G1 X62.409 Y10.941 E6.43964
G1 X62.681 Y10.813 E6.45456
G1 X63.615 Y10.443 E6.50458
G1 X63.899 Y10.351 E6.51949
G1 X64.873 Y10.101 E6.56951
G1 X65.167 Y10.045 E6.58443
G1 X66.296 Y9.906 E6.64105
G1 X91.186 Y8.159 E7.88335
G1 X92.577 Y8.154 E7.95263
G1 X92.876 Y8.172 E7.96753
G1 X94.091 Y8.326 E8.02851 F600.000
G1 X94.385 Y8.382 E8.04343
G1 X95.571 Y8.687 E8.10439
G1 X95.856 Y8.779 E8.11930
G1 X96.995 Y9.230 E8.18027
G1 X97.265 Y9.357 E8.19516
G1 X98.339 Y9.947 E8.25614
G1 X98.601 Y10.114 E8.27162
G1 X99.582 Y10.827 E8.33202
G1 X99.813 Y11.018 E8.34694
G1 X100.706 Y11.857 E8.40790
G1 X100.911 Y12.075 E8.42281
G1 X101.691 Y13.019 E8.48379
G1 X101.867 Y13.261 E8.49869
G1 X102.523 Y14.295 E8.55966
G1 X102.668 Y14.557 E8.57458
G1 X103.189 Y15.665 E8.63554
G1 X103.299 Y15.944 E8.65045
G1 X103.678 Y17.108 E8.71141
G1 X103.752 Y17.398 E8.72634
G1 X103.981 Y18.601 E8.78730
G1 X104.019 Y18.898 E8.80221
G1 X104.096 Y20.120 E8.86318
G1 X104.096 Y20.420 E8.87809
G1 X104.019 Y21.642 E8.93905
G1 X103.981 Y21.939 E8.95397
G1 X103.752 Y23.142 E9.01493
G1 X103.678 Y23.432 E9.02985
G1 X103.299 Y24.596 E9.09081
G1 X103.189 Y24.875 E9.10572
G1 X102.667 Y25.983 E9.16670
G1 X102.523 Y26.245 E9.18161
G1 X101.867 Y27.279 E9.24258
G1 X101.691 Y27.522 E9.25749
G1 X100.911 Y28.465 E9.31845
G1 X100.706 Y28.683 E9.33336
G1 X99.813 Y29.521 E9.39432
G1 X99.582 Y29.713 E9.40924
G1 X98.592 Y30.432 E9.47020
G1 X98.339 Y30.593 E9.48512
G1 X97.266 Y31.183 E9.54609
G1 X96.995 Y31.310 E9.56100
G1 X95.856 Y31.761 E9.62196
G1 X95.571 Y31.853 E9.63687
G1 X94.385 Y32.158 E9.69783
G1 X94.091 Y32.214 E9.71275
G1 X92.876 Y32.368 E9.77372
G1 X92.577 Y32.386 E9.78863
G1 X91.186 Y32.381 E9.85791
G1 X66.296 Y30.634 E11.10021
G1 X65.167 Y30.495 E11.15683
G1 X64.873 Y30.439 E11.17175
G1 X63.900 Y30.189 E11.22177
G1 X63.615 Y30.097 E11.23669
G1 X62.681 Y29.727 E11.28671
G1 X62.409 Y29.599 E11.30162
G1 X61.529 Y29.115 E11.35164
G1 X61.276 Y28.955 E11.36656
G1 X60.463 Y28.364 E11.41658
G1 X60.233 Y28.173 E11.43149
G1 X59.500 Y27.485 E11.48152
G1 X59.295 Y27.267 E11.49643
G1 X58.655 Y26.493 E11.54645
G1 X58.479 Y26.251 E11.56137
G1 X57.940 Y25.402 E11.61139
G1 X57.796 Y25.140 E11.62631
G1 X57.368 Y24.231 E11.67633
G1 X57.258 Y23.952 E11.69124
G1 X56.947 Y22.997 E11.74126
G1 X56.873 Y22.707 E11.75618
G1 X56.689 Y21.741 E11.80513
G1 X56.647 Y21.422 E11.82111
G1 X56.584 Y20.420 E11.87114
G1 X56.584 Y20.120 E11.88605
G1 X56.647 Y19.118 E11.93607
G1 X56.685 Y18.820 E11.95099
G1 X56.933 Y17.601 E12.01292
G1 E6.01292 F1800.00000
G92 E0
G1 X100.271 Y23.000 F9000.000
G1 E6.00000 F1800.00000
G1 X100.110 Y23.495 E6.02591 F600.000
G1 X99.641 Y24.490 E6.08068
G1 X99.052 Y25.419 E6.13546
G1 X98.351 Y26.267 E6.19023
G1 X97.549 Y27.020 E6.24500
G1 X96.659 Y27.666 E6.29977
G1 X95.695 Y28.196 E6.35455
G1 X94.672 Y28.601 E6.40932
G1 X93.616 Y28.872 E6.46360
G1 X92.515 Y29.013 E6.51884
G1 X91.415 Y29.013 E6.57363
G1 X90.324 Y28.875 E6.62840
G1 X89.258 Y28.601 E6.68318
G1 X88.235 Y28.196 E6.73795
G1 X87.271 Y27.666 E6.79272
G1 X86.381 Y27.020 E6.84749
G1 X85.579 Y26.267 E6.90226
G1 X84.878 Y25.419 E6.95704
G1 X84.289 Y24.490 E7.01181
G1 X83.820 Y23.495 E7.06658
G1 X83.480 Y22.448 E7.12135
G1 X83.274 Y21.368 E7.17612
G1 X83.205 Y20.270 E7.23090
G1 X83.274 Y19.172 E7.28567
G1 X83.480 Y18.092 E7.34044
G1 X83.820 Y17.045 E7.39521
G1 X84.289 Y16.050 E7.44998
G1 X84.878 Y15.121 E7.50476
G1 X85.579 Y14.273 E7.55953
G1 X86.381 Y13.520 E7.61430
G1 X87.271 Y12.874 E7.66907
G1 X88.235 Y12.344 E7.72384
G1 X89.258 Y11.939 E7.77862
G1 X90.324 Y11.665 E7.83339
G1 X91.415 Y11.527 E7.88816
G1 X92.515 Y11.527 E7.94293 F600.000
G1 X93.606 Y11.665 E7.99771
G1 X94.672 Y11.939 E8.05248
G1 X95.695 Y12.344 E8.10725
G1 X96.659 Y12.874 E8.16202
G1 X97.549 Y13.520 E8.21679
G1 X98.351 Y14.273 E8.27156
G1 X99.052 Y15.121 E8.32634
G1 X99.641 Y16.050 E8.38111
G1 X100.110 Y17.045 E8.43588
G1 X100.450 Y18.092 E8.49066
G1 X100.656 Y19.172 E8.54543
G1 X100.725 Y20.270 E8.60020
G1 X100.656 Y21.368 E8.65497
G1 X100.450 Y22.448 E8.70974
G1 X100.289 Y22.943 E8.73561
G1 X99.904 Y22.881 F9000.000
G1 X99.751 Y23.353 E8.76032 F600.000
G1 X99.303 Y24.304 E8.81268
G1 X98.739 Y25.192 E8.86503
G1 X98.069 Y26.002 E8.91739
G1 X97.303 Y26.722 E8.96974
G1 X96.452 Y27.340 E9.02210
G1 X95.530 Y27.847 E9.07446
G1 X94.553 Y28.234 E9.12681
G1 X93.543 Y28.493 E9.17869
G1 X92.491 Y28.627 E9.23152
G1 X91.439 Y28.627 E9.28388
G1 X90.396 Y28.495 E9.33624
G1 X89.377 Y28.234 E9.38859
G1 X88.400 Y27.847 E9.44095
G1 X87.478 Y27.340 E9.49330
G1 X86.627 Y26.722 E9.54566
G1 X85.861 Y26.002 E9.59802
G1 X85.191 Y25.192 E9.65037
G1 X84.627 Y24.304 E9.70273
G1 X84.179 Y23.353 E9.75508
G1 X83.854 Y22.352 E9.80744
G1 X83.657 Y21.319 E9.85980
G1 X83.591 Y20.270 E9.91215
G1 X83.657 Y19.221 E9.96451
G1 X83.854 Y18.188 E10.01686
G1 X84.179 Y17.187 E10.06922
G1 X84.627 Y16.236 E10.12158
G1 X85.191 Y15.348 E10.17393
G1 X85.861 Y14.538 E10.22629
G1 X86.627 Y13.818 E10.27865
G1 X87.478 Y13.200 E10.33100
G1 X88.400 Y12.693 E10.38336
G1 X89.377 Y12.306 E10.43571
G1 X90.396 Y12.045 E10.48807
G1 X91.439 Y11.913 E10.54043
G1 X92.491 Y11.913 E10.59278 F600.000
G1 X93.534 Y12.045 E10.64514
G1 X94.553 Y12.306 E10.69750
G1 X95.530 Y12.693 E10.74985
G1 X96.452 Y13.200 E10.80221
G1 X97.303 Y13.818 E10.85456
G1 X98.069 Y14.538 E10.90692
G1 X98.739 Y15.348 E10.95928
G1 X99.303 Y16.236 E11.01163
G1 X99.751 Y17.187 E11.06399
G1 X100.076 Y18.188 E11.11635
G1 X100.273 Y19.221 E11.16870
G1 X100.339 Y20.270 E11.22106
G1 X100.273 Y21.319 E11.27341
G1 X100.076 Y22.352 E11.32577
G1 X99.922 Y22.824 E11.35043
G1 X100.172 Y23.178 F9000.000
G1 X100.630 Y23.116 F9000.000
G1 X100.461 Y23.634 E11.37753 F600.000
G1 X99.973 Y24.672 E11.43467
G1 X99.358 Y25.641 E11.49180
G1 X98.626 Y26.526 E11.54894
G1 X97.790 Y27.311 E11.60608
G1 X96.861 Y27.986 E11.66321
G1 X95.856 Y28.538 E11.72035
G1 X94.789 Y28.961 E11.77749
G1 X93.677 Y29.246 E11.83462
G1 X92.539 Y29.390 E11.89176
G1 X91.391 Y29.390 E11.94890
G1 X90.253 Y29.246 E12.00604
G1 X89.141 Y28.961 E12.06317
G1 X88.074 Y28.538 E12.12031
G1 X87.069 Y27.986 E12.17745
G1 X86.140 Y27.311 E12.23458
G1 X85.304 Y26.526 E12.29172
G1 X84.572 Y25.641 E12.34886
G1 X83.957 Y24.672 E12.40599
G1 X83.469 Y23.634 E12.46313
G1 X83.114 Y22.543 E12.52027
G1 X82.899 Y21.415 E12.57740
G1 X82.828 Y20.281 E12.63399
G1 X82.899 Y19.124 E12.69169
G1 X83.114 Y17.997 E12.74881
G1 X83.469 Y16.906 E12.80595
G1 X83.957 Y15.868 E12.86308
G1 X84.572 Y14.899 E12.92022
G1 X85.304 Y14.014 E12.97736
G1 X86.140 Y13.229 E13.03449
G1 X87.069 Y12.554 E13.09163
G1 X88.074 Y12.002 E13.14877
G1 X89.141 Y11.579 E13.20591
G1 X90.253 Y11.294 E13.26304
G1 X91.391 Y11.150 E13.32016
G1 X92.550 Y11.151 E13.37786
G1 X93.677 Y11.294 E13.43445 F600.000
G1 X94.789 Y11.579 E13.49158
G1 X95.856 Y12.002 E13.54872
G1 X96.861 Y12.554 E13.60586
G1 X97.790 Y13.229 E13.66300
G1 X98.626 Y14.014 E13.72013
G1 X99.358 Y14.899 E13.77727
G1 X99.973 Y15.868 E13.83441
G1 X100.461 Y16.906 E13.89154
G1 X100.816 Y17.997 E13.94868
G1 X101.031 Y19.125 E14.00582
G1 X101.102 Y20.259 E14.06240
G1 X101.031 Y21.416 E14.12010
G1 X100.816 Y22.543 E14.17722
G1 X100.648 Y23.059 E14.20428
G1 X100.996 Y23.236 F9000.000
G1 X100.821 Y23.776 E14.23258 F600.000
G1 X100.311 Y24.858 E14.29213
G1 X99.671 Y25.868 E14.35169
G1 X98.908 Y26.790 E14.41124
G1 X98.036 Y27.609 E14.47079
G1 X97.069 Y28.312 E14.53034
G1 X96.020 Y28.888 E14.58990
G1 X94.908 Y29.328 E14.64945
G1 X93.750 Y29.626 E14.70900
G1 X92.563 Y29.776 E14.76855
G1 X91.367 Y29.776 E14.82811
G1 X90.180 Y29.626 E14.88766
G1 X89.022 Y29.328 E14.94721
G1 X87.910 Y28.888 E15.00676
G1 X86.861 Y28.312 E15.06632
G1 X85.894 Y27.609 E15.12587
G1 X85.022 Y26.790 E15.18542
G1 X84.259 Y25.868 E15.24498
G1 X83.619 Y24.858 E15.30453
G1 X83.109 Y23.776 E15.36408
G1 X82.740 Y22.639 E15.42364
G1 X82.516 Y21.464 E15.48319
G1 X82.441 Y20.281 E15.54218
G1 X82.516 Y19.076 E15.60230
G1 X82.740 Y17.901 E15.66184
G1 X83.109 Y16.764 E15.72139
G1 X83.619 Y15.682 E15.78095
G1 X84.259 Y14.672 E15.84050
G1 X85.022 Y13.750 E15.90005
G1 X85.894 Y12.931 E15.95960
G1 X86.861 Y12.228 E16.01916
G1 X87.910 Y11.652 E16.07871
G1 X89.022 Y11.212 E16.13826
G1 X90.180 Y10.914 E16.19781
G1 X91.367 Y10.764 E16.25736
G1 X92.574 Y10.766 E16.31748
G1 X93.750 Y10.914 E16.37647 F600.000
G1 X94.908 Y11.212 E16.43602
G1 X96.020 Y11.652 E16.49557
G1 X97.069 Y12.228 E16.55513
G1 X98.036 Y12.931 E16.61468
G1 X98.908 Y13.750 E16.67423
G1 X99.671 Y14.672 E16.73379
G1 X100.311 Y15.682 E16.79334
G1 X100.821 Y16.764 E16.85289
G1 X101.190 Y17.901 E16.91245
G1 X101.414 Y19.076 E16.97200
G1 X101.489 Y20.259 E17.03099
G1 X101.414 Y21.464 E17.09111
G1 X101.190 Y22.639 E17.15065
G1 X101.015 Y23.179 E17.17892
G1 X100.605 Y23.319 F9000.000
G1 E11.17892 F1800.00000
G92 E0
G1 X69.760 Y20.623 F9000.000
G1 E6.00000 F1800.00000
G1 X69.693 Y20.971 E6.01761 F600.000
G1 X69.584 Y21.307 E6.03523
G1 X69.433 Y21.627 E6.05284
G1 X69.244 Y21.926 E6.07045
G1 X69.018 Y22.198 E6.08806
G1 X68.761 Y22.440 E6.10567
G1 X68.474 Y22.648 E6.12329
G1 X68.164 Y22.819 E6.14090
G1 X67.835 Y22.949 E6.15851
G1 X67.493 Y23.037 E6.17612
G1 X67.142 Y23.081 E6.19374
G1 X66.788 Y23.081 E6.21135
G1 X66.437 Y23.037 E6.22896
G1 X66.095 Y22.949 E6.24657
G1 X65.766 Y22.819 E6.26419
G1 X65.456 Y22.648 E6.28180
G1 X65.169 Y22.440 E6.29941
G1 X64.912 Y22.198 E6.31702
G1 X64.686 Y21.926 E6.33463
G1 X64.497 Y21.627 E6.35225
G1 X64.346 Y21.307 E6.36986
G1 X64.234 Y20.963 E6.38788
G1 X64.165 Y20.539 E6.40923
G1 X64.148 Y20.270 E6.42268
G1 X64.170 Y19.917 E6.44029
G1 X64.237 Y19.569 E6.45790
G1 X64.346 Y19.233 E6.47551
G1 X64.497 Y18.913 E6.49312
G1 X64.686 Y18.614 E6.51074
G1 X64.912 Y18.342 E6.52835
G1 X65.169 Y18.100 E6.54596
G1 X65.456 Y17.892 E6.56357
G1 X65.766 Y17.721 E6.58119
G1 X66.095 Y17.591 E6.59880
G1 X66.437 Y17.503 E6.61641
G1 X66.788 Y17.459 E6.63402
G1 X67.142 Y17.459 E6.65164 F600.000
G1 X67.493 Y17.503 E6.66925
G1 X67.835 Y17.591 E6.68686
G1 X68.164 Y17.721 E6.70447
G1 X68.474 Y17.892 E6.72209
G1 X68.761 Y18.100 E6.73970
G1 X69.018 Y18.342 E6.75731
G1 X69.244 Y18.614 E6.77492
G1 X69.433 Y18.913 E6.79253
G1 X69.584 Y19.233 E6.81015
G1 X69.693 Y19.569 E6.82776
G1 X69.760 Y19.917 E6.84537
G1 X69.782 Y20.270 E6.86298
G1 X69.763 Y20.563 E6.87761
G1 X69.376 Y20.575 F9000.000
G1 X69.319 Y20.874 E6.89281 F600.000
G1 X69.225 Y21.165 E6.90800
G1 X69.095 Y21.441 E6.92320
G1 X68.931 Y21.699 E6.93840
G1 X68.737 Y21.934 E6.95359
G1 X68.514 Y22.143 E6.96879
G1 X68.267 Y22.322 E6.98398
G1 X68.000 Y22.469 E6.99918
G1 X67.716 Y22.581 E7.01438
G1 X67.420 Y22.657 E7.02957
G1 X67.118 Y22.696 E7.04477
G1 X66.812 Y22.696 E7.05997
G1 X66.510 Y22.657 E7.07516
G1 X66.214 Y22.581 E7.09036
G1 X65.930 Y22.469 E7.10556
G1 X65.663 Y22.322 E7.12075
G1 X65.416 Y22.143 E7.13595
G1 X65.193 Y21.934 E7.15115
G1 X64.999 Y21.699 E7.16634
G1 X64.835 Y21.441 E7.18154
G1 X64.705 Y21.165 E7.19674
G1 X64.610 Y20.872 E7.21208
G1 X64.549 Y20.496 E7.23102
G1 X64.535 Y20.270 E7.24230
G1 X64.554 Y19.965 E7.25750
G1 X64.611 Y19.666 E7.27270
G1 X64.705 Y19.375 E7.28789
G1 X64.835 Y19.099 E7.30309
G1 X64.999 Y18.841 E7.31828
G1 X65.193 Y18.606 E7.33348
G1 X65.416 Y18.397 E7.34868
G1 X65.663 Y18.218 E7.36387
G1 X65.930 Y18.071 E7.37907
G1 X66.214 Y17.959 E7.39427
G1 X66.510 Y17.883 E7.40946
G1 X66.812 Y17.844 E7.42466
G1 X67.118 Y17.844 E7.43986 F600.000
G1 X67.420 Y17.883 E7.45505
G1 X67.716 Y17.959 E7.47025
G1 X68.000 Y18.071 E7.48545
G1 X68.267 Y18.218 E7.50064
G1 X68.514 Y18.397 E7.51584
G1 X68.737 Y18.606 E7.53104
G1 X68.931 Y18.841 E7.54623
G1 X69.095 Y19.099 E7.56143
G1 X69.225 Y19.375 E7.57663
G1 X69.319 Y19.666 E7.59182
G1 X69.376 Y19.965 E7.60702
G1 X69.395 Y20.270 E7.62221
G1 X69.380 Y20.515 E7.63442
G1 X69.615 Y20.764 F9000.000
G1 X74.314 Y20.885 F9000.000
G1 X74.295 Y21.196 E7.64992 F600.000
G1 X74.121 Y22.107 E7.69612
G1 X73.834 Y22.990 E7.74231
G1 X73.439 Y23.829 E7.78851
G1 X72.942 Y24.613 E7.83470
G1 X72.351 Y25.328 E7.88090
G1 X71.674 Y25.963 E7.92709
G1 X70.924 Y26.508 E7.97329
G1 X70.111 Y26.955 E8.01948
G1 X69.248 Y27.297 E8.06568
G1 X68.349 Y27.527 E8.11187
G1 X67.429 Y27.644 E8.15807
G1 X66.501 Y27.644 E8.20426
G1 X65.581 Y27.527 E8.25046
G1 X64.682 Y27.297 E8.29665
G1 X63.819 Y26.955 E8.34285
G1 X63.006 Y26.508 E8.38904
G1 X62.256 Y25.963 E8.43524
G1 X61.579 Y25.328 E8.48143
G1 X60.988 Y24.613 E8.52763
G1 X60.491 Y23.829 E8.57382
G1 X60.096 Y22.990 E8.62002
G1 X59.809 Y22.107 E8.66621
G1 X59.635 Y21.196 E8.71241
G1 X59.577 Y20.270 E8.75860
G1 X59.635 Y19.344 E8.80480
G1 X59.809 Y18.433 E8.85099
G1 X60.096 Y17.550 E8.89719
G1 X60.491 Y16.711 E8.94338
G1 X60.988 Y15.927 E8.98958
G1 X61.566 Y15.228 E9.03474
G1 X62.256 Y14.577 E9.08200
G1 X63.006 Y14.032 E9.12815
G1 X63.819 Y13.585 E9.17435
G1 X64.682 Y13.243 E9.22054
G1 X65.581 Y13.013 E9.26674
G1 X66.500 Y12.897 E9.31289
G1 X67.449 Y12.899 E9.36015
G1 X68.349 Y13.013 E9.40532 F600.000
G1 X69.248 Y13.243 E9.45151
G1 X70.111 Y13.585 E9.49770
G1 X70.924 Y14.032 E9.54390
G1 X71.674 Y14.577 E9.59009
G1 X72.351 Y15.212 E9.63629
G1 X72.942 Y15.927 E9.68248
G1 X73.439 Y16.711 E9.72868
G1 X73.826 Y17.531 E9.77384
G1 X74.121 Y18.433 E9.82110
G1 X74.295 Y19.344 E9.86726
G1 X74.353 Y20.270 E9.91345
G1 X74.318 Y20.825 E9.94116
G1 X74.699 Y20.910 F9000.000
G1 X74.678 Y21.244 E9.95787 F600.000
G1 X74.495 Y22.203 E10.00648
G1 X74.194 Y23.132 E10.05509
G1 X73.778 Y24.015 E10.10370
G1 X73.255 Y24.840 E10.15231
G1 X72.632 Y25.592 E10.20092
G1 X71.921 Y26.260 E10.24953
G1 X71.131 Y26.834 E10.29814
G1 X70.275 Y27.305 E10.34675
G1 X69.367 Y27.664 E10.39536
G1 X68.422 Y27.907 E10.44398
G1 X67.453 Y28.029 E10.49259
G1 X66.477 Y28.029 E10.54120
G1 X65.508 Y27.907 E10.58981
G1 X64.563 Y27.664 E10.63842
G1 X63.655 Y27.305 E10.68703
G1 X62.799 Y26.834 E10.73564
G1 X62.009 Y26.260 E10.78425
G1 X61.298 Y25.592 E10.83286
G1 X60.675 Y24.840 E10.88147
G1 X60.152 Y24.015 E10.93008
G1 X59.736 Y23.132 E10.97869
G1 X59.435 Y22.203 E11.02731
G1 X59.252 Y21.244 E11.07592
G1 X59.190 Y20.270 E11.12453
G1 X59.252 Y19.296 E11.17314
G1 X59.435 Y18.337 E11.22175
G1 X59.736 Y17.408 E11.27036
G1 X60.152 Y16.525 E11.31897
G1 X60.675 Y15.700 E11.36758
G1 X61.284 Y14.964 E11.41513
G1 X62.010 Y14.279 E11.46481
G1 X62.799 Y13.706 E11.51341
G1 X63.655 Y13.235 E11.56202
G1 X64.563 Y12.876 E11.61063
G1 X65.508 Y12.633 E11.65924
G1 X66.477 Y12.511 E11.70783
G1 X67.474 Y12.513 E11.75751
G1 X68.422 Y12.633 E11.80506 F600.000
G1 X69.367 Y12.876 E11.85367
G1 X70.275 Y13.235 E11.90228
G1 X71.131 Y13.706 E11.95089
G1 X71.921 Y14.280 E11.99951
G1 X72.632 Y14.948 E12.04812
G1 X73.255 Y15.700 E12.09673
G1 X73.778 Y16.525 E12.14534
G1 X74.185 Y17.389 E12.19289
G1 X74.495 Y18.337 E12.24257
G1 X74.678 Y19.296 E12.29116
G1 X74.740 Y20.270 E12.33977
G1 X74.703 Y20.850 E12.36869
