; generated by Slic3r 1.2.9 on 2017-07-28 at 20:53:41

; external perimeters extrusion width = 0.40mm
; perimeters extrusion width = 0.62mm
; infill extrusion width = 0.33mm
; solid infill extrusion width = 0.62mm
; top infill extrusion width = 0.20mm

M106 S256; Turn on fan to 100% power
M104 S140; turn on extruder temperature at S value
M140 S60; turn on bed temperature at S value
G28; home all axes
M84; disable motors
G1 Z15 F15000; have Z move to 20mm at 15000 mm/min
M190 S55; turn on bed temperature at S value and wait
M140 S55; turn on bed temperature at S value (printing temperature)
M109 S200; turn on extruder temperature at S value and wait (printing temperature)
M104 S200; turn on extruder temperature at S value
G1 Z0 F12000; move Z back to home
G21 ; set units to millimeters
G90 ; use absolute coordinates
M82 ; use absolute distances for extrusion
G92 E0
M106 S255
;Layer change
G1 E-6.00000 F1800.00000
G92 E0
G1 Z0.300 F9000.000
G1 X73.375 Y16.723 F9000.000
G1 E6.00000 F1800.00000
G1 X73.510 Y16.217 E6.02607 F600.000
G1 X73.775 Y15.491 E6.06454
G1 X74.111 Y14.803 E6.10269
G1 X74.239 Y14.581 E6.11545
G1 X74.524 Y14.142 E6.14150
G1 X75.000 Y13.533 E6.17998
G1 X75.537 Y12.977 E6.21846
G1 X76.130 Y12.481 E6.25694
G1 X76.332 Y12.334 E6.26937
G1 X76.987 Y11.924 E6.30784
G1 X77.681 Y11.585 E6.34632
G1 X78.407 Y11.320 E6.38481
G1 X78.913 Y11.185 E6.41086
G1 X79.674 Y11.051 E6.44934
G1 X80.445 Y10.998 E6.48782
G1 X80.701 Y10.998 E6.50056
G1 X81.465 Y11.051 E6.53871 F600.000
G1 X81.983 Y11.133 E6.56479
G1 X82.227 Y11.185 E6.57721
G1 X82.970 Y11.398 E6.61570
G1 X83.687 Y11.687 E6.65418
G1 X84.153 Y11.924 E6.68024
G1 X84.369 Y12.049 E6.69267
G1 X85.010 Y12.481 E6.73115
G1 X85.417 Y12.810 E6.75721
G1 X85.973 Y13.347 E6.79569
G1 X86.465 Y13.935 E6.83384
G1 X86.616 Y14.142 E6.84660
G1 X86.901 Y14.581 E6.87267
G1 X87.263 Y15.263 E6.91114
G1 X87.365 Y15.491 E6.92357
G1 X87.630 Y16.217 E6.96205
G1 X87.765 Y16.723 E6.98812
G1 X87.899 Y17.484 E7.02659
G1 X87.952 Y18.255 E7.06506
G1 X87.952 Y18.505 E7.07749
G1 X87.925 Y19.027 E7.10355
G1 X87.817 Y19.793 E7.14203
G1 X87.765 Y20.037 E7.15446
G1 X87.552 Y20.780 E7.19294
G1 X87.263 Y21.497 E7.23142
G1 X87.026 Y21.963 E7.25748
G1 X86.616 Y22.618 E7.29596
G1 X86.469 Y22.820 E7.30839
G1 X85.973 Y23.413 E7.34687
G1 X85.603 Y23.783 E7.37293
G1 X85.010 Y24.279 E7.41140
G1 X84.808 Y24.426 E7.42383
G1 X84.153 Y24.836 E7.46231
G1 X83.459 Y25.175 E7.50079
G1 X82.970 Y25.362 E7.52685
G1 X82.227 Y25.575 E7.56533
G1 X81.983 Y25.627 E7.57776
G1 X81.217 Y25.735 E7.61624
G1 X80.445 Y25.762 E7.65471
G1 X79.923 Y25.735 E7.68078
G1 X79.157 Y25.627 E7.71926
G1 X78.913 Y25.575 E7.73169
G1 X78.170 Y25.363 E7.77016
G1 X77.681 Y25.175 E7.79622
G1 X76.987 Y24.836 E7.83470
G1 X76.771 Y24.711 E7.84714
G1 X76.332 Y24.426 E7.87320
G1 X75.723 Y23.950 E7.91167
G1 X75.172 Y23.417 E7.94983
G1 X75.000 Y23.227 E7.96258
G1 X74.671 Y22.820 E7.98864
G1 X74.239 Y22.179 E8.02712
G1 X74.114 Y21.963 E8.03955
G1 X73.775 Y21.269 E8.07803
G1 X73.588 Y20.780 E8.10409
G1 X73.375 Y20.037 E8.14257
G1 X73.323 Y19.793 E8.15500
G1 X73.215 Y19.027 E8.19348
G1 X73.188 Y18.505 E8.21954
G1 X73.215 Y17.732 E8.25803
G1 X73.362 Y16.782 E8.30592
G1 E2.30592 F1800.00000
G92 E0
G1 X84.948 Y19.310 F9000.000
G1 E6.00000 F1800.00000
G1 X84.826 Y19.763 E6.02332 F600.000
G1 X84.658 Y20.200 E6.04665
G1 X84.446 Y20.618 E6.06997
G1 X84.191 Y21.011 E6.09329
G1 X83.896 Y21.375 E6.11662
G1 X83.565 Y21.706 E6.13994
G1 X83.380 Y21.855 E6.15174
G1 X77.750 Y21.855 E6.43209
G1 X77.246 Y21.377 E6.46667
G1 X76.949 Y21.011 E6.49013
G1 X76.694 Y20.618 E6.51346
G1 X76.482 Y20.200 E6.53678
G1 X76.314 Y19.763 E6.56010
G1 X76.192 Y19.310 E6.58343
G1 X76.119 Y18.848 E6.60675
G1 X76.095 Y18.380 E6.63007
G1 X76.119 Y17.912 E6.65340
G1 X76.192 Y17.450 E6.67672
G1 X76.314 Y16.997 E6.70004
G1 X76.482 Y16.560 E6.72337
G1 X76.694 Y16.142 E6.74669
G1 X76.949 Y15.749 E6.77001
G1 X77.246 Y15.383 E6.79348
G1 X77.750 Y14.905 E6.82805
G1 X83.390 Y14.905 E7.10891 F600.000
G1 X83.894 Y15.383 E7.14348
G1 X84.191 Y15.749 E7.16695
G1 X84.446 Y16.142 E7.19027
G1 X84.658 Y16.560 E7.21360
G1 X84.826 Y16.997 E7.23692
G1 X84.948 Y17.450 E7.26024
G1 X85.021 Y17.912 E7.28356
G1 X85.045 Y18.380 E7.30689
G1 X85.021 Y18.848 E7.33021
G1 X84.957 Y19.251 E7.35055
G1 X85.240 Y19.583 F9000.000
G1 E1.35055 F1800.00000
G92 E0
G1 X82.214 Y14.519 F9000.000
G1 E6.00000 F1800.00000
G1 X78.926 Y14.519 E6.16370 F600.000
G1 X78.891 Y14.330 E6.17328
G1 X79.214 Y14.206 E6.19050
G1 X79.658 Y14.087 E6.21337
G1 X80.111 Y14.016 E6.23622
G1 X80.576 Y13.992 E6.25941
G1 X81.029 Y14.015 E6.28198
G1 X81.482 Y14.087 E6.30485
G1 X81.926 Y14.206 E6.32772
G1 X82.249 Y14.330 E6.34494
G1 X82.225 Y14.460 E6.35153
G1 E0.35153 F1800.00000
G92 E0
G1 X82.249 Y22.430 F9000.000
G1 E6.00000 F1800.00000
G1 X81.926 Y22.554 E6.01722 F600.000
G1 X81.482 Y22.673 E6.04009
G1 X81.029 Y22.744 E6.06296
G1 X80.570 Y22.769 E6.08583
G1 X80.111 Y22.744 E6.10870
G1 X79.658 Y22.673 E6.13157
G1 X79.214 Y22.554 E6.15444
G1 X78.891 Y22.430 E6.17166
G1 X78.926 Y22.241 E6.18124
G1 X82.214 Y22.241 E6.34494
G1 X82.238 Y22.371 E6.35153
G1 X82.387 Y22.790 F9000.000
G1 X82.045 Y22.921 E6.36975 F600.000
G1 X81.563 Y23.050 E6.39464
G1 X81.069 Y23.129 E6.41952
G1 X80.570 Y23.155 E6.44440
G1 X80.071 Y23.129 E6.46929
G1 X79.577 Y23.050 E6.49417
G1 X79.095 Y22.921 E6.51905
G1 X78.628 Y22.742 E6.54394
G1 X78.183 Y22.515 E6.56882
G1 X77.764 Y22.243 E6.59370
G1 X77.375 Y21.928 E6.61859
G1 X77.026 Y21.579 E6.64315
G1 X76.707 Y21.186 E6.66836
G1 X76.435 Y20.767 E6.69324
G1 X76.208 Y20.322 E6.71812
G1 X76.029 Y19.855 E6.74300
G1 X75.900 Y19.373 E6.76789
G1 X75.821 Y18.879 E6.79277
G1 X75.795 Y18.380 E6.81765
G1 X75.821 Y17.881 E6.84254
G1 X75.900 Y17.387 E6.86742
G1 X76.029 Y16.905 E6.89230
G1 X76.208 Y16.438 E6.91719
G1 X76.435 Y15.993 E6.94207
G1 X76.707 Y15.574 E6.96695
G1 X77.022 Y15.185 E6.99184
G1 X77.375 Y14.832 E7.01672
G1 X77.764 Y14.517 E7.04160
G1 X78.183 Y14.245 E7.06649
G1 X78.628 Y14.018 E7.09137
G1 X79.095 Y13.839 E7.11625
G1 X79.577 Y13.710 E7.14114
G1 X80.071 Y13.631 E7.16601
G1 X80.576 Y13.606 E7.19122
G1 X81.069 Y13.631 E7.21578
G1 X81.563 Y13.710 E7.24067 F600.000
G1 X82.045 Y13.839 E7.26555
G1 X82.512 Y14.018 E7.29043
G1 X82.957 Y14.245 E7.31532
G1 X83.376 Y14.517 E7.34020
G1 X83.765 Y14.832 E7.36508
G1 X84.118 Y15.185 E7.38997
G1 X84.433 Y15.574 E7.41485
G1 X84.702 Y15.987 E7.43942
G1 X84.932 Y16.438 E7.46462
G1 X85.111 Y16.905 E7.48950
G1 X85.240 Y17.387 E7.51438
G1 X85.319 Y17.881 E7.53927
G1 X85.345 Y18.380 E7.56415
G1 X85.319 Y18.879 E7.58903
G1 X85.240 Y19.373 E7.61392
G1 X85.111 Y19.855 E7.63880
G1 X84.932 Y20.322 E7.66368
G1 X84.705 Y20.767 E7.68857
G1 X84.433 Y21.186 E7.71345
G1 X84.118 Y21.575 E7.73833
G1 X83.765 Y21.928 E7.76322
G1 X83.376 Y22.243 E7.78810
G1 X82.957 Y22.515 E7.81298
G1 X82.443 Y22.768 E7.84152
G1 X82.096 Y22.567 F9000.000
G1 X82.420 Y22.295 F9000.000
G1 X83.304 Y22.053 E7.88715 F600.000
G1 X78.720 Y22.295 F9000.000
G1 X77.836 Y22.053 E7.93278 F600.000
G1 E1.93278 F1800.00000
G92 E0
G1 X77.836 Y14.707 F9000.000
G1 E6.00000 F1800.00000
G1 X78.720 Y14.465 E6.04563 F600.000
G1 X82.420 Y14.465 F9000.000
G1 X83.304 Y14.707 E6.09126 F600.000
M104 S199 ; set temperature
M140 S55 ; wait for bed temperature to be reached
;Layer change
G1 E0.09126 F1800.00000
G92 E0
G1 Z0.520 F9000.000
G1 X82.387 Y21.830 F9000.000
G1 E6.00000 F1800.00000
G1 X77.760 Y21.830 E6.15458 F517.960
G1 X77.264 Y21.360 E6.17739
G1 X76.970 Y20.996 E6.19303
G1 X76.716 Y20.605 E6.20859
G1 X76.504 Y20.190 E6.22415
G1 X76.338 Y19.756 E6.23969
G1 X76.222 Y19.334 E6.25432
G1 X76.146 Y18.878 E6.26975
G1 X76.120 Y18.380 E6.28640
G1 X76.144 Y17.915 E6.30196
G1 X76.217 Y17.455 E6.31752
G1 X76.338 Y17.005 E6.33308
G1 X76.504 Y16.570 E6.34864
G1 X76.716 Y16.155 E6.36420
G1 X76.970 Y15.764 E6.37976
G1 X77.264 Y15.400 E6.39541
G1 X77.760 Y14.930 E6.41822
G1 X83.380 Y14.930 E6.60597 F517.960
G1 X83.876 Y15.400 E6.62878
G1 X84.170 Y15.764 E6.64443
G1 X84.424 Y16.155 E6.65999
G1 X84.636 Y16.570 E6.67555
G1 X84.802 Y17.005 E6.69111
G1 X84.923 Y17.454 E6.70664
G1 X84.994 Y17.882 E6.72114
G1 X85.020 Y18.380 E6.73779
G1 X84.996 Y18.845 E6.75335
G1 X84.923 Y19.305 E6.76891
G1 X84.802 Y19.755 E6.78447
G1 X84.636 Y20.190 E6.80003
G1 X84.424 Y20.605 E6.81560
G1 X84.160 Y21.008 E6.83167
G1 X83.877 Y21.358 E6.84671
G1 X83.548 Y21.687 E6.86227
G1 X83.371 Y21.830 E6.86985
G1 X82.447 Y21.830 E6.90072
G1 X82.187 Y22.176 F9000.000
G1 E0.90072 F1800.00000
G92 E0
G1 X81.538 Y14.468 F9000.000
G1 E6.00000 F1800.00000
G1 X79.602 Y14.468 E6.10476 F517.960
G1 X79.577 Y14.152 E6.12189
G1 X80.116 Y14.067 E6.15139
G1 X80.587 Y14.044 E6.17691
G1 X81.023 Y14.067 E6.20056
G1 X81.563 Y14.152 E6.23012
G1 X81.543 Y14.408 E6.24401
G1 E0.24401 F1800.00000
G92 E0
G1 X81.538 Y22.292 F9000.000
G1 E6.00000 F1800.00000
G1 X81.563 Y22.608 E6.01713 F517.960
G1 X81.023 Y22.693 E6.04670
G1 X80.570 Y22.717 E6.07125
G1 X80.117 Y22.693 E6.09581
G1 X79.577 Y22.608 E6.12537
G1 X79.602 Y22.292 E6.14251
G1 X81.478 Y22.292 E6.24402
G1 X81.736 Y23.030 F9000.000
G1 X81.568 Y23.075 E6.24983 F517.960
G1 X81.072 Y23.153 E6.26662
G1 X80.570 Y23.180 E6.28340
G1 X80.068 Y23.153 E6.30018
G1 X79.572 Y23.075 E6.31696
G1 X79.087 Y22.945 E6.33374
G1 X78.618 Y22.765 E6.35052
G1 X78.170 Y22.537 E6.36731
G1 X77.749 Y22.263 E6.38409
G1 X77.358 Y21.947 E6.40087
G1 X77.003 Y21.592 E6.41765
G1 X76.687 Y21.201 E6.43443
G1 X76.413 Y20.780 E6.45121
G1 X76.185 Y20.332 E6.46800
G1 X76.005 Y19.863 E6.48478
G1 X75.875 Y19.378 E6.50156
G1 X75.797 Y18.882 E6.51834
G1 X75.770 Y18.380 E6.53512
G1 X75.797 Y17.878 E6.55190
G1 X75.875 Y17.382 E6.56869
G1 X76.005 Y16.897 E6.58547
G1 X76.185 Y16.428 E6.60225
G1 X76.413 Y15.980 E6.61903
G1 X76.687 Y15.559 E6.63581
G1 X77.003 Y15.168 E6.65259
G1 X77.358 Y14.813 E6.66938
G1 X77.749 Y14.497 E6.68616
G1 X78.170 Y14.223 E6.70294
G1 X78.618 Y13.995 E6.71972
G1 X79.087 Y13.815 E6.73650
G1 X79.572 Y13.685 E6.75328
G1 X80.068 Y13.607 E6.77005
G1 X80.588 Y13.581 E6.78743
G1 X81.072 Y13.607 E6.80363
G1 X81.568 Y13.685 E6.82041 F517.960
G1 X82.053 Y13.815 E6.83719
G1 X82.522 Y13.995 E6.85397
G1 X82.970 Y14.223 E6.87075
G1 X83.391 Y14.497 E6.88753
G1 X83.782 Y14.813 E6.90432
G1 X84.137 Y15.168 E6.92110
G1 X84.453 Y15.559 E6.93788
G1 X84.717 Y15.965 E6.95408
G1 X84.955 Y16.428 E6.97145
G1 X85.135 Y16.897 E6.98822
G1 X85.265 Y17.382 E7.00500
G1 X85.343 Y17.878 E7.02179
G1 X85.370 Y18.380 E7.03857
G1 X85.343 Y18.882 E7.05535
G1 X85.265 Y19.378 E7.07213
G1 X85.135 Y19.863 E7.08891
G1 X84.961 Y20.316 E7.10511
G1 X84.726 Y20.780 E7.12248
G1 X84.453 Y21.201 E7.13925
G1 X84.137 Y21.592 E7.15604
G1 X83.782 Y21.947 E7.17282
G1 X83.391 Y22.263 E7.18960
G1 X82.970 Y22.537 E7.20638
G1 X82.522 Y22.765 E7.22316
G1 X82.053 Y22.945 E7.23994
G1 X81.794 Y23.014 E7.24890
G1 X81.613 Y22.907 F9000.000
G1 X81.780 Y22.419 F9000.000
G1 X82.323 Y22.318 E7.27878 F1035.921
G1 X83.233 Y22.074 E7.32974
G1 X79.360 Y22.419 F9000.000
G1 X78.817 Y22.318 E7.35962 F1035.921
G1 X77.907 Y22.074 E7.41057
G1 E1.41057 F1800.00000
G92 E0
G1 X77.907 Y14.686 F9000.000
G1 E6.00000 F1800.00000
G1 X78.817 Y14.442 E6.05095 F1035.921
G1 X79.360 Y14.341 E6.08083
G1 X81.780 Y14.341 F9000.000
G1 X82.323 Y14.442 E6.11071 F1035.921
G1 X83.233 Y14.686 E6.16166
;Layer change
G1 E0.16166 F1800.00000
G92 E0
G1 Z0.740 F9000.000
G1 X81.736 Y21.830 F9000.000
G1 E6.00000 F1800.00000
G1 X77.760 Y21.830 E6.13283 F517.956
G1 X77.264 Y21.360 E6.15564
G1 X76.970 Y20.996 E6.17129
G1 X76.716 Y20.605 E6.18685
G1 X76.504 Y20.190 E6.20241
G1 X76.338 Y19.755 E6.21797
G1 X76.217 Y19.305 E6.23353
G1 X76.144 Y18.845 E6.24909
G1 X76.120 Y18.380 E6.26464
G1 X76.144 Y17.915 E6.28020
G1 X76.217 Y17.455 E6.29576
G1 X76.338 Y17.005 E6.31132
G1 X76.504 Y16.570 E6.32688
G1 X76.716 Y16.155 E6.34244
G1 X76.970 Y15.764 E6.35800
G1 X77.264 Y15.400 E6.37365
G1 X77.760 Y14.930 E6.39646
G1 X83.380 Y14.930 E6.58422 F517.956
G1 X83.876 Y15.400 E6.60702
G1 X84.170 Y15.764 E6.62267
G1 X84.424 Y16.155 E6.63823
G1 X84.636 Y16.570 E6.65379
G1 X84.802 Y17.005 E6.66935
G1 X84.923 Y17.455 E6.68491
G1 X84.996 Y17.915 E6.70047
G1 X85.020 Y18.380 E6.71603
G1 X84.996 Y18.845 E6.73159
G1 X84.923 Y19.305 E6.74715
G1 X84.802 Y19.755 E6.76271
G1 X84.636 Y20.190 E6.77827
G1 X84.424 Y20.605 E6.79383
G1 X84.170 Y20.996 E6.80939
G1 X83.877 Y21.358 E6.82495
G1 X83.548 Y21.687 E6.84051
G1 X83.371 Y21.830 E6.84809
G1 X81.796 Y21.830 E6.90071
G1 X81.536 Y22.176 F9000.000
G1 E0.90071 F1800.00000
G92 E0
G1 X81.538 Y14.468 F9000.000
G1 E6.00000 F1800.00000
G1 X79.602 Y14.468 E6.10476 F517.956
G1 X79.577 Y14.152 E6.12189
G1 X80.115 Y14.067 E6.15136
G1 X80.596 Y14.044 E6.17739
G1 X81.023 Y14.067 E6.20055
G1 X81.563 Y14.152 E6.23012
G1 X81.543 Y14.408 E6.24401
G1 E0.24401 F1800.00000
G92 E0
G1 X81.538 Y22.292 F9000.000
G1 E6.00000 F1800.00000
G1 X81.563 Y22.608 E6.01713 F517.956
G1 X81.023 Y22.693 E6.04670
G1 X80.570 Y22.717 E6.07125
G1 X80.117 Y22.693 E6.09581
G1 X79.577 Y22.608 E6.12537
G1 X79.602 Y22.292 E6.14251
G1 X81.478 Y22.292 E6.24402
G1 X81.736 Y23.030 F9000.000
G1 X81.568 Y23.075 E6.24983 F517.956
G1 X81.072 Y23.153 E6.26662
G1 X80.570 Y23.180 E6.28340
G1 X80.068 Y23.153 E6.30018
G1 X79.572 Y23.075 E6.31696
G1 X79.087 Y22.945 E6.33374
G1 X78.618 Y22.765 E6.35052
G1 X78.170 Y22.537 E6.36731
G1 X77.749 Y22.263 E6.38409
G1 X77.358 Y21.947 E6.40087
G1 X77.022 Y21.611 E6.41675
G1 X76.687 Y21.201 E6.43445
G1 X76.413 Y20.780 E6.45121
G1 X76.185 Y20.332 E6.46799
G1 X76.005 Y19.863 E6.48477
G1 X75.875 Y19.378 E6.50155
G1 X75.797 Y18.882 E6.51834
G1 X75.770 Y18.380 E6.53512
G1 X75.797 Y17.878 E6.55190
G1 X75.875 Y17.382 E6.56868
G1 X76.005 Y16.897 E6.58546
G1 X76.185 Y16.428 E6.60225
G1 X76.413 Y15.980 E6.61903
G1 X76.687 Y15.559 E6.63581
G1 X77.003 Y15.168 E6.65259
G1 X77.358 Y14.813 E6.66937
G1 X77.749 Y14.497 E6.68615
G1 X78.170 Y14.223 E6.70294
G1 X78.618 Y13.995 E6.71972
G1 X79.087 Y13.815 E6.73650
G1 X79.572 Y13.685 E6.75328
G1 X80.068 Y13.607 E6.77004
G1 X80.597 Y13.582 E6.78774
G1 X81.072 Y13.607 E6.80362
G1 X81.568 Y13.685 E6.82040 F517.956
G1 X82.053 Y13.815 E6.83718
G1 X82.522 Y13.995 E6.85397
G1 X82.970 Y14.223 E6.87075
G1 X83.391 Y14.497 E6.88753
G1 X83.782 Y14.813 E6.90431
G1 X84.137 Y15.168 E6.92109
G1 X84.453 Y15.559 E6.93787
G1 X84.712 Y15.958 E6.95376
G1 X84.955 Y16.428 E6.97145
G1 X85.135 Y16.897 E6.98821
G1 X85.265 Y17.382 E7.00500
G1 X85.343 Y17.878 E7.02178
G1 X85.370 Y18.380 E7.03856
G1 X85.343 Y18.882 E7.05534
G1 X85.265 Y19.378 E7.07212
G1 X85.135 Y19.863 E7.08890
G1 X84.955 Y20.332 E7.10569
G1 X84.727 Y20.780 E7.12247
G1 X84.453 Y21.201 E7.13925
G1 X84.137 Y21.592 E7.15603
G1 X83.782 Y21.947 E7.17281
G1 X83.391 Y22.263 E7.18959
G1 X82.970 Y22.537 E7.20638
G1 X82.522 Y22.765 E7.22316
G1 X82.053 Y22.945 E7.23994
G1 X81.794 Y23.014 E7.24890
G1 X81.613 Y22.907 F9000.000
G1 X81.780 Y22.419 F9000.000
G1 X82.323 Y22.318 E7.27878 F1035.911
G1 X83.233 Y22.074 E7.32973
G1 X79.360 Y22.419 F9000.000
G1 X78.817 Y22.318 E7.35961 F1035.911
G1 X77.907 Y22.074 E7.41056
G1 E1.41056 F1800.00000
G92 E0
G1 X77.907 Y14.686 F9000.000
G1 E6.00000 F1800.00000
G1 X78.817 Y14.442 E6.05095 F1035.911
G1 X79.360 Y14.341 E6.08083
G1 X81.780 Y14.341 F9000.000
G1 X82.323 Y14.442 E6.11071 F1035.911
G1 X83.233 Y14.686 E6.16166
;Layer change
G1 E0.16166 F1800.00000
G92 E0
G1 Z0.960 F9000.000
G1 X81.736 Y21.830 F9000.000
G1 E6.00000 F1800.00000
G1 X77.760 Y21.830 E6.13283 F517.956
G1 X77.264 Y21.360 E6.15564
G1 X76.970 Y20.996 E6.17129
G1 X76.716 Y20.605 E6.18685
G1 X76.504 Y20.190 E6.20241
G1 X76.338 Y19.755 E6.21797
G1 X76.217 Y19.305 E6.23353
G1 X76.144 Y18.845 E6.24909
G1 X76.120 Y18.381 E6.26462
G1 X76.140 Y17.942 E6.27930
G1 X76.217 Y17.455 E6.29577
G1 X76.338 Y17.005 E6.31133
G1 X76.504 Y16.570 E6.32689
G1 X76.716 Y16.155 E6.34245
G1 X76.970 Y15.764 E6.35801
G1 X77.264 Y15.400 E6.37366
G1 X77.760 Y14.930 E6.39646
G1 X83.380 Y14.930 E6.58422 F517.956
G1 X83.876 Y15.400 E6.60703
G1 X84.170 Y15.764 E6.62267
G1 X84.424 Y16.155 E6.63823
G1 X84.636 Y16.570 E6.65379
G1 X84.802 Y17.005 E6.66935
G1 X84.923 Y17.455 E6.68491
