; generated by Slic3r 1.2.9 on 2017-07-28 at 22:29:35

; external perimeters extrusion width = 0.40mm
; perimeters extrusion width = 0.62mm
; infill extrusion width = 0.33mm
; solid infill extrusion width = 0.62mm
; top infill extrusion width = 0.20mm

M106 S256; Turn on fan to 100% power
M104 S140; turn on extruder temperature at S value
M140 S60; turn on bed temperature at S value
G28; home all axes
M84; disable motors
G1 Z15 F15000; have Z move to 20mm at 15000 mm/min
M190 S55; turn on bed temperature at S value and wait
M140 S55; turn on bed temperature at S value (printing temperature)
M109 S200; turn on extruder temperature at S value and wait (printing temperature)
M104 S200; turn on extruder temperature at S value
G1 Z0 F12000; move Z back to home
G21 ; set units to millimeters
G90 ; use absolute coordinates
M82 ; use absolute distances for extrusion
G92 E0
M106 S255
;Layer change
G1 E-6.00000 F1800.00000
G92 E0
G1 Z0.300 F9000.000
G1 X57.725 Y22.158 F9000.000
G1 E6.00000 F1800.00000
G1 X57.971 Y21.554 E6.03243 F600.000
G1 X58.208 Y21.088 E6.05850
G1 X58.618 Y20.433 E6.09697
G1 X58.765 Y20.231 E6.10940
G1 X59.261 Y19.639 E6.14788
G1 X59.632 Y19.268 E6.17396
G1 X60.224 Y18.772 E6.21242
G1 X60.426 Y18.625 E6.22485
G1 X60.865 Y18.340 E6.25091
G1 X61.547 Y17.978 E6.28939
G1 X61.779 Y17.875 E6.30202
G1 X62.501 Y17.612 E6.34026
G1 X63.007 Y17.476 E6.36636
G1 X63.768 Y17.342 E6.40484
G1 X64.539 Y17.289 E6.44331
G1 X64.792 Y17.289 E6.45593
G1 X65.407 Y17.323 E6.48657 F600.000
G1 X86.166 Y19.248 E7.52460
G1 X87.434 Y19.759 E7.59266
G1 X88.012 Y20.431 E7.63678
G1 X89.262 Y22.596 E7.76125
G1 X89.578 Y23.926 E7.82931
G1 X89.262 Y24.982 E7.88416
G1 X88.012 Y27.147 E8.00864
G1 X86.365 Y28.303 E8.10883
G1 X66.077 Y31.918 E9.13487
G1 X65.311 Y32.026 E9.17335
G1 X64.789 Y32.053 E9.19941
G1 X64.016 Y32.026 E9.23788
G1 X63.251 Y31.918 E9.27636
G1 X63.007 Y31.866 E9.28880
G1 X62.264 Y31.654 E9.32726
G1 X61.547 Y31.364 E9.36575
G1 X60.865 Y31.002 E9.40423
G1 X60.224 Y30.570 E9.44271
G1 X59.631 Y30.074 E9.48119
G1 X59.261 Y29.704 E9.50725
G1 X58.765 Y29.111 E9.54572
G1 X58.333 Y28.470 E9.58420
G1 X57.971 Y27.788 E9.62268
G1 X57.681 Y27.071 E9.66116
G1 X57.469 Y26.328 E9.69964
G1 X57.336 Y25.570 E9.73795
G1 X57.309 Y25.319 E9.75055
G1 X57.282 Y24.546 E9.78903
G1 X57.335 Y23.775 E9.82751
G1 X57.469 Y23.014 E9.86599
G1 X57.703 Y22.214 E9.90751
G1 E3.90751 F1800.00000
G92 E0
G1 X68.801 Y26.015 F9000.000
G1 E6.00000 F1800.00000
G1 X68.638 Y26.441 E6.02267 F600.000
G1 X68.431 Y26.846 E6.04534
G1 X68.183 Y27.228 E6.06802
G1 X67.897 Y27.582 E6.09069
G1 X67.575 Y27.904 E6.11336
G1 X67.276 Y28.146 E6.13251
G1 X62.052 Y28.146 E6.39261
G1 X61.753 Y27.904 E6.41176
G1 X61.431 Y27.582 E6.43443
G1 X61.144 Y27.228 E6.45710
G1 X60.896 Y26.846 E6.47977
G1 X60.690 Y26.440 E6.50245
G1 X60.526 Y26.012 E6.52528
G1 X60.409 Y25.576 E6.54779
G1 X60.337 Y25.126 E6.57046
G1 X60.314 Y24.671 E6.59313
G1 X60.337 Y24.216 E6.61580
G1 X60.409 Y23.767 E6.63848
G1 X60.527 Y23.327 E6.66115
G1 X60.690 Y22.902 E6.68382
G1 X60.896 Y22.496 E6.70649
G1 X61.144 Y22.114 E6.72916
G1 X61.431 Y21.760 E6.75183
G1 X61.753 Y21.438 E6.77451
G1 X62.052 Y21.196 E6.79366
G1 X67.276 Y21.196 E7.05375 F600.000
G1 X67.575 Y21.438 E7.07291
G1 X67.897 Y21.760 E7.09558
G1 X68.183 Y22.114 E7.11825
G1 X68.431 Y22.496 E7.14092
G1 X68.638 Y22.902 E7.16360
G1 X68.802 Y23.330 E7.18643
G1 X68.919 Y23.767 E7.20894
G1 X68.990 Y24.216 E7.23161
G1 X69.014 Y24.671 E7.25428
G1 X68.990 Y25.126 E7.27695
G1 X68.919 Y25.576 E7.29962
G1 X68.817 Y25.957 E7.31931
G1 X69.064 Y26.317 F9000.000
G1 E1.31931 F1800.00000
G92 E0
G1 X66.308 Y20.811 F9000.000
G1 E6.00000 F1800.00000
G1 X63.020 Y20.811 E6.16370 F600.000
G1 X62.985 Y20.621 E6.17328
G1 X63.308 Y20.497 E6.19049
G1 X63.751 Y20.378 E6.21337
G1 X64.205 Y20.307 E6.23622
G1 X64.668 Y20.283 E6.25929
G1 X65.123 Y20.307 E6.28198
G1 X65.576 Y20.378 E6.30485
G1 X66.020 Y20.497 E6.32772
G1 X66.343 Y20.621 E6.34494
G1 X66.319 Y20.752 E6.35153
G1 E0.35153 F1800.00000
G92 E0
G1 X66.343 Y28.721 F9000.000
G1 E6.00000 F1800.00000
G1 X66.020 Y28.845 E6.01722 F600.000
G1 X65.576 Y28.964 E6.04009
G1 X65.123 Y29.036 E6.06296
G1 X64.664 Y29.060 E6.08583
G1 X64.205 Y29.036 E6.10870
G1 X63.751 Y28.964 E6.13157
G1 X63.308 Y28.845 E6.15444
G1 X62.985 Y28.721 E6.17166
G1 X63.020 Y28.532 E6.18124
G1 X66.308 Y28.532 E6.34494
G1 X66.332 Y28.662 E6.35153
G1 X66.481 Y29.081 F9000.000
G1 X66.139 Y29.212 E6.36976 F600.000
G1 X65.657 Y29.341 E6.39464
G1 X65.163 Y29.420 E6.41952
G1 X64.664 Y29.446 E6.44440
G1 X64.165 Y29.420 E6.46929
G1 X63.671 Y29.341 E6.49417
G1 X63.188 Y29.212 E6.51905
G1 X62.722 Y29.033 E6.54394
G1 X62.277 Y28.806 E6.56882
G1 X61.857 Y28.534 E6.59371
G1 X61.469 Y28.219 E6.61859
G1 X61.118 Y27.869 E6.64328
G1 X60.801 Y27.478 E6.66836
G1 X60.529 Y27.058 E6.69324
G1 X60.302 Y26.613 E6.71812
G1 X60.123 Y26.147 E6.74300
G1 X59.994 Y25.664 E6.76789
G1 X59.915 Y25.170 E6.79277
G1 X59.889 Y24.671 E6.81765
G1 X59.915 Y24.172 E6.84254
G1 X59.994 Y23.678 E6.86742
G1 X60.123 Y23.196 E6.89230
G1 X60.302 Y22.729 E6.91719
G1 X60.529 Y22.284 E6.94207
G1 X60.801 Y21.865 E6.96695
G1 X61.116 Y21.476 E6.99184
G1 X61.466 Y21.126 E7.01653
G1 X61.857 Y20.808 E7.04161
G1 X62.277 Y20.536 E7.06649
G1 X62.722 Y20.309 E7.09137
G1 X63.188 Y20.130 E7.11625
G1 X63.671 Y20.001 E7.14114
G1 X64.165 Y19.923 E7.16602
G1 X64.668 Y19.897 E7.19109
G1 X65.163 Y19.923 E7.21579
G1 X65.657 Y20.001 E7.24067 F600.000
G1 X66.139 Y20.130 E7.26555
G1 X66.606 Y20.309 E7.29044
G1 X67.051 Y20.536 E7.31532
G1 X67.470 Y20.808 E7.34020
G1 X67.859 Y21.123 E7.36509
G1 X68.212 Y21.476 E7.38997
G1 X68.527 Y21.865 E7.41485
G1 X68.797 Y22.281 E7.43954
G1 X69.026 Y22.729 E7.46462
G1 X69.205 Y23.196 E7.48950
G1 X69.334 Y23.678 E7.51438
G1 X69.412 Y24.172 E7.53927
G1 X69.439 Y24.671 E7.56415
G1 X69.412 Y25.170 E7.58903
G1 X69.334 Y25.664 E7.61392
G1 X69.205 Y26.147 E7.63880
G1 X69.027 Y26.610 E7.66349
G1 X68.799 Y27.059 E7.68857
G1 X68.527 Y27.478 E7.71345
G1 X68.212 Y27.866 E7.73833
G1 X67.859 Y28.219 E7.76322
G1 X67.470 Y28.534 E7.78810
G1 X67.051 Y28.806 E7.81298
G1 X66.537 Y29.059 E7.84152
G1 X66.190 Y28.859 F9000.000
G1 X66.514 Y28.586 F9000.000
G1 X67.356 Y28.354 E7.88502 F600.000
G1 X67.717 Y28.062 E7.90813
G1 X68.054 Y27.725 E7.93185
G1 X68.355 Y27.353 E7.95568
G1 X68.616 Y26.951 E7.97951
G1 X68.832 Y26.526 E8.00328
G1 X69.003 Y26.081 E8.02701
G1 X69.127 Y25.619 E8.05084
G1 X69.201 Y25.148 E8.07457
G1 X69.226 Y24.671 E8.09834
G1 X69.201 Y24.193 E8.12217
G1 X69.127 Y23.723 E8.14590
G1 X69.004 Y23.264 E8.16955
G1 X68.832 Y22.815 E8.19349
G1 X68.614 Y22.389 E8.21728
G1 X68.355 Y21.989 E8.24101
G1 X68.054 Y21.618 E8.26483
G1 X67.717 Y21.281 E8.28856
G1 X67.356 Y20.988 E8.31167
G1 X66.514 Y20.756 E8.35516
G1 X62.814 Y20.756 F9000.000
G1 X61.972 Y20.988 E8.39866 F600.000
G1 X61.608 Y21.283 E8.42195
G1 X61.274 Y21.618 E8.44549
G1 X60.973 Y21.989 E8.46932
G1 X60.712 Y22.391 E8.49315
G1 X60.496 Y22.815 E8.51687
G1 X60.325 Y23.261 E8.54065
G1 X60.201 Y23.724 E8.56448
G1 X60.126 Y24.194 E8.58821
G1 X60.101 Y24.671 E8.61198
G1 X60.126 Y25.148 E8.63576
G1 X60.201 Y25.619 E8.65949
G1 X60.325 Y26.081 E8.68332
G1 X60.496 Y26.528 E8.70713
G1 X60.713 Y26.952 E8.73087
G1 X60.973 Y27.353 E8.75464
G1 X61.276 Y27.727 E8.77861
G1 X61.611 Y28.062 E8.80220
G1 X61.972 Y28.354 E8.82531
G1 X62.814 Y28.586 E8.86880
G1 E2.86880 F1800.00000
G92 E0
G1 X83.346 Y23.789 F9000.000
G1 E6.00000 F1800.00000
G1 X84.021 Y22.620 E6.06720 F600.000
G1 X85.371 Y22.620 E6.13439
G1 X86.046 Y23.789 E6.20159
G1 X85.371 Y24.958 E6.26879
G1 X84.021 Y24.958 E6.33599
G1 X83.376 Y23.841 E6.40020
G1 X82.901 Y23.789 F9000.000
G1 X83.799 Y22.234 E6.48956 F600.000
G1 X85.594 Y22.234 E6.57893
G1 X86.491 Y23.789 E6.66830
G1 X85.594 Y25.343 E6.75766
G1 X83.799 Y25.343 E6.84703
G1 X82.931 Y23.841 E6.93341
G1 X82.456 Y23.789 F9000.000
G1 X83.576 Y21.849 E7.04495 F600.000
G1 X85.816 Y21.849 E7.15648
G1 X86.936 Y23.789 E7.26802
G1 X85.816 Y25.729 E7.37956
G1 X83.576 Y25.729 E7.49110
G1 X82.486 Y23.841 E7.59964
G1 X82.832 Y23.652 F9000.000
G1 X84.107 Y24.436 F9000.000
G1 X84.346 Y24.674 E7.61865 F600.000
G1 X84.963 Y24.674 E7.65348
G1 X83.800 Y23.511 E7.74625
G1 X84.026 Y23.119 E7.77176
G1 X85.366 Y24.459 E7.87860
G1 X85.592 Y24.067 E7.90410
G1 X84.429 Y22.904 E7.99687
G1 X85.046 Y22.904 E8.03171
G1 X85.285 Y23.142 E8.05071
M104 S199 ; set temperature
M140 S55 ; wait for bed temperature to be reached
;Layer change
G1 E2.05071 F1800.00000
G92 E0
G1 Z0.520 F9000.000
G1 X68.980 Y24.495 F9000.000
G1 E6.00000 F1800.00000
G1 X68.989 Y24.671 E6.00589 F746.983
G1 X68.965 Y25.123 E6.02101
G1 X68.895 Y25.570 E6.03613
G1 X68.777 Y26.008 E6.05125
G1 X68.615 Y26.430 E6.06638
G1 X68.410 Y26.834 E6.08150
G1 X68.163 Y27.213 E6.09662
G1 X67.878 Y27.565 E6.11175
G1 X67.558 Y27.885 E6.12687
G1 X67.267 Y28.121 E6.13938
G1 X62.061 Y28.121 E6.31328
G1 X61.770 Y27.885 E6.32579
G1 X61.450 Y27.565 E6.34092
G1 X61.165 Y27.213 E6.35604
G1 X60.918 Y26.834 E6.37116
G1 X60.712 Y26.430 E6.38629
G1 X60.548 Y25.999 E6.40171
G1 X60.433 Y25.570 E6.41653
G1 X60.362 Y25.123 E6.43165
G1 X60.339 Y24.671 E6.44678
G1 X60.362 Y24.219 E6.46190
G1 X60.433 Y23.772 E6.47702
G1 X60.550 Y23.335 E6.49214
G1 X60.713 Y22.912 E6.50727
G1 X60.918 Y22.508 E6.52239
G1 X61.165 Y22.129 E6.53751
G1 X61.450 Y21.777 E6.55264
G1 X61.770 Y21.457 E6.56776
G1 X62.061 Y21.221 E6.58027
G1 X67.267 Y21.221 E6.75417 F746.983
G1 X67.558 Y21.457 E6.76668
G1 X67.878 Y21.777 E6.78181
G1 X68.163 Y22.129 E6.79694
G1 X68.414 Y22.517 E6.81235
G1 X68.615 Y22.912 E6.82717
G1 X68.777 Y23.335 E6.84230
G1 X68.895 Y23.772 E6.85742
G1 X68.965 Y24.219 E6.87254
G1 X68.977 Y24.435 E6.87977
G1 X69.137 Y24.575 F9000.000
G1 E0.87977 F1800.00000
G92 E0
G1 X65.632 Y20.759 F9000.000
G1 E6.00000 F1800.00000
G1 X63.695 Y20.759 E6.10475 F746.983
G1 X63.671 Y20.443 E6.12189
G1 X64.210 Y20.358 E6.15142
G1 X64.674 Y20.335 E6.17655
G1 X65.117 Y20.358 E6.20056
G1 X65.657 Y20.443 E6.23012
G1 X65.637 Y20.699 E6.24401
G1 E0.24401 F1800.00000
G92 E0
G1 X65.632 Y28.583 F9000.000
G1 E6.00000 F1800.00000
G1 X65.657 Y28.899 E6.01713 F746.983
G1 X65.117 Y28.984 E6.04670
G1 X64.664 Y29.008 E6.07125
G1 X64.211 Y28.984 E6.09581
G1 X63.671 Y28.899 E6.12537
G1 X63.695 Y28.583 E6.14251
G1 X65.572 Y28.583 E6.24402
G1 X65.830 Y29.321 F9000.000
G1 X65.662 Y29.366 E6.24983 F746.983
G1 X65.166 Y29.445 E6.26662
G1 X64.664 Y29.471 E6.28340
G1 X64.162 Y29.445 E6.30018
G1 X63.666 Y29.366 E6.31696
G1 X63.181 Y29.236 E6.33374
G1 X62.712 Y29.056 E6.35052
G1 X62.264 Y28.828 E6.36731
G1 X61.843 Y28.554 E6.38409
G1 X61.452 Y28.238 E6.40087
G1 X61.097 Y27.883 E6.41765
G1 X60.781 Y27.492 E6.43443
G1 X60.507 Y27.071 E6.45121
G1 X60.279 Y26.623 E6.46800
G1 X60.099 Y26.154 E6.48478
G1 X59.969 Y25.669 E6.50156
G1 X59.890 Y25.173 E6.51834
G1 X59.864 Y24.671 E6.53512
G1 X59.890 Y24.169 E6.55190
G1 X59.969 Y23.673 E6.56869
G1 X60.099 Y23.188 E6.58547
G1 X60.279 Y22.719 E6.60225
G1 X60.507 Y22.271 E6.61903
G1 X60.781 Y21.850 E6.63581
G1 X61.097 Y21.459 E6.65259
G1 X61.452 Y21.104 E6.66938
G1 X61.843 Y20.788 E6.68616
G1 X62.264 Y20.514 E6.70294
G1 X62.712 Y20.286 E6.71972
G1 X63.181 Y20.106 E6.73650
G1 X63.666 Y19.976 E6.75328
G1 X64.162 Y19.898 E6.77006
G1 X64.674 Y19.872 E6.78720
G1 X65.166 Y19.898 E6.80363
G1 X65.662 Y19.976 E6.82041 F746.983
G1 X66.147 Y20.106 E6.83719
G1 X66.616 Y20.286 E6.85397
G1 X67.064 Y20.514 E6.87075
G1 X67.485 Y20.788 E6.88754
G1 X67.876 Y21.104 E6.90432
G1 X68.231 Y21.459 E6.92110
G1 X68.547 Y21.850 E6.93788
G1 X68.821 Y22.271 E6.95466
G1 X69.049 Y22.719 E6.97145
G1 X69.229 Y23.188 E6.98823
G1 X69.359 Y23.673 E7.00501
G1 X69.437 Y24.169 E7.02179
G1 X69.464 Y24.671 E7.03857
G1 X69.437 Y25.173 E7.05535
G1 X69.359 Y25.669 E7.07214
G1 X69.229 Y26.154 E7.08892
G1 X69.052 Y26.614 E7.10535
G1 X68.820 Y27.071 E7.12249
G1 X68.547 Y27.492 E7.13926
G1 X68.231 Y27.883 E7.15604
G1 X67.876 Y28.238 E7.17282
G1 X67.485 Y28.554 E7.18961
G1 X67.064 Y28.828 E7.20639
G1 X66.616 Y29.056 E7.22317
G1 X66.147 Y29.236 E7.23995
G1 X65.888 Y29.305 E7.24891
G1 X65.707 Y29.198 F9000.000
G1 X65.874 Y28.710 F9000.000
G1 X66.417 Y28.609 E7.27879 F1493.965
G1 X67.327 Y28.365 E7.32974
G1 X63.454 Y28.710 F9000.000
G1 X62.911 Y28.609 E7.35962 F1493.965
G1 X62.001 Y28.365 E7.41057
G1 E1.41057 F1800.00000
G92 E0
G1 X62.001 Y20.977 F9000.000
G1 E6.00000 F1800.00000
G1 X62.911 Y20.733 E6.05095 F1493.965
G1 X63.454 Y20.632 E6.08083
G1 X65.874 Y20.632 F9000.000
G1 X66.417 Y20.733 E6.11071 F1493.965
G1 X67.327 Y20.977 E6.16167
G1 E0.16167 F1800.00000
G92 E0
G1 X83.620 Y23.789 F9000.000
G1 E6.00000 F1800.00000
G1 X84.158 Y22.857 E6.05820 F746.983
G1 X85.234 Y22.857 E6.11639
G1 X85.772 Y23.789 E6.17459
G1 X85.234 Y24.721 E6.23278
G1 X84.158 Y24.721 E6.29098
G1 X83.650 Y23.841 E6.34593
G1 X82.961 Y23.789 F9000.000
G1 X83.828 Y22.286 E6.43979 F746.983
G1 X85.564 Y22.286 E6.53366
G1 X86.432 Y23.789 E6.62753
G1 X85.564 Y25.292 E6.72139
G1 X83.828 Y25.292 E6.81526
G1 X82.991 Y23.841 E6.90588
G1 X82.427 Y23.789 F9000.000
G1 X83.562 Y21.824 E6.98168 F746.983
G1 X85.831 Y21.824 E7.05747
G1 X86.965 Y23.789 E7.13326
G1 X85.831 Y25.754 E7.20906
G1 X83.562 Y25.754 E7.28485
G1 X82.457 Y23.841 E7.35864
G1 X82.803 Y23.652 F9000.000
G1 X84.312 Y23.604 F9000.000
G1 X84.629 Y23.287 E7.39279 F1493.965
G1 X85.080 Y23.974 E7.45539
G1 X84.763 Y24.291 E7.48954
;Layer change
G1 E1.48954 F1800.00000
G92 E0
G1 Z0.740 F9000.000
G1 X68.980 Y24.494 F9000.000
G1 E6.00000 F1800.00000
G1 X68.989 Y24.671 E6.00594 F746.980
G1 X68.965 Y25.123 E6.02106
G1 X68.895 Y25.570 E6.03618
G1 X68.777 Y26.008 E6.05131
G1 X68.615 Y26.430 E6.06643
G1 X68.410 Y26.834 E6.08155
G1 X68.163 Y27.213 E6.09667
G1 X67.878 Y27.565 E6.11180
G1 X67.558 Y27.885 E6.12692
G1 X67.267 Y28.121 E6.13943
G1 X62.061 Y28.121 E6.31333
G1 X61.770 Y27.885 E6.32584
G1 X61.450 Y27.565 E6.34097
G1 X61.165 Y27.213 E6.35609
G1 X60.918 Y26.834 E6.37121
G1 X60.712 Y26.430 E6.38635
G1 X60.547 Y25.994 E6.40192
G1 X60.433 Y25.570 E6.41658
G1 X60.362 Y25.123 E6.43170
G1 X60.339 Y24.671 E6.44683
G1 X60.362 Y24.219 E6.46195
G1 X60.433 Y23.772 E6.47707
G1 X60.550 Y23.335 E6.49219
G1 X60.713 Y22.912 E6.50732
G1 X60.918 Y22.508 E6.52244
G1 X61.165 Y22.129 E6.53756
G1 X61.450 Y21.777 E6.55268
G1 X61.770 Y21.457 E6.56781
G1 X62.061 Y21.221 E6.58032
G1 X67.267 Y21.221 E6.75422 F746.980
G1 X67.558 Y21.457 E6.76673
G1 X67.878 Y21.777 E6.78186
G1 X68.163 Y22.129 E6.79698
G1 X68.410 Y22.508 E6.81210
G1 X68.615 Y22.912 E6.82724
G1 X68.781 Y23.348 E6.84281
G1 X68.895 Y23.772 E6.85747
G1 X68.965 Y24.219 E6.87259
G1 X68.977 Y24.434 E6.87977
G1 X69.138 Y24.574 F9000.000
G1 E0.87977 F1800.00000
G92 E0
G1 X65.632 Y20.759 F9000.000
G1 E6.00000 F1800.00000
G1 X63.695 Y20.759 E6.10475 F746.980
G1 X63.671 Y20.443 E6.12189
G1 X64.210 Y20.358 E6.15140
G1 X64.679 Y20.335 E6.17684
G1 X65.117 Y20.358 E6.20056
G1 X65.657 Y20.443 E6.23012
G1 X65.637 Y20.699 E6.24401
G1 E0.24401 F1800.00000
G92 E0
G1 X65.632 Y28.583 F9000.000
G1 E6.00000 F1800.00000
G1 X65.657 Y28.899 E6.01713 F746.980
G1 X65.117 Y28.984 E6.04670
G1 X64.664 Y29.008 E6.07125
G1 X64.211 Y28.984 E6.09581
G1 X63.671 Y28.899 E6.12537
G1 X63.695 Y28.583 E6.14251
G1 X65.572 Y28.583 E6.24402
G1 X65.830 Y29.321 F9000.000
G1 X65.662 Y29.366 E6.24983 F746.980
G1 X65.166 Y29.445 E6.26662
G1 X64.664 Y29.471 E6.28340
G1 X64.162 Y29.445 E6.30018
G1 X63.666 Y29.366 E6.31696
G1 X63.181 Y29.236 E6.33374
G1 X62.712 Y29.056 E6.35052
G1 X62.264 Y28.828 E6.36731
G1 X61.843 Y28.554 E6.38409
G1 X61.452 Y28.238 E6.40087
G1 X61.108 Y27.894 E6.41711
G1 X60.781 Y27.492 E6.43444
G1 X60.507 Y27.071 E6.45121
G1 X60.279 Y26.623 E6.46799
G1 X60.099 Y26.154 E6.48478
G1 X59.969 Y25.669 E6.50156
G1 X59.890 Y25.173 E6.51834
G1 X59.864 Y24.671 E6.53512
G1 X59.890 Y24.169 E6.55190
G1 X59.969 Y23.673 E6.56868
G1 X60.099 Y23.188 E6.58547
G1 X60.279 Y22.719 E6.60225
G1 X60.507 Y22.271 E6.61903
G1 X60.781 Y21.850 E6.63581
G1 X61.097 Y21.459 E6.65259
G1 X61.452 Y21.104 E6.66937
G1 X61.843 Y20.788 E6.68616
G1 X62.264 Y20.514 E6.70294
G1 X62.712 Y20.286 E6.71972
G1 X63.181 Y20.106 E6.73650
