; generated by Slic3r 1.2.9 on 2017-07-29 at 19:49:33

; external perimeters extrusion width = 0.40mm
; perimeters extrusion width = 0.62mm
; infill extrusion width = 0.33mm
; solid infill extrusion width = 0.62mm
; top infill extrusion width = 0.20mm

M106 S256; Turn on fan to 100% power
M104 S140; turn on extruder temperature at S value
M140 S60; turn on bed temperature at S value
G28; home all axes
M84; disable motors
G1 Z15 F15000; have Z move to 20mm at 15000 mm/min
M190 S55; turn on bed temperature at S value and wait
M140 S55; turn on bed temperature at S value (printing temperature)
M109 S200; turn on extruder temperature at S value and wait (printing temperature)
M104 S200; turn on extruder temperature at S value
G1 Z0 F12000; move Z back to home
G21 ; set units to millimeters
G90 ; use absolute coordinates
M82 ; use absolute distances for extrusion
G92 E0
M106 S255
;Layer change
G1 E-6.00000 F1800.00000
G92 E0
G1 Z0.300 F9000.000
G1 X48.472 Y21.352 F9000.000
G1 E6.00000 F1800.00000
G1 X48.830 Y20.635 E6.03989 F600.000
G1 X49.276 Y19.968 E6.07980
G1 X49.801 Y19.363 E6.11971
G1 X50.398 Y18.828 E6.15964
G1 X51.057 Y18.372 E6.19953
G1 X51.498 Y18.130 E6.22455
G1 X52.236 Y17.818 E6.26445
G1 X53.007 Y17.600 E6.30437
G1 X53.800 Y17.481 E6.34425
G1 X54.350 Y17.454 E6.37169
G1 X97.000 Y17.459 E8.49517
G1 X97.799 Y17.528 E8.53510 F600.000
G1 X98.292 Y17.622 E8.56012
G1 X99.060 Y17.852 E8.60001
G1 X99.338 Y17.962 E8.61493
G1 X99.793 Y18.176 E8.63994
G1 X100.479 Y18.590 E8.67983
G1 X101.109 Y19.086 E8.71974
G1 X101.327 Y19.291 E8.73467
G1 X101.671 Y19.657 E8.75968
G1 X102.157 Y20.295 E8.79960
G1 X102.542 Y20.955 E8.83763
G1 X102.687 Y21.259 E8.85441
G1 X102.965 Y22.011 E8.89432
G1 X103.090 Y22.497 E8.91933
G1 X103.209 Y23.290 E8.95922
G1 X103.236 Y23.840 E8.98666
G1 X103.236 Y66.340 E11.10269
G1 X103.199 Y66.991 E11.13515
G1 X103.068 Y67.782 E11.17508
G1 X102.838 Y68.550 E11.21497
G1 X102.728 Y68.828 E11.22990
G1 X102.514 Y69.283 E11.25491
G1 X102.100 Y69.969 E11.29480
G1 X101.628 Y70.570 E11.33283
G1 X101.399 Y70.817 E11.34963
G1 X100.802 Y71.352 E11.38955
G1 X100.395 Y71.647 E11.41456
G1 X99.702 Y72.050 E11.45446
G1 X98.964 Y72.362 E11.49436
G1 X98.679 Y72.455 E11.50929
G1 X98.193 Y72.580 E11.53430
G1 X97.400 Y72.699 E11.57418
G1 X96.850 Y72.726 E11.60162
G1 X54.200 Y72.721 E13.72510
G1 X53.401 Y72.652 E13.76503
G1 X52.908 Y72.558 E13.79005
G1 X52.140 Y72.328 E13.82994
G1 X51.862 Y72.218 E13.84486
G1 X51.407 Y72.004 E13.86987
G1 X50.721 Y71.590 E13.90976
G1 X50.091 Y71.094 E13.94968
G1 X49.873 Y70.889 E13.96460
G1 X49.529 Y70.523 E13.98961
G1 X49.043 Y69.885 E14.02953
G1 X48.640 Y69.192 E14.06943
G1 X48.513 Y68.921 E14.08434
G1 X48.235 Y68.169 E14.12426
G1 X48.110 Y67.683 E14.14927
G1 X47.991 Y66.890 E14.18916
G1 X47.966 Y66.415 E14.21286
G1 X47.964 Y23.840 E16.33263
G1 X48.001 Y23.189 E16.36508
G1 X48.132 Y22.398 E16.40502
G1 X48.207 Y22.108 E16.41992
G1 X48.450 Y21.407 E16.45685
G1 E10.45685 F1800.00000
G92 E0
G1 X95.446 Y61.774 F9000.000
G1 E6.00000 F1800.00000
G1 X95.766 Y61.867 E6.01657 F600.000
G1 X96.071 Y61.999 E6.03312
G1 X96.357 Y62.168 E6.04968
G1 X96.620 Y62.372 E6.06624
G1 X96.855 Y62.607 E6.08279
G1 X97.059 Y62.870 E6.09935
G1 X97.230 Y63.160 E6.11612
G1 X97.366 Y63.481 E6.13345
G1 X97.453 Y63.781 E6.14902
G1 X97.505 Y64.110 E6.16558
G1 X97.516 Y64.442 E6.18214
G1 X97.484 Y64.773 E6.19870
G1 X97.412 Y65.097 E6.21524
G1 X97.298 Y65.414 E6.23202
G1 X97.122 Y65.752 E6.25099
G1 X96.764 Y66.211 E6.27996
G1 X96.492 Y66.451 E6.29802
G1 X96.217 Y66.638 E6.31458
G1 X95.920 Y66.789 E6.33115
G1 X95.607 Y66.902 E6.34771
G1 X95.283 Y66.974 E6.36426
G1 X94.922 Y67.008 E6.38232
G1 X94.342 Y66.955 E6.41130
G1 X93.976 Y66.852 E6.43026
G1 X93.666 Y66.718 E6.44704
G1 X93.380 Y66.549 E6.46360
G1 X93.117 Y66.345 E6.48015
G1 X92.882 Y66.110 E6.49670
G1 X92.678 Y65.847 E6.51326
G1 X92.507 Y65.557 E6.53004
G1 X92.371 Y65.237 E6.54736
G1 X92.284 Y64.936 E6.56294
G1 X92.232 Y64.608 E6.57950
G1 X92.222 Y64.275 E6.59605
G1 X92.253 Y63.944 E6.61261
G1 X92.326 Y63.620 E6.62917
G1 X92.438 Y63.307 E6.64571
G1 X92.589 Y63.011 E6.66228
G1 X92.776 Y62.736 E6.67884
G1 X92.996 Y62.486 E6.69540
G1 X93.246 Y62.266 E6.71196
G1 X93.521 Y62.079 E6.72852
G1 X93.817 Y61.928 E6.74508
G1 X94.130 Y61.816 E6.76162
G1 X94.454 Y61.743 E6.77819
G1 X94.766 Y61.714 E6.79375 F600.000
G1 X95.113 Y61.722 E6.81108
G1 X95.387 Y61.765 E6.82486
G1 X95.362 Y62.151 F9000.000
G1 X95.635 Y62.231 E6.83901 F600.000
G1 X95.895 Y62.343 E6.85315
G1 X96.140 Y62.488 E6.86730
G1 X96.364 Y62.662 E6.88144
G1 X96.565 Y62.863 E6.89558
G1 X96.739 Y63.087 E6.90972
G1 X96.885 Y63.334 E6.92399
G1 X97.002 Y63.610 E6.93890
G1 X97.076 Y63.865 E6.95214
G1 X97.120 Y64.146 E6.96629
G1 X97.129 Y64.430 E6.98043
G1 X97.103 Y64.713 E6.99457
G1 X97.041 Y64.990 E7.00870
G1 X96.944 Y65.259 E7.02298
G1 X96.796 Y65.543 E7.03890
G1 X96.482 Y65.946 E7.06433
G1 X96.255 Y66.146 E7.07939
G1 X96.020 Y66.305 E7.09353
G1 X95.767 Y66.435 E7.10768
G1 X95.500 Y66.531 E7.12183
G1 X95.223 Y66.593 E7.13596
G1 X94.921 Y66.621 E7.15103
G1 X94.413 Y66.574 E7.17646
G1 X94.105 Y66.488 E7.19237
G1 X93.842 Y66.374 E7.20665
G1 X93.597 Y66.229 E7.22079
G1 X93.373 Y66.055 E7.23493
G1 X93.172 Y65.854 E7.24907
G1 X92.998 Y65.630 E7.26321
G1 X92.852 Y65.383 E7.27749
G1 X92.735 Y65.107 E7.29240
G1 X92.661 Y64.852 E7.30564
G1 X92.617 Y64.571 E7.31978
G1 X92.608 Y64.288 E7.33392
G1 X92.635 Y64.005 E7.34806
G1 X92.697 Y63.728 E7.36221
G1 X92.793 Y63.461 E7.37634
G1 X92.922 Y63.207 E7.39049
G1 X93.081 Y62.972 E7.40463
G1 X93.269 Y62.759 E7.41877
G1 X93.482 Y62.571 E7.43292
G1 X93.717 Y62.412 E7.44706
G1 X93.970 Y62.283 E7.46120
G1 X94.238 Y62.187 E7.47534
G1 X94.515 Y62.125 E7.48948
G1 X94.779 Y62.100 E7.50272 F600.000
G1 X95.079 Y62.106 E7.51762
G1 X95.303 Y62.142 E7.52891
G1 X95.278 Y62.528 F9000.000
G1 X95.504 Y62.594 E7.54064 F600.000
G1 X95.720 Y62.688 E7.55237
G1 X95.923 Y62.808 E7.56409
G1 X96.109 Y62.952 E7.57582
G1 X96.275 Y63.118 E7.58754
G1 X96.420 Y63.304 E7.59927
G1 X96.540 Y63.508 E7.61105
G1 X96.638 Y63.739 E7.62354
G1 X96.699 Y63.950 E7.63444
G1 X96.736 Y64.182 E7.64617
G1 X96.743 Y64.418 E7.65790
G1 X96.721 Y64.652 E7.66962
G1 X96.670 Y64.882 E7.68135
G1 X96.590 Y65.104 E7.69312
G1 X96.470 Y65.334 E7.70599
G1 X96.200 Y65.680 E7.72788
G1 X96.018 Y65.841 E7.73994
G1 X95.823 Y65.973 E7.75167
G1 X95.614 Y66.080 E7.76340
G1 X95.392 Y66.160 E7.77512
G1 X95.162 Y66.211 E7.78685
G1 X94.921 Y66.234 E7.79891
G1 X94.483 Y66.194 E7.82080
G1 X94.234 Y66.124 E7.83367
G1 X94.017 Y66.030 E7.84544
G1 X93.814 Y65.910 E7.85717
G1 X93.628 Y65.765 E7.86889
G1 X93.462 Y65.599 E7.88062
G1 X93.318 Y65.413 E7.89234
G1 X93.197 Y65.209 E7.90412
G1 X93.099 Y64.978 E7.91661
G1 X93.038 Y64.768 E7.92752
G1 X93.002 Y64.535 E7.93925
G1 X92.994 Y64.300 E7.95097
G1 X93.016 Y64.065 E7.96270
G1 X93.068 Y63.835 E7.97443
G1 X93.147 Y63.614 E7.98615
G1 X93.254 Y63.404 E7.99788
G1 X93.387 Y63.209 E8.00960
G1 X93.542 Y63.032 E8.02133
G1 X93.719 Y62.877 E8.03306
G1 X93.914 Y62.744 E8.04478
G1 X94.124 Y62.637 E8.05651
G1 X94.345 Y62.558 E8.06823
G1 X94.575 Y62.506 E8.07996
G1 X94.793 Y62.486 E8.09086 F600.000
G1 X95.044 Y62.491 E8.10336
G1 X95.218 Y62.519 E8.11215
G1 X95.441 Y62.358 F9000.000
G1 X91.477 Y47.722 F9000.000
G1 X91.215 Y47.790 E8.12562 F600.000
G1 X90.873 Y47.833 E8.14280
G1 X90.527 Y47.833 E8.15999
G1 X90.185 Y47.790 E8.17717
G1 X89.851 Y47.704 E8.19435
G1 X89.530 Y47.577 E8.21154
G1 X89.227 Y47.410 E8.22872
G1 X88.948 Y47.208 E8.24590
G1 X88.697 Y46.971 E8.26309
G1 X88.477 Y46.705 E8.28027
G1 X88.292 Y46.414 E8.29745
G1 X88.145 Y46.102 E8.31463
G1 X88.037 Y45.769 E8.33204
G1 X87.972 Y45.414 E8.35003
G1 X87.952 Y45.090 E8.36618
G1 X87.973 Y44.746 E8.38336
G1 X88.038 Y44.407 E8.40055
G1 X88.145 Y44.078 E8.41773
G1 X88.292 Y43.766 E8.43491
G1 X88.477 Y43.475 E8.45209
G1 X88.697 Y43.209 E8.46928
G1 X88.948 Y42.972 E8.48646
G1 X89.211 Y42.782 E8.50261
G1 X89.526 Y42.605 E8.52061
G1 X89.851 Y42.476 E8.53801
G1 X90.185 Y42.390 E8.55519
G1 X90.527 Y42.347 E8.57237
G1 X90.873 Y42.347 E8.58956 F600.000
G1 X91.215 Y42.390 E8.60674
G1 X91.549 Y42.476 E8.62392
G1 X91.870 Y42.603 E8.64111
G1 X92.173 Y42.770 E8.65829
G1 X92.452 Y42.972 E8.67547
G1 X92.703 Y43.209 E8.69266
G1 X92.923 Y43.475 E8.70984
G1 X93.108 Y43.766 E8.72702
G1 X93.255 Y44.078 E8.74421
G1 X93.362 Y44.407 E8.76139
G1 X93.427 Y44.746 E8.77857
G1 X93.448 Y45.094 E8.79597
G1 X93.423 Y45.455 E8.81397
G1 X93.362 Y45.773 E8.83012
G1 X93.255 Y46.102 E8.84730
G1 X93.108 Y46.414 E8.86448
G1 X92.923 Y46.705 E8.88166
G1 X92.703 Y46.971 E8.89885
G1 X92.452 Y47.208 E8.91603
G1 X92.173 Y47.410 E8.93322
G1 X91.870 Y47.577 E8.95040
G1 X91.535 Y47.707 E8.96830
G1 X91.381 Y47.349 F9000.000
G1 X91.143 Y47.410 E8.98057 F600.000
G1 X90.848 Y47.447 E8.99533
G1 X90.552 Y47.447 E9.01010
G1 X90.257 Y47.410 E9.02487
G1 X89.970 Y47.336 E9.03964
G1 X89.694 Y47.227 E9.05440
G1 X89.434 Y47.084 E9.06917
G1 X89.195 Y46.910 E9.08394
G1 X88.978 Y46.707 E9.09871
G1 X88.789 Y46.478 E9.11348
G1 X88.630 Y46.228 E9.12824
G1 X88.504 Y45.959 E9.14301
G1 X88.412 Y45.675 E9.15791
G1 X88.356 Y45.367 E9.17349
G1 X88.338 Y45.090 E9.18731
G1 X88.357 Y44.794 E9.20207
G1 X88.412 Y44.503 E9.21684
G1 X88.504 Y44.221 E9.23161
G1 X88.630 Y43.952 E9.24637
G1 X88.789 Y43.702 E9.26114
G1 X88.978 Y43.473 E9.27591
G1 X89.195 Y43.270 E9.29068
G1 X89.419 Y43.107 E9.30449
G1 X89.692 Y42.954 E9.32007
G1 X89.970 Y42.844 E9.33497
G1 X90.257 Y42.770 E9.34974
G1 X90.552 Y42.733 E9.36451
G1 X90.848 Y42.733 E9.37928 F600.000
G1 X91.143 Y42.770 E9.39404
G1 X91.430 Y42.844 E9.40881
G1 X91.706 Y42.953 E9.42358
G1 X91.966 Y43.096 E9.43835
G1 X92.205 Y43.270 E9.45311
G1 X92.422 Y43.473 E9.46788
G1 X92.611 Y43.702 E9.48265
G1 X92.770 Y43.952 E9.49742
G1 X92.896 Y44.221 E9.51218
G1 X92.988 Y44.503 E9.52695
G1 X93.043 Y44.794 E9.54172
G1 X93.062 Y45.093 E9.55662
G1 X93.040 Y45.405 E9.57220
G1 X92.988 Y45.677 E9.58601
G1 X92.896 Y45.959 E9.60078
G1 X92.770 Y46.228 E9.61555
G1 X92.611 Y46.478 E9.63031
G1 X92.422 Y46.707 E9.64508
G1 X92.205 Y46.910 E9.65985
G1 X91.966 Y47.084 E9.67462
G1 X91.706 Y47.227 E9.68939
G1 X91.439 Y47.333 E9.70367
G1 X91.285 Y46.975 F9000.000
G1 X91.070 Y47.030 E9.71473 F600.000
G1 X90.824 Y47.062 E9.72708
G1 X90.576 Y47.062 E9.73943
G1 X90.330 Y47.030 E9.75178
G1 X90.090 Y46.969 E9.76413
G1 X89.859 Y46.877 E9.77648
G1 X89.642 Y46.758 E9.78884
G1 X89.441 Y46.612 E9.80119
G1 X89.260 Y46.442 E9.81354
G1 X89.102 Y46.251 E9.82589
G1 X88.969 Y46.042 E9.83824
G1 X88.863 Y45.817 E9.85059
G1 X88.786 Y45.580 E9.86299
G1 X88.739 Y45.320 E9.87616
G1 X88.725 Y45.090 E9.88764
G1 X88.740 Y44.842 E9.89999
G1 X88.787 Y44.599 E9.91235
G1 X88.863 Y44.363 E9.92470
G1 X88.969 Y44.138 E9.93705
G1 X89.102 Y43.929 E9.94940
G1 X89.260 Y43.738 E9.96175
G1 X89.441 Y43.568 E9.97410
G1 X89.627 Y43.432 E9.98559
G1 X89.858 Y43.303 E9.99875
G1 X90.090 Y43.211 E10.01115
G1 X90.330 Y43.150 E10.02350
G1 X90.576 Y43.118 E10.03585
G1 X90.824 Y43.118 E10.04821 F600.000
G1 X91.070 Y43.150 E10.06056
G1 X91.310 Y43.211 E10.07291
G1 X91.541 Y43.303 E10.08526
G1 X91.758 Y43.422 E10.09761
G1 X91.959 Y43.568 E10.10997
G1 X92.140 Y43.738 E10.12232
G1 X92.298 Y43.929 E10.13467
G1 X92.431 Y44.138 E10.14702
G1 X92.537 Y44.363 E10.15937
G1 X92.613 Y44.599 E10.17172
G1 X92.660 Y44.842 E10.18407
G1 X92.676 Y45.091 E10.19648
G1 X92.657 Y45.355 E10.20964
G1 X92.613 Y45.581 E10.22112
G1 X92.537 Y45.817 E10.23347
G1 X92.431 Y46.042 E10.24583
G1 X92.298 Y46.251 E10.25818
G1 X92.140 Y46.442 E10.27053
G1 X91.959 Y46.612 E10.28288
G1 X91.758 Y46.758 E10.29523
G1 X91.541 Y46.877 E10.30758
G1 X91.342 Y46.956 E10.31824
G1 X91.234 Y47.191 F9000.000
G1 X86.759 Y46.504 F9000.000
G1 X86.464 Y47.983 E10.39334 F600.000
G1 X86.058 Y49.231 E10.45865
G1 X85.457 Y50.509 E10.52898
G1 X84.700 Y51.702 E10.59931
G1 X83.800 Y52.790 E10.66964
G1 X82.770 Y53.757 E10.73997
G1 X81.627 Y54.587 E10.81030
G1 X80.389 Y55.268 E10.88063
G1 X79.076 Y55.788 E10.95096
G1 X77.708 Y56.139 E11.02129
G1 X76.306 Y56.316 E11.09162
G1 X74.894 Y56.316 E11.16195
G1 X73.492 Y56.139 E11.23228
G1 X72.124 Y55.788 E11.30261
G1 X70.811 Y55.268 E11.37294
G1 X69.573 Y54.587 E11.44327
G1 X68.430 Y53.757 E11.51360
G1 X67.400 Y52.790 E11.58393
G1 X66.500 Y51.702 E11.65426
G1 X65.743 Y50.509 E11.72459
G1 X65.142 Y49.231 E11.79492
G1 X64.704 Y47.883 E11.86547
G1 X64.434 Y46.399 E11.94057
G1 X64.352 Y45.090 E12.00587
G1 X64.440 Y43.680 E12.07620
G1 X64.705 Y42.293 E12.14653
G1 X65.142 Y40.949 E12.21686
G1 X65.743 Y39.671 E12.28719
G1 X66.500 Y38.478 E12.35752
G1 X67.400 Y37.390 E12.42785
G1 X68.430 Y36.423 E12.49818
G1 X69.573 Y35.593 E12.56851
G1 X70.811 Y34.912 E12.63884
G1 X72.124 Y34.392 E12.70917
G1 X73.492 Y34.041 E12.77950
G1 X74.894 Y33.864 E12.84983
G1 X76.306 Y33.864 E12.92016 F600.000
G1 X77.708 Y34.041 E12.99049
G1 X79.076 Y34.392 E13.06082
G1 X80.389 Y34.912 E13.13115
G1 X81.627 Y35.593 E13.20148
G1 X82.770 Y36.423 E13.27181
G1 X83.800 Y37.390 E13.34214
G1 X84.700 Y38.478 E13.41247
G1 X85.457 Y39.671 E13.48280
G1 X86.058 Y40.949 E13.55313
G1 X86.495 Y42.293 E13.62346
G1 X86.760 Y43.680 E13.69379
G1 X86.848 Y45.090 E13.76412
G1 X86.763 Y46.444 E13.83168
G1 X86.376 Y46.454 F9000.000
G1 X86.090 Y47.886 E13.90437 F600.000
G1 X85.699 Y49.089 E13.96734
G1 X85.118 Y50.323 E14.03526
G1 X84.387 Y51.474 E14.10317
G1 X83.518 Y52.525 E14.17109
G1 X82.524 Y53.459 E14.23900
G1 X81.420 Y54.261 E14.30691
G1 X80.225 Y54.918 E14.37483
G1 X78.956 Y55.420 E14.44274
G1 X77.635 Y55.759 E14.51066
G1 X76.282 Y55.930 E14.57857
G1 X74.918 Y55.930 E14.64649
G1 X73.565 Y55.759 E14.71440
G1 X72.244 Y55.420 E14.78231
G1 X70.975 Y54.918 E14.85023
G1 X69.780 Y54.261 E14.91814
G1 X68.676 Y53.459 E14.98606
G1 X67.682 Y52.525 E15.05397
G1 X66.813 Y51.474 E15.12188
G1 X66.082 Y50.323 E15.18980
G1 X65.501 Y49.089 E15.25771
G1 X65.079 Y47.789 E15.32576
G1 X64.818 Y46.352 E15.39845
G1 X64.738 Y45.090 E15.46142
G1 X64.824 Y43.729 E15.52933
G1 X65.079 Y42.389 E15.59725
G1 X65.501 Y41.091 E15.66516
G1 X66.082 Y39.857 E15.73308
G1 X66.813 Y38.706 E15.80099
G1 X67.682 Y37.655 E15.86891
G1 X68.676 Y36.721 E15.93682
G1 X69.780 Y35.919 E16.00473
G1 X70.975 Y35.262 E16.07265
G1 X72.244 Y34.760 E16.14056
G1 X73.565 Y34.421 E16.20848
G1 X74.918 Y34.250 E16.27639
G1 X76.282 Y34.250 E16.34431 F600.000
G1 X77.635 Y34.421 E16.41222
G1 X78.956 Y34.760 E16.48013
G1 X80.225 Y35.262 E16.54805
G1 X81.420 Y35.919 E16.61596
G1 X82.524 Y36.721 E16.68388
G1 X83.518 Y37.655 E16.75179
G1 X84.387 Y38.706 E16.81970
G1 X85.118 Y39.857 E16.88762
G1 X85.699 Y41.091 E16.95553
G1 X86.121 Y42.389 E17.02345
G1 X86.376 Y43.729 E17.09136
G1 X86.462 Y45.090 E17.15927
G1 X86.380 Y46.394 E17.22434
G1 X85.993 Y46.404 F9000.000
G1 X85.716 Y47.788 E17.29460 F600.000
G1 X85.340 Y48.946 E17.35525
G1 X84.780 Y50.137 E17.42075
G1 X84.075 Y51.247 E17.48624
G1 X83.236 Y52.261 E17.55174
G1 X82.277 Y53.161 E17.61724
G1 X81.213 Y53.935 E17.68274
G1 X80.060 Y54.568 E17.74824
G1 X78.837 Y55.053 E17.81374
G1 X77.563 Y55.380 E17.87923
G1 X76.258 Y55.545 E17.94473
G1 X74.942 Y55.545 E18.01023
G1 X73.637 Y55.380 E18.07573
G1 X72.363 Y55.053 E18.14123
G1 X71.140 Y54.568 E18.20672
G1 X69.987 Y53.935 E18.27222
G1 X68.923 Y53.161 E18.33772
G1 X67.964 Y52.261 E18.40322
G1 X67.125 Y51.247 E18.46872
G1 X66.420 Y50.137 E18.53422
G1 X65.860 Y48.946 E18.59971
G1 X65.453 Y47.694 E18.66526
G1 X65.201 Y46.306 E18.73553
G1 X65.125 Y45.090 E18.79617
G1 X65.207 Y43.777 E18.86167
G1 X65.454 Y42.485 E18.92717
G1 X65.860 Y41.234 E18.99267
G1 X66.420 Y40.043 E19.05817
G1 X67.125 Y38.933 E19.12367
G1 X67.964 Y37.919 E19.18916
G1 X68.923 Y37.019 E19.25466
G1 X69.987 Y36.245 E19.32016
G1 X71.140 Y35.612 E19.38566
G1 X72.363 Y35.127 E19.45116
G1 X73.637 Y34.800 E19.51666
G1 X74.942 Y34.635 E19.58215
G1 X76.258 Y34.635 E19.64765 F600.000
G1 X77.563 Y34.800 E19.71315
G1 X78.837 Y35.127 E19.77865
G1 X80.060 Y35.612 E19.84415
G1 X81.213 Y36.245 E19.90965
G1 X82.277 Y37.019 E19.97514
G1 X83.236 Y37.919 E20.04064
G1 X84.075 Y38.933 E20.10614
G1 X84.780 Y40.043 E20.17164
G1 X85.340 Y41.234 E20.23714
G1 X85.746 Y42.485 E20.30264
