; generated by Slic3r 1.2.9 on 2019-08-28 at 17:37:58

; external perimeters extrusion width = 0.40mm
; perimeters extrusion width = 0.62mm
; infill extrusion width = 0.33mm
; solid infill extrusion width = 0.62mm
; top infill extrusion width = 0.20mm
; support material extrusion width = 0.40mm

M106 S256; Turn on fan to 100% power
M104 S140; turn on extruder temperature at S value
M140 S60; turn on bed temperature at S value
G28; home all axes
M84; disable motors
G1 Z15 F15000; have Z move to 20mm at 15000 mm/min
M190 S55; turn on bed temperature at S value and wait
M140 S55; turn on bed temperature at S value (printing temperature)
M109 S200; turn on extruder temperature at S value and wait (printing temperature)
M104 S200; turn on extruder temperature at S value
G1 Z0 F12000; move Z back to home
G21 ; set units to millimeters
G90 ; use absolute coordinates
M82 ; use absolute distances for extrusion
G92 E0
M106 S255
;Layer change
G1 E-6.00000 F1800.00000
G92 E0
G1 Z0.300 F9000.000
G1 X57.754 Y8.300 F9000.000
G1 E6.00000 F1800.00000
G1 X58.146 Y6.990 E6.06574 F600.000
G1 X59.192 Y6.110 E6.13149
G1 X60.140 Y5.914 E6.17804
G1 X153.140 Y5.914 E10.65102
G1 X154.450 Y6.306 E10.71677
G1 X155.329 Y7.352 E10.78251 F600.000
G1 X155.526 Y8.300 E10.82906
G1 X155.526 Y76.300 E14.09963
G1 X155.134 Y77.609 E14.16537
G1 X154.088 Y78.489 E14.23112
G1 X153.140 Y78.685 E14.27767
G1 X60.140 Y78.685 E18.75065
G1 X58.830 Y78.294 E18.81640
G1 X57.951 Y77.247 E18.88214
G1 X57.754 Y76.300 E18.92869
G1 X57.754 Y8.360 E22.19637
G1 E16.19637 F1800.00000
G92 E0
G1 X137.521 Y70.396 F9000.000
G1 E6.00000 F1800.00000
G1 X137.931 Y70.309 E6.02013 F600.000
G1 X138.349 Y70.309 E6.04024 F600.000
G1 X138.759 Y70.396 E6.06038
G1 X139.141 Y70.566 E6.08052
G1 X139.479 Y70.812 E6.10063
G1 X139.759 Y71.123 E6.12076
G1 X139.969 Y71.486 E6.14089
G1 X140.098 Y71.883 E6.16101
G1 X140.142 Y72.300 E6.18114
G1 X140.098 Y72.716 E6.20128
G1 X139.969 Y73.114 E6.22139
G1 X139.759 Y73.476 E6.24152
G1 X139.479 Y73.787 E6.26165
G1 X139.141 Y74.033 E6.28176
G1 X138.759 Y74.203 E6.30191
G1 X138.349 Y74.290 E6.32204
G1 X137.931 Y74.290 E6.34215
G1 X137.521 Y74.203 E6.36228
G1 X137.139 Y74.033 E6.38242
G1 X136.801 Y73.787 E6.40254
G1 X136.521 Y73.476 E6.42267
G1 X136.311 Y73.114 E6.44280
G1 X136.182 Y72.716 E6.46291
G1 X136.138 Y72.300 E6.48305
G1 X136.182 Y71.883 E6.50318
G1 X136.311 Y71.486 E6.52329
G1 X136.521 Y71.123 E6.54343
G1 X136.801 Y70.812 E6.56356
G1 X137.139 Y70.566 E6.58367
G1 X137.467 Y70.420 E6.60092
G1 X137.641 Y70.765 F9000.000
G1 X137.971 Y70.694 E6.61716 F600.000
G1 X138.309 Y70.694 E6.63337 F600.000
G1 X138.639 Y70.765 E6.64961
G1 X138.947 Y70.902 E6.66584
G1 X139.220 Y71.100 E6.68206
G1 X139.446 Y71.351 E6.69829
G1 X139.614 Y71.643 E6.71452
G1 X139.719 Y71.964 E6.73074
G1 X139.754 Y72.300 E6.74698
G1 X139.719 Y72.635 E6.76321
G1 X139.614 Y72.956 E6.77943
G1 X139.446 Y73.248 E6.79566
G1 X139.220 Y73.499 E6.81189
G1 X138.947 Y73.697 E6.82811
G1 X138.639 Y73.835 E6.84435
G1 X138.309 Y73.905 E6.86058
G1 X137.971 Y73.905 E6.87680
G1 X137.641 Y73.835 E6.89303
G1 X137.333 Y73.697 E6.90927
G1 X137.060 Y73.499 E6.92549
G1 X136.834 Y73.248 E6.94172
G1 X136.666 Y72.956 E6.95795
G1 X136.561 Y72.635 E6.97417
G1 X136.526 Y72.300 E6.99040
G1 X136.561 Y71.964 E7.00663
G1 X136.666 Y71.643 E7.02285
G1 X136.834 Y71.351 E7.03909
G1 X137.060 Y71.100 E7.05532
G1 X137.333 Y70.902 E7.07153
G1 X137.586 Y70.789 E7.08489
G1 X137.761 Y71.133 F9000.000
G1 X138.012 Y71.080 E7.09722 F600.000
G1 X138.268 Y71.080 E7.10954 F600.000
G1 X138.519 Y71.133 E7.12187
G1 X138.753 Y71.238 E7.13421
G1 X138.960 Y71.388 E7.14653
G1 X139.132 Y71.579 E7.15886
G1 X139.260 Y71.801 E7.17119
G1 X139.339 Y72.045 E7.18352
G1 X139.366 Y72.300 E7.19585
G1 X139.339 Y72.555 E7.20818
G1 X139.260 Y72.798 E7.22051
G1 X139.132 Y73.020 E7.23284
G1 X138.960 Y73.211 E7.24517
G1 X138.753 Y73.362 E7.25749
G1 X138.519 Y73.466 E7.26983
G1 X138.268 Y73.519 E7.28216
G1 X138.012 Y73.519 E7.29448
G1 X137.761 Y73.466 E7.30682
G1 X137.527 Y73.362 E7.31915
G1 X137.320 Y73.211 E7.33148
G1 X137.148 Y73.020 E7.34381
G1 X137.020 Y72.798 E7.35614
G1 X136.941 Y72.555 E7.36846
G1 X136.914 Y72.300 E7.38079
G1 X136.941 Y72.045 E7.39312
G1 X137.020 Y71.801 E7.40545
G1 X137.148 Y71.579 E7.41778
G1 X137.320 Y71.388 E7.43011
G1 X137.527 Y71.238 E7.44244
G1 X137.706 Y71.158 E7.45189
G1 X137.823 Y70.885 F9000.000
G1 X137.931 Y17.290 F9000.000
G1 X137.521 Y17.203 E7.47201 F600.000
G1 X137.139 Y17.033 E7.49215
G1 X136.801 Y16.787 E7.51227
G1 X136.521 Y16.476 E7.53240
G1 X136.311 Y16.114 E7.55253
G1 X136.182 Y15.716 E7.57265
G1 X136.138 Y15.300 E7.59278
G1 X136.182 Y14.883 E7.61291
G1 X136.311 Y14.485 E7.63303
G1 X136.521 Y14.123 E7.65316
G1 X136.801 Y13.812 E7.67329
G1 X137.139 Y13.566 E7.69341
G1 X137.521 Y13.396 E7.71354
G1 X137.931 Y13.309 E7.73367
G1 X138.349 Y13.309 E7.75379 F600.000
G1 X138.759 Y13.396 E7.77392
G1 X139.141 Y13.566 E7.79405
G1 X139.479 Y13.812 E7.81417
G1 X139.759 Y14.123 E7.83430
G1 X139.969 Y14.485 E7.85443
G1 X140.098 Y14.883 E7.87455
G1 X140.142 Y15.300 E7.89468
G1 X140.098 Y15.716 E7.91482
G1 X139.969 Y16.114 E7.93493
G1 X139.759 Y16.476 E7.95506
G1 X139.479 Y16.787 E7.97519
G1 X139.141 Y17.033 E7.99532
G1 X138.759 Y17.203 E8.01545
G1 X138.349 Y17.290 E8.03557
G1 X137.991 Y17.290 E8.05281
G1 X137.971 Y16.905 F9000.000
G1 X137.641 Y16.835 E8.06904 F600.000
G1 X137.333 Y16.697 E8.08527
G1 X137.060 Y16.499 E8.10150
G1 X136.834 Y16.248 E8.11773
G1 X136.666 Y15.956 E8.13396
G1 X136.561 Y15.635 E8.15018
G1 X136.526 Y15.300 E8.16641
G1 X136.561 Y14.964 E8.18264
G1 X136.666 Y14.643 E8.19887
G1 X136.834 Y14.351 E8.21510
G1 X137.060 Y14.100 E8.23133
G1 X137.333 Y13.902 E8.24755
G1 X137.641 Y13.765 E8.26378
G1 X137.971 Y13.694 E8.28001
G1 X138.309 Y13.694 E8.29624 F600.000
G1 X138.639 Y13.765 E8.31247
G1 X138.947 Y13.902 E8.32870
G1 X139.220 Y14.100 E8.34492
G1 X139.446 Y14.351 E8.36115
G1 X139.614 Y14.643 E8.37738
G1 X139.719 Y14.964 E8.39360
G1 X139.754 Y15.300 E8.40984
G1 X139.719 Y15.635 E8.42607
G1 X139.614 Y15.956 E8.44229
G1 X139.446 Y16.248 E8.45852
G1 X139.220 Y16.499 E8.47475
G1 X138.947 Y16.697 E8.49098
G1 X138.639 Y16.835 E8.50721
G1 X138.309 Y16.905 E8.52344
G1 X138.031 Y16.905 E8.53677
G1 X138.012 Y16.519 F9000.000
G1 X137.761 Y16.466 E8.54911 F600.000
G1 X137.527 Y16.362 E8.56144
G1 X137.320 Y16.211 E8.57376
G1 X137.148 Y16.020 E8.58610
G1 X137.020 Y15.798 E8.59842
G1 X136.941 Y15.555 E8.61075
G1 X136.914 Y15.300 E8.62308
G1 X136.941 Y15.045 E8.63541
G1 X137.020 Y14.801 E8.64774
G1 X137.148 Y14.579 E8.66007
G1 X137.320 Y14.388 E8.67240
G1 X137.527 Y14.238 E8.68473
G1 X137.761 Y14.133 E8.69706
G1 X138.012 Y14.080 E8.70939
G1 X138.268 Y14.080 E8.72172 F600.000
G1 X138.519 Y14.133 E8.73405
G1 X138.753 Y14.238 E8.74638
G1 X138.960 Y14.388 E8.75871
G1 X139.132 Y14.579 E8.77104
G1 X139.260 Y14.801 E8.78337
G1 X139.339 Y15.045 E8.79570
G1 X139.366 Y15.300 E8.80803
G1 X139.339 Y15.555 E8.82036
G1 X139.260 Y15.798 E8.83269
G1 X139.132 Y16.020 E8.84502
G1 X138.960 Y16.211 E8.85735
G1 X138.753 Y16.362 E8.86967
G1 X138.519 Y16.466 E8.88201
G1 X138.268 Y16.519 E8.89434
G1 X138.072 Y16.519 E8.90378
G1 X137.854 Y16.721 F9000.000
G1 X136.136 Y29.803 F9000.000
G1 X136.136 Y66.796 E10.68299 F600.000
G1 X74.144 Y66.796 E13.66461
G1 X74.144 Y29.803 E15.44383
G1 X136.076 Y29.803 E18.42257
G1 X135.751 Y30.189 F9000.000
G1 X135.751 Y66.410 E20.16468 F600.000
G1 X74.529 Y66.410 E23.10922
G1 X74.529 Y30.189 E24.85133
G1 X135.691 Y30.189 E27.79298
G1 X135.365 Y30.575 F9000.000
G1 X135.365 Y66.025 E29.49800 F600.000
G1 X74.915 Y66.025 E32.40544
G1 X74.915 Y30.575 E34.11047
G1 X135.305 Y30.575 E37.01502
G1 X135.765 Y30.575 F9000.000
G1 X74.098 Y15.716 F9000.000
G1 X73.969 Y16.114 E37.03514 F600.000
G1 X73.759 Y16.476 E37.05527
G1 X73.479 Y16.787 E37.07539
G1 X73.141 Y17.033 E37.09552
G1 X72.759 Y17.203 E37.11565
G1 X72.349 Y17.290 E37.13578
G1 X71.931 Y17.290 E37.15590
G1 X71.521 Y17.203 E37.17603
G1 X71.139 Y17.033 E37.19616
G1 X70.801 Y16.787 E37.21628
G1 X70.521 Y16.476 E37.23641
G1 X70.311 Y16.114 E37.25654
G1 X70.182 Y15.716 E37.27666
G1 X70.138 Y15.300 E37.29679
G1 X70.182 Y14.883 E37.31692
G1 X70.311 Y14.485 E37.33704
G1 X70.521 Y14.123 E37.35717
G1 X70.801 Y13.812 E37.37730
G1 X71.139 Y13.566 E37.39742
G1 X71.521 Y13.396 E37.41756
G1 X71.931 Y13.309 E37.43768
G1 X72.349 Y13.309 E37.45781 F600.000
G1 X72.759 Y13.396 E37.47793
G1 X73.141 Y13.566 E37.49806
G1 X73.479 Y13.812 E37.51819
G1 X73.759 Y14.123 E37.53832
G1 X73.969 Y14.485 E37.55844
G1 X74.098 Y14.883 E37.57856
G1 X74.142 Y15.300 E37.59870
G1 X74.104 Y15.656 E37.61594
G1 X73.719 Y15.635 F9000.000
G1 X73.614 Y15.956 E37.63217 F600.000
G1 X73.446 Y16.248 E37.64840
G1 X73.220 Y16.499 E37.66462
G1 X72.947 Y16.697 E37.68085
G1 X72.639 Y16.835 E37.69708
G1 X72.309 Y16.905 E37.71331
G1 X71.971 Y16.905 E37.72954
G1 X71.641 Y16.835 E37.74576
G1 X71.333 Y16.697 E37.76200
G1 X71.060 Y16.499 E37.77822
G1 X70.834 Y16.248 E37.79445
G1 X70.666 Y15.956 E37.81068
G1 X70.561 Y15.635 E37.82690
G1 X70.526 Y15.300 E37.84314
G1 X70.561 Y14.964 E37.85937
G1 X70.666 Y14.643 E37.87559
G1 X70.834 Y14.351 E37.89182
G1 X71.060 Y14.100 E37.90805
G1 X71.333 Y13.902 E37.92428
G1 X71.641 Y13.765 E37.94051
G1 X71.971 Y13.694 E37.95674
G1 X72.309 Y13.694 E37.97296 F600.000
G1 X72.639 Y13.765 E37.98919
G1 X72.947 Y13.902 E38.00542
G1 X73.220 Y14.100 E38.02165
G1 X73.446 Y14.351 E38.03788
G1 X73.614 Y14.643 E38.05410
G1 X73.719 Y14.964 E38.07033
G1 X73.754 Y15.300 E38.08656
G1 X73.725 Y15.576 E38.09991
G1 X73.339 Y15.555 F9000.000
G1 X73.260 Y15.798 E38.11224 F600.000
G1 X73.132 Y16.020 E38.12456
G1 X72.960 Y16.211 E38.13689
G1 X72.753 Y16.362 E38.14922
G1 X72.519 Y16.466 E38.16155
G1 X72.268 Y16.519 E38.17388
G1 X72.012 Y16.519 E38.18621
G1 X71.761 Y16.466 E38.19854
G1 X71.527 Y16.362 E38.21087
G1 X71.320 Y16.211 E38.22320
G1 X71.148 Y16.020 E38.23553
G1 X71.020 Y15.798 E38.24786
G1 X70.941 Y15.555 E38.26019
G1 X70.914 Y15.300 E38.27252
G1 X70.941 Y15.045 E38.28485
G1 X71.020 Y14.801 E38.29718
G1 X71.148 Y14.579 E38.30951
G1 X71.320 Y14.388 E38.32184
G1 X71.527 Y14.238 E38.33417
G1 X71.761 Y14.133 E38.34650
G1 X72.012 Y14.080 E38.35883
G1 X72.268 Y14.080 E38.37115 F600.000
G1 X72.519 Y14.133 E38.38348
G1 X72.753 Y14.238 E38.39582
G1 X72.960 Y14.388 E38.40814
G1 X73.132 Y14.579 E38.42047
G1 X73.260 Y14.801 E38.43280
G1 X73.339 Y15.045 E38.44513
G1 X73.366 Y15.300 E38.45746
G1 X73.346 Y15.495 E38.46691
G1 X73.524 Y15.733 F9000.000
G1 X72.349 Y70.309 F9000.000
G1 X72.759 Y70.396 E38.48704 F600.000
G1 X73.141 Y70.566 E38.50718
G1 X73.479 Y70.812 E38.52730
G1 X73.759 Y71.123 E38.54742
G1 X73.969 Y71.486 E38.56756
G1 X74.098 Y71.883 E38.58767
G1 X74.142 Y72.300 E38.60780
G1 X74.098 Y72.716 E38.62794
G1 X73.969 Y73.114 E38.64805
G1 X73.759 Y73.476 E38.66819
G1 X73.479 Y73.787 E38.68831
G1 X73.141 Y74.033 E38.70843
G1 X72.759 Y74.203 E38.72857
G1 X72.349 Y74.290 E38.74870
G1 X71.931 Y74.290 E38.76881
G1 X71.521 Y74.203 E38.78895
G1 X71.139 Y74.033 E38.80909
G1 X70.801 Y73.787 E38.82920
G1 X70.521 Y73.476 E38.84933
G1 X70.311 Y73.114 E38.86946
G1 X70.182 Y72.716 E38.88958
G1 X70.136 Y72.275 E38.91088
G1 X70.209 Y71.801 E38.93398
G1 X70.311 Y71.486 E38.94992
G1 X70.521 Y71.123 E38.97005
G1 X70.801 Y70.812 E38.99018
G1 X71.139 Y70.566 E39.01029
G1 X71.521 Y70.396 E39.03043
G1 X71.931 Y70.309 E39.05057
G1 X72.289 Y70.309 E39.06779 F600.000
G1 X72.309 Y70.694 F9000.000
G1 X72.639 Y70.765 E39.08402 F600.000
G1 X72.947 Y70.902 E39.10026
G1 X73.220 Y71.100 E39.11648
G1 X73.446 Y71.351 E39.13271
G1 X73.614 Y71.643 E39.14894
G1 X73.719 Y71.964 E39.16516
G1 X73.754 Y72.300 E39.18140
G1 X73.719 Y72.635 E39.19763
G1 X73.614 Y72.956 E39.21385
G1 X73.446 Y73.248 E39.23008
G1 X73.220 Y73.499 E39.24631
G1 X72.947 Y73.697 E39.26253
G1 X72.639 Y73.835 E39.27877
G1 X72.309 Y73.905 E39.29500
G1 X71.971 Y73.905 E39.31122
G1 X71.641 Y73.835 E39.32745
G1 X71.333 Y73.697 E39.34369
G1 X71.060 Y73.499 E39.35991
G1 X70.834 Y73.248 E39.37613
G1 X70.666 Y72.956 E39.39237
G1 X70.561 Y72.635 E39.40859
G1 X70.524 Y72.285 E39.42554
G1 X70.585 Y71.890 E39.44474
G1 X70.666 Y71.643 E39.45723
G1 X70.834 Y71.351 E39.47346
G1 X71.060 Y71.100 E39.48969
G1 X71.333 Y70.902 E39.50591
G1 X71.641 Y70.765 E39.52215
G1 X71.971 Y70.694 E39.53838
G1 X72.249 Y70.694 E39.55171 F600.000
G1 X72.268 Y71.080 F9000.000
G1 X72.519 Y71.133 E39.56404 F600.000
G1 X72.753 Y71.238 E39.57638
G1 X72.960 Y71.388 E39.58870
G1 X73.132 Y71.579 E39.60103
G1 X73.260 Y71.801 E39.61336
G1 X73.339 Y72.045 E39.62569
G1 X73.366 Y72.300 E39.63802
G1 X73.339 Y72.555 E39.65035
G1 X73.260 Y72.798 E39.66268
G1 X73.132 Y73.020 E39.67501
G1 X72.960 Y73.211 E39.68734
G1 X72.753 Y73.362 E39.69966
G1 X72.519 Y73.466 E39.71200
G1 X72.268 Y73.519 E39.72433
G1 X72.012 Y73.519 E39.73665
G1 X71.761 Y73.466 E39.74898
G1 X71.527 Y73.362 E39.76132
G1 X71.320 Y73.211 E39.77365
G1 X71.148 Y73.020 E39.78597
G1 X71.020 Y72.798 E39.79831
G1 X70.941 Y72.555 E39.81063
G1 X70.913 Y72.294 E39.82323
G1 X70.962 Y71.980 E39.83853
G1 X71.020 Y71.801 E39.84757
G1 X71.148 Y71.579 E39.85990
G1 X71.320 Y71.388 E39.87223
G1 X71.527 Y71.238 E39.88456
G1 X71.761 Y71.133 E39.89689
G1 X72.012 Y71.080 E39.90922
G1 X72.208 Y71.080 E39.91866 F600.000
G1 X72.426 Y70.878 F9000.000
G1 X61.136 Y75.303 F9000.000
G1 X61.136 Y9.296 E43.09340 F600.000
G1 X152.144 Y9.296 E47.47055
G1 X152.144 Y75.303 E50.64529
G1 X61.196 Y75.303 E55.01955
G1 X60.751 Y75.689 F9000.000
G1 X60.751 Y8.910 E58.23138 F600.000
G1 X152.529 Y8.910 E62.64563
G1 X152.529 Y75.689 E65.85746
G1 X60.811 Y75.689 E70.26882
G1 X60.365 Y76.075 F9000.000
G1 X60.365 Y8.525 E73.51774 F600.000
G1 X152.915 Y8.525 E77.96908
G1 X152.915 Y76.075 E81.21800
G1 X60.425 Y76.075 E85.66646
G1 X60.565 Y75.728 F9000.000
G1 X61.420 Y74.271 F9000.000
G1 X62.169 Y75.020 E85.71741 F600.000
G1 X62.714 Y75.020 E85.74366
G1 X61.420 Y73.725 E85.83173
G1 X61.420 Y73.180 E85.85798
G1 X63.260 Y75.020 E85.98317
G1 X63.806 Y75.020 E86.00942
G1 X61.420 Y72.634 E86.17173
G1 X61.420 Y72.089 E86.19797
G1 X64.351 Y75.020 E86.39740
G1 X64.897 Y75.020 E86.42364
G1 X61.420 Y71.543 E86.66019
G1 X61.420 Y70.998 E86.68643
G1 X65.442 Y75.020 E86.96009
G1 X65.988 Y75.020 E86.98634
G1 X61.420 Y70.452 E87.29712
G1 X61.420 Y69.906 E87.32336
G1 X66.533 Y75.020 E87.67126
G1 X67.079 Y75.020 E87.69750
G1 X61.420 Y69.361 E88.08252
G1 X61.420 Y68.815 E88.10876
G1 X67.624 Y75.020 E88.53089
G1 X68.170 Y75.020 E88.55714
G1 X61.420 Y68.270 E89.01638
G1 X61.420 Y67.724 E89.04263
G1 X68.715 Y75.020 E89.53899
G1 X69.261 Y75.020 E89.56524
G1 X61.420 Y67.179 E90.09872
G1 X61.420 Y66.633 E90.12496
G1 X69.806 Y75.020 E90.69556
G1 X70.352 Y75.020 E90.72181
G1 X61.420 Y66.088 E91.32952
G1 X61.420 Y65.542 E91.35577
G1 X70.897 Y75.020 E92.00060
G1 E86.00060 F1800.00000
G92 E0
G1 X74.221 Y71.252 F9000.000
G1 E6.00000 F1800.00000
G1 X77.989 Y75.020 E6.25636 F600.000
G1 X77.443 Y75.020 E6.28260
G1 X74.402 Y71.978 E6.48952
G1 X74.396 Y72.518 E6.51546
G1 X76.898 Y75.020 E6.68570
G1 X76.352 Y75.020 E6.71194
G1 X74.294 Y72.961 E6.85199
G1 X74.130 Y73.342 E6.87196
G1 X75.807 Y75.020 E6.98607
G1 X75.261 Y75.020 E7.01232
G1 X73.917 Y73.675 E7.10380
G1 X73.658 Y73.962 E7.12239
G1 X74.716 Y75.020 E7.19434
G1 X74.170 Y75.020 E7.22059
G1 X73.346 Y74.195 E7.27669
G1 X72.988 Y74.383 E7.29613
G1 X73.625 Y75.020 E7.33943
G1 X73.079 Y75.020 E7.36568
G1 X72.576 Y74.517 E7.39990
G1 X72.534 Y75.020 E7.42418
G1 X72.088 Y74.574 E7.45449
G1 X71.988 Y75.020 E7.47645
G1 X71.471 Y74.502 E7.51167
G1 X71.443 Y75.020 E7.53661
G1 X61.420 Y64.997 E8.21856
G1 X61.420 Y64.451 E8.24480
G1 X69.934 Y72.965 E8.82409
G1 X69.851 Y72.337 E8.85460
G1 X61.420 Y63.906 E9.42823
G1 X61.420 Y63.360 E9.45447
G1 X69.924 Y71.864 E10.03306
G1 X70.049 Y71.444 E10.05416
G1 X61.420 Y62.815 E10.64127
G1 X61.420 Y62.269 E10.66752
G1 X70.244 Y71.094 E11.26793
G1 X70.485 Y70.789 E11.28662
G1 X61.420 Y61.724 E11.90340
G1 X61.420 Y61.178 E11.92965
G1 X70.767 Y70.526 E12.56564
G1 X71.092 Y70.305 E12.58454
G1 X61.420 Y60.633 E13.24264
G1 X61.420 Y60.087 E13.26889
