; generated by Slic3r 1.2.9 on 2018-07-25 at 17:45:17

; external perimeters extrusion width = 0.40mm
; perimeters extrusion width = 0.62mm
; infill extrusion width = 0.33mm
; solid infill extrusion width = 0.62mm
; top infill extrusion width = 0.20mm

M106 S256; Turn on fan to 100% power
M104 S140; turn on extruder temperature at S value
M140 S60; turn on bed temperature at S value
G28; home all axes
M84; disable motors
G1 Z15 F15000; have Z move to 20mm at 15000 mm/min
M190 S55; turn on bed temperature at S value and wait
M140 S55; turn on bed temperature at S value (printing temperature)
M109 S200; turn on extruder temperature at S value and wait (printing temperature)
M104 S200; turn on extruder temperature at S value
G1 Z0 F12000; move Z back to home
G21 ; set units to millimeters
G90 ; use absolute coordinates
M82 ; use absolute distances for extrusion
G92 E0
M106 S255
;Layer change
G1 E-6.00000 F1800.00000
G92 E0
G1 Z0.300 F9000.000
G1 X54.144 Y11.420 F9000.000
G1 E6.00000 F1800.00000
G1 X54.536 Y10.110 E6.06727 F600.000
G1 X55.582 Y9.231 E6.13455
G1 X56.530 Y9.034 E6.18218
G1 X152.530 Y9.034 E10.90683
G1 X153.840 Y9.426 E10.97410
G1 X154.719 Y10.472 E11.04137 F600.000
G1 X154.916 Y11.420 E11.08901
G1 X154.916 Y75.420 E14.23877
G1 X154.524 Y76.730 E14.30604
G1 X153.478 Y77.609 E14.37332
G1 X152.530 Y77.806 E14.42095
G1 X56.530 Y77.806 E19.14560
G1 X55.220 Y77.414 E19.21287
G1 X54.341 Y76.368 E19.28014
G1 X54.144 Y75.420 E19.32778
G1 X54.144 Y11.480 E22.47459
G1 E16.47459 F1800.00000
G92 E0
G1 X145.485 Y67.756 F9000.000
G1 E6.00000 F1800.00000
G1 X145.782 Y67.568 E6.01730 F600.000
G1 X146.100 Y67.418 E6.03461
G1 X146.435 Y67.309 E6.05196
G1 X146.785 Y67.243 E6.06948
G1 X147.130 Y67.222 E6.08648 F600.000
G1 X147.481 Y67.244 E6.10378
G1 X147.826 Y67.310 E6.12107
G1 X148.160 Y67.418 E6.13835
G1 X148.478 Y67.568 E6.15566
G1 X148.775 Y67.756 E6.17296
G1 X149.045 Y67.980 E6.19024
G1 X149.286 Y68.236 E6.20753
G1 X149.493 Y68.521 E6.22483
G1 X149.662 Y68.829 E6.24213
G1 X149.791 Y69.155 E6.25942
G1 X149.879 Y69.496 E6.27672
G1 X149.923 Y69.844 E6.29401
G1 X149.923 Y70.196 E6.31130
G1 X149.879 Y70.538 E6.32829
G1 X149.792 Y70.883 E6.34582
G1 X149.662 Y71.211 E6.36318
G1 X149.496 Y71.514 E6.38018
G1 X149.287 Y71.803 E6.39771
G1 X149.045 Y72.060 E6.41507
G1 X148.775 Y72.284 E6.43235
G1 X148.478 Y72.472 E6.44965
G1 X148.160 Y72.622 E6.46696
G1 X147.826 Y72.730 E6.48424
G1 X147.481 Y72.796 E6.50153
G1 X147.130 Y72.818 E6.51883
G1 X146.779 Y72.796 E6.53613
G1 X146.434 Y72.730 E6.55342
G1 X146.100 Y72.622 E6.57070
G1 X145.782 Y72.472 E6.58801
G1 X145.485 Y72.284 E6.60531
G1 X145.215 Y72.060 E6.62259
G1 X144.974 Y71.804 E6.63988
G1 X144.771 Y71.524 E6.65688
G1 X144.599 Y71.213 E6.67442
G1 X144.469 Y70.885 E6.69178
G1 X144.381 Y70.544 E6.70907
G1 X144.337 Y70.196 E6.72636
G1 X144.337 Y69.844 E6.74365
G1 X144.381 Y69.502 E6.76064
G1 X144.468 Y69.157 E6.77817
G1 X144.598 Y68.829 E6.79553
G1 X144.767 Y68.521 E6.81283
G1 X144.974 Y68.236 E6.83013
G1 X145.215 Y67.980 E6.84742
G1 X145.439 Y67.795 E6.86175
G1 X145.712 Y68.069 F9000.000
G1 X145.968 Y67.906 E6.87666 F600.000
G1 X146.242 Y67.777 E6.89158
G1 X146.531 Y67.684 E6.90652
G1 X146.833 Y67.627 E6.92165
G1 X147.130 Y67.608 E6.93628 F600.000
G1 X147.432 Y67.627 E6.95119
G1 X147.730 Y67.684 E6.96609
G1 X148.018 Y67.777 E6.98099
G1 X148.292 Y67.906 E6.99591
G1 X148.548 Y68.069 E7.01082
G1 X148.781 Y68.262 E7.02572
G1 X148.988 Y68.483 E7.04062
G1 X149.166 Y68.728 E7.05553
G1 X149.312 Y68.993 E7.07044
G1 X149.424 Y69.275 E7.08535
G1 X149.499 Y69.568 E7.10025
G1 X149.537 Y69.869 E7.11516
G1 X149.537 Y70.171 E7.13006
G1 X149.500 Y70.466 E7.14469
G1 X149.424 Y70.764 E7.15983
G1 X149.312 Y71.047 E7.17478
G1 X149.169 Y71.307 E7.18941
G1 X148.989 Y71.557 E7.20456
G1 X148.781 Y71.778 E7.21950
G1 X148.548 Y71.971 E7.23440
G1 X148.292 Y72.134 E7.24931
G1 X148.018 Y72.263 E7.26423
G1 X147.730 Y72.356 E7.27912
G1 X147.432 Y72.413 E7.29402
G1 X147.130 Y72.432 E7.30893
G1 X146.828 Y72.413 E7.32385
G1 X146.530 Y72.356 E7.33875
G1 X146.242 Y72.263 E7.35364
G1 X145.968 Y72.134 E7.36856
G1 X145.712 Y71.971 E7.38347
G1 X145.479 Y71.778 E7.39837
G1 X145.272 Y71.557 E7.41327
G1 X145.097 Y71.317 E7.42791
G1 X144.948 Y71.048 E7.44305
G1 X144.836 Y70.765 E7.45800
G1 X144.761 Y70.472 E7.47290
G1 X144.723 Y70.171 E7.48781
G1 X144.723 Y69.869 E7.50271
G1 X144.760 Y69.574 E7.51734
G1 X144.836 Y69.276 E7.53248
G1 X144.948 Y68.993 E7.54743
G1 X145.094 Y68.728 E7.56234
G1 X145.272 Y68.483 E7.57725
G1 X145.479 Y68.262 E7.59215
G1 X145.666 Y68.107 E7.60410
G1 X145.939 Y68.381 F9000.000
G1 X146.154 Y68.245 E7.61662 F600.000
G1 X146.384 Y68.137 E7.62914
G1 X146.627 Y68.058 E7.64167
G1 X146.881 Y68.010 E7.65442
G1 X147.130 Y67.995 E7.66669 F600.000
G1 X147.384 Y68.011 E7.67921
G1 X147.634 Y68.058 E7.69172
G1 X147.876 Y68.137 E7.70424
G1 X148.106 Y68.245 E7.71676
G1 X148.321 Y68.381 E7.72928
G1 X148.517 Y68.544 E7.74180
G1 X148.691 Y68.729 E7.75431
G1 X148.840 Y68.935 E7.76683
G1 X148.963 Y69.158 E7.77935
G1 X149.056 Y69.394 E7.79187
G1 X149.120 Y69.640 E7.80439
G1 X149.151 Y69.893 E7.81691
G1 X149.151 Y70.147 E7.82942
G1 X149.120 Y70.394 E7.84169
G1 X149.056 Y70.646 E7.85444
G1 X148.963 Y70.882 E7.86698
G1 X148.843 Y71.101 E7.87924
G1 X148.691 Y71.311 E7.89200
G1 X148.517 Y71.496 E7.90453
G1 X148.321 Y71.659 E7.91704
G1 X148.106 Y71.795 E7.92956
G1 X147.876 Y71.903 E7.94209
G1 X147.634 Y71.982 E7.95460
G1 X147.384 Y72.029 E7.96712
G1 X147.130 Y72.045 E7.97964
G1 X146.876 Y72.029 E7.99216
G1 X146.626 Y71.982 E8.00467
G1 X146.384 Y71.903 E8.01719
G1 X146.154 Y71.795 E8.02971
G1 X145.939 Y71.659 E8.04223
G1 X145.743 Y71.496 E8.05475
G1 X145.569 Y71.311 E8.06726
G1 X145.423 Y71.109 E8.07953
G1 X145.297 Y70.883 E8.09229
G1 X145.204 Y70.646 E8.10482
G1 X145.140 Y70.400 E8.11734
G1 X145.109 Y70.147 E8.12986
G1 X145.109 Y69.893 E8.14237
G1 X145.140 Y69.646 E8.15464
G1 X145.204 Y69.394 E8.16739
G1 X145.297 Y69.158 E8.17992
G1 X145.420 Y68.935 E8.19244
G1 X145.569 Y68.729 E8.20496
G1 X145.743 Y68.544 E8.21748
G1 X145.893 Y68.420 E8.22704
G1 X145.918 Y68.128 F9000.000
G1 X140.191 Y66.785 F9000.000
G1 X140.062 Y67.111 E8.24434 F600.000
G1 X139.918 Y67.372 E8.25900
G1 X139.693 Y67.696 E8.27843
G1 X139.445 Y67.960 E8.29621
G1 X139.175 Y68.184 E8.31350
G1 X138.878 Y68.372 E8.33080
G1 X138.560 Y68.522 E8.34810
G1 X138.226 Y68.630 E8.36539
G1 X137.881 Y68.696 E8.38269
G1 X137.530 Y68.718 E8.39998
G1 X137.179 Y68.696 E8.41727
G1 X136.834 Y68.630 E8.43456
G1 X136.500 Y68.522 E8.45186
G1 X136.182 Y68.372 E8.46916
G1 X135.885 Y68.184 E8.48646
G1 X135.615 Y67.960 E8.50374
G1 X135.374 Y67.704 E8.52103
G1 X135.167 Y67.419 E8.53833
G1 X134.998 Y67.111 E8.55563
G1 X134.869 Y66.785 E8.57292
G1 X134.781 Y66.444 E8.59022
G1 X134.737 Y66.096 E8.60751
G1 X134.737 Y65.744 E8.62480
G1 X134.781 Y65.396 E8.64209
G1 X134.869 Y65.055 E8.65939
G1 X134.998 Y64.729 E8.67668
G1 X135.167 Y64.421 E8.69398
G1 X135.374 Y64.136 E8.71128
G1 X135.615 Y63.880 E8.72857
G1 X135.885 Y63.656 E8.74585
G1 X136.182 Y63.468 E8.76315
G1 X136.500 Y63.318 E8.78046
G1 X136.844 Y63.207 E8.79825
G1 X137.233 Y63.140 E8.81767
G1 X137.530 Y63.122 E8.83232 F600.000
G1 X137.881 Y63.144 E8.84961
G1 X138.226 Y63.210 E8.86691
G1 X138.560 Y63.318 E8.88420
G1 X138.878 Y63.468 E8.90150
G1 X139.175 Y63.656 E8.91880
G1 X139.445 Y63.880 E8.93609
G1 X139.686 Y64.136 E8.95338
G1 X139.893 Y64.421 E8.97067
G1 X140.062 Y64.729 E8.98797
G1 X140.191 Y65.055 E9.00527
G1 X140.279 Y65.396 E9.02256
G1 X140.323 Y65.744 E9.03986
G1 X140.323 Y66.096 E9.05714
G1 X140.279 Y66.444 E9.07444
G1 X140.206 Y66.726 E9.08878
G1 X139.824 Y66.665 F9000.000
G1 X139.712 Y66.947 E9.10368 F600.000
G1 X139.590 Y67.169 E9.11615
G1 X139.393 Y67.453 E9.13319
G1 X139.181 Y67.678 E9.14839
G1 X138.948 Y67.871 E9.16329
G1 X138.692 Y68.034 E9.17820
G1 X138.418 Y68.162 E9.19311
G1 X138.130 Y68.256 E9.20802
G1 X137.832 Y68.313 E9.22293
G1 X137.530 Y68.332 E9.23783
G1 X137.228 Y68.313 E9.25273
G1 X136.930 Y68.256 E9.26764
G1 X136.642 Y68.162 E9.28255
G1 X136.368 Y68.034 E9.29746
G1 X136.112 Y67.871 E9.31237
G1 X135.879 Y67.678 E9.32727
G1 X135.672 Y67.457 E9.34217
G1 X135.494 Y67.212 E9.35708
G1 X135.348 Y66.947 E9.37199
G1 X135.236 Y66.665 E9.38690
G1 X135.161 Y66.372 E9.40180
G1 X135.123 Y66.071 E9.41671
G1 X135.123 Y65.769 E9.43161
G1 X135.161 Y65.468 E9.44652
G1 X135.236 Y65.175 E9.46142
G1 X135.348 Y64.893 E9.47633
G1 X135.494 Y64.628 E9.49124
G1 X135.672 Y64.383 E9.50615
G1 X135.879 Y64.162 E9.52105
G1 X136.112 Y63.969 E9.53595
G1 X136.368 Y63.806 E9.55086
G1 X136.642 Y63.678 E9.56577
G1 X136.936 Y63.582 E9.58098
G1 X137.277 Y63.524 E9.59801
G1 X137.530 Y63.508 E9.61047 F600.000
G1 X137.832 Y63.527 E9.62538
G1 X138.130 Y63.584 E9.64028
G1 X138.418 Y63.678 E9.65519
G1 X138.692 Y63.806 E9.67010
G1 X138.948 Y63.969 E9.68501
G1 X139.181 Y64.162 E9.69991
G1 X139.388 Y64.383 E9.71481
G1 X139.566 Y64.628 E9.72972
G1 X139.712 Y64.893 E9.74463
G1 X139.824 Y65.175 E9.75954
G1 X139.899 Y65.468 E9.77444
G1 X139.937 Y65.769 E9.78935
G1 X139.937 Y66.071 E9.80425
G1 X139.899 Y66.372 E9.81916
G1 X139.839 Y66.607 E9.83111
G1 X139.456 Y66.546 F9000.000
G1 X139.363 Y66.782 E9.84363 F600.000
G1 X139.262 Y66.965 E9.85390
G1 X139.092 Y67.209 E9.86854
G1 X138.917 Y67.396 E9.88117
G1 X138.721 Y67.559 E9.89369
G1 X138.506 Y67.695 E9.90621
G1 X138.276 Y67.803 E9.91873
G1 X138.034 Y67.882 E9.93125
G1 X137.784 Y67.929 E9.94376
G1 X137.530 Y67.945 E9.95628
G1 X137.276 Y67.929 E9.96880
G1 X137.026 Y67.882 E9.98131
G1 X136.784 Y67.803 E9.99383
G1 X136.554 Y67.695 E10.00635
G1 X136.339 Y67.559 E10.01887
G1 X136.143 Y67.396 E10.03139
G1 X135.969 Y67.211 E10.04390
G1 X135.820 Y67.005 E10.05643
G1 X135.697 Y66.782 E10.06895
G1 X135.604 Y66.546 E10.08146
G1 X135.540 Y66.300 E10.09398
G1 X135.509 Y66.047 E10.10650
G1 X135.509 Y65.793 E10.11901
G1 X135.540 Y65.540 E10.13153
G1 X135.604 Y65.294 E10.14405
G1 X135.697 Y65.058 E10.15657
G1 X135.820 Y64.835 E10.16909
G1 X135.969 Y64.629 E10.18161
G1 X136.143 Y64.444 E10.19412
G1 X136.339 Y64.281 E10.20664
G1 X136.554 Y64.145 E10.21916
G1 X136.784 Y64.037 E10.23168
G1 X137.029 Y63.957 E10.24431
G1 X137.322 Y63.908 E10.25896
G1 X137.530 Y63.895 E10.26922 F600.000
G1 X137.784 Y63.911 E10.28174
G1 X138.034 Y63.958 E10.29426
G1 X138.276 Y64.037 E10.30677
G1 X138.506 Y64.145 E10.31930
G1 X138.721 Y64.281 E10.33182
G1 X138.917 Y64.444 E10.34433
G1 X139.091 Y64.629 E10.35685
G1 X139.240 Y64.835 E10.36937
G1 X139.363 Y65.058 E10.38189
G1 X139.456 Y65.294 E10.39441
G1 X139.520 Y65.540 E10.40692
G1 X139.551 Y65.793 E10.41944
G1 X139.551 Y66.047 E10.43196
G1 X139.520 Y66.300 E10.44448
G1 X139.471 Y66.488 E10.45404
G1 X139.623 Y66.738 F9000.000
G1 E4.45404 F1800.00000
G92 E0
G1 X107.323 Y66.096 F9000.000
G1 E6.00000 F1800.00000
G1 X107.279 Y66.444 E6.01730 F600.000
G1 X107.191 Y66.785 E6.03459
G1 X107.062 Y67.111 E6.05188
G1 X106.893 Y67.419 E6.06918
G1 X106.686 Y67.704 E6.08648
G1 X106.445 Y67.960 E6.10377
G1 X106.175 Y68.184 E6.12105
G1 X105.878 Y68.372 E6.13835
G1 X105.560 Y68.522 E6.15565
G1 X105.226 Y68.630 E6.17295
G1 X104.881 Y68.696 E6.19024
G1 X104.530 Y68.718 E6.20753
G1 X104.179 Y68.696 E6.22482
G1 X103.834 Y68.630 E6.24212
G1 X103.500 Y68.522 E6.25942
G1 X103.182 Y68.372 E6.27671
G1 X102.885 Y68.184 E6.29401
G1 X102.615 Y67.960 E6.31130
G1 X102.374 Y67.704 E6.32859
G1 X102.167 Y67.419 E6.34589
G1 X101.998 Y67.111 E6.36318
G1 X101.869 Y66.785 E6.38048
G1 X101.781 Y66.444 E6.39777
G1 X101.737 Y66.096 E6.41507
G1 X101.737 Y65.744 E6.43236
G1 X101.781 Y65.396 E6.44965
G1 X101.869 Y65.055 E6.46695
G1 X101.998 Y64.729 E6.48424
G1 X102.167 Y64.421 E6.50153
G1 X102.374 Y64.136 E6.51884
G1 X102.615 Y63.880 E6.53613
G1 X102.885 Y63.656 E6.55341
G1 X103.182 Y63.468 E6.57071
G1 X103.500 Y63.318 E6.58801
G1 X103.844 Y63.207 E6.60580
G1 X104.233 Y63.140 E6.62522
G1 X104.530 Y63.122 E6.63988 F600.000
G1 X104.881 Y63.144 E6.65717
G1 X105.226 Y63.210 E6.67446
G1 X105.560 Y63.318 E6.69176
G1 X105.878 Y63.468 E6.70906
G1 X106.175 Y63.656 E6.72636
G1 X106.445 Y63.880 E6.74364
G1 X106.686 Y64.136 E6.76093
G1 X106.893 Y64.421 E6.77823
G1 X107.062 Y64.729 E6.79553
G1 X107.191 Y65.055 E6.81282
G1 X107.279 Y65.396 E6.83011
G1 X107.323 Y65.744 E6.84741
G1 X107.323 Y66.036 E6.86175
G1 X106.937 Y66.071 F9000.000
G1 X106.899 Y66.372 E6.87666 F600.000
G1 X106.824 Y66.665 E6.89156
G1 X106.712 Y66.947 E6.90647
G1 X106.566 Y67.212 E6.92137
G1 X106.388 Y67.457 E6.93629
G1 X106.181 Y67.678 E6.95119
G1 X105.948 Y67.871 E6.96609
G1 X105.692 Y68.034 E6.98100
G1 X105.418 Y68.162 E6.99591
G1 X105.130 Y68.256 E7.01081
G1 X104.832 Y68.313 E7.02572
G1 X104.530 Y68.332 E7.04063
G1 X104.228 Y68.313 E7.05553
G1 X103.930 Y68.256 E7.07044
G1 X103.642 Y68.162 E7.08534
G1 X103.368 Y68.034 E7.10025
G1 X103.112 Y67.871 E7.11516
G1 X102.879 Y67.678 E7.13006
G1 X102.672 Y67.457 E7.14496
G1 X102.494 Y67.212 E7.15988
G1 X102.348 Y66.947 E7.17478
G1 X102.236 Y66.665 E7.18969
G1 X102.161 Y66.372 E7.20459
G1 X102.123 Y66.071 E7.21950
G1 X102.123 Y65.769 E7.23440
G1 X102.161 Y65.468 E7.24931
G1 X102.236 Y65.175 E7.26422
G1 X102.348 Y64.893 E7.27912
G1 X102.494 Y64.628 E7.29403
G1 X102.672 Y64.383 E7.30894
G1 X102.879 Y64.162 E7.32385
G1 X103.112 Y63.969 E7.33874
G1 X103.368 Y63.806 E7.35366
G1 X103.642 Y63.678 E7.36856
G1 X103.936 Y63.582 E7.38378
G1 X104.277 Y63.524 E7.40081
G1 X104.530 Y63.508 E7.41327 F600.000
G1 X104.832 Y63.527 E7.42817
G1 X105.130 Y63.584 E7.44308
G1 X105.418 Y63.678 E7.45799
G1 X105.692 Y63.806 E7.47289
G1 X105.948 Y63.969 E7.48781
G1 X106.181 Y64.162 E7.50270
G1 X106.388 Y64.383 E7.51761
G1 X106.566 Y64.628 E7.53252
G1 X106.712 Y64.893 E7.54743
G1 X106.824 Y65.175 E7.56233
G1 X106.899 Y65.468 E7.57724
G1 X106.937 Y65.769 E7.59215
G1 X106.937 Y66.011 E7.60410
G1 X106.551 Y66.047 F9000.000
G1 X106.520 Y66.300 E7.61662 F600.000
G1 X106.456 Y66.546 E7.62913
G1 X106.363 Y66.782 E7.64165
G1 X106.240 Y67.005 E7.65417
G1 X106.091 Y67.211 E7.66669
G1 X105.916 Y67.396 E7.67921
G1 X105.721 Y67.559 E7.69172
G1 X105.506 Y67.695 E7.70424
G1 X105.276 Y67.803 E7.71676
G1 X105.034 Y67.882 E7.72928
G1 X104.784 Y67.929 E7.74180
G1 X104.530 Y67.945 E7.75432
G1 X104.276 Y67.929 E7.76683
G1 X104.026 Y67.882 E7.77935
G1 X103.784 Y67.803 E7.79187
G1 X103.554 Y67.695 E7.80439
G1 X103.339 Y67.559 E7.81691
G1 X103.144 Y67.396 E7.82943
G1 X102.969 Y67.211 E7.84194
G1 X102.820 Y67.005 E7.85446
G1 X102.697 Y66.782 E7.86698
G1 X102.604 Y66.546 E7.87950
G1 X102.540 Y66.300 E7.89202
G1 X102.509 Y66.047 E7.90454
G1 X102.509 Y65.793 E7.91705
G1 X102.540 Y65.540 E7.92957
G1 X102.604 Y65.294 E7.94209
G1 X102.697 Y65.058 E7.95461
G1 X102.820 Y64.835 E7.96713
G1 X102.969 Y64.629 E7.97965
G1 X103.144 Y64.444 E7.99216
G1 X103.339 Y64.281 E8.00468
G1 X103.554 Y64.145 E8.01720
G1 X103.784 Y64.037 E8.02972
G1 X104.028 Y63.957 E8.04235
G1 X104.322 Y63.908 E8.05699
G1 X104.530 Y63.895 E8.06726 F600.000
G1 X104.784 Y63.911 E8.07978
G1 X105.034 Y63.958 E8.09229
G1 X105.276 Y64.037 E8.10481
G1 X105.506 Y64.145 E8.11733
G1 X105.721 Y64.281 E8.12985
G1 X105.916 Y64.444 E8.14237
G1 X106.091 Y64.629 E8.15488
G1 X106.240 Y64.835 E8.16740
G1 X106.363 Y65.058 E8.17992
G1 X106.456 Y65.294 E8.19244
G1 X106.520 Y65.540 E8.20496
G1 X106.551 Y65.793 E8.21748
G1 X106.551 Y65.987 E8.22704
G1 X106.760 Y66.192 F9000.000
G1 E2.22704 F1800.00000
G92 E0
G1 X74.323 Y66.047 F9000.000
G1 E6.00000 F1800.00000
G1 X74.279 Y66.444 E6.01966 F600.000
G1 X74.191 Y66.785 E6.03696
G1 X74.062 Y67.111 E6.05425
G1 X73.918 Y67.372 E6.06891
G1 X73.693 Y67.696 E6.08834
G1 X73.445 Y67.960 E6.10613
G1 X73.175 Y68.184 E6.12341
G1 X72.878 Y68.372 E6.14071
G1 X72.560 Y68.522 E6.15801
G1 X72.226 Y68.630 E6.17531
G1 X71.881 Y68.696 E6.19260
G1 X71.530 Y68.718 E6.20989
G1 X71.179 Y68.696 E6.22718
G1 X70.834 Y68.630 E6.24448
G1 X70.500 Y68.522 E6.26177
G1 X70.182 Y68.372 E6.27907
G1 X69.885 Y68.184 E6.29637
G1 X69.615 Y67.960 E6.31365
G1 X69.374 Y67.704 E6.33094
G1 X69.167 Y67.419 E6.34824
G1 X68.998 Y67.111 E6.36554
G1 X68.869 Y66.785 E6.38284
G1 X68.781 Y66.444 E6.40013
G1 X68.737 Y66.096 E6.41743
