; generated by Slic3r 1.2.9 on 2017-12-22 at 23:31:01

; external perimeters extrusion width = 0.40mm
; perimeters extrusion width = 0.62mm
; infill extrusion width = 0.33mm
; solid infill extrusion width = 0.62mm
; top infill extrusion width = 0.20mm

M106 S256; Turn on fan to 100% power
M104 S140; turn on extruder temperature at S value
M140 S60; turn on bed temperature at S value
G28; home all axes
M84; disable motors
G1 Z15 F15000; have Z move to 20mm at 15000 mm/min
M190 S55; turn on bed temperature at S value and wait
M140 S55; turn on bed temperature at S value (printing temperature)
M109 S200; turn on extruder temperature at S value and wait (printing temperature)
M104 S200; turn on extruder temperature at S value
G1 Z0 F12000; move Z back to home
G21 ; set units to millimeters
G90 ; use absolute coordinates
M82 ; use absolute distances for extrusion
G92 E0
M106 S255
;Layer change
G1 E-6.00000 F1800.00000
G92 E0
G1 Z0.300 F9000.000
G1 X48.525 Y19.260 F9000.000
G1 E6.00000 F1800.00000
G1 X49.587 Y17.142 E6.11933 F600.000
G1 X54.478 Y8.615 E6.61450
G1 X55.735 Y6.808 E6.72540
G1 X56.200 Y6.339 E6.75866
G1 X56.774 Y6.003 E6.79217
G1 X57.414 Y5.828 E6.82556
G1 X59.663 Y5.706 E6.93905
G1 X92.742 Y4.191 E8.60709
G1 X130.283 Y4.189 E10.49810
G1 X140.315 Y4.315 E11.00349 F600.000
G1 X140.696 Y4.350 E11.02276
G1 X142.548 Y4.655 E11.11735
G1 X143.098 Y4.815 E11.14615
G1 X143.641 Y5.129 E11.17778
G1 X144.003 Y5.468 E11.20275
G1 X153.150 Y15.987 E11.90492
G1 X153.560 Y16.560 E11.94043
G1 X153.717 Y16.829 E11.95614
G1 X154.026 Y17.491 E11.99294
G1 X154.246 Y18.188 E12.02972
G1 X154.373 Y18.906 E12.06648
G1 X154.405 Y19.636 E12.10328
G1 X154.381 Y20.054 E12.12437
G1 X154.342 Y20.364 E12.14011
G1 X154.243 Y20.867 E12.16596
G1 X147.371 Y50.269 E13.68691
G1 X147.181 Y50.855 E13.71795
G1 X146.895 Y51.470 E13.75211
G1 X146.737 Y51.739 E13.76781
G1 X146.371 Y52.253 E13.79961
G1 X137.724 Y62.364 E14.46979
G1 X137.341 Y62.724 E14.49627
G1 X136.805 Y63.037 E14.52754
G1 X136.285 Y63.197 E14.55491
G1 X136.138 Y63.225 E14.56245
G1 X134.485 Y63.481 E14.64670
G1 X69.114 Y68.345 E17.94876
G1 X58.570 Y68.320 E18.47991
G1 X56.347 Y68.158 E18.59215
G1 X55.212 Y68.047 E18.64963
G1 X54.530 Y67.867 E18.68517
G1 X53.990 Y67.558 E18.71648
G1 X53.684 Y67.290 E18.73697
G1 X52.897 Y66.471 E18.79419
G1 X52.715 Y66.258 E18.80831
G1 X52.534 Y65.989 E18.82468
G1 X47.254 Y56.806 E19.35825
G1 X46.290 Y54.769 E19.47175
G1 X45.856 Y53.790 E19.52572
G1 X45.814 Y53.690 E19.53115
G1 X45.650 Y53.046 E19.56465
G1 X45.639 Y52.548 E19.58974
G1 X48.350 Y20.007 E21.23460
G1 X48.367 Y19.861 E21.24203
G1 X48.510 Y19.318 E21.27032
G1 E15.27032 F1800.00000
G92 E0
G1 X58.345 Y60.605 F9000.000
G1 E6.00000 F1800.00000
G1 X58.596 Y61.171 E6.03120 F600.000
G1 X58.354 Y61.712 E6.06107
G1 X57.812 Y61.627 E6.08865
G1 X57.521 Y61.156 E6.11657
G1 X57.759 Y60.657 E6.14440
G1 X58.285 Y60.610 E6.17100
G1 E0.17100 F1800.00000
G92 E0
G1 X56.990 Y59.370 F9000.000
G1 E6.00000 F1800.00000
G1 X56.441 Y59.275 E6.02807 F600.000
G1 X56.155 Y58.813 E6.05543
G1 X56.394 Y58.315 E6.08326
G1 X56.980 Y58.267 E6.11285
G1 X57.233 Y58.831 E6.14398
G1 X57.015 Y59.315 E6.17074
G1 X60.206 Y60.243 F9000.000
G1 X58.650 Y60.120 E6.24936 F600.000
G1 X57.868 Y58.818 E6.32586
G1 X58.588 Y57.448 E6.40379
G1 X60.194 Y57.379 E6.48480
G1 X60.931 Y58.821 E6.56634
G1 X60.233 Y60.190 E6.64373
G1 X60.464 Y60.645 F9000.000
G1 X61.053 Y60.597 E6.67352 F600.000
G1 X61.305 Y61.160 E6.70460
G1 X61.065 Y61.697 E6.73424
G1 X60.516 Y61.604 E6.76226
G1 X60.232 Y61.138 E6.78976
G1 X60.438 Y60.700 E6.81417
G1 X60.051 Y60.618 F9000.000
G1 X58.725 Y60.512 E6.88114 F600.000
G1 X59.018 Y61.171 E6.91747
G1 X58.616 Y62.068 E6.96697
G1 X58.552 Y62.133 E6.97157
G1 X57.500 Y61.969 E7.02524
G1 X57.534 Y61.910 E7.02866
G1 X57.082 Y61.180 E7.07191
G1 X57.505 Y60.293 E7.12142
G1 X58.264 Y60.225 E7.15977
G1 X57.557 Y59.049 E7.22885
G1 X57.228 Y59.780 E7.26924
G1 X57.103 Y59.781 E7.27555
G1 X56.204 Y59.625 E7.32149
G1 X55.716 Y58.836 E7.36822
G1 X56.143 Y57.949 E7.41782
G1 X57.163 Y57.865 E7.46940
G1 X57.242 Y57.910 E7.47401
G1 X57.550 Y58.595 E7.51180
G1 X58.349 Y57.072 E7.59842
G1 X60.425 Y56.983 E7.70307
G1 X61.364 Y58.820 E7.80700
G1 X60.638 Y60.244 E7.88749
G1 X61.237 Y60.195 E7.91774
G1 X61.316 Y60.241 E7.92235
G1 X61.728 Y61.160 E7.97311
G1 X61.326 Y62.057 E8.02261
G1 X61.262 Y62.122 E8.02720
G1 X60.279 Y61.955 E8.07745
G1 X59.795 Y61.161 E8.12426
G1 X60.025 Y60.672 E8.15151
G1 X60.130 Y60.225 F9000.000
G1 E2.15151 F1800.00000
G92 E0
G1 X60.966 Y56.051 F9000.000
G1 E6.00000 F1800.00000
G1 X59.666 Y56.034 E6.06547 F600.000
G1 X59.913 Y55.325 E6.10327
G1 X61.375 Y55.339 E6.17692
G1 X62.099 Y56.624 E6.25119
G1 X61.951 Y56.721 E6.26011
G1 X61.678 Y57.349 E6.29461
G1 X60.995 Y56.103 E6.36617
G1 X60.903 Y55.656 F9000.000
G1 E0.36617 F1800.00000
G92 E0
G1 X59.103 Y52.835 F9000.000
G1 E6.00000 F1800.00000
G1 X58.479 Y51.695 E6.06547 F600.000
G1 X59.217 Y51.562 E6.10327
G1 X59.924 Y52.842 E6.17694
G1 X59.163 Y54.102 E6.25112
G1 X59.007 Y54.023 E6.25990
G1 X58.323 Y54.094 E6.29455
G1 X59.072 Y52.886 E6.36612
G1 X59.416 Y52.586 F9000.000
G1 X61.637 Y52.858 F9000.000
G1 X61.065 Y51.814 E6.42610 F600.000
G1 X62.207 Y51.853 E6.48364
G1 X62.827 Y50.839 E6.54351
G1 X63.361 Y51.847 E6.60095
G1 X64.536 Y51.879 E6.66014
G1 X63.942 Y52.837 E6.71691
G1 X64.509 Y53.874 E6.77646
G1 X63.376 Y53.839 E6.83358
G1 X62.770 Y54.838 E6.89241
G1 X62.232 Y53.856 E6.94881
G1 X61.028 Y53.840 E7.00946
G1 X61.605 Y52.909 E7.06463
G1 X61.191 Y52.846 F9000.000
G1 X60.805 Y52.142 E7.10507 F600.000
G1 X60.580 Y52.137 E7.11640
G1 X60.552 Y51.944 E7.12624
G1 X60.649 Y51.912 E7.13139
G1 X60.535 Y51.605 E7.14788
G1 X60.577 Y51.415 E7.15768
G1 X61.220 Y51.410 E7.19006
G1 X61.233 Y51.434 E7.19141
G1 X61.995 Y51.460 E7.22981
G1 X62.413 Y50.777 E7.27013
G1 X62.304 Y50.578 E7.28154
G1 X62.457 Y50.457 E7.29138
G1 X62.534 Y50.527 E7.29662
G1 X62.746 Y50.274 E7.31323
G1 X62.928 Y50.216 E7.32287
G1 X63.254 Y50.774 E7.35541
G1 X63.240 Y50.796 E7.35673
G1 X63.596 Y51.467 E7.39501
G1 X64.381 Y51.489 E7.43457
G1 X64.504 Y51.285 E7.44656
G1 X64.686 Y51.356 E7.45640
G1 X64.663 Y51.468 E7.46215
G1 X65.005 Y51.528 E7.47965
G1 X65.135 Y51.636 E7.48815
G1 X64.804 Y52.216 E7.52180
G1 X64.780 Y52.216 E7.52298
G1 X64.388 Y52.849 E7.56049
G1 X64.769 Y53.545 E7.60046
G1 X65.001 Y53.548 E7.61214
G1 X65.030 Y53.742 E7.62198
G1 X64.927 Y53.776 E7.62746
G1 X65.044 Y54.093 E7.64447
G1 X65.009 Y54.270 E7.65359
G1 X64.353 Y54.276 E7.68664
G1 X64.342 Y54.254 E7.68789
G1 X63.589 Y54.231 E7.72581
G1 X63.186 Y54.896 E7.76495
G1 X63.307 Y55.109 E7.77726
G1 X63.155 Y55.232 E7.78710
G1 X63.065 Y55.153 E7.79313
G1 X62.831 Y55.436 E7.81162
G1 X62.701 Y55.502 E7.81896
G1 X62.345 Y54.903 E7.85405
G1 X62.356 Y54.884 E7.85516
G1 X62.002 Y54.239 E7.89226
G1 X61.184 Y54.228 E7.93345
G1 X61.074 Y54.411 E7.94420
G1 X60.892 Y54.340 E7.95404
G1 X60.910 Y54.256 E7.95833
G1 X60.611 Y54.199 E7.97366
G1 X60.476 Y54.000 E7.98574
G1 X60.751 Y53.506 E8.01419
G1 X60.781 Y53.507 E8.01571
G1 X61.159 Y52.897 E8.05184
G1 X61.504 Y52.597 F9000.000
G1 E2.05184 F1800.00000
G92 E0
G1 X64.658 Y49.670 F9000.000
G1 E6.00000 F1800.00000
G1 X65.958 Y49.706 E6.06547 F600.000
G1 X65.699 Y50.415 E6.10348
G1 X64.238 Y50.375 E6.17711
G1 X63.534 Y49.083 E6.25123
G1 X63.681 Y48.988 E6.26002
G1 X63.965 Y48.362 E6.29467
G1 X64.630 Y49.617 E6.36623
G1 X64.716 Y50.066 F9000.000
G1 E0.36623 F1800.00000
G92 E0
G1 X60.966 Y49.644 F9000.000
G1 E6.00000 F1800.00000
G1 X61.645 Y48.535 E6.06547 F600.000
G1 X62.130 Y49.112 E6.10348
G1 X61.368 Y50.359 E6.17711
G1 X59.896 Y50.325 E6.25125
G1 X59.888 Y50.151 E6.26007
G1 X59.486 Y49.593 E6.29468
G1 X60.906 Y49.641 E6.36625
G1 X61.338 Y49.791 F9000.000
G1 E0.36625 F1800.00000
G92 E0
G1 X66.475 Y52.860 F9000.000
G1 E6.00000 F1800.00000
G1 X67.100 Y54.000 E6.06547 F600.000
G1 X66.357 Y54.134 E6.10348
G1 X65.655 Y52.853 E6.17709
G1 X66.417 Y51.592 E6.25129
G1 X66.574 Y51.672 E6.26017
G1 X67.256 Y51.602 E6.29471
G1 X66.507 Y52.809 E6.36627
G1 X66.163 Y53.109 F9000.000
G1 E0.36627 F1800.00000
G92 E0
G1 X64.625 Y56.044 F9000.000
G1 E6.00000 F1800.00000
G1 X63.951 Y57.155 E6.06547 F600.000
G1 X63.463 Y56.580 E6.10348
G1 X64.221 Y55.330 E6.17711
G1 X65.692 Y55.358 E6.25124
G1 X65.701 Y55.532 E6.26002
G1 X66.105 Y56.089 E6.29467
G1 X64.685 Y56.046 E6.36624
G1 X64.253 Y55.898 F9000.000
G1 X67.220 Y60.613 F9000.000
G1 X67.836 Y60.683 E6.39743 F600.000
G1 X68.179 Y61.166 E6.42730
G1 X67.832 Y61.590 E6.45489
G1 X67.278 Y61.602 E6.48280
G1 X66.969 Y61.144 E6.51064
G1 X67.195 Y60.667 E6.53724
G1 E0.53724 F1800.00000
G92 E0
G1 X65.470 Y61.155 F9000.000
G1 E6.00000 F1800.00000
G1 X65.120 Y61.575 E6.02755 F600.000
G1 X64.565 Y61.590 E6.05552
G1 X64.259 Y61.134 E6.08314
G1 X64.514 Y60.603 E6.11281
G1 X65.128 Y60.671 E6.14390
G1 X65.435 Y61.106 E6.17075
G1 X67.853 Y58.825 F9000.000
G1 X66.957 Y60.103 E6.24938 F600.000
G1 X65.439 Y60.117 E6.32588
G1 X64.623 Y58.802 E6.40380
G1 X65.379 Y57.382 E6.48481
G1 X66.995 Y57.479 E6.56636
G1 X67.821 Y58.774 E6.64374
G1 X68.330 Y58.807 F9000.000
G1 X68.588 Y58.274 E6.67354 F600.000
G1 X69.201 Y58.343 E6.70462
G1 X69.542 Y58.822 E6.73426
G1 X69.183 Y59.248 E6.76228
G1 X68.637 Y59.256 E6.78978
G1 X68.364 Y58.856 E6.81418
G1 X68.097 Y59.148 F9000.000
G1 X67.334 Y60.237 E6.88116 F600.000
G1 X68.050 Y60.319 E6.91748
G1 X68.633 Y61.139 E6.96815
G1 X68.632 Y61.221 E6.97228
G1 X67.967 Y62.033 E7.02513
G1 X67.934 Y61.973 E7.02855
G1 X67.076 Y61.992 E7.07181
G1 X66.526 Y61.178 E7.12131
G1 X66.852 Y60.490 E7.15966
G1 X65.480 Y60.502 E7.22875
G1 X65.944 Y61.156 E7.26913
G1 X65.880 Y61.266 E7.27549
G1 X65.304 Y61.956 E7.32077
G1 X64.363 Y61.981 E7.36821
G1 X63.816 Y61.166 E7.41762
G1 X64.260 Y60.241 E7.46929
G1 X64.339 Y60.196 E7.47390
G1 X65.085 Y60.278 E7.51169
G1 X64.179 Y58.817 E7.59831
G1 X65.155 Y56.983 E7.70297
G1 X67.214 Y57.106 E7.80689
G1 X68.073 Y58.453 E7.88738
G1 X68.334 Y57.912 E7.91764
G1 X68.414 Y57.867 E7.92224
G1 X69.415 Y57.979 E7.97301
G1 X69.984 Y58.780 E8.02250
G1 X70.008 Y58.868 E8.02710
G1 X69.365 Y59.631 E8.07734
G1 X68.436 Y59.645 E8.12415
G1 X68.131 Y59.198 E8.15141
G1 X67.799 Y58.881 F9000.000
G1 E2.15141 F1800.00000
G92 E0
G1 X67.808 Y62.209 F9000.000
G1 E6.00000 F1800.00000
G1 X66.484 Y64.430 E6.13026 F600.000
G1 X66.330 Y64.720 E6.14677
G1 X66.654 Y65.020 E6.16899
G1 X66.991 Y65.648 E6.20492
G1 X67.001 Y65.071 F9000.000
G1 X66.202 Y64.653 E6.25035 F600.000
G1 X65.927 Y64.578 E6.26470
G1 X65.008 Y64.555 E6.31101
G1 E0.31101 F1800.00000
G92 E0
G1 X65.766 Y65.649 F9000.000
G1 E6.00000 F1800.00000
G1 X66.767 Y64.013 E6.09660 F600.000
G1 E0.09660 F1800.00000
G92 E0
G1 X68.764 Y65.813 F9000.000
G1 E6.00000 F1800.00000
G1 X69.242 Y65.038 E6.04586 F600.000
G1 X69.464 Y64.824 E6.06142
G1 X69.583 Y64.751 E6.06845
G1 X70.412 Y64.904 E6.11090
G1 X70.708 Y64.636 F9000.000
G1 X70.020 Y64.615 E6.14556 F600.000
G1 X69.643 Y64.721 E6.16530
G1 X69.590 Y64.752 E6.16838
G1 X70.097 Y65.685 E6.22184
G1 X70.030 Y65.457 F9000.000
G1 X69.397 Y64.454 E6.28160 F600.000
G1 X68.284 Y62.463 E6.39649
G1 X68.297 Y62.319 E6.40379
G1 X68.349 Y62.153 E6.41255
G1 X68.403 Y62.082 E6.41703
G1 X68.725 Y61.926 E6.43507
G1 X70.873 Y61.959 E6.54326
G1 X72.070 Y61.903 E6.60364
G1 X72.272 Y61.971 F9000.000
G1 X71.240 Y61.937 E6.65563 F600.000
G1 X71.339 Y61.484 E6.67899
G1 X71.675 Y60.947 E6.71089
G1 X71.776 Y61.296 F9000.000
G1 X71.235 Y61.943 E6.75339 F600.000
G1 X71.238 Y62.082 E6.76039
G1 X71.314 Y62.389 E6.77635
G1 X71.740 Y63.180 E6.82161
G1 E0.82161 F1800.00000
G92 E0
G1 X74.033 Y56.793 F9000.000
G1 E6.00000 F1800.00000
G1 X74.514 Y56.009 E6.04631 F600.000
G1 X74.716 Y55.809 E6.06066
G1 X74.838 Y55.731 E6.06796
G1 X75.662 Y55.897 E6.11029
G1 X75.973 Y55.625 F9000.000
G1 X75.260 Y55.602 E6.14622 F600.000
G1 X74.912 Y55.696 E6.16440
G1 X74.846 Y55.733 E6.16819
G1 X75.360 Y56.685 E6.22270
G1 X75.283 Y56.439 F9000.000
G1 X74.665 Y55.453 E6.28130 F600.000
G1 X73.405 Y53.195 E6.41157
G1 X75.149 Y52.929 F9000.000
G1 X73.864 Y52.910 E6.47628 F600.000
G1 X73.746 Y52.826 E6.48359
G1 X73.628 Y52.699 E6.49232
G1 X73.594 Y52.616 E6.49682
G1 X73.594 Y52.553 E6.50003
G1 X73.620 Y52.259 E6.51487
G1 X74.725 Y50.417 E6.62307
G1 X75.276 Y49.353 E6.68344
G1 X75.435 Y49.209 F9000.000
G1 X74.893 Y50.095 E6.73576 F600.000
G1 X75.012 Y50.161 E6.74261
G1 X75.317 Y50.249 E6.75863
G1 X76.217 Y50.276 E6.80399
G1 X75.622 Y50.491 F9000.000
G1 X74.844 Y50.062 E6.84874 F600.000
G1 X74.547 Y49.775 E6.86954
G1 X74.251 Y49.215 E6.90144
G1 E0.90144 F1800.00000
G92 E0
G1 X70.366 Y55.240 F9000.000
G1 E6.00000 F1800.00000
G1 X70.732 Y54.743 E6.03109 F600.000
G1 X71.322 Y54.690 E6.06096
G1 X71.510 Y55.203 E6.08852
G1 X71.245 Y55.691 E6.11648
G1 X70.698 Y55.727 E6.14410
G1 X70.399 Y55.290 E6.17076
G1 X68.011 Y52.879 F9000.000
G1 X68.905 Y51.528 E6.25230 F600.000
G1 X70.499 Y51.460 E6.33271
G1 X71.157 Y52.876 E6.41133
G1 X70.408 Y54.197 E6.48783
G1 X68.862 Y54.244 E6.56576
G1 X68.043 Y52.930 E6.64374
G1 X71.730 Y52.903 F9000.000
G1 X72.099 Y52.406 E6.67494 F600.000
G1 X72.689 Y52.351 E6.70481
G1 X72.882 Y52.864 E6.73240
G1 X72.615 Y53.349 E6.76031
G1 X72.064 Y53.387 E6.78814
G1 X71.764 Y52.953 E6.81475
G1 X70.723 Y51.038 F9000.000
G1 X70.391 Y50.548 E6.84454 F600.000
G1 X70.758 Y50.052 E6.87562
G1 X71.343 Y49.997 E6.90526
G1 X71.532 Y50.521 E6.93328
G1 X71.266 Y50.997 E6.96079
G1 X70.783 Y51.033 E6.98519
G1 X70.902 Y51.411 F9000.000
G1 X71.462 Y52.617 E7.05216 F600.000
G1 X71.892 Y52.038 E7.08849
G1 X72.893 Y51.945 E7.13915
G1 X72.964 Y51.986 E7.14329
G1 X73.333 Y52.968 E7.19614
G1 X73.265 Y52.967 E7.19956
G1 X72.851 Y53.720 E7.24282
G1 X71.871 Y53.787 E7.29232
G1 X71.439 Y53.160 E7.33067
G1 X70.762 Y54.353 E7.39975
G1 X71.502 Y54.286 E7.43719
G1 X71.575 Y54.306 E7.44098
G1 X71.623 Y54.390 E7.44588
G1 X71.932 Y55.234 E7.49116
G1 X71.482 Y56.061 E7.53860
G1 X70.503 Y56.126 E7.58801
G1 X69.914 Y55.263 E7.64067
G1 X69.940 Y55.168 E7.64561
G1 X70.370 Y54.584 E7.68219
G1 X68.652 Y54.636 E7.76881
G1 X67.553 Y52.872 E7.87347
G1 X68.691 Y51.152 E7.97739
G1 X70.288 Y51.083 E8.05788
G1 X69.951 Y50.586 E8.08814
G1 X69.951 Y50.495 E8.09274
G1 X70.550 Y49.684 E8.14350
G1 X71.528 Y49.593 E8.19300
G1 X71.616 Y49.617 E8.19759
G1 X71.954 Y50.555 E8.24784
G1 X71.501 Y51.366 E8.29465
G1 X70.962 Y51.407 E8.32190
G1 X70.521 Y51.535 F9000.000
G1 E2.32190 F1800.00000
G92 E0
G1 X71.853 Y45.124 F9000.000
G1 E6.00000 F1800.00000
G1 X71.428 Y44.313 E6.04613 F600.000
G1 X71.359 Y44.042 E6.06020
G1 X71.354 Y43.895 E6.06762
G1 X71.912 Y43.266 E6.10997
G1 X71.837 Y42.856 F9000.000
G1 X71.454 Y43.465 E6.14620 F600.000
G1 X71.360 Y43.814 E6.16439
G1 X71.359 Y43.889 E6.16818
G1 X72.441 Y43.923 E6.22269
G1 X72.189 Y43.868 F9000.000
G1 X71.026 Y43.905 E6.28129 F600.000
G1 X68.441 Y43.854 E6.41155
G1 X65.449 Y48.353 F9000.000
G1 X64.733 Y46.901 E6.49310 F600.000
G1 X65.478 Y45.489 E6.57351
G1 X67.032 Y45.635 E6.65213
G1 X67.795 Y46.948 E6.72863
G1 X67.056 Y48.307 E6.80656
G1 X65.509 Y48.351 E6.88454
G1 X67.344 Y45.154 F9000.000
G1 X67.101 Y44.585 E6.91574 F600.000
G1 X67.351 Y44.047 E6.94561
G1 X67.891 Y44.139 E6.97320
G1 X68.176 Y44.615 E7.00111
G1 X67.931 Y45.110 E7.02894
G1 X67.404 Y45.150 E7.05555
G1 X65.226 Y45.083 F9000.000
G1 X64.636 Y45.123 E7.08534 F600.000
G1 X64.392 Y44.556 E7.11642
G1 X64.640 Y44.023 E7.14606
G1 X65.187 Y44.124 E7.17408
G1 X65.464 Y44.594 E7.20158
G1 X65.252 Y45.029 E7.22598
G1 E1.22598 F1800.00000
G92 E0
G1 X68.682 Y46.407 F9000.000
G1 E6.00000 F1800.00000
G1 X69.220 Y46.503 E6.02755 F600.000
G1 X69.507 Y46.978 E6.05552
G1 X69.263 Y47.469 E6.08314
G1 X68.675 Y47.510 E6.11281
G1 X68.431 Y46.944 E6.14390
G1 X68.656 Y46.461 E6.17076
G1 X68.109 Y46.721 F9000.000
G1 X68.449 Y45.994 E6.21114 F600.000
G1 X68.575 Y45.996 E6.21750
G1 X69.460 Y46.154 E6.26278
G1 X69.947 Y46.960 E6.31022
G1 X69.510 Y47.838 E6.35963
G1 X68.487 Y47.910 E6.41130
G1 X68.408 Y47.864 E6.41591
G1 X68.110 Y47.175 E6.45370
G1 X67.289 Y48.686 E6.54032
G1 X65.212 Y48.746 E6.64498
G1 X64.300 Y46.895 E6.74890
G1 X65.046 Y45.482 E6.82939
G1 X64.446 Y45.522 E6.85965
