; generated by Slic3r 1.2.9 on 2018-01-08 at 21:24:55

; external perimeters extrusion width = 0.40mm
; perimeters extrusion width = 0.62mm
; infill extrusion width = 0.33mm
; solid infill extrusion width = 0.62mm
; top infill extrusion width = 0.20mm

M106 S256; Turn on fan to 100% power
M104 S140; turn on extruder temperature at S value
M140 S60; turn on bed temperature at S value
G28; home all axes
M84; disable motors
G1 Z15 F15000; have Z move to 20mm at 15000 mm/min
M190 S55; turn on bed temperature at S value and wait
M140 S55; turn on bed temperature at S value (printing temperature)
M109 S200; turn on extruder temperature at S value and wait (printing temperature)
M104 S200; turn on extruder temperature at S value
G1 Z0 F12000; move Z back to home
G21 ; set units to millimeters
G90 ; use absolute coordinates
M82 ; use absolute distances for extrusion
G92 E0
M106 S255
;Layer change
G1 E-6.00000 F1800.00000
G92 E0
G1 Z0.300 F9000.000
G1 X62.998 Y118.400 F9000.000
G1 E6.00000 F1800.00000
G1 X63.735 Y118.088 E6.04035 F600.000
G1 X64.507 Y117.870 E6.08074
G1 X65.300 Y117.751 E6.12111
G1 X65.850 Y117.724 E6.14888
G1 X165.502 Y117.729 E11.16864
G1 X166.298 Y117.799 E11.20888 F600.000
G1 X166.791 Y117.893 E11.23419
G1 X167.559 Y118.122 E11.27454
G1 X167.839 Y118.233 E11.28970
G1 X168.555 Y118.590 E11.33003
G1 X168.979 Y118.859 E11.35533
G1 X169.608 Y119.355 E11.39569
G1 X170.171 Y119.927 E11.43608
G1 X170.363 Y120.159 E11.45129
G1 X170.658 Y120.566 E11.47662
G1 X171.048 Y121.236 E11.51562
G1 X171.187 Y121.529 E11.53197
G1 X171.372 Y121.996 E11.55728
G1 X171.590 Y122.766 E11.59760
G1 X171.646 Y123.061 E11.61273
G1 X171.709 Y123.560 E11.63806
G1 X171.736 Y124.110 E11.66579
G1 X171.736 Y166.610 E13.80665
G1 X171.699 Y167.261 E13.83949
G1 X171.568 Y168.052 E13.87990
G1 X171.338 Y168.820 E13.92025
G1 X171.228 Y169.098 E13.93535
G1 X171.014 Y169.553 E13.96066
G1 X170.600 Y170.239 E14.00101
G1 X170.104 Y170.869 E14.04139
G1 X169.899 Y171.087 E14.05648
G1 X169.533 Y171.431 E14.08179
G1 X168.895 Y171.917 E14.12218
G1 X168.202 Y172.320 E14.16254
G1 X167.931 Y172.447 E14.17764
G1 X167.179 Y172.725 E14.21801
G1 X166.693 Y172.850 E14.24332
G1 X165.900 Y172.969 E14.28367
G1 X165.350 Y172.996 E14.31143
G1 X65.850 Y172.996 E19.32355
G1 X65.199 Y172.959 E19.35639
G1 X64.408 Y172.828 E19.39680
G1 X63.640 Y172.598 E19.43715
G1 X62.907 Y172.274 E19.47754
G1 X62.221 Y171.860 E19.51790
G1 X61.591 Y171.364 E19.55827
G1 X61.029 Y170.793 E19.59866
G1 X60.543 Y170.155 E19.63905
G1 X60.140 Y169.462 E19.67942
G1 X59.828 Y168.724 E19.71978
G1 X59.610 Y167.953 E19.76017
G1 X59.554 Y167.659 E19.77524
G1 X59.473 Y166.936 E19.81187
G1 X59.464 Y124.110 E21.96915
G1 X59.501 Y123.459 E22.00198
G1 X59.538 Y123.162 E22.01707
G1 X59.707 Y122.378 E22.05745
G1 X59.973 Y121.620 E22.09792
G1 X60.331 Y120.905 E22.13822
G1 X60.776 Y120.238 E22.17860
G1 X61.301 Y119.633 E22.21895
G1 X61.899 Y119.097 E22.25940
G1 X62.305 Y118.802 E22.28469
G1 X62.945 Y118.429 E22.32200
G1 E16.32200 F1800.00000
G92 E0
G1 X162.342 Y166.644 F9000.000
G1 E6.00000 F1800.00000
G1 X162.097 Y166.499 E6.01431 F600.000
G1 X161.873 Y166.325 E6.02862
G1 X161.672 Y166.124 E6.04292
G1 X161.498 Y165.900 E6.05723
G1 X161.353 Y165.656 E6.07153
G1 X161.241 Y165.396 E6.08581
G1 X161.161 Y165.122 E6.10014
G1 X161.117 Y164.842 E6.11446
G1 X161.108 Y164.558 E6.12876
G1 X161.135 Y164.275 E6.14305
G1 X161.197 Y163.998 E6.15739
G1 X161.293 Y163.730 E6.17173
G1 X161.422 Y163.478 E6.18598
G1 X161.581 Y163.242 E6.20032
G1 X161.770 Y163.029 E6.21464
G1 X161.982 Y162.842 E6.22890
G1 X162.217 Y162.682 E6.24322
G1 X162.471 Y162.552 E6.25758
G1 X162.755 Y162.450 E6.27281
G1 X163.266 Y162.368 E6.29887 F600.000
G1 X163.580 Y162.377 E6.31467
G1 X163.862 Y162.421 E6.32905
G1 X164.154 Y162.506 E6.34437
G1 X164.625 Y162.746 E6.37101
G1 X164.864 Y162.932 E6.38626
G1 X165.065 Y163.132 E6.40056
G1 X165.240 Y163.358 E6.41493
G1 X165.384 Y163.603 E6.42925
G1 X165.497 Y163.863 E6.44353
G1 X165.576 Y164.135 E6.45783
G1 X165.620 Y164.415 E6.47211
G1 X165.629 Y164.699 E6.48641
G1 X165.603 Y164.983 E6.50076
G1 X165.541 Y165.260 E6.51505
G1 X165.445 Y165.527 E6.52936
G1 X165.315 Y165.782 E6.54377
G1 X165.148 Y166.024 E6.55859
G1 X164.968 Y166.228 E6.57229
G1 X164.755 Y166.416 E6.58659
G1 X164.520 Y166.575 E6.60090
G1 X164.267 Y166.705 E6.61521
G1 X164.000 Y166.801 E6.62952
G1 X163.722 Y166.863 E6.64382
G1 X163.440 Y166.889 E6.65813
G1 X163.156 Y166.880 E6.67244
G1 X162.875 Y166.836 E6.68675
G1 X162.602 Y166.757 E6.70106
G1 X162.397 Y166.668 E6.71234
G1 X162.517 Y166.300 F9000.000
G1 X162.314 Y166.180 E6.72421 F600.000
G1 X162.128 Y166.035 E6.73607
G1 X161.962 Y165.869 E6.74793
G1 X161.818 Y165.683 E6.75980
G1 X161.698 Y165.480 E6.77166
G1 X161.604 Y165.264 E6.78350
G1 X161.538 Y165.038 E6.79537
G1 X161.502 Y164.805 E6.80725
G1 X161.494 Y164.570 E6.81911
G1 X161.516 Y164.336 E6.83096
G1 X161.568 Y164.105 E6.84286
G1 X161.648 Y163.883 E6.85473
G1 X161.754 Y163.674 E6.86656
G1 X161.887 Y163.479 E6.87845
G1 X162.043 Y163.302 E6.89031
G1 X162.219 Y163.147 E6.90216
G1 X162.414 Y163.014 E6.91403
G1 X162.624 Y162.907 E6.92591
G1 X162.852 Y162.825 E6.93812
G1 X163.292 Y162.755 E6.96055 F600.000
G1 X163.544 Y162.761 E6.97329
G1 X163.778 Y162.798 E6.98518
G1 X164.011 Y162.866 E6.99742
G1 X164.417 Y163.073 E7.02039
G1 X164.609 Y163.222 E7.03260
G1 X164.775 Y163.388 E7.04445
G1 X164.920 Y163.574 E7.05635
G1 X165.040 Y163.778 E7.06823
G1 X165.133 Y163.994 E7.08008
G1 X165.199 Y164.220 E7.09194
G1 X165.236 Y164.452 E7.10377
G1 X165.243 Y164.687 E7.11563
G1 X165.221 Y164.922 E7.12753
G1 X165.170 Y165.152 E7.13939
G1 X165.090 Y165.374 E7.15125
G1 X164.983 Y165.584 E7.16315
G1 X164.843 Y165.786 E7.17553
G1 X164.695 Y165.955 E7.18684
G1 X164.518 Y166.111 E7.19870
G1 X164.323 Y166.243 E7.21057
G1 X164.113 Y166.350 E7.22243
G1 X163.892 Y166.430 E7.23430
G1 X163.662 Y166.481 E7.24616
G1 X163.428 Y166.503 E7.25802
G1 X163.192 Y166.496 E7.26988
G1 X162.960 Y166.459 E7.28175
G1 X162.733 Y166.393 E7.29362
G1 X162.572 Y166.324 E7.30246
G1 X162.317 Y166.424 F9000.000
G1 X127.083 Y164.841 F9000.000
G1 X127.039 Y165.122 E7.31678 F600.000
G1 X126.959 Y165.396 E7.33111
G1 X126.846 Y165.656 E7.34539
G1 X126.702 Y165.900 E7.35969
G1 X126.528 Y166.124 E7.37400
G1 X126.327 Y166.325 E7.38830
G1 X126.103 Y166.499 E7.40261
G1 X125.858 Y166.644 E7.41692
G1 X125.598 Y166.757 E7.43123
G1 X125.325 Y166.836 E7.44554
G1 X125.044 Y166.880 E7.45985
G1 X124.760 Y166.889 E7.47416
G1 X124.477 Y166.863 E7.48846
G1 X124.200 Y166.801 E7.50276
G1 X123.933 Y166.705 E7.51707
G1 X123.680 Y166.575 E7.53139
G1 X123.445 Y166.416 E7.54570
G1 X123.232 Y166.228 E7.56000
G1 X123.044 Y166.015 E7.57431
G1 X122.885 Y165.780 E7.58861
G1 X122.755 Y165.527 E7.60293
G1 X122.659 Y165.260 E7.61724
G1 X122.597 Y164.983 E7.63153
G1 X122.571 Y164.699 E7.64588
G1 X122.580 Y164.415 E7.66018
G1 X122.624 Y164.135 E7.67446
G1 X122.703 Y163.863 E7.68877
G1 X122.816 Y163.603 E7.70305
G1 X122.960 Y163.358 E7.71736
G1 X123.135 Y163.132 E7.73173
G1 X123.336 Y162.932 E7.74603
G1 X123.575 Y162.746 E7.76128
G1 X124.046 Y162.506 E7.78792
G1 X124.356 Y162.416 E7.80416
G1 X124.871 Y162.366 E7.83024 F600.000
G1 X125.184 Y162.394 E7.84606
G1 X125.462 Y162.456 E7.86041
G1 X125.729 Y162.552 E7.87472
G1 X125.983 Y162.682 E7.88907
G1 X126.218 Y162.842 E7.90340
G1 X126.430 Y163.029 E7.91765
G1 X126.619 Y163.242 E7.93197
G1 X126.778 Y163.478 E7.94631
G1 X126.907 Y163.730 E7.96056
G1 X127.003 Y163.998 E7.97490
G1 X127.065 Y164.275 E7.98925
G1 X127.092 Y164.558 E8.00353
G1 X127.085 Y164.782 E8.01481
G1 X126.698 Y164.805 F9000.000
G1 X126.662 Y165.038 E8.02668 F600.000
G1 X126.596 Y165.264 E8.03856
G1 X126.502 Y165.480 E8.05040
G1 X126.382 Y165.683 E8.06226
G1 X126.238 Y165.869 E8.07412
G1 X126.072 Y166.035 E8.08599
G1 X125.886 Y166.180 E8.09785
G1 X125.683 Y166.300 E8.10971
G1 X125.467 Y166.393 E8.12158
G1 X125.240 Y166.459 E8.13344
G1 X125.008 Y166.496 E8.14531
G1 X124.772 Y166.503 E8.15717
G1 X124.538 Y166.481 E8.16904
G1 X124.308 Y166.430 E8.18090
G1 X124.086 Y166.350 E8.19276
G1 X123.877 Y166.243 E8.20463
G1 X123.682 Y166.111 E8.21649
G1 X123.505 Y165.955 E8.22835
G1 X123.349 Y165.778 E8.24021
G1 X123.217 Y165.583 E8.25208
G1 X123.110 Y165.374 E8.26395
G1 X123.030 Y165.152 E8.27581
G1 X122.979 Y164.922 E8.28766
G1 X122.957 Y164.687 E8.29956
G1 X122.964 Y164.452 E8.31142
G1 X123.001 Y164.220 E8.32325
G1 X123.067 Y163.994 E8.33512
G1 X123.160 Y163.778 E8.34697
G1 X123.280 Y163.574 E8.35885
G1 X123.425 Y163.388 E8.37074
G1 X123.591 Y163.222 E8.38259
G1 X123.783 Y163.073 E8.39480
G1 X124.189 Y162.866 E8.41778
G1 X124.429 Y162.796 E8.43036
G1 X124.872 Y162.753 E8.45280 F600.000
G1 X125.124 Y162.776 E8.46554
G1 X125.354 Y162.827 E8.47742
G1 X125.576 Y162.907 E8.48928
G1 X125.786 Y163.014 E8.50117
G1 X125.981 Y163.147 E8.51304
G1 X126.157 Y163.302 E8.52489
G1 X126.313 Y163.479 E8.53674
G1 X126.446 Y163.674 E8.54864
G1 X126.552 Y163.883 E8.56046
G1 X126.632 Y164.105 E8.57234
G1 X126.684 Y164.336 E8.58424
G1 X126.706 Y164.570 E8.59609
G1 X126.700 Y164.745 E8.60492
G1 X126.888 Y164.946 F9000.000
G1 E2.60492 F1800.00000
G92 E0
G1 X124.902 Y128.353 F9000.000
G1 E6.00000 F1800.00000
G1 X124.618 Y128.343 E6.01431 F600.000
G1 X124.338 Y128.299 E6.02860
G1 X124.065 Y128.220 E6.04292
G1 X123.804 Y128.107 E6.05724
G1 X123.559 Y127.962 E6.07158
G1 X123.336 Y127.788 E6.08583
G1 X123.135 Y127.588 E6.10013
G1 X122.960 Y127.362 E6.11450
G1 X122.816 Y127.117 E6.12882
G1 X122.703 Y126.857 E6.14310
G1 X122.624 Y126.585 E6.15741
G1 X122.580 Y126.305 E6.17168
G1 X122.571 Y126.021 E6.18598
G1 X122.597 Y125.737 E6.20033
G1 X122.659 Y125.460 E6.21463
G1 X122.755 Y125.193 E6.22892
G1 X122.885 Y124.939 E6.24327
G1 X123.045 Y124.704 E6.25759
G1 X123.232 Y124.492 E6.27187
G1 X123.445 Y124.305 E6.28612
G1 X123.679 Y124.145 E6.30045
G1 X123.933 Y124.015 E6.31480
G1 X124.218 Y123.913 E6.33004
G1 X124.729 Y123.831 E6.35610 F600.000
G1 X125.042 Y123.840 E6.37190
G1 X125.324 Y123.884 E6.38628
G1 X125.597 Y123.963 E6.40061
G1 X125.858 Y124.076 E6.41492
G1 X126.103 Y124.221 E6.42927
G1 X126.327 Y124.395 E6.44351
G1 X126.528 Y124.595 E6.45781
G1 X126.702 Y124.820 E6.47215
G1 X126.846 Y125.064 E6.48642
G1 X126.959 Y125.325 E6.50074
G1 X127.039 Y125.598 E6.51506
G1 X127.083 Y125.879 E6.52938
G1 X127.092 Y126.162 E6.54368
G1 X127.065 Y126.445 E6.55796
G1 X127.003 Y126.722 E6.57231
G1 X126.907 Y126.990 E6.58664
G1 X126.778 Y127.242 E6.60090
G1 X126.619 Y127.478 E6.61524
G1 X126.430 Y127.691 E6.62956
G1 X126.218 Y127.878 E6.64381
G1 X125.983 Y128.038 E6.65813
G1 X125.729 Y128.168 E6.67249
G1 X125.462 Y128.264 E6.68680
G1 X125.186 Y128.325 E6.70106
G1 X124.962 Y128.347 E6.71237
G1 X124.890 Y127.966 F9000.000
G1 X124.655 Y127.958 E6.72423 F600.000
G1 X124.422 Y127.922 E6.73609
G1 X124.196 Y127.856 E6.74796
G1 X123.980 Y127.763 E6.75982
G1 X123.777 Y127.642 E6.77171
G1 X123.591 Y127.498 E6.78355
G1 X123.425 Y127.332 E6.79540
G1 X123.280 Y127.146 E6.80729
G1 X123.160 Y126.942 E6.81918
G1 X123.067 Y126.726 E6.83103
G1 X123.001 Y126.500 E6.84289
G1 X122.964 Y126.268 E6.85472
G1 X122.957 Y126.033 E6.86658
G1 X122.979 Y125.798 E6.87848
G1 X123.030 Y125.568 E6.89033
G1 X123.110 Y125.347 E6.90219
G1 X123.217 Y125.136 E6.91408
G1 X123.350 Y124.942 E6.92594
G1 X123.505 Y124.765 E6.93778
G1 X123.682 Y124.610 E6.94963
G1 X123.876 Y124.477 E6.96151
G1 X124.087 Y124.370 E6.97339
G1 X124.315 Y124.288 E6.98559
G1 X124.754 Y124.218 E7.00802 F600.000
G1 X125.007 Y124.224 E7.02076
G1 X125.240 Y124.261 E7.03265
G1 X125.467 Y124.327 E7.04453
G1 X125.683 Y124.420 E7.05639
G1 X125.886 Y124.541 E7.06827
G1 X126.071 Y124.685 E7.08012
G1 X126.238 Y124.851 E7.09196
G1 X126.382 Y125.037 E7.10384
G1 X126.502 Y125.240 E7.11569
G1 X126.596 Y125.456 E7.12755
G1 X126.662 Y125.682 E7.13942
G1 X126.698 Y125.915 E7.15130
G1 X126.706 Y126.150 E7.16316
G1 X126.684 Y126.384 E7.17500
G1 X126.632 Y126.615 E7.18690
G1 X126.552 Y126.837 E7.19878
G1 X126.446 Y127.046 E7.21060
G1 X126.313 Y127.241 E7.22250
G1 X126.157 Y127.418 E7.23435
G1 X125.981 Y127.573 E7.24620
G1 X125.786 Y127.706 E7.25807
G1 X125.576 Y127.813 E7.26996
G1 X125.354 Y127.893 E7.28182
G1 X124.950 Y127.961 E7.30248
G1 X124.779 Y128.174 F9000.000
G1 X128.987 Y131.356 F9000.000
G1 X129.075 Y131.250 E7.30939 F600.000
G1 X130.961 Y129.479 E7.43976
G1 X133.056 Y127.956 E7.57017
G1 X135.324 Y126.709 E7.70056
G1 X137.731 Y125.757 E7.83094
G1 X140.238 Y125.113 E7.96133
G1 X142.806 Y124.788 E8.09172
G1 X145.394 Y124.788 E8.22211 F600.000
G1 X147.962 Y125.113 E8.35250
G1 X150.469 Y125.757 E8.48289
G1 X152.876 Y126.709 E8.61327
G1 X155.144 Y127.956 E8.74366
G1 X157.239 Y129.479 E8.87407
G1 X159.125 Y131.250 E9.00444
G1 X160.775 Y133.244 E9.13482
G1 X162.162 Y135.430 E9.26523
G1 X163.264 Y137.773 E9.39563
G1 X164.064 Y140.234 E9.52599
G1 X164.549 Y142.776 E9.65637
G1 X164.712 Y145.360 E9.78678
G1 X164.549 Y147.944 E9.91718
G1 X164.064 Y150.486 E10.04757
G1 X163.264 Y152.947 E10.17792
G1 X162.162 Y155.290 E10.30833
G1 X160.775 Y157.476 E10.43873
G1 X159.125 Y159.470 E10.56911
G1 X157.239 Y161.241 E10.69948
G1 X155.144 Y162.764 E10.82989
G1 X152.876 Y164.011 E10.96029
G1 X150.469 Y164.963 E11.09066
G1 X147.962 Y165.607 E11.22105
G1 X145.394 Y165.932 E11.35144
G1 X142.806 Y165.932 E11.48183
G1 X140.238 Y165.607 E11.61223
G1 X137.731 Y164.963 E11.74262
G1 X135.324 Y164.011 E11.87299
G1 X133.056 Y162.764 E12.00338
G1 X130.961 Y161.241 E12.13379
G1 X129.075 Y159.470 E12.26417
G1 X127.425 Y157.476 E12.39455
G1 X126.038 Y155.290 E12.52495
G1 X124.936 Y152.947 E12.65536
G1 X124.136 Y150.486 E12.78571
G1 X123.651 Y147.944 E12.91610
G1 X123.488 Y145.360 E13.04650
G1 X123.651 Y142.776 E13.17691
G1 X124.136 Y140.234 E13.30729
G1 X124.936 Y137.773 E13.43764
G1 X126.038 Y135.430 E13.56805
G1 X127.425 Y133.244 E13.69845
G1 X128.949 Y131.402 E13.81890
G1 X129.284 Y131.602 F9000.000
G1 X129.356 Y131.515 E13.82459 F600.000
G1 X131.208 Y129.776 E13.95252
G1 X133.263 Y128.283 E14.08049
G1 X135.488 Y127.059 E14.20843
G1 X137.850 Y126.125 E14.33636
G1 X140.310 Y125.493 E14.46431
G1 X142.830 Y125.174 E14.59226
G1 X145.230 Y125.174 E14.71316
G1 X145.370 Y125.174 E14.72020 F600.000
G1 X147.890 Y125.493 E14.84815
G1 X150.350 Y126.125 E14.97610
G1 X152.712 Y127.059 E15.10403
G1 X154.937 Y128.283 E15.23197
G1 X156.992 Y129.776 E15.35994
G1 X158.844 Y131.515 E15.48787
G1 X160.463 Y133.471 E15.61581
G1 X161.824 Y135.616 E15.74377
G1 X162.905 Y137.915 E15.87173
G1 X163.690 Y140.330 E15.99964
G1 X164.166 Y142.825 E16.12758
G1 X164.325 Y145.360 E16.25554
G1 X164.166 Y147.895 E16.38350
G1 X163.690 Y150.390 E16.51144
G1 X162.905 Y152.805 E16.63935
G1 X161.824 Y155.104 E16.76731
G1 X160.463 Y157.249 E16.89527
G1 X158.844 Y159.205 E17.02321
G1 X156.992 Y160.944 E17.15114
G1 X154.937 Y162.437 E17.27911
G1 X152.712 Y163.661 E17.40705
G1 X150.350 Y164.595 E17.53498
G1 X147.890 Y165.227 E17.66293
G1 X145.370 Y165.546 E17.79088
G1 X142.830 Y165.546 E17.91882
G1 X140.310 Y165.227 E18.04677
G1 X137.850 Y164.595 E18.17472
G1 X135.488 Y163.661 E18.30265
G1 X133.263 Y162.437 E18.43059
G1 X131.208 Y160.944 E18.55856
G1 X129.356 Y159.205 E18.68649
G1 X127.737 Y157.249 E18.81443
G1 X126.376 Y155.104 E18.94239
G1 X125.295 Y152.805 E19.07035
G1 X124.510 Y150.390 E19.19826
G1 X124.034 Y147.895 E19.32620
G1 X123.875 Y145.360 E19.45416
G1 X124.034 Y142.825 E19.58212
G1 X124.510 Y140.330 E19.71006
G1 X125.295 Y137.915 E19.83797
G1 X126.376 Y135.616 E19.96593
G1 X127.737 Y133.471 E20.09389
G1 X129.246 Y131.648 E20.21311
G1 X129.245 Y131.496 F9000.000
G1 E14.21311 F1800.00000
G92 E0
G1 X161.135 Y126.445 F9000.000
G1 E6.00000 F1800.00000
G1 X161.108 Y126.162 E6.01428 F600.000
G1 X161.117 Y125.879 E6.02858
G1 X161.161 Y125.598 E6.04291
G1 X161.241 Y125.325 E6.05723
G1 X161.354 Y125.064 E6.07154
G1 X161.498 Y124.820 E6.08582
G1 X161.672 Y124.595 E6.10015
G1 X161.873 Y124.395 E6.11445
G1 X162.097 Y124.221 E6.12870
G1 X162.342 Y124.076 E6.14304
G1 X162.603 Y123.963 E6.15736
G1 X162.893 Y123.879 E6.17260
G1 X163.408 Y123.829 E6.19868 F600.000
G1 X163.721 Y123.857 E6.21450
