; generated by Slic3r 1.2.9 on 2017-12-09 at 21:23:51

; external perimeters extrusion width = 0.40mm
; perimeters extrusion width = 0.62mm
; infill extrusion width = 0.33mm
; solid infill extrusion width = 0.62mm
; top infill extrusion width = 0.20mm

M106 S256; Turn on fan to 100% power
M104 S140; turn on extruder temperature at S value
M140 S60; turn on bed temperature at S value
G28; home all axes
M84; disable motors
G1 Z15 F15000; have Z move to 20mm at 15000 mm/min
M190 S55; turn on bed temperature at S value and wait
M140 S55; turn on bed temperature at S value (printing temperature)
M109 S200; turn on extruder temperature at S value and wait (printing temperature)
M104 S200; turn on extruder temperature at S value
G1 Z0 F12000; move Z back to home
G21 ; set units to millimeters
G90 ; use absolute coordinates
M82 ; use absolute distances for extrusion
G92 E0
M106 S255
;Layer change
G1 E-6.00000 F1800.00000
G92 E0
G1 Z0.300 F9000.000
G1 X53.962 Y11.798 F9000.000
G1 E6.00000 F1800.00000
G1 X54.192 Y11.030 E6.03990 F600.000
G1 X54.303 Y10.750 E6.05490
G1 X54.661 Y10.035 E6.09473
G1 X55.106 Y9.368 E6.13464
G1 X55.426 Y8.981 E6.15965
G1 X55.997 Y8.419 E6.19953
G1 X56.635 Y7.932 E6.23950
G1 X57.328 Y7.530 E6.27936
G1 X57.598 Y7.403 E6.29425
G1 X58.065 Y7.218 E6.31926
G1 X58.365 Y7.122 E6.33493
G1 X59.131 Y6.944 E6.37409
G1 X59.630 Y6.881 E6.39911
G1 X60.180 Y6.854 E6.42655
G1 X102.832 Y6.859 E8.55013
G1 X103.628 Y6.928 E8.58991 F600.000
G1 X104.121 Y7.023 E8.61493
G1 X104.889 Y7.252 E8.65481
G1 X105.169 Y7.363 E8.66981
G1 X105.885 Y7.720 E8.70965
G1 X106.309 Y7.989 E8.73466
G1 X106.938 Y8.485 E8.77455
G1 X107.157 Y8.690 E8.78948
G1 X107.693 Y9.289 E8.82951
G1 X107.988 Y9.696 E8.85454
G1 X108.390 Y10.387 E8.89433
G1 X108.517 Y10.659 E8.90926
G1 X108.702 Y11.126 E8.93427
G1 X108.920 Y11.896 E8.97413
G1 X109.039 Y12.690 E9.01410
G1 X109.066 Y13.240 E9.04151
G1 X109.066 Y55.740 E11.15754
G1 X109.029 Y56.391 E11.19000
G1 X108.898 Y57.182 E11.22995
G1 X108.668 Y57.950 E11.26982
G1 X108.558 Y58.228 E11.28475
G1 X108.344 Y58.683 E11.30976
G1 X107.930 Y59.369 E11.34965
G1 X107.754 Y59.612 E11.36457
G1 X107.229 Y60.217 E11.40448
G1 X106.632 Y60.752 E11.44441
G1 X105.973 Y61.208 E11.48430
G1 X105.532 Y61.450 E11.50931
G1 X104.794 Y61.762 E11.54922
G1 X104.509 Y61.855 E11.56414
G1 X103.729 Y62.036 E11.60401
G1 X103.230 Y62.099 E11.62904
G1 X102.680 Y62.126 E11.65648
G1 X60.030 Y62.121 E13.77996
G1 X59.231 Y62.052 E13.81989
G1 X58.738 Y61.958 E13.84490
G1 X57.970 Y61.728 E13.88479
G1 X57.692 Y61.618 E13.89971
G1 X56.975 Y61.260 E13.93961
G1 X56.551 Y60.990 E13.96462
G1 X56.297 Y60.805 E13.98027
G1 X55.703 Y60.289 E14.01945
G1 X55.359 Y59.923 E14.04447
G1 X54.873 Y59.285 E14.08439
G1 X54.470 Y58.592 E14.12428
G1 X54.343 Y58.321 E14.13919
G1 X54.158 Y57.854 E14.16421
G1 X53.940 Y57.083 E14.20412
G1 X53.884 Y56.789 E14.21902
G1 X53.803 Y56.066 E14.25522
G1 X53.794 Y13.240 E16.38749
G1 X53.831 Y12.589 E16.41994
G1 X53.951 Y11.857 E16.45689
G1 E10.45689 F1800.00000
G92 E0
G1 X101.245 Y51.566 F9000.000
G1 E6.00000 F1800.00000
G1 X101.484 Y51.636 E6.01239 F600.000
G1 X101.955 Y51.876 E6.03873
G1 X102.194 Y52.062 E6.05380
G1 X102.395 Y52.262 E6.06793
G1 X102.570 Y52.488 E6.08213
G1 X102.714 Y52.733 E6.09628
G1 X102.827 Y52.993 E6.11040
G1 X102.906 Y53.265 E6.12454
G1 X102.950 Y53.545 E6.13865
G1 X102.959 Y53.829 E6.15279
G1 X102.933 Y54.113 E6.16697
G1 X102.871 Y54.390 E6.18110
G1 X102.775 Y54.657 E6.19524
G1 X102.645 Y54.910 E6.20939
G1 X102.486 Y55.145 E6.22353
G1 X102.298 Y55.358 E6.23767
G1 X102.085 Y55.546 E6.25181
G1 X101.850 Y55.705 E6.26595
G1 X101.597 Y55.835 E6.28010
G1 X101.330 Y55.931 E6.29424
G1 X101.053 Y55.993 E6.30838
G1 X100.770 Y56.019 E6.32252
G1 X100.486 Y56.010 E6.33666
G1 X100.205 Y55.966 E6.35080
G1 X99.932 Y55.887 E6.36495
G1 X99.672 Y55.774 E6.37909
G1 X99.427 Y55.629 E6.39324
G1 X99.203 Y55.455 E6.40738
G1 X99.002 Y55.254 E6.42152
G1 X98.828 Y55.030 E6.43566
G1 X98.683 Y54.785 E6.44985
G1 X98.569 Y54.518 E6.46427
G1 X98.491 Y54.252 E6.47807
G1 X98.447 Y53.970 E6.49228
G1 X98.439 Y53.680 E6.50673
G1 X98.465 Y53.405 E6.52048
G1 X98.527 Y53.128 E6.53465
G1 X98.623 Y52.860 E6.54883
G1 X98.752 Y52.608 E6.56292
G1 X98.911 Y52.372 E6.57709
G1 X99.100 Y52.159 E6.59124
G1 X99.312 Y51.972 E6.60533
G1 X99.547 Y51.812 E6.61949
G1 X99.801 Y51.682 E6.63368
G1 X100.086 Y51.580 E6.64874
G1 X100.601 Y51.498 E6.67474 F600.000
G1 X100.910 Y51.507 E6.69015
G1 X101.187 Y51.550 E6.70409
G1 X101.137 Y51.936 F9000.000
G1 X101.341 Y51.996 E6.71467 F600.000
G1 X101.747 Y52.203 E6.73738
G1 X101.939 Y52.352 E6.74945
G1 X102.105 Y52.518 E6.76116
G1 X102.250 Y52.704 E6.77291
G1 X102.370 Y52.908 E6.78466
G1 X102.463 Y53.124 E6.79637
G1 X102.529 Y53.350 E6.80810
G1 X102.566 Y53.582 E6.81979
G1 X102.573 Y53.817 E6.83151
G1 X102.551 Y54.052 E6.84328
G1 X102.500 Y54.282 E6.85499
G1 X102.420 Y54.504 E6.86672
G1 X102.313 Y54.713 E6.87845
G1 X102.181 Y54.908 E6.89017
G1 X102.025 Y55.085 E6.90190
G1 X101.848 Y55.241 E6.91362
G1 X101.653 Y55.373 E6.92535
G1 X101.444 Y55.480 E6.93708
G1 X101.222 Y55.560 E6.94881
G1 X100.992 Y55.611 E6.96053
G1 X100.758 Y55.633 E6.97226
G1 X100.522 Y55.626 E6.98398
G1 X100.290 Y55.589 E6.99571
G1 X100.063 Y55.523 E7.00744
G1 X99.847 Y55.430 E7.01916
G1 X99.644 Y55.310 E7.03089
G1 X99.458 Y55.165 E7.04262
G1 X99.292 Y54.999 E7.05434
G1 X99.148 Y54.813 E7.06606
G1 X99.027 Y54.610 E7.07781
G1 X98.932 Y54.388 E7.08982
G1 X98.868 Y54.168 E7.10123
G1 X98.831 Y53.935 E7.11299
G1 X98.825 Y53.693 E7.12502
G1 X98.846 Y53.466 E7.13639
G1 X98.898 Y53.235 E7.14816
G1 X98.978 Y53.013 E7.15990
G1 X99.084 Y52.804 E7.17158
G1 X99.217 Y52.609 E7.18334
G1 X99.373 Y52.432 E7.19506
G1 X99.549 Y52.277 E7.20677
G1 X99.744 Y52.144 E7.21851
G1 X99.954 Y52.037 E7.23025
G1 X100.182 Y51.955 E7.24231
G1 X100.626 Y51.884 E7.26470 F600.000
G1 X100.875 Y51.892 E7.27709
G1 X101.078 Y51.923 E7.28736
G1 X101.285 Y51.784 F9000.000
G1 E1.28736 F1800.00000
G92 E0
G1 X64.422 Y53.688 F9000.000
G1 E6.00000 F1800.00000
G1 X64.413 Y53.971 E6.01413 F600.000
G1 X64.369 Y54.252 E6.02829
G1 X64.289 Y54.526 E6.04245
G1 X64.176 Y54.786 E6.05658
G1 X64.032 Y55.030 E6.07071
G1 X63.858 Y55.254 E6.08485
G1 X63.657 Y55.455 E6.09899
G1 X63.433 Y55.629 E6.11313
G1 X63.188 Y55.774 E6.12727
G1 X62.928 Y55.887 E6.14141
G1 X62.655 Y55.966 E6.15556
G1 X62.374 Y56.010 E6.16970
G1 X62.090 Y56.019 E6.18384
G1 X61.807 Y55.993 E6.19799
G1 X61.530 Y55.931 E6.21212
G1 X61.263 Y55.835 E6.22627
G1 X61.010 Y55.705 E6.24042
G1 X60.781 Y55.550 E6.25419
G1 X60.563 Y55.359 E6.26864
G1 X60.374 Y55.145 E6.28283
G1 X60.215 Y54.910 E6.29697
G1 X60.085 Y54.657 E6.31112
G1 X59.989 Y54.390 E6.32527
G1 X59.927 Y54.113 E6.33940
G1 X59.901 Y53.829 E6.35358
G1 X59.910 Y53.545 E6.36771
G1 X59.954 Y53.265 E6.38182
G1 X60.033 Y52.993 E6.39596
G1 X60.146 Y52.733 E6.41008
G1 X60.290 Y52.488 E6.42423
G1 X60.465 Y52.262 E6.43843
G1 X60.666 Y52.062 E6.45257
G1 X60.905 Y51.876 E6.46763
G1 X61.376 Y51.636 E6.49397
G1 X61.686 Y51.546 E6.51003
G1 X62.206 Y51.496 E6.53605 F600.000
G1 X62.515 Y51.525 E6.55147
G1 X62.792 Y51.586 E6.56562
G1 X63.059 Y51.682 E6.57976
G1 X63.313 Y51.812 E6.59395
G1 X63.548 Y51.972 E6.60811
G1 X63.760 Y52.159 E6.62220
G1 X63.949 Y52.372 E6.63635
G1 X64.108 Y52.608 E6.65052
G1 X64.237 Y52.860 E6.66461
G1 X64.333 Y53.128 E6.67878
G1 X64.395 Y53.405 E6.69296
G1 X64.416 Y53.628 E6.70409
G1 X64.036 Y53.700 F9000.000
G1 X64.028 Y53.935 E6.71581 F600.000
G1 X63.992 Y54.168 E6.72755
G1 X63.926 Y54.394 E6.73929
G1 X63.832 Y54.610 E6.75099
G1 X63.712 Y54.813 E6.76272
G1 X63.568 Y54.999 E6.77444
G1 X63.402 Y55.165 E6.78617
G1 X63.216 Y55.310 E6.79789
G1 X63.013 Y55.430 E6.80962
G1 X62.797 Y55.523 E6.82134
G1 X62.570 Y55.589 E6.83307
G1 X62.338 Y55.626 E6.84480
G1 X62.102 Y55.633 E6.85653
G1 X61.868 Y55.611 E6.86825
G1 X61.638 Y55.560 E6.87998
G1 X61.416 Y55.480 E6.89170
G1 X61.207 Y55.373 E6.90343
G1 X61.017 Y55.244 E6.91483
G1 X60.835 Y55.085 E6.92686
G1 X60.679 Y54.908 E6.93860
G1 X60.547 Y54.713 E6.95033
G1 X60.440 Y54.504 E6.96206
G1 X60.360 Y54.282 E6.97379
G1 X60.309 Y54.052 E6.98550
G1 X60.287 Y53.817 E6.99726
G1 X60.294 Y53.582 E7.00899
G1 X60.331 Y53.350 E7.02068
G1 X60.397 Y53.124 E7.03241
G1 X60.490 Y52.908 E7.04412
G1 X60.610 Y52.704 E7.05586
G1 X60.755 Y52.518 E7.06762
G1 X60.921 Y52.352 E7.07933
G1 X61.113 Y52.203 E7.09140
G1 X61.519 Y51.996 E7.11411
G1 X61.759 Y51.926 E7.12654
G1 X62.207 Y51.883 E7.14894 F600.000
G1 X62.455 Y51.906 E7.16134
G1 X62.684 Y51.957 E7.17306
G1 X62.906 Y52.037 E7.18479
G1 X63.116 Y52.144 E7.19653
G1 X63.311 Y52.277 E7.20827
G1 X63.487 Y52.432 E7.21998
G1 X63.643 Y52.609 E7.23170
G1 X63.776 Y52.804 E7.24345
G1 X63.882 Y53.013 E7.25514
G1 X63.962 Y53.235 E7.26688
G1 X64.014 Y53.466 E7.27864
G1 X64.030 Y53.640 E7.28736
G1 X64.241 Y53.815 F9000.000
G1 E1.28736 F1800.00000
G92 E0
G1 X62.232 Y17.483 F9000.000
G1 E6.00000 F1800.00000
G1 X61.948 Y17.473 E6.01415 F600.000
G1 X61.668 Y17.429 E6.02827
G1 X61.395 Y17.350 E6.04243
G1 X61.134 Y17.237 E6.05658
G1 X60.889 Y17.092 E6.07075
G1 X60.666 Y16.918 E6.08484
G1 X60.465 Y16.718 E6.09897
G1 X60.290 Y16.492 E6.11317
G1 X60.146 Y16.247 E6.12733
G1 X60.033 Y15.987 E6.14144
G1 X59.954 Y15.715 E6.15558
G1 X59.910 Y15.435 E6.16969
G1 X59.901 Y15.151 E6.18383
G1 X59.927 Y14.867 E6.19801
G1 X59.989 Y14.590 E6.21214
G1 X60.085 Y14.323 E6.22627
G1 X60.215 Y14.069 E6.24045
G1 X60.375 Y13.834 E6.25461
G1 X60.562 Y13.622 E6.26872
G1 X60.775 Y13.435 E6.28281
G1 X61.009 Y13.275 E6.29697
G1 X61.263 Y13.145 E6.31115
G1 X61.548 Y13.043 E6.32623
G1 X62.064 Y12.961 E6.35222 F600.000
G1 X62.373 Y12.970 E6.36763
G1 X62.654 Y13.014 E6.38180
G1 X62.927 Y13.093 E6.39596
G1 X63.188 Y13.206 E6.41011
G1 X63.433 Y13.351 E6.42429
G1 X63.657 Y13.525 E6.43837
G1 X63.858 Y13.725 E6.45251
G1 X64.032 Y13.950 E6.46667
G1 X64.176 Y14.194 E6.48078
G1 X64.289 Y14.455 E6.49493
G1 X64.369 Y14.728 E6.50909
G1 X64.413 Y15.009 E6.52325
G1 X64.422 Y15.292 E6.53738
G1 X64.395 Y15.574 E6.55149
G1 X64.333 Y15.852 E6.56567
G1 X64.237 Y16.120 E6.57984
G1 X64.108 Y16.372 E6.59393
G1 X63.949 Y16.608 E6.60811
G1 X63.760 Y16.821 E6.62226
G1 X63.548 Y17.008 E6.63635
G1 X63.313 Y17.168 E6.65051
G1 X63.059 Y17.298 E6.66470
G1 X62.792 Y17.394 E6.67884
G1 X62.516 Y17.455 E6.69293
G1 X62.292 Y17.477 E6.70411
G1 X62.220 Y17.096 F9000.000
G1 X61.985 Y17.088 E6.71584 F600.000
G1 X61.752 Y17.052 E6.72756
G1 X61.526 Y16.986 E6.73929
G1 X61.310 Y16.893 E6.75101
G1 X61.107 Y16.772 E6.76276
G1 X60.921 Y16.628 E6.77447
G1 X60.755 Y16.462 E6.78618
G1 X60.610 Y16.276 E6.79793
G1 X60.490 Y16.072 E6.80968
G1 X60.397 Y15.856 E6.82139
G1 X60.331 Y15.630 E6.83312
G1 X60.294 Y15.398 E6.84481
G1 X60.287 Y15.163 E6.85653
G1 X60.309 Y14.928 E6.86830
G1 X60.360 Y14.698 E6.88001
G1 X60.440 Y14.477 E6.89173
G1 X60.547 Y14.266 E6.90349
G1 X60.680 Y14.072 E6.91521
G1 X60.835 Y13.895 E6.92691
G1 X61.012 Y13.740 E6.93862
G1 X61.206 Y13.607 E6.95036
G1 X61.417 Y13.500 E6.96210
G1 X61.645 Y13.418 E6.97417
G1 X62.089 Y13.347 E6.99656 F600.000
G1 X62.337 Y13.355 E7.00895
G1 X62.570 Y13.391 E7.02068
G1 X62.797 Y13.457 E7.03242
G1 X63.013 Y13.550 E7.04414
G1 X63.216 Y13.671 E7.05589
G1 X63.401 Y13.815 E7.06760
G1 X63.568 Y13.981 E7.07931
G1 X63.712 Y14.167 E7.09105
G1 X63.832 Y14.370 E7.10275
G1 X63.926 Y14.586 E7.11448
G1 X63.992 Y14.812 E7.12621
G1 X64.028 Y15.045 E7.13795
G1 X64.036 Y15.280 E7.14967
G1 X64.014 Y15.514 E7.16138
G1 X63.962 Y15.745 E7.17314
G1 X63.882 Y15.967 E7.18488
G1 X63.776 Y16.176 E7.19657
G1 X63.643 Y16.371 E7.20832
G1 X63.487 Y16.548 E7.22004
G1 X63.311 Y16.703 E7.23175
G1 X63.116 Y16.836 E7.24349
G1 X62.906 Y16.943 E7.25524
G1 X62.684 Y17.023 E7.26696
G1 X62.280 Y17.091 E7.28738
G1 X62.109 Y17.304 F9000.000
G1 X66.317 Y20.486 F9000.000
G1 X66.405 Y20.380 E7.29421 F600.000
G1 X68.291 Y18.609 E7.42307
G1 X70.386 Y17.086 E7.55197
G1 X72.654 Y15.839 E7.68085
G1 X75.061 Y14.887 E7.80971
G1 X77.568 Y14.243 E7.93859
G1 X80.136 Y13.918 E8.06747
G1 X82.724 Y13.918 E8.19635 F600.000
G1 X85.292 Y14.243 E8.32523
G1 X87.799 Y14.887 E8.45411
G1 X90.206 Y15.839 E8.58297
G1 X92.474 Y17.086 E8.71185
G1 X94.569 Y18.609 E8.84075
G1 X96.455 Y20.380 E8.96961
G1 X98.105 Y22.374 E9.09848
G1 X99.492 Y24.560 E9.22737
G1 X100.594 Y26.903 E9.35627
G1 X101.394 Y29.364 E9.48511
G1 X101.879 Y31.906 E9.61398
G1 X102.042 Y34.490 E9.74288
G1 X101.879 Y37.074 E9.87177
G1 X101.394 Y39.616 E10.00064
G1 X100.594 Y42.077 E10.12948
G1 X99.492 Y44.420 E10.25838
G1 X98.105 Y46.606 E10.38727
G1 X96.455 Y48.600 E10.51614
G1 X94.569 Y50.371 E10.64500
G1 X92.474 Y51.894 E10.77390
G1 X90.206 Y53.141 E10.90278
G1 X87.799 Y54.093 E11.03164
G1 X85.292 Y54.737 E11.16052
G1 X82.724 Y55.062 E11.28940
G1 X80.136 Y55.062 E11.41828
G1 X77.568 Y54.737 E11.54716
G1 X75.061 Y54.093 E11.67604
G1 X72.654 Y53.141 E11.80490
G1 X70.386 Y51.894 E11.93378
G1 X68.291 Y50.371 E12.06268
G1 X66.405 Y48.600 E12.19154
G1 X64.755 Y46.606 E12.32041
G1 X63.368 Y44.420 E12.44930
G1 X62.266 Y42.077 E12.57820
G1 X61.465 Y39.615 E12.70710
G1 X60.976 Y36.997 E12.83969
G1 X60.818 Y34.490 E12.96478
G1 X60.981 Y31.906 E13.09367
G1 X61.466 Y29.364 E13.22254
G1 X62.266 Y26.903 E13.35138
G1 X63.368 Y24.560 E13.48028
G1 X64.755 Y22.374 E13.60917
G1 X66.279 Y20.532 E13.72822
G1 X66.614 Y20.732 F9000.000
G1 X66.686 Y20.645 E13.73384 F600.000
G1 X68.538 Y18.906 E13.86029
G1 X70.593 Y17.413 E13.98677
G1 X72.818 Y16.189 E14.11324
G1 X75.180 Y15.255 E14.23969
G1 X77.640 Y14.623 E14.36615
G1 X80.160 Y14.304 E14.49261
G1 X82.700 Y14.304 E14.61907 F600.000
G1 X85.220 Y14.623 E14.74554
G1 X87.680 Y15.255 E14.87200
G1 X90.042 Y16.189 E14.99845
G1 X92.267 Y17.413 E15.12491
G1 X94.322 Y18.906 E15.25140
G1 X96.174 Y20.645 E15.37784
G1 X97.793 Y22.601 E15.50429
G1 X99.154 Y24.746 E15.63077
G1 X100.235 Y27.045 E15.75725
G1 X101.020 Y29.460 E15.88368
G1 X101.496 Y31.955 E16.01013
G1 X101.655 Y34.490 E16.13661
G1 X101.496 Y37.025 E16.26309
G1 X101.020 Y39.520 E16.38954
G1 X100.235 Y41.935 E16.51597
G1 X99.154 Y44.234 E16.64245
G1 X97.793 Y46.379 E16.76893
G1 X96.174 Y48.335 E16.89538
G1 X94.322 Y50.074 E17.02182
G1 X92.267 Y51.567 E17.14831
G1 X90.042 Y52.791 E17.27477
G1 X87.680 Y53.725 E17.40122
G1 X85.220 Y54.357 E17.52768
G1 X82.700 Y54.676 E17.65415
G1 X80.160 Y54.676 E17.78061
G1 X77.640 Y54.357 E17.90707
G1 X75.180 Y53.725 E18.03353
G1 X72.818 Y52.791 E18.15998
G1 X70.593 Y51.567 E18.28645
G1 X68.538 Y50.074 E18.41293
G1 X66.686 Y48.335 E18.53938
G1 X65.067 Y46.379 E18.66583
G1 X63.706 Y44.234 E18.79230
G1 X62.625 Y41.935 E18.91878
G1 X61.840 Y39.520 E19.04523
G1 X61.359 Y36.950 E19.17541
G1 X61.205 Y34.490 E19.29811
G1 X61.364 Y31.955 E19.42459
G1 X61.840 Y29.460 E19.55105
G1 X62.625 Y27.045 E19.67747
G1 X63.706 Y24.746 E19.80395
G1 X65.067 Y22.601 E19.93043
G1 X66.576 Y20.778 E20.04827
G1 X66.575 Y20.626 F9000.000
G1 E14.04827 F1800.00000
G92 E0
G1 X98.465 Y15.575 F9000.000
G1 E6.00000 F1800.00000
G1 X98.438 Y15.292 E6.01412 F600.000
G1 X98.447 Y15.009 E6.02825
G1 X98.491 Y14.728 E6.04241
G1 X98.571 Y14.455 E6.05656
G1 X98.684 Y14.194 E6.07071
G1 X98.828 Y13.950 E6.08482
G1 X99.002 Y13.725 E6.09899
G1 X99.203 Y13.525 E6.11312
G1 X99.427 Y13.351 E6.12720
G1 X99.672 Y13.206 E6.14138
G1 X99.933 Y13.093 E6.15553
G1 X100.223 Y13.009 E6.17060
G1 X100.744 Y12.959 E6.19663 F600.000
G1 X101.052 Y12.988 E6.21205
G1 X101.329 Y13.049 E6.22619
G1 X101.597 Y13.145 E6.24034
G1 X101.851 Y13.275 E6.25453
G1 X102.085 Y13.435 E6.26869
G1 X102.298 Y13.622 E6.28278
G1 X102.485 Y13.834 E6.29689
G1 X102.645 Y14.069 E6.31104
G1 X102.775 Y14.323 E6.32523
G1 X102.871 Y14.590 E6.33936
G1 X102.933 Y14.867 E6.35349
G1 X102.959 Y15.151 E6.36767
G1 X102.950 Y15.435 E6.38181
G1 X102.906 Y15.715 E6.39591
G1 X102.827 Y15.987 E6.41006
G1 X102.714 Y16.247 E6.42417
G1 X102.570 Y16.492 E6.43832
G1 X102.395 Y16.718 E6.45252
G1 X102.194 Y16.918 E6.46666
G1 X101.971 Y17.092 E6.48074
G1 X101.726 Y17.237 E6.49492
G1 X101.465 Y17.350 E6.50907
G1 X101.192 Y17.429 E6.52323
G1 X100.912 Y17.473 E6.53735
G1 X100.628 Y17.483 E6.55150
G1 X100.344 Y17.455 E6.56566
G1 X100.068 Y17.394 E6.57975
