; generated by Slic3r 1.2.9 on 2018-06-06 at 13:06:45

; external perimeters extrusion width = 0.40mm
; perimeters extrusion width = 0.62mm
; infill extrusion width = 0.33mm
; solid infill extrusion width = 0.62mm
; top infill extrusion width = 0.20mm

M106 S256; Turn on fan to 100% power
M104 S140; turn on extruder temperature at S value
M140 S60; turn on bed temperature at S value
G28; home all axes
M84; disable motors
G1 Z15 F15000; have Z move to 20mm at 15000 mm/min
M190 S55; turn on bed temperature at S value and wait
M140 S55; turn on bed temperature at S value (printing temperature)
M109 S200; turn on extruder temperature at S value and wait (printing temperature)
M104 S200; turn on extruder temperature at S value
G1 Z0 F12000; move Z back to home
G21 ; set units to millimeters
G90 ; use absolute coordinates
M82 ; use absolute distances for extrusion
G92 E0
M106 S255
;Layer change
G1 E-6.00000 F1800.00000
G92 E0
G1 Z0.300 F9000.000
G1 X123.221 Y23.008 F9000.000
G1 E6.00000 F1800.00000
G1 X123.591 Y21.352 E6.08254 F600.000
G1 X123.981 Y20.010 E6.15055
G1 X124.501 Y18.552 E6.22583
G1 X125.175 Y16.995 E6.30840
G1 X125.809 Y15.749 E6.37639
G1 X126.589 Y14.422 E6.45127
G1 X127.459 Y13.133 E6.52696
G1 X128.499 Y11.792 E6.60952
G1 X129.423 Y10.743 E6.67753
G1 X130.514 Y9.646 E6.75280
G1 X131.787 Y8.523 E6.83537
G1 X132.891 Y7.667 E6.90337
G1 X134.169 Y6.793 E6.97865
G1 X135.629 Y5.929 E7.06121
G1 X137.010 Y5.231 E7.13650
G1 X138.432 Y4.621 E7.21177
G1 X139.747 Y4.147 E7.27977
G1 X141.377 Y3.674 E7.36235
G1 X142.888 Y3.341 E7.43762
G1 X144.268 Y3.122 E7.50562
G1 X145.958 Y2.962 E7.58819
G1 X147.513 Y2.919 E7.66386
G1 X149.051 Y2.972 E7.73875 F600.000
G1 X150.443 Y3.103 E7.80675
G1 X151.972 Y3.341 E7.88205
G1 X153.628 Y3.711 E7.96460
G1 X155.113 Y4.147 E8.03988
G1 X156.428 Y4.621 E8.10788
G1 X157.850 Y5.231 E8.18316
G1 X159.231 Y5.929 E8.25845
G1 X160.565 Y6.713 E8.33374
G1 X161.968 Y7.667 E8.41628
G1 X163.188 Y8.619 E8.49157
G1 X164.346 Y9.646 E8.56686
G1 X165.442 Y10.749 E8.64251
G1 X166.457 Y11.907 E8.71742
G1 X167.313 Y13.012 E8.78543
G1 X168.267 Y14.415 E8.86799
G1 X169.051 Y15.749 E8.94326
G1 X169.749 Y17.130 E9.01855
G1 X170.304 Y18.413 E9.08654
G1 X170.833 Y19.867 E9.16182
G1 X171.269 Y21.352 E9.23710
G1 X171.639 Y23.008 E9.31966
G1 X171.877 Y24.537 E9.39495
G1 X172.018 Y26.078 E9.47024
G1 X172.061 Y27.633 E9.54590
G1 X172.008 Y29.171 E9.62080
G1 X171.877 Y30.563 E9.68881
G1 X171.639 Y32.092 E9.76410
G1 X171.269 Y33.748 E9.84665
G1 X170.833 Y35.233 E9.92194
G1 X170.304 Y36.687 E9.99721
G1 X169.749 Y37.970 E10.06521
G1 X169.051 Y39.351 E10.14049
G1 X168.267 Y40.685 E10.21577
G1 X167.314 Y42.088 E10.29832
G1 X166.361 Y43.308 E10.37362
G1 X165.334 Y44.466 E10.44891
G1 X164.237 Y45.557 E10.52419
G1 X163.188 Y46.481 E10.59219
G1 X161.968 Y47.434 E10.66750
G1 X160.565 Y48.387 E10.75004
G1 X159.362 Y49.099 E10.81803
G1 X157.985 Y49.805 E10.89331
G1 X156.567 Y50.424 E10.96859
G1 X155.113 Y50.953 E11.04387
G1 X153.483 Y51.426 E11.12645
G1 X151.972 Y51.759 E11.20171
G1 X150.435 Y51.997 E11.27739
G1 X149.051 Y52.128 E11.34501
G1 X147.513 Y52.181 E11.41989
G1 X145.958 Y52.138 E11.49557
G1 X144.417 Y51.997 E11.57087
G1 X142.741 Y51.731 E11.65342
G1 X141.232 Y51.389 E11.72870
G1 X139.890 Y50.999 E11.79670
G1 X138.432 Y50.479 E11.87198
G1 X137.010 Y49.869 E11.94726
G1 X135.498 Y49.099 E12.02983
G1 X134.169 Y48.307 E12.10511
G1 X132.892 Y47.433 E12.18038
G1 X131.787 Y46.577 E12.24839
G1 X130.623 Y45.556 E12.32370
G1 X129.526 Y44.466 E12.39895
G1 X128.499 Y43.308 E12.47424
G1 X127.459 Y41.967 E12.55680
G1 X126.589 Y40.678 E12.63247
G1 X125.809 Y39.351 E12.70737
G1 X125.175 Y38.105 E12.77536
G1 X124.556 Y36.687 E12.85064
G1 X123.981 Y35.090 E12.93321
G1 X123.554 Y33.603 E13.00850
G1 X123.221 Y32.092 E13.08376
G1 X123.002 Y30.712 E13.15177
G1 X122.852 Y29.171 E13.22706
G1 X122.799 Y27.475 E13.30962
G1 X122.852 Y25.929 E13.38490
G1 X122.983 Y24.537 E13.45292
G1 X123.211 Y23.067 E13.52528
G1 E7.52528 F1800.00000
G92 E0
G1 X168.652 Y27.550 F9000.000
G1 E6.00000 F1800.00000
G1 X168.610 Y28.883 E6.06486 F600.000
G1 X168.485 Y30.210 E6.12972
G1 X168.276 Y31.527 E6.19459
G1 X167.985 Y32.828 E6.25945
G1 X167.613 Y34.108 E6.32431
G1 X167.162 Y35.362 E6.38917
G1 X166.632 Y36.586 E6.45403
G1 X166.027 Y37.774 E6.51889
G1 X165.348 Y38.921 E6.58376
G1 X164.599 Y40.024 E6.64862
G1 X163.777 Y41.083 E6.71386
G1 X162.900 Y42.078 E6.77834
G1 X161.958 Y43.020 E6.84320
G1 X160.957 Y43.902 E6.90806
G1 X159.904 Y44.719 E6.97293
G1 X158.795 Y45.472 E7.03816
G1 X157.654 Y46.147 E7.10265
G1 X156.466 Y46.752 E7.16751
G1 X155.242 Y47.282 E7.23237
G1 X153.988 Y47.733 E7.29723
G1 X152.708 Y48.105 E7.36210
G1 X151.399 Y48.397 E7.42733
G1 X150.090 Y48.605 E7.49182
G1 X148.763 Y48.730 E7.55668
G1 X147.430 Y48.772 E7.62154
G1 X146.105 Y48.731 E7.68603
G1 X144.770 Y48.605 E7.75126
G1 X143.453 Y48.396 E7.81613
G1 X142.152 Y48.105 E7.88099
G1 X140.872 Y47.733 E7.94585
G1 X139.618 Y47.282 E8.01071
G1 X138.394 Y46.752 E8.07557
G1 X137.206 Y46.147 E8.14044
G1 X136.059 Y45.468 E8.20530
G1 X134.956 Y44.719 E8.27016
G1 X133.897 Y43.897 E8.33540
G1 X132.902 Y43.020 E8.39988
G1 X131.960 Y42.078 E8.46474
G1 X131.078 Y41.077 E8.52961
G1 X130.261 Y40.024 E8.59447
G1 X129.508 Y38.915 E8.65971
G1 X128.833 Y37.774 E8.72419
G1 X128.228 Y36.586 E8.78905
G1 X127.698 Y35.362 E8.85391
G1 X127.247 Y34.108 E8.91878
G1 X126.875 Y32.828 E8.98364
G1 X126.584 Y31.527 E9.04850
G1 X126.375 Y30.210 E9.11336
G1 X126.250 Y28.883 E9.17822
G1 X126.208 Y27.550 E9.24308
G1 X126.250 Y26.217 E9.30795
G1 X126.375 Y24.890 E9.37281
G1 X126.584 Y23.573 E9.43767
G1 X126.875 Y22.272 E9.50253
G1 X127.247 Y20.992 E9.56739
G1 X127.698 Y19.738 E9.63225
G1 X128.228 Y18.514 E9.69712
G1 X128.833 Y17.326 E9.76198
G1 X129.512 Y16.179 E9.82684
G1 X130.261 Y15.076 E9.89170
G1 X131.078 Y14.023 E9.95656
G1 X131.960 Y13.022 E10.02143
G1 X132.902 Y12.080 E10.08629
G1 X133.897 Y11.203 E10.15077
G1 X134.956 Y10.381 E10.21601
G1 X136.065 Y9.628 E10.28125
G1 X137.206 Y8.953 E10.34573
G1 X138.394 Y8.348 E10.41060
G1 X139.618 Y7.818 E10.47546
G1 X140.872 Y7.367 E10.54032
G1 X142.152 Y6.995 E10.60518
G1 X143.453 Y6.704 E10.67004
G1 X144.770 Y6.495 E10.73491
G1 X146.105 Y6.369 E10.80014
G1 X147.430 Y6.328 E10.86463 F600.000
G1 X148.763 Y6.370 E10.92949
G1 X150.090 Y6.495 E10.99435
G1 X151.407 Y6.704 E11.05921
G1 X152.708 Y6.995 E11.12407
G1 X153.988 Y7.367 E11.18893
G1 X155.242 Y7.818 E11.25380
G1 X156.466 Y8.348 E11.31866
G1 X157.654 Y8.953 E11.38352
G1 X158.801 Y9.632 E11.44838
G1 X159.904 Y10.381 E11.51324
G1 X160.951 Y11.193 E11.57773
G1 X161.958 Y12.080 E11.64297
G1 X162.900 Y13.022 E11.70783
G1 X163.777 Y14.017 E11.77231
G1 X164.599 Y15.076 E11.83755
G1 X165.348 Y16.179 E11.90241
G1 X166.027 Y17.326 E11.96728
G1 X166.632 Y18.514 E12.03214
G1 X167.162 Y19.738 E12.09700
G1 X167.613 Y20.992 E12.16186
G1 X167.985 Y22.272 E12.22672
G1 X168.276 Y23.573 E12.29158
G1 X168.485 Y24.890 E12.35645
G1 X168.610 Y26.217 E12.42131
G1 X168.650 Y27.490 E12.48325
G1 X168.996 Y27.754 F9000.000
G1 X169.451 Y27.525 F9000.000
G1 X169.408 Y28.933 E12.55178 F600.000
G1 X169.279 Y30.302 E12.61869
G1 X169.062 Y31.677 E12.68639
G1 X168.760 Y33.027 E12.75369
G1 X168.374 Y34.355 E12.82100
G1 X167.905 Y35.657 E12.88831
G1 X167.356 Y36.926 E12.95561
G1 X166.728 Y38.159 E13.02292
G1 X166.024 Y39.350 E13.09022
G1 X165.241 Y40.501 E13.15793
G1 X164.398 Y41.587 E13.22484
G1 X163.483 Y42.625 E13.29214
G1 X162.505 Y43.603 E13.35945
G1 X161.467 Y44.518 E13.42675
G1 X160.374 Y45.366 E13.49406
G1 X159.230 Y46.144 E13.56137
G1 X158.039 Y46.848 E13.62867
G1 X156.806 Y47.476 E13.69598
G1 X155.537 Y48.025 E13.76328
G1 X154.235 Y48.494 E13.83059
G1 X152.907 Y48.880 E13.89790
G1 X151.556 Y49.182 E13.96520
G1 X150.190 Y49.398 E14.03251
G1 X148.813 Y49.528 E14.09982
G1 X147.430 Y49.572 E14.16712
G1 X146.047 Y49.528 E14.23443
G1 X144.678 Y49.399 E14.30134
G1 X143.303 Y49.182 E14.36904
G1 X141.953 Y48.880 E14.43635
G1 X140.625 Y48.494 E14.50365
G1 X139.323 Y48.025 E14.57096
G1 X138.054 Y47.476 E14.63827
G1 X136.821 Y46.848 E14.70557
G1 X135.630 Y46.144 E14.77287
G1 X134.486 Y45.366 E14.84018
G1 X133.393 Y44.518 E14.90749
G1 X132.349 Y43.598 E14.97519
G1 X131.377 Y42.625 E15.04210
G1 X130.462 Y41.587 E15.10941
G1 X129.614 Y40.494 E15.17671
G1 X128.836 Y39.350 E15.24402
G1 X128.132 Y38.159 E15.31133
G1 X127.504 Y36.926 E15.37863
G1 X126.955 Y35.657 E15.44594
G1 X126.486 Y34.355 E15.51324
G1 X126.102 Y33.034 E15.58015
G1 X125.798 Y31.676 E15.64786
G1 X125.581 Y30.302 E15.71556
G1 X125.452 Y28.933 E15.78247
G1 X125.408 Y27.550 E15.84977
G1 X125.452 Y26.167 E15.91708
G1 X125.582 Y24.790 E15.98439
G1 X125.798 Y23.424 E16.05169
G1 X126.098 Y22.081 E16.11860
G1 X126.486 Y20.745 E16.18631
G1 X126.955 Y19.443 E16.25361
G1 X127.504 Y18.174 E16.32092
G1 X128.132 Y16.941 E16.38822
G1 X128.832 Y15.757 E16.45513
G1 X129.614 Y14.606 E16.52284
G1 X130.462 Y13.513 E16.59014
G1 X131.371 Y12.481 E16.65705
G1 X132.355 Y11.497 E16.72475
G1 X133.393 Y10.582 E16.79206
G1 X134.486 Y9.734 E16.85936
G1 X135.630 Y8.956 E16.92667
G1 X136.821 Y8.252 E16.99398
G1 X138.054 Y7.624 E17.06128
G1 X139.323 Y7.075 E17.12859
G1 X140.625 Y6.606 E17.19589
G1 X141.946 Y6.222 E17.26280
G1 X143.304 Y5.918 E17.33051
G1 X144.670 Y5.702 E17.39781
G1 X146.047 Y5.572 E17.46512
G1 X147.438 Y5.528 E17.53282
G1 X148.813 Y5.572 E17.59973
G1 X150.190 Y5.702 E17.66704 F600.000
G1 X151.556 Y5.918 E17.73434
G1 X152.907 Y6.220 E17.80165
G1 X154.235 Y6.606 E17.86896
G1 X155.537 Y7.075 E17.93626
G1 X156.806 Y7.624 E18.00357
G1 X158.039 Y8.252 E18.07087
G1 X159.223 Y8.952 E18.13778
G1 X160.374 Y9.734 E18.20549
G1 X161.467 Y10.582 E18.27279
G1 X162.505 Y11.497 E18.34010
G1 X163.483 Y12.475 E18.40740
G1 X164.398 Y13.513 E18.47471
G1 X165.241 Y14.599 E18.54162
G1 X166.024 Y15.750 E18.60932
G1 X166.728 Y16.941 E18.67663
G1 X167.356 Y18.174 E18.74393
G1 X167.905 Y19.443 E18.81124
G1 X168.374 Y20.745 E18.87855
G1 X168.760 Y22.073 E18.94585
G1 X169.062 Y23.424 E19.01316
G1 X169.278 Y24.790 E19.08046
G1 X169.408 Y26.167 E19.14777
G1 X169.449 Y27.465 E19.21094
G1 X169.103 Y27.722 F9000.000
G1 X169.052 Y27.537 F9000.000
G1 X169.009 Y28.914 E19.35614 F600.000
G1 X168.882 Y30.253 E19.49797
G1 X168.669 Y31.602 E19.64187
G1 X168.373 Y32.927 E19.78506
G1 X167.996 Y34.225 E19.92757
G1 X167.534 Y35.510 E20.07146
G1 X166.991 Y36.762 E20.21534
G1 X166.377 Y37.966 E20.35786
G1 X165.686 Y39.135 E20.50104
G1 X164.918 Y40.265 E20.64511
G1 X164.090 Y41.332 E20.78746
G1 X163.187 Y42.356 E20.93135
G1 X162.231 Y43.312 E21.07386
G1 X161.217 Y44.206 E21.21637
G1 X160.134 Y45.046 E21.36096
G1 X159.015 Y45.806 E21.50346
G1 X157.846 Y46.497 E21.64666
G1 X156.636 Y47.114 E21.78986
G1 X155.396 Y47.651 E21.93237
G1 X154.105 Y48.116 E22.07694
G1 X152.807 Y48.493 E22.21946
G1 X151.481 Y48.789 E22.36266
G1 X150.134 Y49.002 E22.50654
G1 X148.788 Y49.129 E22.64905
G1 X147.430 Y49.172 E22.79226
G1 X146.074 Y49.129 E22.93531
G1 X144.728 Y49.002 E23.07780
G1 X143.378 Y48.789 E23.22187
G1 X142.053 Y48.493 E23.36505
G1 X140.755 Y48.116 E23.50757
G1 X139.464 Y47.651 E23.65214
G1 X138.224 Y47.114 E23.79466
G1 X137.019 Y46.500 E23.93717
G1 X135.839 Y45.802 E24.08174
G1 X134.721 Y45.043 E24.22426
G1 X133.648 Y44.210 E24.36745
G1 X132.624 Y43.307 E24.51134
G1 X131.673 Y42.356 E24.65316
G1 X130.766 Y41.327 E24.79774
G1 X129.937 Y40.259 E24.94025
G1 X129.174 Y39.135 E25.08346
G1 X128.480 Y37.961 E25.22734
G1 X127.866 Y36.756 E25.36985
G1 X127.326 Y35.510 E25.51305
G1 X126.864 Y34.225 E25.65694
G1 X126.490 Y32.935 E25.79860
G1 X126.191 Y31.602 E25.94265
G1 X125.978 Y30.253 E26.08653
G1 X125.851 Y28.914 E26.22837
G1 X125.808 Y27.544 E26.37293
G1 X125.851 Y26.192 E26.51545 F600.000
G1 X125.978 Y24.846 E26.65797
G1 X126.192 Y23.492 E26.80254
G1 X126.486 Y22.181 E26.94420
G1 X126.866 Y20.868 E27.08826
G1 X127.326 Y19.590 E27.23145
G1 X127.863 Y18.350 E27.37396
G1 X128.486 Y17.128 E27.51853
G1 X129.171 Y15.970 E27.66036
G1 X129.938 Y14.841 E27.80426
G1 X130.774 Y13.763 E27.94813
G1 X131.664 Y12.754 E28.08997
G1 X132.624 Y11.793 E28.23316
G1 X133.647 Y10.891 E28.37690
G1 X134.716 Y10.061 E28.51956
G1 X135.845 Y9.294 E28.66345
G1 X137.019 Y8.600 E28.80733
G1 X138.224 Y7.986 E28.94985
G1 X139.470 Y7.446 E29.09304
G1 X140.755 Y6.984 E29.23693
G1 X142.047 Y6.609 E29.37876
G1 X143.379 Y6.311 E29.52266
G1 X144.720 Y6.099 E29.66585
G1 X146.072 Y5.971 E29.80903
G1 X147.436 Y5.928 E29.95293
G1 X148.788 Y5.971 E30.09545
G1 X150.134 Y6.098 E30.23796
G1 X151.482 Y6.311 E30.38184
G1 X152.807 Y6.607 E30.52504
G1 X154.105 Y6.984 E30.66756
G1 X155.390 Y7.446 E30.81145
G1 X156.642 Y7.989 E30.95533
G1 X157.846 Y8.603 E31.09785
G1 X159.010 Y9.291 E31.24036
G1 X160.144 Y10.061 E31.38493
G1 X161.212 Y10.890 E31.52745
G1 X162.236 Y11.793 E31.67132
G1 X163.192 Y12.749 E31.81384
G1 X164.081 Y13.757 E31.95554
G1 X164.918 Y14.836 E32.09954
G1 X165.689 Y15.970 E32.24413
G1 X166.377 Y17.134 E32.38664
G1 X166.997 Y18.350 E32.53053
G1 X167.534 Y19.590 E32.67304
G1 X167.992 Y20.862 E32.81556
G1 X168.374 Y22.179 E32.96012
G1 X168.669 Y23.498 E33.10264
G1 X168.881 Y24.840 E33.24584
G1 X169.009 Y26.192 E33.38904
G1 X169.050 Y27.477 E33.52459
M104 S205 ; set temperature
M140 S55 ; wait for bed temperature to be reached
;Layer change
G1 E27.52459 F1800.00000
G92 E0
G1 Z0.520 F9000.000
G1 X168.622 Y27.550 F9000.000
G1 E6.00000 F1800.00000
G1 X168.583 Y28.847 E6.04235 F1800.000
G1 X168.455 Y30.206 E6.08691
G1 X168.246 Y31.521 E6.13036
G1 X167.956 Y32.820 E6.17382
G1 X167.585 Y34.099 E6.21727
G1 X167.134 Y35.351 E6.26072
G1 X166.605 Y36.573 E6.30418
G1 X166.001 Y37.759 E6.34763
G1 X165.323 Y38.905 E6.39109
G1 X164.575 Y40.006 E6.43454
G1 X163.759 Y41.058 E6.47799
G1 X162.878 Y42.057 E6.52145
G1 X161.937 Y42.998 E6.56490
G1 X160.954 Y43.865 E6.60766
G1 X159.886 Y44.695 E6.65181
G1 X158.767 Y45.454 E6.69595
G1 X157.639 Y46.121 E6.73871
G1 X156.453 Y46.725 E6.78217
G1 X155.231 Y47.254 E6.82562
G1 X153.979 Y47.705 E6.86907
G1 X152.700 Y48.076 E6.91253
G1 X151.380 Y48.370 E6.95667
G1 X150.086 Y48.575 E6.99943
G1 X148.761 Y48.700 E7.04289
G1 X147.430 Y48.742 E7.08634
G1 X146.121 Y48.701 E7.12910
G1 X144.774 Y48.575 E7.17324
G1 X143.459 Y48.366 E7.21670
G1 X142.160 Y48.076 E7.26015
G1 X140.881 Y47.705 E7.30360
G1 X139.629 Y47.254 E7.34706
G1 X138.407 Y46.725 E7.39051
G1 X137.221 Y46.121 E7.43397
G1 X136.075 Y45.443 E7.47742
G1 X134.974 Y44.695 E7.52088
G1 X133.906 Y43.865 E7.56502
G1 X132.923 Y42.998 E7.60778
G1 X131.982 Y42.057 E7.65123
G1 X131.101 Y41.058 E7.69469
G1 X130.285 Y40.006 E7.73814
G1 X129.526 Y38.887 E7.78228
G1 X128.859 Y37.759 E7.82505
G1 X128.255 Y36.573 E7.86850
G1 X127.726 Y35.351 E7.91195
G1 X127.275 Y34.099 E7.95541
G1 X126.904 Y32.820 E7.99886
G1 X126.614 Y31.521 E8.04231
G1 X126.405 Y30.206 E8.08577
G1 X126.280 Y28.881 E8.12922
G1 X126.238 Y27.550 E8.17267
G1 X126.279 Y26.241 E8.21544
G1 X126.405 Y24.894 E8.25958
G1 X126.613 Y23.579 E8.30303
G1 X126.904 Y22.280 E8.34649
G1 X127.275 Y21.001 E8.38994
G1 X127.726 Y19.749 E8.43339
G1 X128.255 Y18.527 E8.47685
G1 X128.859 Y17.341 E8.52030
G1 X129.537 Y16.195 E8.56376
G1 X130.285 Y15.094 E8.60721
G1 X131.026 Y14.139 E8.64663
G1 X131.981 Y13.044 E8.69409
G1 X132.923 Y12.102 E8.73756
G1 X133.906 Y11.235 E8.78032
G1 X134.974 Y10.405 E8.82447
G1 X136.093 Y9.646 E8.86861
G1 X137.221 Y8.979 E8.91138
G1 X138.407 Y8.375 E8.95483
G1 X139.629 Y7.846 E8.99828
G1 X140.881 Y7.395 E9.04174
G1 X142.160 Y7.024 E9.08519
G1 X143.459 Y6.733 E9.12864
G1 X144.774 Y6.525 E9.17210
G1 X146.121 Y6.399 E9.21624
G1 X147.430 Y6.358 E9.25900 F1800.000
G1 X148.761 Y6.400 E9.30246
G1 X150.086 Y6.525 E9.34591
G1 X151.401 Y6.733 E9.38936
G1 X152.700 Y7.024 E9.43282
G1 X153.979 Y7.395 E9.47627
G1 X155.231 Y7.846 E9.51972
G1 X156.453 Y8.375 E9.56318
G1 X157.639 Y8.979 E9.60663
G1 X158.785 Y9.657 E9.65009
G1 X159.886 Y10.405 E9.69354
G1 X160.938 Y11.221 E9.73699
G1 X161.937 Y12.102 E9.78045
G1 X162.878 Y13.043 E9.82390
G1 X163.745 Y14.026 E9.86666
G1 X164.575 Y15.094 E9.91081
G1 X165.334 Y16.213 E9.95495
G1 X166.001 Y17.341 E9.99771
G1 X166.605 Y18.527 E10.04117
