; generated by Slic3r 1.2.9 on 2019-08-30 at 11:38:21

; external perimeters extrusion width = 0.40mm
; perimeters extrusion width = 0.62mm
; infill extrusion width = 0.33mm
; solid infill extrusion width = 0.62mm
; top infill extrusion width = 0.20mm
; support material extrusion width = 0.40mm

M106 S256; Turn on fan to 100% power
M104 S140; turn on extruder temperature at S value
M140 S60; turn on bed temperature at S value
G28; home all axes
M84; disable motors
G1 Z15 F15000; have Z move to 20mm at 15000 mm/min
M190 S55; turn on bed temperature at S value and wait
M140 S55; turn on bed temperature at S value (printing temperature)
M109 S200; turn on extruder temperature at S value and wait (printing temperature)
M104 S200; turn on extruder temperature at S value
G1 Z0 F12000; move Z back to home
G21 ; set units to millimeters
G90 ; use absolute coordinates
M82 ; use absolute distances for extrusion
G92 E0
M106 S255
;Layer change
G1 E-6.00000 F1800.00000
G92 E0
G1 Z0.300 F9000.000
G1 X130.097 Y13.541 F9000.000
G1 E6.00000 F1800.00000
G1 X130.185 Y12.709 E6.04022 F600.000
G1 X130.289 Y12.221 E6.06421
G1 X130.547 Y11.426 E6.10443
G1 X130.750 Y10.970 E6.12841
G1 X131.126 Y10.318 E6.16461
G1 X131.461 Y9.843 E6.19260
G1 X132.021 Y9.221 E6.23282
G1 X132.391 Y8.887 E6.25681
G1 X133.068 Y8.396 E6.29703
G1 X133.500 Y8.147 E6.32101
G1 X134.264 Y7.806 E6.36123
G1 X134.738 Y7.652 E6.38522
G1 X135.556 Y7.478 E6.42544
G1 X136.052 Y7.426 E6.44943
G1 X174.888 Y7.426 E8.31732
G1 X175.384 Y7.478 E8.34130
G1 X176.202 Y7.652 E8.38153 F600.000
G1 X176.676 Y7.806 E8.40551
G1 X177.440 Y8.147 E8.44573
G1 X177.872 Y8.396 E8.46972
G1 X178.549 Y8.887 E8.50994
G1 X178.919 Y9.221 E8.53393
G1 X179.479 Y9.843 E8.57415
G1 X179.772 Y10.246 E8.59813
G1 X180.190 Y10.970 E8.63835
G1 X180.393 Y11.426 E8.66234
G1 X180.651 Y12.221 E8.70256
G1 X180.755 Y12.709 E8.72655
G1 X180.856 Y13.790 E8.77876
G1 X180.856 Y65.790 E11.27979
G1 X180.843 Y66.039 E11.29180
G1 X180.755 Y66.871 E11.33201
G1 X180.651 Y67.359 E11.35600
G1 X180.393 Y68.154 E11.39622
G1 X180.190 Y68.610 E11.42021
G1 X179.772 Y69.334 E11.46043
G1 X179.479 Y69.737 E11.48441
G1 X178.919 Y70.359 E11.52463
G1 X178.549 Y70.693 E11.54863
G1 X177.872 Y71.184 E11.58885
G1 X177.440 Y71.433 E11.61283
G1 X176.676 Y71.774 E11.65305
G1 X176.202 Y71.928 E11.67703
G1 X175.384 Y72.102 E11.71725
G1 X174.888 Y72.154 E11.74124
G1 X136.052 Y72.154 E13.60913
G1 X135.556 Y72.102 E13.63312
G1 X134.738 Y71.928 E13.67335
G1 X134.264 Y71.774 E13.69733
G1 X133.500 Y71.433 E13.73755
G1 X133.068 Y71.184 E13.76153
G1 X132.391 Y70.693 E13.80175
G1 X132.021 Y70.359 E13.82575
G1 X131.461 Y69.737 E13.86597
G1 X131.168 Y69.334 E13.88995
G1 X130.792 Y68.682 E13.92615
G1 X130.547 Y68.154 E13.95414
G1 X130.289 Y67.359 E13.99436
G1 X130.185 Y66.871 E14.01834
G1 X130.084 Y65.790 E14.07056
G1 X130.094 Y13.601 E16.58070
G1 E10.58070 F1800.00000
G92 E0
G1 X176.847 Y64.732 F9000.000
G1 E6.00000 F1800.00000
G1 X177.015 Y65.249 E6.02616 F600.000
G1 X177.072 Y65.790 E6.05232
G1 X177.015 Y66.331 E6.07848
G1 X176.847 Y66.848 E6.10464
G1 X176.575 Y67.319 E6.13081
G1 X176.211 Y67.723 E6.15697
G1 X175.771 Y68.043 E6.18312
G1 X175.274 Y68.264 E6.20928
G1 X174.742 Y68.377 E6.23545
G1 X174.198 Y68.377 E6.26160
G1 X173.666 Y68.264 E6.28776
G1 X173.169 Y68.043 E6.31393
G1 X172.729 Y67.723 E6.34008
G1 X172.365 Y67.319 E6.36624
G1 X172.088 Y66.840 E6.39286
G1 X171.921 Y66.288 E6.42060
G1 X171.868 Y65.790 E6.44469
G1 X171.925 Y65.249 E6.47086
G1 X172.093 Y64.732 E6.49701
G1 X172.365 Y64.261 E6.52318
G1 X172.729 Y63.857 E6.54934
G1 X173.169 Y63.537 E6.57549
G1 X173.666 Y63.316 E6.60165
G1 X174.198 Y63.203 E6.62782
G1 X174.742 Y63.203 E6.65397 F600.000
G1 X175.274 Y63.316 E6.68013
G1 X175.771 Y63.537 E6.70630
G1 X176.211 Y63.857 E6.73245
G1 X176.575 Y64.261 E6.75861
G1 X176.817 Y64.680 E6.78189
G1 X176.493 Y64.889 F9000.000
G1 X176.636 Y65.330 E6.80415 F600.000
G1 X176.684 Y65.790 E6.82641
G1 X176.636 Y66.250 E6.84868
G1 X176.493 Y66.691 E6.87094
G1 X176.261 Y67.091 E6.89320
G1 X175.951 Y67.435 E6.91546
G1 X175.577 Y67.707 E6.93772
G1 X175.154 Y67.896 E6.95998
G1 X174.701 Y67.992 E6.98224
G1 X174.239 Y67.992 E7.00450
G1 X173.786 Y67.896 E7.02676
G1 X173.363 Y67.707 E7.04903
G1 X172.989 Y67.435 E7.07128
G1 X172.679 Y67.091 E7.09354
G1 X172.445 Y66.685 E7.11609
G1 X172.300 Y66.211 E7.13993
G1 X172.256 Y65.790 E7.16030
G1 X172.304 Y65.330 E7.18256
G1 X172.447 Y64.889 E7.20482
G1 X172.679 Y64.489 E7.22709
G1 X172.989 Y64.145 E7.24935
G1 X173.363 Y63.873 E7.27161
G1 X173.786 Y63.684 E7.29387
G1 X174.239 Y63.588 E7.31613
G1 X174.701 Y63.588 E7.33839 F600.000
G1 X175.154 Y63.684 E7.36065
G1 X175.577 Y63.873 E7.38292
G1 X175.951 Y64.145 E7.40517
G1 X176.261 Y64.489 E7.42743
G1 X176.463 Y64.837 E7.44681
G1 X176.138 Y65.047 F9000.000
G1 X176.256 Y65.410 E7.46517 F600.000
G1 X176.296 Y65.790 E7.48354
G1 X176.256 Y66.170 E7.50190
G1 X176.138 Y66.533 E7.52027
G1 X175.947 Y66.863 E7.53863
G1 X175.692 Y67.147 E7.55699
G1 X175.383 Y67.372 E7.57535
G1 X175.034 Y67.527 E7.59371
G1 X174.661 Y67.606 E7.61208
G1 X174.279 Y67.606 E7.63044
G1 X173.906 Y67.527 E7.64880
G1 X173.557 Y67.372 E7.66717
G1 X173.248 Y67.147 E7.68553
G1 X172.993 Y66.863 E7.70389
G1 X172.801 Y66.531 E7.72236
G1 X172.680 Y66.134 E7.74229
G1 X172.644 Y65.790 E7.75895
G1 X172.684 Y65.410 E7.77731
G1 X172.802 Y65.047 E7.79567
G1 X172.993 Y64.717 E7.81404
G1 X173.248 Y64.433 E7.83240
G1 X173.557 Y64.208 E7.85076
G1 X173.906 Y64.053 E7.86912
G1 X174.279 Y63.974 E7.88749
G1 X174.661 Y63.974 E7.90585 F600.000
G1 X175.034 Y64.053 E7.92421
G1 X175.383 Y64.208 E7.94257
G1 X175.692 Y64.433 E7.96094
G1 X175.947 Y64.717 E7.97930
G1 X176.108 Y64.995 E7.99477
G1 X176.516 Y65.100 F9000.000
G1 E1.99477 F1800.00000
G92 E0
G1 X165.072 Y65.790 F9000.000
G1 E6.00000 F1800.00000
G1 X165.015 Y66.331 E6.02616 F600.000
G1 X164.847 Y66.848 E6.05232
G1 X164.575 Y67.319 E6.07849
G1 X164.211 Y67.723 E6.10464
G1 X163.771 Y68.043 E6.13080
G1 X163.274 Y68.264 E6.15696
G1 X162.742 Y68.377 E6.18312
G1 X162.198 Y68.377 E6.20928
G1 X161.666 Y68.264 E6.23544
G1 X161.169 Y68.043 E6.26161
G1 X160.729 Y67.723 E6.28776
G1 X160.365 Y67.319 E6.31392
G1 X160.093 Y66.848 E6.34008
G1 X159.925 Y66.331 E6.36624
G1 X159.868 Y65.790 E6.39240
G1 X159.925 Y65.249 E6.41856
G1 X160.093 Y64.732 E6.44472
G1 X160.365 Y64.261 E6.47089
G1 X160.729 Y63.857 E6.49705
G1 X161.169 Y63.537 E6.52320
G1 X161.666 Y63.316 E6.54936
G1 X162.198 Y63.203 E6.57553
G1 X162.742 Y63.203 E6.60168 F600.000
G1 X163.274 Y63.316 E6.62784
G1 X163.771 Y63.537 E6.65401
G1 X164.211 Y63.857 E6.68016
G1 X164.575 Y64.261 E6.70632
G1 X164.847 Y64.732 E6.73248
G1 X165.015 Y65.249 E6.75864
G1 X165.065 Y65.730 E6.78192
G1 X164.684 Y65.790 F9000.000
G1 X164.636 Y66.250 E6.80418 F600.000
G1 X164.493 Y66.691 E6.82644
G1 X164.261 Y67.091 E6.84871
G1 X163.951 Y67.435 E6.87097
G1 X163.577 Y67.707 E6.89322
G1 X163.154 Y67.896 E6.91549
G1 X162.701 Y67.992 E6.93775
G1 X162.239 Y67.992 E6.96001
G1 X161.786 Y67.896 E6.98227
G1 X161.363 Y67.707 E7.00453
G1 X160.989 Y67.435 E7.02679
G1 X160.679 Y67.091 E7.04905
G1 X160.447 Y66.691 E7.07131
G1 X160.304 Y66.250 E7.09358
G1 X160.256 Y65.790 E7.11584
G1 X160.304 Y65.330 E7.13810
G1 X160.447 Y64.889 E7.16036
G1 X160.679 Y64.489 E7.18263
G1 X160.989 Y64.145 E7.20489
G1 X161.363 Y63.873 E7.22714
G1 X161.786 Y63.684 E7.24941
G1 X162.239 Y63.588 E7.27167
G1 X162.701 Y63.588 E7.29393 F600.000
G1 X163.154 Y63.684 E7.31619
G1 X163.577 Y63.873 E7.33845
G1 X163.951 Y64.145 E7.36071
G1 X164.261 Y64.489 E7.38297
G1 X164.493 Y64.889 E7.40523
G1 X164.636 Y65.330 E7.42749
G1 X164.678 Y65.730 E7.44687
G1 X164.296 Y65.790 F9000.000
G1 X164.256 Y66.170 E7.46524 F600.000
G1 X164.138 Y66.533 E7.48360
G1 X163.947 Y66.863 E7.50196
G1 X163.692 Y67.147 E7.52032
G1 X163.383 Y67.372 E7.53868
G1 X163.034 Y67.527 E7.55705
G1 X162.661 Y67.606 E7.57541
G1 X162.279 Y67.606 E7.59377
G1 X161.906 Y67.527 E7.61214
G1 X161.557 Y67.372 E7.63050
G1 X161.248 Y67.147 E7.64886
G1 X160.993 Y66.863 E7.66722
G1 X160.802 Y66.533 E7.68559
G1 X160.684 Y66.170 E7.70395
G1 X160.644 Y65.790 E7.72231
G1 X160.684 Y65.410 E7.74068
G1 X160.802 Y65.047 E7.75904
G1 X160.993 Y64.716 E7.77740
G1 X161.248 Y64.433 E7.79576
G1 X161.557 Y64.208 E7.81412
G1 X161.906 Y64.053 E7.83249
G1 X162.279 Y63.974 E7.85085
G1 X162.661 Y63.974 E7.86921 F600.000
G1 X163.034 Y64.053 E7.88758
G1 X163.383 Y64.208 E7.90594
G1 X163.692 Y64.433 E7.92430
G1 X163.947 Y64.717 E7.94266
G1 X164.138 Y65.047 E7.96103
G1 X164.256 Y65.410 E7.97939
G1 X164.290 Y65.730 E7.99487
G1 X164.620 Y65.992 F9000.000
G1 X162.742 Y42.377 F9000.000
G1 X162.198 Y42.377 E8.02102 F600.000
G1 X161.666 Y42.264 E8.04718
G1 X161.169 Y42.043 E8.07335
G1 X160.729 Y41.723 E8.09950
G1 X160.365 Y41.319 E8.12566
G1 X160.093 Y40.848 E8.15182
G1 X159.925 Y40.331 E8.17798
G1 X159.868 Y39.790 E8.20414
G1 X159.925 Y39.249 E8.23031
G1 X160.093 Y38.732 E8.25647
G1 X160.365 Y38.261 E8.28263
G1 X160.729 Y37.857 E8.30879
G1 X161.169 Y37.537 E8.33494
G1 X161.666 Y37.316 E8.36110
G1 X162.198 Y37.203 E8.38727
G1 X162.742 Y37.203 E8.41342 F600.000
G1 X163.274 Y37.316 E8.43958
G1 X163.771 Y37.537 E8.46575
G1 X164.211 Y37.857 E8.49190
G1 X164.575 Y38.261 E8.51806
G1 X164.847 Y38.732 E8.54422
G1 X165.015 Y39.249 E8.57038
G1 X165.072 Y39.790 E8.59655
G1 X165.015 Y40.331 E8.62271
G1 X164.847 Y40.848 E8.64887
G1 X164.575 Y41.319 E8.67503
G1 X164.211 Y41.723 E8.70119
G1 X163.771 Y42.043 E8.72734
G1 X163.274 Y42.264 E8.75351
G1 X162.801 Y42.365 E8.77678
G1 X162.701 Y41.992 F9000.000
G1 X162.239 Y41.992 E8.79904 F600.000
G1 X161.786 Y41.896 E8.82130
G1 X161.363 Y41.707 E8.84357
G1 X160.989 Y41.435 E8.86582
G1 X160.679 Y41.091 E8.88808
G1 X160.447 Y40.691 E8.91035
G1 X160.304 Y40.250 E8.93261
G1 X160.256 Y39.790 E8.95487
G1 X160.304 Y39.330 E8.97714
G1 X160.447 Y38.889 E8.99940
G1 X160.679 Y38.489 E9.02166
G1 X160.989 Y38.145 E9.04392
G1 X161.363 Y37.873 E9.06618
G1 X161.786 Y37.684 E9.08844
G1 X162.239 Y37.588 E9.11070
G1 X162.701 Y37.588 E9.13296 F600.000
G1 X163.154 Y37.684 E9.15522
G1 X163.577 Y37.873 E9.17749
G1 X163.951 Y38.145 E9.19975
G1 X164.261 Y38.489 E9.22201
G1 X164.493 Y38.889 E9.24427
G1 X164.636 Y39.330 E9.26653
G1 X164.684 Y39.790 E9.28879
G1 X164.636 Y40.250 E9.31106
G1 X164.493 Y40.691 E9.33332
G1 X164.261 Y41.091 E9.35558
G1 X163.951 Y41.435 E9.37784
G1 X163.577 Y41.707 E9.40010
G1 X163.154 Y41.896 E9.42236
G1 X162.760 Y41.979 E9.44174
G1 X162.661 Y41.606 F9000.000
G1 X162.279 Y41.606 E9.46010 F600.000
G1 X161.906 Y41.527 E9.47846
G1 X161.557 Y41.372 E9.49683
G1 X161.248 Y41.147 E9.51519
G1 X160.993 Y40.863 E9.53355
G1 X160.802 Y40.533 E9.55191
G1 X160.684 Y40.170 E9.57027
G1 X160.644 Y39.790 E9.58864
G1 X160.684 Y39.410 E9.60700
G1 X160.802 Y39.047 E9.62537
G1 X160.993 Y38.717 E9.64373
G1 X161.248 Y38.433 E9.66209
G1 X161.557 Y38.208 E9.68045
G1 X161.906 Y38.053 E9.69881
G1 X162.279 Y37.974 E9.71718
G1 X162.661 Y37.974 E9.73554 F600.000
G1 X163.034 Y38.053 E9.75390
G1 X163.383 Y38.208 E9.77227
G1 X163.692 Y38.433 E9.79063
G1 X163.947 Y38.717 E9.80899
G1 X164.138 Y39.047 E9.82735
G1 X164.256 Y39.410 E9.84571
G1 X164.296 Y39.790 E9.86408
G1 X164.256 Y40.170 E9.88244
G1 X164.138 Y40.533 E9.90081
G1 X163.947 Y40.863 E9.91917
G1 X163.692 Y41.147 E9.93753
G1 X163.383 Y41.372 E9.95589
G1 X163.034 Y41.527 E9.97425
G1 X162.720 Y41.594 E9.98973
G1 X162.494 Y41.949 F9000.000
G1 X171.925 Y40.331 F9000.000
G1 X171.868 Y39.790 E10.01589 F600.000
G1 X171.925 Y39.249 E10.04206
G1 X172.093 Y38.732 E10.06822
G1 X172.365 Y38.261 E10.09438
G1 X172.729 Y37.857 E10.12054
G1 X173.169 Y37.537 E10.14669
G1 X173.666 Y37.316 E10.17285
G1 X174.198 Y37.203 E10.19902
G1 X174.742 Y37.203 E10.22517 F600.000
G1 X175.274 Y37.316 E10.25133
G1 X175.771 Y37.537 E10.27750
G1 X176.211 Y37.857 E10.30365
G1 X176.575 Y38.261 E10.32981
G1 X176.847 Y38.732 E10.35597
G1 X177.015 Y39.249 E10.38213
G1 X177.072 Y39.790 E10.40830
G1 X177.015 Y40.331 E10.43446
G1 X176.847 Y40.848 E10.46062
G1 X176.575 Y41.319 E10.48678
G1 X176.211 Y41.723 E10.51294
G1 X175.771 Y42.043 E10.53909
G1 X175.274 Y42.264 E10.56526
G1 X174.742 Y42.377 E10.59142
G1 X174.198 Y42.377 E10.61757
G1 X173.666 Y42.264 E10.64374
G1 X173.169 Y42.043 E10.66990
G1 X172.729 Y41.723 E10.69605
G1 X172.365 Y41.319 E10.72221
G1 X172.093 Y40.848 E10.74838
G1 X171.944 Y40.388 E10.77165
G1 X172.304 Y40.250 F9000.000
G1 X172.256 Y39.790 E10.79391 F600.000
G1 X172.304 Y39.330 E10.81618
G1 X172.447 Y38.889 E10.83844
G1 X172.679 Y38.489 E10.86070
G1 X172.989 Y38.145 E10.88296
G1 X173.363 Y37.873 E10.90522
G1 X173.786 Y37.684 E10.92748
G1 X174.239 Y37.588 E10.94974
G1 X174.701 Y37.588 E10.97200 F600.000
G1 X175.154 Y37.684 E10.99426
G1 X175.577 Y37.873 E11.01653
G1 X175.951 Y38.145 E11.03879
G1 X176.261 Y38.489 E11.06105
G1 X176.493 Y38.889 E11.08331
G1 X176.636 Y39.330 E11.10557
G1 X176.684 Y39.790 E11.12783
G1 X176.636 Y40.250 E11.15010
G1 X176.493 Y40.691 E11.17236
G1 X176.261 Y41.091 E11.19462
G1 X175.951 Y41.435 E11.21688
G1 X175.577 Y41.707 E11.23914
G1 X175.154 Y41.896 E11.26140
G1 X174.701 Y41.992 E11.28366
G1 X174.239 Y41.992 E11.30592
G1 X173.786 Y41.896 E11.32819
G1 X173.363 Y41.707 E11.35045
G1 X172.989 Y41.435 E11.37271
G1 X172.679 Y41.091 E11.39497
G1 X172.447 Y40.691 E11.41723
G1 X172.323 Y40.307 E11.43660
G1 X172.684 Y40.170 F9000.000
G1 X172.644 Y39.790 E11.45497 F600.000
G1 X172.684 Y39.410 E11.47333
G1 X172.802 Y39.047 E11.49170
G1 X172.993 Y38.717 E11.51006
G1 X173.248 Y38.433 E11.52842
G1 X173.557 Y38.208 E11.54678
G1 X173.906 Y38.053 E11.56514
G1 X174.279 Y37.974 E11.58351
G1 X174.661 Y37.974 E11.60187 F600.000
G1 X175.034 Y38.053 E11.62023
G1 X175.383 Y38.208 E11.63860
G1 X175.692 Y38.433 E11.65696
G1 X175.947 Y38.717 E11.67532
G1 X176.138 Y39.047 E11.69368
G1 X176.256 Y39.410 E11.71204
G1 X176.296 Y39.790 E11.73041
G1 X176.256 Y40.170 E11.74877
G1 X176.138 Y40.533 E11.76714
G1 X175.947 Y40.863 E11.78550
G1 X175.692 Y41.147 E11.80386
G1 X175.383 Y41.372 E11.82222
G1 X175.034 Y41.527 E11.84058
G1 X174.661 Y41.606 E11.85895
G1 X174.279 Y41.606 E11.87731
G1 X173.906 Y41.527 E11.89567
G1 X173.557 Y41.372 E11.91404
G1 X173.248 Y41.147 E11.93240
G1 X172.993 Y40.863 E11.95076
G1 X172.802 Y40.533 E11.96912
G1 X172.702 Y40.227 E11.98460
G1 X172.325 Y40.039 F9000.000
G1 X174.198 Y16.377 F9000.000
G1 X173.666 Y16.264 E12.01076 F600.000
G1 X173.169 Y16.043 E12.03692
G1 X172.764 Y15.749 E12.06101
G1 X172.370 Y15.328 E12.08875
G1 X172.093 Y14.848 E12.11537
G1 X171.925 Y14.331 E12.14153
G1 X171.868 Y13.790 E12.16769
G1 X171.925 Y13.249 E12.19385
G1 X172.093 Y12.732 E12.22001
G1 X172.365 Y12.261 E12.24617
G1 X172.729 Y11.857 E12.27233
G1 X173.169 Y11.537 E12.29849
G1 X173.666 Y11.316 E12.32465
G1 X174.198 Y11.203 E12.35081
G1 X174.742 Y11.203 E12.37697 F600.000
G1 X175.274 Y11.316 E12.40313
G1 X175.771 Y11.537 E12.42929
G1 X176.211 Y11.857 E12.45545
G1 X176.575 Y12.261 E12.48161
G1 X176.852 Y12.740 E12.50823
G1 X177.019 Y13.292 E12.53597
G1 X177.072 Y13.790 E12.56006
G1 X177.015 Y14.331 E12.58622
G1 X176.847 Y14.848 E12.61238
G1 X176.575 Y15.319 E12.63854
G1 X176.211 Y15.723 E12.66470
G1 X175.771 Y16.043 E12.69086
G1 X175.274 Y16.264 E12.71702
G1 X174.742 Y16.377 E12.74318
G1 X174.258 Y16.377 E12.76646
G1 X174.239 Y15.992 F9000.000
G1 X173.786 Y15.896 E12.78872 F600.000
G1 X173.363 Y15.707 E12.81098
G1 X173.020 Y15.458 E12.83135
G1 X172.682 Y15.096 E12.85519
G1 X172.447 Y14.691 E12.87773
G1 X172.304 Y14.250 E12.89999
G1 X172.256 Y13.790 E12.92226
G1 X172.304 Y13.330 E12.94452
G1 X172.447 Y12.889 E12.96678
G1 X172.679 Y12.489 E12.98904
G1 X172.989 Y12.145 E13.01130
G1 X173.363 Y11.873 E13.03356
G1 X173.786 Y11.684 E13.05582
G1 X174.239 Y11.588 E13.07808
G1 X174.701 Y11.588 E13.10035 F600.000
G1 X175.154 Y11.684 E13.12261
G1 X175.577 Y11.873 E13.14487
G1 X175.951 Y12.145 E13.16713
G1 X176.261 Y12.489 E13.18939
G1 X176.495 Y12.895 E13.21193
G1 X176.640 Y13.369 E13.23577
G1 X176.684 Y13.790 E13.25615
G1 X176.636 Y14.250 E13.27841
G1 X176.493 Y14.691 E13.30067
G1 X176.261 Y15.091 E13.32293
G1 X175.951 Y15.435 E13.34519
G1 X175.577 Y15.707 E13.36745
