; generated by Slic3r 1.2.9 on 2017-10-12 at 12:50:14

; external perimeters extrusion width = 0.40mm
; perimeters extrusion width = 0.62mm
; infill extrusion width = 0.33mm
; solid infill extrusion width = 0.62mm
; top infill extrusion width = 0.20mm

M106 S256; Turn on fan to 100% power
M104 S140; turn on extruder temperature at S value
M140 S60; turn on bed temperature at S value
G28; home all axes
M84; disable motors
G1 Z15 F15000; have Z move to 20mm at 15000 mm/min
M190 S55; turn on bed temperature at S value and wait
M140 S55; turn on bed temperature at S value (printing temperature)
M109 S200; turn on extruder temperature at S value and wait (printing temperature)
M104 S200; turn on extruder temperature at S value
G1 Z0 F12000; move Z back to home
G21 ; set units to millimeters
G90 ; use absolute coordinates
M82 ; use absolute distances for extrusion
G92 E0
M106 S255
;Layer change
G1 E-6.00000 F1800.00000
G92 E0
G1 Z0.300 F9000.000
G1 X32.798 Y20.815 F9000.000
G1 E6.00000 F1800.00000
G1 X33.311 Y20.007 E6.04766 F600.000
G1 X33.487 Y19.764 E6.06257
G1 X35.748 Y17.031 E6.23921
G1 X35.954 Y16.812 E6.25413
G1 X38.540 Y14.384 E6.43076
G1 X38.771 Y14.193 E6.44568
G1 X41.641 Y12.108 E6.62231
G1 X41.894 Y11.947 E6.63723
G1 X45.002 Y10.238 E6.81386
G1 X45.274 Y10.110 E6.82878
G1 X48.572 Y8.805 E7.00542
G1 X48.857 Y8.712 E7.02033
G1 X52.293 Y7.830 E7.19696
G1 X52.587 Y7.774 E7.21188
G1 X56.107 Y7.329 E7.38851
G1 X56.406 Y7.310 E7.40343
G1 X59.954 Y7.310 E7.58007
G1 X60.253 Y7.329 E7.59498
G1 X63.773 Y7.774 E7.77162 F600.000
G1 X64.067 Y7.830 E7.78653
G1 X67.503 Y8.712 E7.96317
G1 X67.788 Y8.805 E7.97808
G1 X71.086 Y10.110 E8.15472
G1 X71.358 Y10.238 E8.16964
G1 X74.466 Y11.947 E8.34627
G1 X74.719 Y12.108 E8.36119
G1 X77.589 Y14.193 E8.53782
G1 X77.820 Y14.384 E8.55273
G1 X80.406 Y16.812 E8.72937
G1 X80.612 Y17.031 E8.74429
G1 X82.873 Y19.765 E8.92093
G1 X83.049 Y20.007 E8.93584
G1 X84.950 Y23.002 E9.11247
G1 X85.094 Y23.265 E9.12739
G1 X86.605 Y26.475 E9.30403
G1 X86.715 Y26.753 E9.31894
G1 X87.757 Y29.959 E9.48677
G1 X87.886 Y30.418 E9.51048
G1 X88.551 Y33.902 E9.68712
G1 X88.588 Y34.200 E9.70203
G1 X88.811 Y37.740 E9.87867
G1 X88.811 Y38.040 E9.89358
G1 X88.588 Y41.580 E10.07022
G1 X88.551 Y41.878 E10.08513
G1 X87.886 Y45.362 E10.26177
G1 X87.811 Y45.653 E10.27668
G1 X86.715 Y49.027 E10.45332
G1 X86.605 Y49.305 E10.46823
G1 X85.094 Y52.515 E10.64487
G1 X84.950 Y52.778 E10.65979
G1 X83.049 Y55.773 E10.83642
G1 X82.873 Y56.015 E10.85133
G1 X80.612 Y58.749 E11.02797
G1 X80.406 Y58.968 E11.04289
G1 X77.820 Y61.396 E11.21953
G1 X77.589 Y61.587 E11.23444
G1 X74.719 Y63.672 E11.41107
G1 X74.466 Y63.833 E11.42599
G1 X71.358 Y65.542 E11.60262
G1 X71.086 Y65.670 E11.61754
G1 X67.788 Y66.975 E11.79418
G1 X67.503 Y67.068 E11.80909
G1 X64.067 Y67.950 E11.98573
G1 X63.773 Y68.006 E12.00064
G1 X60.253 Y68.451 E12.17728
G1 X59.954 Y68.470 E12.19219
G1 X56.406 Y68.470 E12.36883
G1 X56.107 Y68.451 E12.38375
G1 X52.587 Y68.006 E12.56038
G1 X52.293 Y67.950 E12.57530
G1 X48.857 Y67.068 E12.75193
G1 X48.572 Y66.975 E12.76684
G1 X45.274 Y65.670 E12.94348
G1 X45.002 Y65.542 E12.95840
G1 X41.894 Y63.833 E13.13503
G1 X41.641 Y63.672 E13.14995
G1 X38.771 Y61.587 E13.32658
G1 X38.540 Y61.396 E13.34150
G1 X35.954 Y58.968 E13.51813
G1 X35.748 Y58.749 E13.53305
G1 X33.487 Y56.015 E13.70969
G1 X33.311 Y55.773 E13.72460
G1 X31.410 Y52.778 E13.90124
G1 X31.266 Y52.515 E13.91616
G1 X29.755 Y49.305 E14.09279
G1 X29.645 Y49.027 E14.10770
G1 X28.549 Y45.653 E14.28434
G1 X28.474 Y45.362 E14.29926
G1 X27.809 Y41.878 E14.47589
G1 X27.772 Y41.580 E14.49080
G1 X27.549 Y38.040 E14.66744
G1 X27.549 Y37.740 E14.68236
G1 X27.772 Y34.200 E14.85899
G1 X27.809 Y33.902 E14.87390
G1 X28.474 Y30.418 E15.05054
G1 X28.549 Y30.127 E15.06546
G1 X29.645 Y26.753 E15.24209
G1 X29.755 Y26.475 E15.25701
G1 X31.266 Y23.265 E15.43364
G1 X31.410 Y23.002 E15.44856
G1 X32.766 Y20.866 E15.57455
G1 E9.57455 F1800.00000
G92 E0
G1 X41.652 Y54.418 F9000.000
G1 E6.00000 F1800.00000
G1 X41.807 Y54.595 E6.01172 F600.000
G1 X41.940 Y54.790 E6.02345
G1 X42.047 Y55.000 E6.03518
G1 X42.126 Y55.221 E6.04690
G1 X42.178 Y55.451 E6.05863
G1 X42.200 Y55.686 E6.07036
G1 X42.193 Y55.921 E6.08208
G1 X42.156 Y56.154 E6.09381
G1 X42.090 Y56.380 E6.10554
G1 X41.997 Y56.596 E6.11726
G1 X41.876 Y56.799 E6.12902
G1 X41.725 Y56.992 E6.14126
G1 X41.566 Y57.151 E6.15244
G1 X41.380 Y57.296 E6.16416
G1 X41.177 Y57.415 E6.17589
G1 X40.961 Y57.509 E6.18761
G1 X40.735 Y57.575 E6.19934
G1 X40.502 Y57.612 E6.21107
G1 X40.267 Y57.619 E6.22280
G1 X40.032 Y57.597 E6.23452
G1 X39.802 Y57.545 E6.24625
G1 X39.581 Y57.466 E6.25797
G1 X39.371 Y57.359 E6.26970
G1 X39.176 Y57.226 E6.28142
G1 X38.999 Y57.071 E6.29315
G1 X38.844 Y56.894 E6.30488
G1 X38.711 Y56.699 E6.31660
G1 X38.604 Y56.489 E6.32837
G1 X38.522 Y56.257 E6.34060
G1 X38.473 Y56.038 E6.35178
G1 X38.451 Y55.803 E6.36350
G1 X38.458 Y55.568 E6.37523
G1 X38.495 Y55.335 E6.38696
G1 X38.561 Y55.109 E6.39869
G1 X38.655 Y54.893 E6.41041
G1 X38.774 Y54.690 E6.42214
G1 X38.919 Y54.504 E6.43386
G1 X39.085 Y54.338 E6.44559
G1 X39.271 Y54.193 E6.45731
G1 X39.474 Y54.073 E6.46904
G1 X39.690 Y53.980 E6.48076
G1 X39.916 Y53.914 E6.49249
G1 X40.149 Y53.877 E6.50422
G1 X40.373 Y53.870 E6.51540 F600.000
G1 X40.618 Y53.892 E6.52764
G1 X40.849 Y53.944 E6.53940
G1 X41.070 Y54.023 E6.55112
G1 X41.280 Y54.130 E6.56284
G1 X41.475 Y54.263 E6.57458
G1 X41.607 Y54.379 E6.58331
G1 X41.880 Y54.362 F9000.000
G1 X74.160 Y55.686 F9000.000
G1 X74.182 Y55.451 E6.59504 F600.000
G1 X74.234 Y55.221 E6.60677
G1 X74.313 Y55.000 E6.61849
G1 X74.420 Y54.790 E6.63021
G1 X74.553 Y54.595 E6.64194
G1 X74.708 Y54.418 E6.65367
G1 X74.885 Y54.263 E6.66539
G1 X75.080 Y54.130 E6.67712
G1 X75.290 Y54.023 E6.68885
G1 X75.511 Y53.944 E6.70057
G1 X75.741 Y53.892 E6.71230
G1 X75.965 Y53.871 E6.72348 F600.000
G1 X76.210 Y53.877 E6.73571
G1 X76.444 Y53.914 E6.74747
G1 X76.670 Y53.980 E6.75920
G1 X76.886 Y54.073 E6.77093
G1 X77.089 Y54.193 E6.78266
G1 X77.275 Y54.338 E6.79438
G1 X77.441 Y54.504 E6.80610
G1 X77.586 Y54.690 E6.81783
G1 X77.705 Y54.893 E6.82956
G1 X77.799 Y55.109 E6.84128
G1 X77.865 Y55.335 E6.85301
G1 X77.902 Y55.568 E6.86474
G1 X77.909 Y55.803 E6.87646
G1 X77.887 Y56.038 E6.88819
G1 X77.835 Y56.268 E6.89992
G1 X77.756 Y56.489 E6.91164
G1 X77.649 Y56.699 E6.92337
G1 X77.516 Y56.894 E6.93509
G1 X77.361 Y57.071 E6.94682
G1 X77.184 Y57.226 E6.95855
G1 X76.989 Y57.359 E6.97027
G1 X76.779 Y57.466 E6.98200
G1 X76.558 Y57.545 E6.99372
G1 X76.328 Y57.597 E7.00545
G1 X76.093 Y57.619 E7.01718
G1 X75.858 Y57.612 E7.02890
G1 X75.625 Y57.575 E7.04063
G1 X75.399 Y57.509 E7.05236
G1 X75.183 Y57.415 E7.06408
G1 X74.980 Y57.296 E7.07581
G1 X74.794 Y57.151 E7.08754
G1 X74.628 Y56.985 E7.09926
G1 X74.483 Y56.799 E7.11098
G1 X74.363 Y56.595 E7.12275
G1 X74.267 Y56.369 E7.13498
G1 X74.204 Y56.154 E7.14616
G1 X74.167 Y55.921 E7.15789
G1 X74.162 Y55.745 E7.16663
G1 X73.962 Y55.557 F9000.000
G1 X75.976 Y21.910 F9000.000
G1 X75.741 Y21.888 E7.17835 F600.000
G1 X75.522 Y21.839 E7.18953
G1 X75.290 Y21.757 E7.20176
G1 X75.080 Y21.650 E7.21353
G1 X74.885 Y21.517 E7.22526
G1 X74.708 Y21.362 E7.23698
G1 X74.553 Y21.185 E7.24870
G1 X74.420 Y20.990 E7.26043
G1 X74.313 Y20.780 E7.27216
G1 X74.234 Y20.559 E7.28388
G1 X74.182 Y20.329 E7.29561
G1 X74.160 Y20.094 E7.30734
G1 X74.167 Y19.859 E7.31906
G1 X74.204 Y19.626 E7.33079
G1 X74.270 Y19.400 E7.34252
G1 X74.363 Y19.184 E7.35424
G1 X74.483 Y18.981 E7.36597
G1 X74.628 Y18.795 E7.37770
G1 X74.794 Y18.629 E7.38942
G1 X74.980 Y18.484 E7.40115
G1 X75.183 Y18.365 E7.41287
G1 X75.399 Y18.271 E7.42460
G1 X75.625 Y18.205 E7.43633
G1 X75.858 Y18.168 E7.44805
G1 X76.082 Y18.161 E7.45923 F600.000
G1 X76.327 Y18.183 E7.47147
G1 X76.558 Y18.235 E7.48323
G1 X76.779 Y18.314 E7.49495
G1 X76.989 Y18.421 E7.50668
G1 X77.184 Y18.554 E7.51840
G1 X77.361 Y18.709 E7.53013
G1 X77.516 Y18.886 E7.54186
G1 X77.649 Y19.081 E7.55358
G1 X77.756 Y19.291 E7.56531
G1 X77.835 Y19.512 E7.57703
G1 X77.887 Y19.742 E7.58876
G1 X77.909 Y19.977 E7.60049
G1 X77.902 Y20.212 E7.61221
G1 X77.865 Y20.445 E7.62394
G1 X77.799 Y20.671 E7.63567
G1 X77.705 Y20.887 E7.64739
G1 X77.585 Y21.090 E7.65916
G1 X77.433 Y21.284 E7.67139
G1 X77.275 Y21.442 E7.68257
G1 X77.089 Y21.587 E7.69429
G1 X76.886 Y21.707 E7.70602
G1 X76.670 Y21.800 E7.71774
G1 X76.444 Y21.866 E7.72947
G1 X76.211 Y21.903 E7.74120
G1 X76.035 Y21.908 E7.74994
G1 X75.847 Y22.108 F9000.000
G1 E1.74994 F1800.00000
G92 E0
G1 X52.282 Y49.280 F9000.000
G1 E6.00000 F1800.00000
G1 X52.481 Y49.500 E6.01476 F600.000
G1 X52.650 Y49.743 E6.02953
G1 X52.788 Y50.006 E6.04430
G1 X52.891 Y50.284 E6.05907
G1 X52.959 Y50.573 E6.07383
G1 X52.990 Y50.868 E6.08860
G1 X52.984 Y51.165 E6.10337
G1 X52.940 Y51.458 E6.11814
G1 X52.860 Y51.744 E6.13290
G1 X52.746 Y52.017 E6.14767
G1 X52.596 Y52.276 E6.16253
G1 X52.409 Y52.519 E6.17784
G1 X52.210 Y52.722 E6.19197
G1 X51.978 Y52.906 E6.20674
G1 X51.724 Y53.060 E6.22151
G1 X51.453 Y53.181 E6.23627
G1 X51.169 Y53.266 E6.25104
G1 X50.877 Y53.316 E6.26580
G1 X50.581 Y53.328 E6.28058
G1 X50.285 Y53.303 E6.29534
G1 X49.995 Y53.242 E6.31011
G1 X49.715 Y53.144 E6.32488
G1 X49.449 Y53.012 E6.33964
G1 X49.202 Y52.848 E6.35441
G1 X48.978 Y52.654 E6.36918
G1 X48.779 Y52.434 E6.38395
G1 X48.610 Y52.190 E6.39872
G1 X48.472 Y51.928 E6.41348
G1 X48.369 Y51.650 E6.42825
G1 X48.301 Y51.361 E6.44302
G1 X48.270 Y51.066 E6.45778
G1 X48.276 Y50.769 E6.47255
G1 X48.320 Y50.476 E6.48732
G1 X48.400 Y50.190 E6.50209
G1 X48.514 Y49.917 E6.51685
G1 X48.663 Y49.660 E6.53162
G1 X48.842 Y49.424 E6.54639
G1 X49.050 Y49.212 E6.56116
G1 X49.282 Y49.028 E6.57592
G1 X49.536 Y48.874 E6.59069
G1 X49.807 Y48.753 E6.60546
G1 X50.091 Y48.668 E6.62023
G1 X50.383 Y48.618 E6.63500
G1 X50.667 Y48.606 E6.64913 F600.000
G1 X50.973 Y48.630 E6.66443
G1 X51.265 Y48.692 E6.67929
G1 X51.545 Y48.790 E6.69406
G1 X51.811 Y48.922 E6.70883
G1 X52.058 Y49.086 E6.72360
G1 X52.237 Y49.240 E6.73538
G1 X52.012 Y49.556 F9000.000
G1 X52.178 Y49.740 E6.74773 F600.000
G1 X52.320 Y49.944 E6.76008
G1 X52.435 Y50.164 E6.77243
G1 X52.521 Y50.396 E6.78478
G1 X52.578 Y50.637 E6.79713
G1 X52.604 Y50.884 E6.80948
G1 X52.599 Y51.132 E6.82183
G1 X52.562 Y51.378 E6.83419
G1 X52.496 Y51.617 E6.84654
G1 X52.399 Y51.845 E6.85889
G1 X52.275 Y52.061 E6.87127
G1 X52.117 Y52.266 E6.88417
G1 X51.952 Y52.435 E6.89594
G1 X51.757 Y52.589 E6.90829
G1 X51.545 Y52.718 E6.92064
G1 X51.319 Y52.819 E6.93300
G1 X51.081 Y52.890 E6.94535
G1 X50.837 Y52.932 E6.95770
G1 X50.589 Y52.942 E6.97005
G1 X50.341 Y52.921 E6.98240
G1 X50.099 Y52.870 E6.99475
G1 X49.864 Y52.788 E7.00711
G1 X49.642 Y52.678 E7.01946
G1 X49.436 Y52.540 E7.03181
G1 X49.248 Y52.378 E7.04416
G1 X49.082 Y52.194 E7.05651
G1 X48.940 Y51.990 E7.06886
G1 X48.825 Y51.770 E7.08121
G1 X48.739 Y51.538 E7.09356
G1 X48.682 Y51.296 E7.10592
G1 X48.656 Y51.050 E7.11827
G1 X48.661 Y50.802 E7.13062
G1 X48.698 Y50.556 E7.14297
G1 X48.764 Y50.317 E7.15532
G1 X48.861 Y50.089 E7.16767
G1 X48.985 Y49.874 E7.18003
G1 X49.135 Y49.676 E7.19238
G1 X49.308 Y49.499 E7.20473
G1 X49.503 Y49.345 E7.21708
G1 X49.715 Y49.216 E7.22943
G1 X49.941 Y49.115 E7.24179
G1 X50.179 Y49.044 E7.25414
G1 X50.424 Y49.002 E7.26649
G1 X50.660 Y48.992 E7.27826 F600.000
G1 X50.918 Y49.013 E7.29115
G1 X51.161 Y49.064 E7.30354
G1 X51.396 Y49.146 E7.31589
G1 X51.618 Y49.256 E7.32824
G1 X51.824 Y49.394 E7.34060
G1 X51.967 Y49.516 E7.34996
G1 X52.252 Y49.494 F9000.000
G1 X53.146 Y47.493 F9000.000
G1 X52.360 Y47.061 E7.39462 F600.000
G1 X51.255 Y46.258 E7.46263
G1 X50.220 Y45.275 E7.53371
G1 X49.393 Y44.274 E7.59834
G1 X48.661 Y43.121 E7.66634
G1 X48.061 Y41.826 E7.73743
G1 X47.659 Y40.591 E7.80206
G1 X47.404 Y39.251 E7.86997
G1 X47.318 Y37.890 E7.93789
G1 X47.404 Y36.529 E8.00580
G1 X47.659 Y35.189 E8.07372
G1 X48.081 Y33.891 E8.14163
G1 X48.662 Y32.657 E8.20954
G1 X49.393 Y31.506 E8.27746
G1 X50.262 Y30.455 E8.34537
G1 X51.256 Y29.521 E8.41329
G1 X52.360 Y28.719 E8.48120
G1 X53.555 Y28.062 E8.54911
G1 X54.824 Y27.560 E8.61703
G1 X56.145 Y27.221 E8.68494
G1 X57.498 Y27.050 E8.75286
G1 X58.862 Y27.050 E8.82077 F600.000
G1 X60.215 Y27.221 E8.88869
G1 X61.536 Y27.560 E8.95660
G1 X62.805 Y28.062 E9.02451
G1 X64.000 Y28.719 E9.09243
G1 X65.104 Y29.521 E9.16034
G1 X66.098 Y30.455 E9.22826
G1 X66.967 Y31.506 E9.29617
G1 X67.699 Y32.659 E9.36418
G1 X68.299 Y33.954 E9.43526
G1 X68.701 Y35.189 E9.49989
G1 X68.956 Y36.529 E9.56780
G1 X69.042 Y37.890 E9.63572
G1 X68.956 Y39.251 E9.70363
G1 X68.701 Y40.591 E9.77155
G1 X68.279 Y41.889 E9.83946
G1 X67.698 Y43.123 E9.90737
G1 X66.967 Y44.274 E9.97529
G1 X66.098 Y45.325 E10.04320
G1 X65.104 Y46.259 E10.11112
G1 X63.972 Y47.081 E10.18076
G1 X62.804 Y47.718 E10.24701
G1 X61.536 Y48.220 E10.31487
G1 X60.215 Y48.559 E10.38279
G1 X58.862 Y48.730 E10.45070
G1 X57.498 Y48.730 E10.51862
G1 X56.145 Y48.559 E10.58653
G1 X54.824 Y48.220 E10.65444
G1 X53.555 Y47.718 E10.72236
G1 X53.199 Y47.522 E10.74262
G1 X53.332 Y47.155 F9000.000
G1 X52.567 Y46.735 E10.78608 F600.000
G1 X51.502 Y45.961 E10.85161
G1 X50.502 Y45.011 E10.92028
G1 X49.705 Y44.047 E10.98255
G1 X49.000 Y42.936 E11.04808
G1 X48.420 Y41.685 E11.11675
G1 X48.034 Y40.495 E11.17902
G1 X47.787 Y39.203 E11.24452
G1 X47.705 Y37.890 E11.31001
G1 X47.787 Y36.577 E11.37551
G1 X48.034 Y35.285 E11.44101
G1 X48.440 Y34.034 E11.50651
G1 X49.000 Y32.843 E11.57201
G1 X49.705 Y31.733 E11.63751
G1 X50.544 Y30.719 E11.70300
G1 X51.503 Y29.819 E11.76850
G1 X52.567 Y29.045 E11.83400
G1 X53.720 Y28.412 E11.89950
G1 X54.943 Y27.927 E11.96500
G1 X56.217 Y27.600 E12.03050
G1 X57.522 Y27.435 E12.09599
G1 X58.838 Y27.435 E12.16149 F600.000
G1 X60.143 Y27.600 E12.22699
G1 X61.417 Y27.927 E12.29249
G1 X62.640 Y28.412 E12.35799
G1 X63.793 Y29.045 E12.42349
G1 X64.857 Y29.819 E12.48898
G1 X65.816 Y30.719 E12.55448
G1 X66.655 Y31.733 E12.61998
G1 X67.360 Y32.844 E12.68551
G1 X67.940 Y34.095 E12.75418
G1 X68.326 Y35.285 E12.81645
G1 X68.573 Y36.577 E12.88195
G1 X68.655 Y37.890 E12.94745
G1 X68.573 Y39.203 E13.01295
G1 X68.326 Y40.495 E13.07845
G1 X67.920 Y41.746 E13.14394
G1 X67.360 Y42.937 E13.20944
G1 X66.655 Y44.047 E13.27494
G1 X65.816 Y45.061 E13.34044
G1 X64.857 Y45.961 E13.40594
G1 X63.765 Y46.755 E13.47314
G1 X62.640 Y47.369 E13.53697
G1 X61.417 Y47.853 E13.60245
G1 X60.143 Y48.180 E13.66794
G1 X58.838 Y48.345 E13.73344
G1 X57.522 Y48.345 E13.79894
G1 X56.217 Y48.180 E13.86444
G1 X54.943 Y47.853 E13.92994
G1 X53.720 Y47.368 E13.99543
G1 X53.384 Y47.184 E14.01449
G1 X52.990 Y47.362 F9000.000
G1 E8.01449 F1800.00000
G92 E0
G1 X50.975 Y27.149 F9000.000
G1 E6.00000 F1800.00000
G1 X50.679 Y27.174 E6.01476 F600.000
G1 X50.383 Y27.162 E6.02953
G1 X50.091 Y27.112 E6.04429
G1 X49.807 Y27.027 E6.05906
G1 X49.536 Y26.906 E6.07384
G1 X49.282 Y26.752 E6.08860
G1 X49.050 Y26.568 E6.10337
G1 X48.842 Y26.356 E6.11813
G1 X48.663 Y26.120 E6.13290
G1 X48.514 Y25.863 E6.14767
G1 X48.400 Y25.590 E6.16244
G1 X48.320 Y25.304 E6.17720
G1 X48.276 Y25.009 E6.19206
G1 X48.272 Y24.701 E6.20737
G1 X48.301 Y24.419 E6.22150
G1 X48.369 Y24.130 E6.23627
G1 X48.472 Y23.852 E6.25104
G1 X48.610 Y23.590 E6.26580
G1 X48.779 Y23.346 E6.28057
G1 X48.978 Y23.126 E6.29534
G1 X49.202 Y22.932 E6.31011
G1 X49.449 Y22.768 E6.32488
G1 X49.715 Y22.636 E6.33964
G1 X49.995 Y22.538 E6.35441
G1 X50.285 Y22.477 E6.36918
G1 X50.568 Y22.453 E6.38331 F600.000
G1 X50.875 Y22.464 E6.39862
G1 X51.169 Y22.514 E6.41348
G1 X51.453 Y22.599 E6.42824
G1 X51.724 Y22.720 E6.44301
G1 X51.978 Y22.874 E6.45777
G1 X52.210 Y23.058 E6.47254
G1 X52.418 Y23.270 E6.48731
G1 X52.597 Y23.506 E6.50208
G1 X52.746 Y23.763 E6.51685
G1 X52.860 Y24.036 E6.53162
G1 X52.940 Y24.322 E6.54638
G1 X52.984 Y24.615 E6.56115
G1 X52.990 Y24.912 E6.57592
G1 X52.959 Y25.207 E6.59069
G1 X52.891 Y25.496 E6.60545
G1 X52.788 Y25.774 E6.62022
G1 X52.649 Y26.038 E6.63508
G1 X52.472 Y26.290 E6.65039
G1 X52.282 Y26.500 E6.66452
G1 X52.058 Y26.694 E6.67928
G1 X51.811 Y26.858 E6.69405
G1 X51.545 Y26.990 E6.70882
G1 X51.265 Y27.088 E6.72359
G1 X51.034 Y27.137 E6.73537
G1 X50.919 Y26.767 F9000.000
G1 X50.671 Y26.788 E6.74772 F600.000
G1 X50.424 Y26.778 E6.76007
