; generated by Slic3r 1.2.9 on 2018-05-11 at 21:08:11

; external perimeters extrusion width = 0.40mm
; perimeters extrusion width = 0.62mm
; infill extrusion width = 0.33mm
; solid infill extrusion width = 0.62mm
; top infill extrusion width = 0.20mm

M106 S256; Turn on fan to 100% power
M104 S140; turn on extruder temperature at S value
M140 S60; turn on bed temperature at S value
G28; home all axes
M84; disable motors
G1 Z15 F15000; have Z move to 20mm at 15000 mm/min
M190 S55; turn on bed temperature at S value and wait
M140 S55; turn on bed temperature at S value (printing temperature)
M109 S200; turn on extruder temperature at S value and wait (printing temperature)
M104 S200; turn on extruder temperature at S value
G1 Z0 F12000; move Z back to home
G21 ; set units to millimeters
G90 ; use absolute coordinates
M82 ; use absolute distances for extrusion
G92 E0
M106 S255
;Layer change
G1 E-6.00000 F1800.00000
G92 E0
G1 Z0.300 F9000.000
G1 X78.444 Y20.460 F9000.000
G1 E6.00000 F1800.00000
G1 X79.143 Y18.773 E6.08986 F600.000
G1 X82.143 Y15.773 E6.29866
G1 X83.830 Y15.074 E6.38852
G1 X118.830 Y15.074 E8.11105
G1 X120.517 Y15.773 E8.20091
G1 X123.517 Y18.773 E8.40971 F600.000
G1 X124.216 Y20.460 E8.49957
G1 X124.216 Y34.660 E9.19843
G1 X123.517 Y36.347 E9.28829
G1 X120.517 Y39.347 E9.49709
G1 X118.830 Y40.046 E9.58695
G1 X83.830 Y40.046 E11.30948
G1 X82.143 Y39.347 E11.39934
G1 X79.143 Y36.347 E11.60814
G1 X78.444 Y34.660 E11.69800
G1 X78.444 Y20.520 E12.39390
G1 E6.39390 F1800.00000
G92 E0
G1 X103.055 Y35.885 F9000.000
G1 E6.00000 F1800.00000
G1 X102.055 Y35.885 E6.04922 F600.000
G1 X102.055 Y36.885 E6.09843
G1 X92.605 Y36.885 E6.56351
G1 X92.605 Y35.885 E6.61273
G1 X91.605 Y35.885 E6.66194
G1 X91.605 Y30.435 E6.93016
G1 X103.055 Y30.435 E7.49368
G1 X103.055 Y35.825 E7.75895
G1 X103.055 Y36.285 F9000.000
G1 E1.75895 F1800.00000
G92 E0
G1 X84.927 Y32.465 F9000.000
G1 E6.00000 F1800.00000
G1 X84.842 Y32.759 E6.01507 F600.000
G1 X84.700 Y33.037 E6.03044
G1 X84.446 Y33.343 E6.05002
G1 X84.201 Y33.533 E6.06525
G1 X83.929 Y33.672 E6.08032
G1 X83.635 Y33.757 E6.09538
G1 X83.330 Y33.786 E6.11044
G1 X83.025 Y33.757 E6.12550
G1 X82.731 Y33.672 E6.14056
G1 X82.456 Y33.531 E6.15580
G1 X82.147 Y33.276 E6.17552
G1 X81.957 Y33.031 E6.19075
G1 X81.818 Y32.759 E6.20582
G1 X81.733 Y32.465 E6.22088
G1 X81.704 Y32.160 E6.23594
G1 X81.733 Y31.855 E6.25100
G1 X81.818 Y31.561 E6.26606
G1 X81.957 Y31.289 E6.28112
G1 X82.145 Y31.047 E6.29619
G1 X82.374 Y30.845 E6.31125
G1 X82.638 Y30.689 E6.32631
G1 X82.929 Y30.584 E6.34154
G1 X83.324 Y30.534 E6.36112 F600.000
G1 X83.635 Y30.563 E6.37649
G1 X83.929 Y30.648 E6.39156
G1 X84.201 Y30.787 E6.40662
G1 X84.443 Y30.975 E6.42169
G1 X84.646 Y31.204 E6.43676
G1 X84.804 Y31.473 E6.45213
G1 X84.927 Y31.852 E6.47171
G1 X84.956 Y32.160 E6.48694
G1 X84.933 Y32.405 E6.49905
G1 X85.153 Y32.672 F9000.000
G1 E0.49905 F1800.00000
G92 E0
G1 X82.477 Y34.049 F9000.000
G1 E6.00000 F1800.00000
G1 X81.441 Y34.049 E6.05100 F600.000
G1 X81.441 Y33.250 E6.09035
G1 X81.597 Y33.196 E6.09849
G1 X81.868 Y33.546 E6.12027
G1 X82.431 Y34.011 E6.15619
G1 E0.15619 F1800.00000
G92 E0
G1 X82.605 Y28.885 F9000.000
G1 E6.00000 F1800.00000
G1 X82.605 Y21.435 E6.36665 F600.000
G1 X86.055 Y21.435 E6.53644
G1 X86.055 Y28.885 E6.90310
G1 X82.665 Y28.885 E7.06994
G1 X82.205 Y28.885 F9000.000
G1 E1.06994 F1800.00000
G92 E0
G1 X107.259 Y31.214 F9000.000
G1 E6.00000 F1800.00000
G1 X107.281 Y30.983 E6.01141 F600.000
G1 X107.470 Y30.330 E6.04489
G1 X107.779 Y29.724 E6.07835
G1 X108.196 Y29.187 E6.11183
G1 X108.706 Y28.737 E6.14530
G1 X109.292 Y28.391 E6.17877
G1 X109.922 Y28.163 E6.21176
G1 X110.377 Y28.077 E6.23455
G1 X110.832 Y28.048 E6.25697 F600.000
G1 X111.507 Y28.111 E6.29032
G1 X112.160 Y28.300 E6.32382
G1 X112.766 Y28.609 E6.35729
G1 X113.303 Y29.026 E6.39076
G1 X113.753 Y29.536 E6.42423
G1 X114.099 Y30.122 E6.45770
G1 X114.327 Y30.752 E6.49070
G1 X114.413 Y31.207 E6.51350
G1 X114.442 Y31.670 E6.53629
G1 X114.379 Y32.337 E6.56929
G1 X114.190 Y32.990 E6.60276
G1 X113.881 Y33.597 E6.63625
G1 X113.464 Y34.131 E6.66961
G1 X113.132 Y34.443 E6.69203
G1 X112.758 Y34.715 E6.71482
G1 X112.160 Y35.020 E6.74781
G1 X111.507 Y35.209 E6.78129
G1 X110.830 Y35.273 E6.81475
G1 X110.153 Y35.209 E6.84822
G1 X109.509 Y35.022 E6.88122
G1 X109.090 Y34.825 E6.90402
G1 X108.699 Y34.577 E6.92682
G1 X108.196 Y34.133 E6.95981
G1 X107.779 Y33.596 E6.99328
G1 X107.470 Y32.990 E7.02675
G1 X107.281 Y32.337 E7.06022
G1 X107.217 Y31.660 E7.09369
G1 X107.253 Y31.274 E7.11280
G1 X107.643 Y31.250 F9000.000
G1 X107.661 Y31.056 E7.12242 F600.000
G1 X107.831 Y30.472 E7.15230
G1 X108.106 Y29.931 E7.18218
G1 X108.478 Y29.452 E7.21206
G1 X108.934 Y29.050 E7.24195
G1 X109.456 Y28.741 E7.27183
G1 X110.024 Y28.537 E7.30154
G1 X110.426 Y28.460 E7.32164
G1 X110.826 Y28.435 E7.34139 F600.000
G1 X111.434 Y28.491 E7.37145
G1 X112.018 Y28.661 E7.40135
G1 X112.559 Y28.936 E7.43123
G1 X113.038 Y29.308 E7.46111
G1 X113.440 Y29.764 E7.49099
G1 X113.749 Y30.286 E7.52088
G1 X113.954 Y30.854 E7.55059
G1 X114.030 Y31.256 E7.57069
G1 X114.056 Y31.664 E7.59080
G1 X113.999 Y32.264 E7.62051
G1 X113.829 Y32.848 E7.65039
G1 X113.554 Y33.389 E7.68028
G1 X113.179 Y33.871 E7.71035
G1 X112.886 Y34.145 E7.73009
G1 X112.555 Y34.385 E7.75020
G1 X112.018 Y34.659 E7.77991
G1 X111.434 Y34.829 E7.80979
G1 X110.830 Y34.886 E7.83967
G1 X110.226 Y34.829 E7.86955
G1 X109.646 Y34.660 E7.89926
G1 X109.276 Y34.486 E7.91938
G1 X108.931 Y34.268 E7.93949
G1 X108.478 Y33.868 E7.96919
G1 X108.106 Y33.389 E7.99907
G1 X107.831 Y32.848 E8.02896
G1 X107.661 Y32.264 E8.05884
G1 X107.604 Y31.660 E8.08872
G1 X107.637 Y31.310 E8.10603
G1 X107.483 Y31.137 F9000.000
G1 E2.10603 F1800.00000
G92 E0
G1 X115.219 Y33.271 F9000.000
G1 E6.00000 F1800.00000
G1 X115.219 Y24.049 E6.45382 F600.000
G1 X119.441 Y24.049 E6.66157
G1 X119.441 Y33.271 E7.11540
G1 X115.279 Y33.271 E7.32019
G1 X115.605 Y32.885 F9000.000
G1 X115.605 Y24.435 E7.73606 F600.000
G1 X119.055 Y24.435 E7.90585
G1 X119.055 Y32.885 E8.32172
G1 X115.665 Y32.885 E8.48856
G1 X115.205 Y32.885 F9000.000
G1 X115.830 Y22.673 F9000.000
G1 X115.453 Y22.638 E8.50720 F600.000
G1 X115.089 Y22.532 E8.52585
G1 X114.743 Y22.356 E8.54496
G1 X114.374 Y22.052 E8.56850
G1 X114.130 Y21.740 E8.58797
G1 X113.958 Y21.401 E8.60667
G1 X113.852 Y21.037 E8.62532
G1 X113.817 Y20.660 E8.64397
G1 X113.852 Y20.283 E8.66261
G1 X113.958 Y19.919 E8.68126
G1 X114.130 Y19.581 E8.69992
G1 X114.362 Y19.282 E8.71857
G1 X114.647 Y19.031 E8.73722
G1 X114.973 Y18.838 E8.75587
G1 X115.338 Y18.707 E8.77497
G1 X115.812 Y18.646 E8.79850 F600.000
G1 X116.206 Y18.682 E8.81798
G1 X116.571 Y18.788 E8.83667
G1 X116.909 Y18.960 E8.85533
G1 X117.208 Y19.192 E8.87398
G1 X117.459 Y19.477 E8.89263
G1 X117.657 Y19.811 E8.91175
G1 X117.807 Y20.273 E8.93566
G1 X117.843 Y20.660 E8.95479
G1 X117.807 Y21.047 E8.97391
G1 X117.657 Y21.509 E8.99782
G1 X117.459 Y21.843 E9.01695
G1 X117.208 Y22.128 E9.03559
G1 X116.909 Y22.360 E9.05425
G1 X116.571 Y22.532 E9.07290
G1 X116.207 Y22.638 E9.09155
G1 X115.890 Y22.668 E9.10725
G1 X115.830 Y22.286 F9000.000
G1 X115.525 Y22.257 E9.12230 F600.000
G1 X115.231 Y22.172 E9.13737
G1 X114.956 Y22.031 E9.15260
G1 X114.652 Y21.781 E9.17197
G1 X114.457 Y21.532 E9.18754
G1 X114.318 Y21.259 E9.20262
G1 X114.233 Y20.965 E9.21769
G1 X114.204 Y20.660 E9.23275
G1 X114.233 Y20.355 E9.24781
G1 X114.318 Y20.061 E9.26287
G1 X114.457 Y19.789 E9.27793
G1 X114.645 Y19.547 E9.29300
G1 X114.874 Y19.345 E9.30806
G1 X115.138 Y19.189 E9.32312
G1 X115.429 Y19.084 E9.33835
G1 X115.819 Y19.034 E9.35772 F600.000
G1 X116.134 Y19.063 E9.37329
G1 X116.429 Y19.148 E9.38837
G1 X116.701 Y19.287 E9.40343
G1 X116.943 Y19.475 E9.41850
G1 X117.145 Y19.704 E9.43356
G1 X117.303 Y19.971 E9.44880
G1 X117.427 Y20.352 E9.46851
G1 X117.456 Y20.660 E9.48375
G1 X117.427 Y20.968 E9.49898
G1 X117.303 Y21.349 E9.51870
G1 X117.145 Y21.616 E9.53394
G1 X116.943 Y21.845 E9.54900
G1 X116.701 Y22.033 E9.56406
G1 X116.429 Y22.172 E9.57913
G1 X116.135 Y22.257 E9.59419
G1 X115.890 Y22.280 E9.60630
G1 X115.669 Y22.546 F9000.000
G1 X114.834 Y23.664 F9000.000
G1 X114.834 Y30.457 E9.94063 F600.000
G1 X114.642 Y30.490 E9.95020
G1 X114.450 Y29.957 E9.97813
G1 X114.067 Y29.308 E10.01519
G1 X113.569 Y28.744 E10.05225
G1 X112.974 Y28.282 E10.08930
G1 X112.303 Y27.940 E10.12636
G1 X111.579 Y27.730 E10.16346
G1 X110.837 Y27.661 E10.20011
G1 X110.329 Y27.693 E10.22520
G1 X109.820 Y27.790 E10.25067
G1 X109.127 Y28.040 E10.28695
G1 X108.478 Y28.423 E10.32401
G1 X107.914 Y28.921 E10.36107
G1 X107.452 Y29.516 E10.39813
G1 X107.110 Y30.187 E10.43519
G1 X106.900 Y30.910 E10.47225
G1 X106.829 Y31.660 E10.50931
G1 X106.900 Y32.410 E10.54637
G1 X107.110 Y33.133 E10.58343
G1 X107.452 Y33.804 E10.62048
G1 X107.914 Y34.399 E10.65754
G1 X108.467 Y34.886 E10.69382
G1 X108.904 Y35.164 E10.71931
G1 X109.372 Y35.384 E10.74479
G1 X110.080 Y35.590 E10.78108
G1 X110.830 Y35.661 E10.81814
G1 X111.580 Y35.590 E10.85519
G1 X112.303 Y35.380 E10.89225
G1 X112.960 Y35.045 E10.92854
G1 X113.378 Y34.741 E10.95401
G1 X113.750 Y34.392 E10.97910
G1 X114.208 Y33.804 E11.01575
G1 X114.550 Y33.133 E11.05284
G1 X114.635 Y32.839 E11.06789
G1 X114.834 Y32.868 E11.07777
G1 X114.834 Y33.656 E11.11658
G1 X117.834 Y33.656 E11.26423
G1 X117.834 Y36.664 E11.41224
G1 X103.826 Y36.664 E12.10163
G1 X103.826 Y29.664 E12.44613
G1 X90.834 Y29.664 E13.08556
G1 X90.834 Y36.664 E13.43006
G1 X84.826 Y36.664 E13.72572
G1 X84.826 Y34.024 E13.85563
G1 X84.986 Y33.901 E13.86556
G1 X85.348 Y33.463 E13.89349
G1 X85.562 Y33.044 E13.91666
G1 X85.688 Y32.610 E13.93892
G1 X85.731 Y32.160 E13.96116
G1 X85.687 Y31.695 E13.98416
G1 X85.512 Y31.155 E14.01210
G1 X85.273 Y30.749 E14.03526
G1 X84.973 Y30.410 E14.05753
G1 X84.616 Y30.133 E14.07977
G1 X84.214 Y29.928 E14.10200
G1 X83.963 Y29.855 E14.11486
G1 X83.991 Y29.656 E14.12474
G1 X86.826 Y29.656 E14.26427
G1 X86.826 Y20.664 E14.70684
G1 X84.826 Y20.664 E14.80527
G1 X84.826 Y18.456 E14.91391
G1 X114.527 Y18.456 E16.37562
G1 X114.573 Y18.627 E16.38431
G1 X114.419 Y18.718 E16.39313
G1 X114.080 Y19.016 E16.41537
G1 X113.803 Y19.374 E16.43761
G1 X113.598 Y19.776 E16.45985
G1 X113.472 Y20.210 E16.48209
G1 X113.429 Y20.660 E16.50432
G1 X113.472 Y21.110 E16.52656
G1 X113.598 Y21.544 E16.54879
G1 X113.804 Y21.948 E16.57111
G1 X114.096 Y22.322 E16.59450
G1 X114.530 Y22.680 E16.62220
G1 X114.946 Y22.892 E16.64517
G1 X115.380 Y23.018 E16.66741
G1 X115.830 Y23.061 E16.68964
G1 X116.280 Y23.018 E16.71188
G1 X116.714 Y22.892 E16.73411
G1 X117.116 Y22.687 E16.75635
G1 X117.474 Y22.410 E16.77860
G1 X117.772 Y22.071 E16.80083
G1 X118.010 Y21.669 E16.82385
G1 X118.079 Y21.456 E16.83484
G1 X120.834 Y21.456 E16.97040
G1 X120.834 Y33.664 E17.57119
G1 X119.826 Y33.664 E17.62078
G1 X119.826 Y23.664 E18.11293
G1 X114.894 Y23.664 E18.35568
G1 E12.35568 F1800.00000
G92 E0
G1 X117.834 Y19.319 F9000.000
G1 E6.00000 F1800.00000
G1 X117.474 Y18.910 E6.02682 F600.000
G1 X117.090 Y18.613 E6.05069
G1 X117.144 Y18.456 E6.05883
G1 X117.834 Y18.456 E6.09279
G1 X117.834 Y19.259 E6.13229
G1 E0.13229 F1800.00000
G92 E0
G1 X82.697 Y29.848 F9000.000
G1 E6.00000 F1800.00000
G1 X82.308 Y29.988 E6.02034 F600.000
G1 X81.826 Y30.273 E6.04787
G1 X81.826 Y29.656 E6.07821
G1 X82.663 Y29.656 E6.11940
G1 X82.686 Y29.789 E6.12602
G1 X82.219 Y29.271 F9000.000
G1 X86.441 Y29.271 E6.33377 F600.000
G1 X86.441 Y21.049 E6.73837
G1 X84.441 Y21.049 E6.83680
G1 X84.441 Y18.071 E6.98340
G1 X118.219 Y18.071 E8.64583
G1 X118.219 Y21.071 E8.79347
G1 X121.219 Y21.071 E8.94112
G1 X121.219 Y34.049 E9.57987
G1 X118.219 Y34.049 E9.72751
G1 X118.219 Y37.049 E9.87516
G1 X102.441 Y37.049 E10.65171
G1 X102.441 Y36.271 E10.69004
G1 X103.441 Y36.271 E10.73925
G1 X103.441 Y30.049 E11.04543
G1 X91.219 Y30.049 E11.64690
G1 X91.219 Y36.271 E11.95308
G1 X92.219 Y36.271 E12.00230
G1 X92.219 Y37.049 E12.04062
G1 X84.441 Y37.049 E12.42345
G1 X84.441 Y34.049 E12.57110
G1 X84.420 Y34.049 E12.57213
G1 X84.366 Y33.893 E12.58026
G1 X84.716 Y33.622 E12.60203
G1 X85.024 Y33.250 E12.62579
G1 X85.202 Y32.902 E12.64506
G1 X85.308 Y32.537 E12.66373
G1 X85.343 Y32.160 E12.68238
G1 X85.307 Y31.773 E12.70149
G1 X85.158 Y31.314 E12.72525
G1 X84.959 Y30.977 E12.74452
G1 X84.708 Y30.692 E12.76318
G1 X84.409 Y30.460 E12.78183
G1 X84.071 Y30.288 E12.80048
G1 X83.707 Y30.182 E12.81915
G1 X83.317 Y30.146 E12.83842
G1 X82.838 Y30.207 E12.86218
G1 X82.473 Y30.338 E12.88129
G1 X82.147 Y30.531 E12.89994
G1 X81.862 Y30.782 E12.91859
G1 X81.597 Y31.124 E12.93990
G1 X81.441 Y31.070 E12.94803
G1 X81.441 Y21.071 E13.44016
G1 X82.219 Y21.071 E13.47849
G1 X82.219 Y29.211 E13.87910
G1 E7.87910 F1800.00000
G92 E0
G1 X84.055 Y34.435 F9000.000
G1 E6.00000 F1800.00000
G1 X81.055 Y34.435 E6.14765 F600.000
G1 X81.055 Y20.685 E6.82435
G1 X84.055 Y20.685 E6.97200
G1 X84.055 Y17.685 E7.11964
G1 X118.605 Y17.685 E8.82002
G1 X118.605 Y20.685 E8.96767
G1 X121.605 Y20.685 E9.11531
G1 X121.605 Y34.435 E9.79202
G1 X118.605 Y34.435 E9.93967
G1 X118.605 Y37.435 E10.08731
G1 X84.055 Y37.435 E11.78769
G1 X84.055 Y34.495 E11.93238
G1 X84.055 Y34.035 F9000.000
G1 X84.206 Y34.022 F9000.000
G1 X83.713 Y34.092 E11.98555 F600.000
G1 X83.342 Y34.111 E12.02512
G1 X83.064 Y34.099 E12.05482
G1 X82.913 Y34.036 E12.07230
G1 X82.915 Y34.031 F9000.000
G1 X82.649 Y33.890 E12.08710 F600.000
G1 X82.441 Y33.754 E12.09936
G1 X81.468 Y33.036 F9000.000
G1 X81.398 Y32.543 E12.15253 F600.000
G1 X81.379 Y32.172 E12.19209
G1 X81.398 Y31.777 E12.23430
G1 X81.468 Y31.284 E12.28746
G1 X81.830 Y29.463 F9000.000
G1 X81.830 Y21.263 E13.16196 F600.000
G1 X82.412 Y21.060 F9000.000
G1 X84.248 Y21.060 E13.35773 F600.000
G1 E7.35773 F1800.00000
G92 E0
G1 X83.786 Y29.729 F9000.000
G1 E6.00000 F1800.00000
G1 X83.337 Y29.708 E6.04798 F600.000
G1 X82.873 Y29.735 E6.09754
G1 X91.027 Y36.660 F9000.000
G1 X92.027 Y36.660 E6.20419 F600.000
G1 X92.412 Y37.160 F9000.000
G1 X102.248 Y37.160 E6.68825 F600.000
G1 X102.633 Y36.660 F9000.000
G1 X103.633 Y36.660 E6.79490 F600.000
G1 X104.110 Y36.030 F9000.000
G1 X104.460 Y36.380 E6.81935 F600.000
G1 X105.007 Y36.380 E6.84635
G1 X104.110 Y35.483 E6.90900
G1 X104.110 Y34.936 E6.93601
G1 X105.554 Y36.380 E7.03684
G1 X106.101 Y36.380 E7.06385
G1 X104.110 Y34.389 E7.20288
G1 X104.110 Y33.842 E7.22989
G1 X106.648 Y36.380 E7.40712
G1 X107.195 Y36.380 E7.43412
G1 X104.110 Y33.294 E7.64954
G1 X104.110 Y32.747 E7.67655
G1 X107.743 Y36.380 E7.93016
G1 X108.290 Y36.380 E7.95717
G1 X104.110 Y32.200 E8.24898
G1 X104.110 Y31.653 E8.27598
G1 X108.837 Y36.380 E8.60598
G1 X104.110 Y30.012 F9000.000
G1 X106.617 Y32.520 E8.78104 F600.000
G1 X106.830 Y33.279 E8.82000
G1 X104.110 Y30.559 E9.00992
G1 X104.110 Y31.106 E9.03693
G1 X109.384 Y36.380 E9.40512
G1 X109.931 Y36.380 E9.43213
G1 X109.211 Y35.660 E9.48240
G1 X109.970 Y35.873 E9.52136
G1 X110.478 Y36.380 E9.55678
G1 X110.575 Y35.930 E9.57952
G1 X111.025 Y36.380 E9.61096
G1 X111.104 Y35.912 E9.63437
G1 X111.572 Y36.380 E9.66701
G1 X111.598 Y35.859 E9.69274
G1 X112.119 Y36.380 E9.72908
G1 X112.666 Y36.380 E9.75608
G1 X112.022 Y35.736 E9.80102
G1 X112.433 Y35.600 E9.82239
G1 X113.213 Y36.380 E9.87683
G1 X113.760 Y36.380 E9.90384
G1 X112.796 Y35.415 E9.97118
G1 X113.147 Y35.220 E9.99103
G1 X114.307 Y36.380 E10.07204
G1 X114.854 Y36.380 E10.09905
G1 X113.464 Y34.989 E10.19613
G1 X113.753 Y34.732 E10.21526
G1 X115.401 Y36.380 E10.33032
G1 X115.948 Y36.380 E10.35732
G1 X114.021 Y34.453 E10.49189
G1 X114.260 Y34.145 E10.51113
G1 X116.495 Y36.380 E10.66718
G1 X117.042 Y36.380 E10.69418
G1 X114.602 Y33.940 E10.86453
G1 X115.149 Y33.940 E10.89154
G1 X117.550 Y36.340 E11.05912
G1 X117.550 Y35.793 E11.08611
G1 X115.697 Y33.940 E11.21551
G1 X116.244 Y33.940 E11.24252
G1 X117.550 Y35.246 E11.33373
G1 X117.550 Y34.699 E11.36073
G1 X116.791 Y33.940 E11.41375
G1 X117.338 Y33.940 E11.44076
G1 X117.550 Y34.152 E11.45558
G1 E5.45558 F1800.00000
G92 E0
G1 X112.927 Y27.888 F9000.000
G1 E6.00000 F1800.00000
G1 X103.779 Y18.740 E6.63869 F600.000
G1 X104.326 Y18.740 E6.66570
G1 X114.550 Y28.964 E7.37952
G1 X114.550 Y28.417 E7.40653
G1 X104.873 Y18.740 E8.08215
G1 X105.420 Y18.740 E8.10916
