; generated by Slic3r 1.2.9 on 2018-05-12 at 12:07:42

; external perimeters extrusion width = 0.40mm
; perimeters extrusion width = 0.62mm
; infill extrusion width = 0.33mm
; solid infill extrusion width = 0.62mm
; top infill extrusion width = 0.20mm

M106 S256; Turn on fan to 100% power
M104 S140; turn on extruder temperature at S value
M140 S60; turn on bed temperature at S value
G28; home all axes
M84; disable motors
G1 Z15 F15000; have Z move to 20mm at 15000 mm/min
M190 S55; turn on bed temperature at S value and wait
M140 S55; turn on bed temperature at S value (printing temperature)
M109 S200; turn on extruder temperature at S value and wait (printing temperature)
M104 S200; turn on extruder temperature at S value
G1 Z0 F12000; move Z back to home
G21 ; set units to millimeters
G90 ; use absolute coordinates
M82 ; use absolute distances for extrusion
G92 E0
M106 S255
;Layer change
G1 E-6.00000 F1800.00000
G92 E0
G1 Z0.300 F9000.000
G1 X72.794 Y80.847 F9000.000
G1 E6.00000 F1800.00000
G1 X73.422 Y80.327 E6.04010 F600.000
G1 X73.819 Y80.052 E6.06389
G1 X74.364 Y79.730 E6.09502
G1 X75.101 Y79.383 E6.13513
G1 X75.554 Y79.215 E6.15891
G1 X76.162 Y79.038 E6.19004
G1 X76.962 Y78.886 E6.23016
G1 X77.592 Y78.826 E6.26130
G1 X112.075 Y78.816 E7.95836
G1 X112.889 Y78.867 E7.99850 F600.000
G1 X113.514 Y78.966 E8.02963
G1 X114.303 Y79.169 E8.06976
G1 X114.898 Y79.383 E8.10089
G1 X115.636 Y79.730 E8.14102
G1 X116.181 Y80.052 E8.17215
G1 X116.577 Y80.327 E8.19591
G1 X116.956 Y80.627 E8.21967
G1 X117.550 Y81.185 E8.25981
G1 X117.969 Y81.660 E8.29094
G1 X118.448 Y82.319 E8.33107
G1 X118.770 Y82.864 E8.36220
G1 X119.117 Y83.602 E8.40233
G1 X119.331 Y84.197 E8.43346
G1 X119.534 Y84.986 E8.47359
G1 X119.633 Y85.611 E8.50472
G1 X119.686 Y86.500 E8.54854
G1 X119.684 Y103.575 E9.38889
G1 X119.665 Y104.057 E9.41265
G1 X119.562 Y104.866 E9.45278
G1 X119.462 Y105.339 E9.47654
G1 X119.332 Y105.803 E9.50030
G1 X119.172 Y106.259 E9.52406
G1 X118.921 Y106.840 E9.55518
G1 X118.698 Y107.268 E9.57895
G1 X118.261 Y107.956 E9.61908
G1 X117.969 Y108.341 E9.64284
G1 X117.550 Y108.815 E9.67397
G1 X117.206 Y109.153 E9.69773
G1 X116.577 Y109.673 E9.73786
G1 X116.054 Y110.028 E9.76899
G1 X115.636 Y110.270 E9.79276
G1 X114.899 Y110.617 E9.83288
G1 X114.446 Y110.785 E9.85664
G1 X113.984 Y110.924 E9.88040
G1 X113.514 Y111.034 E9.90416
G1 X113.037 Y111.114 E9.92792
G1 X112.408 Y111.174 E9.95905
G1 X77.592 Y111.174 E11.67250
G1 X77.111 Y111.133 E11.69626
G1 X76.487 Y111.034 E11.72738
G1 X76.016 Y110.924 E11.75115
G1 X75.241 Y110.672 E11.79128
G1 X74.661 Y110.421 E11.82240
G1 X74.232 Y110.198 E11.84617
G1 X73.819 Y109.948 E11.86993
G1 X73.422 Y109.673 E11.89371
G1 X73.044 Y109.373 E11.91744
G1 X72.685 Y109.050 E11.94122
G1 X72.347 Y108.706 E11.96496
G1 X72.031 Y108.341 E11.98872
G1 X71.552 Y107.681 E12.02887
G1 X71.302 Y107.268 E12.05262
G1 X71.079 Y106.840 E12.07637
G1 X70.883 Y106.398 E12.10015
G1 X70.715 Y105.946 E12.12389
G1 X70.538 Y105.338 E12.15504
G1 X70.386 Y104.538 E12.19516
G1 X70.335 Y104.057 E12.21894
G1 X70.316 Y103.575 E12.24267
G1 X70.314 Y86.500 E13.08303
G1 X70.367 Y85.611 E13.12683
G1 X70.438 Y85.134 E13.15061
G1 X70.576 Y84.516 E13.18173
G1 X70.828 Y83.741 E13.22187
G1 X71.079 Y83.160 E13.25301
G1 X71.472 Y82.446 E13.29313
G1 X71.827 Y81.922 E13.32426
G1 X72.347 Y81.294 E13.36440
G1 X72.751 Y80.888 E13.39258
G1 E7.39258 F1800.00000
G92 E0
G1 X80.185 Y105.087 F9000.000
G1 E6.00000 F1800.00000
G1 X79.849 Y105.469 E6.02502 F600.000
G1 X79.447 Y105.780 E6.05003
G1 X78.994 Y106.011 E6.07505
G1 X78.506 Y106.153 E6.10007
G1 X78.000 Y106.201 E6.12508
G1 X77.494 Y106.153 E6.15010
G1 X77.006 Y106.011 E6.17511
G1 X76.553 Y105.780 E6.20013
G1 X76.151 Y105.469 E6.22515
G1 X75.815 Y105.087 E6.25016
G1 X75.564 Y104.664 E6.27440
G1 X75.434 Y104.334 E6.29185
G1 X75.346 Y103.990 E6.30931
G1 X75.299 Y103.500 E6.33355
G1 X75.347 Y102.994 E6.35857
G1 X75.489 Y102.506 E6.38358
G1 X75.720 Y102.053 E6.40860
G1 X76.031 Y101.651 E6.43362
G1 X76.413 Y101.315 E6.45863
G1 X76.850 Y101.056 E6.48365
G1 X77.313 Y100.890 E6.50789
G1 X77.661 Y100.823 E6.52530
G1 X78.002 Y100.801 E6.54212 F600.000
G1 X78.504 Y100.847 E6.56693
G1 X78.994 Y100.989 E6.59204
G1 X79.447 Y101.220 E6.61706
G1 X79.849 Y101.531 E6.64208
G1 X80.186 Y101.914 E6.66719
G1 X80.441 Y102.349 E6.69200
G1 X80.566 Y102.667 E6.70882
G1 X80.654 Y103.010 E6.72623
G1 X80.701 Y103.502 E6.75057
G1 X80.651 Y104.004 E6.77538
G1 X80.566 Y104.335 E6.79220
G1 X80.436 Y104.663 E6.80961
G1 X80.215 Y105.036 E6.83090
G1 X79.872 Y104.860 F9000.000
G1 X79.584 Y105.186 E6.85233 F600.000
G1 X79.240 Y105.453 E6.87376
G1 X78.852 Y105.651 E6.89518
G1 X78.433 Y105.772 E6.91661
G1 X78.000 Y105.813 E6.93804
G1 X77.567 Y105.772 E6.95947
G1 X77.148 Y105.651 E6.98090
G1 X76.760 Y105.453 E7.00233
G1 X76.416 Y105.186 E7.02376
G1 X76.129 Y104.860 E7.04518
G1 X75.912 Y104.493 E7.06614
G1 X75.801 Y104.214 E7.08090
G1 X75.727 Y103.924 E7.09566
G1 X75.687 Y103.500 E7.11662
G1 X75.728 Y103.066 E7.13805
G1 X75.849 Y102.648 E7.15947
G1 X76.047 Y102.260 E7.18090
G1 X76.314 Y101.916 E7.20234
G1 X76.640 Y101.628 E7.22376
G1 X77.015 Y101.407 E7.24519
G1 X77.416 Y101.263 E7.26614
G1 X77.710 Y101.206 E7.28088
G1 X77.997 Y101.188 E7.29505 F600.000
G1 X78.432 Y101.227 E7.31655
G1 X78.852 Y101.349 E7.33804
G1 X79.240 Y101.547 E7.35947
G1 X79.584 Y101.814 E7.38090
G1 X79.872 Y102.141 E7.40239
G1 X80.093 Y102.518 E7.42389
G1 X80.199 Y102.786 E7.43807
G1 X80.273 Y103.076 E7.45281
G1 X80.313 Y103.501 E7.47382
G1 X80.271 Y103.936 E7.49532
G1 X80.198 Y104.215 E7.50950
G1 X80.088 Y104.493 E7.52423
G1 X79.902 Y104.808 E7.54223
G1 X79.558 Y104.632 F9000.000
G1 X79.318 Y104.904 E7.56008 F600.000
G1 X79.032 Y105.126 E7.57792
G1 X78.709 Y105.291 E7.59576
G1 X78.361 Y105.392 E7.61360
G1 X78.000 Y105.426 E7.63144
G1 X77.639 Y105.392 E7.64928
G1 X77.291 Y105.291 E7.66712
G1 X76.968 Y105.126 E7.68496
G1 X76.682 Y104.904 E7.70280
G1 X76.442 Y104.632 E7.72064
G1 X76.259 Y104.323 E7.73831
G1 X76.169 Y104.095 E7.75038
G1 X76.108 Y103.857 E7.76246
G1 X76.074 Y103.500 E7.78012
G1 X76.108 Y103.139 E7.79796
G1 X76.209 Y102.791 E7.81580
G1 X76.374 Y102.468 E7.83364
G1 X76.596 Y102.182 E7.85149
G1 X76.868 Y101.942 E7.86933
G1 X77.180 Y101.757 E7.88717
G1 X77.518 Y101.636 E7.90483
G1 X77.758 Y101.590 E7.91690
G1 X77.992 Y101.575 E7.92842 F600.000
G1 X78.360 Y101.608 E7.94662
G1 X78.709 Y101.709 E7.96448
G1 X79.032 Y101.874 E7.98232
G1 X79.318 Y102.096 E8.00017
G1 X79.558 Y102.368 E8.01803
G1 X79.745 Y102.687 E8.03623
G1 X79.831 Y102.905 E8.04775
G1 X79.892 Y103.143 E8.05982
G1 X79.926 Y103.500 E8.07751
G1 X79.890 Y103.868 E8.09570
G1 X79.831 Y104.095 E8.10723
G1 X79.741 Y104.323 E8.11930
G1 X79.589 Y104.580 E8.13401
G1 X79.695 Y104.968 F9000.000
G1 X81.560 Y105.903 F9000.000
G1 X81.325 Y106.231 E8.15386 F600.000
G1 X80.934 Y106.647 E8.18199
G1 X80.755 Y106.805 E8.19376
G1 X80.292 Y107.141 E8.22189
G1 X80.087 Y107.263 E8.23365
G1 X79.569 Y107.506 E8.26178
G1 X79.345 Y107.587 E8.27354
G1 X78.791 Y107.729 E8.30168
G1 X78.555 Y107.767 E8.31344
G1 X78.000 Y107.802 E8.34080
G1 X77.445 Y107.767 E8.36816
G1 X76.945 Y107.671 E8.39321
G1 X76.416 Y107.500 E8.42057
G1 X75.913 Y107.263 E8.44793
G1 X75.484 Y106.990 E8.47299
G1 X75.055 Y106.636 E8.50034
G1 X74.675 Y106.231 E8.52771
G1 X74.528 Y106.042 E8.53947
G1 X74.222 Y105.559 E8.56760
G1 X74.113 Y105.346 E8.57936
G1 X73.903 Y104.815 E8.60749
G1 X73.836 Y104.585 E8.61926
G1 X73.732 Y104.039 E8.64661
G1 X73.698 Y103.500 E8.67320
G1 X73.732 Y102.961 E8.69979
G1 X73.836 Y102.415 E8.72715
G1 X73.903 Y102.185 E8.73891
G1 X74.113 Y101.654 E8.76704
G1 X74.222 Y101.441 E8.77880
G1 X74.528 Y100.958 E8.80694
G1 X74.675 Y100.769 E8.81870
G1 X75.055 Y100.364 E8.84606
G1 X75.484 Y100.010 E8.87342
G1 X75.913 Y99.737 E8.89847
G1 X76.416 Y99.500 E8.92583
G1 X76.945 Y99.329 E8.95319
G1 X77.178 Y99.276 E8.96495
G1 X77.741 Y99.205 E8.99288
G1 X78.029 Y99.199 E9.00704
G1 X78.538 Y99.232 E9.03214
G1 X79.085 Y99.336 E9.05957 F600.000
G1 X79.315 Y99.403 E9.07133
G1 X79.846 Y99.613 E9.09946
G1 X80.059 Y99.722 E9.11122
G1 X80.542 Y100.028 E9.13935
G1 X80.731 Y100.175 E9.15112
G1 X81.147 Y100.566 E9.17925
G1 X81.305 Y100.745 E9.19101
G1 X81.641 Y101.208 E9.21914
G1 X81.763 Y101.413 E9.23090
G1 X82.006 Y101.931 E9.25904
G1 X82.087 Y102.155 E9.27080
G1 X82.229 Y102.709 E9.29893
G1 X82.267 Y102.945 E9.31069
G1 X82.302 Y103.500 E9.33805
G1 X82.268 Y104.040 E9.36470
G1 X82.173 Y104.542 E9.38981
G1 X82.096 Y104.819 E9.40396
G1 X81.887 Y105.346 E9.43189
G1 X81.778 Y105.559 E9.44365
G1 X81.592 Y105.852 E9.46072
G1 X81.886 Y106.109 F9000.000
G1 X81.619 Y106.481 E9.48325 F600.000
G1 X81.203 Y106.925 E9.51318
G1 X80.996 Y107.107 E9.52673
G1 X80.504 Y107.464 E9.55665
G1 X80.267 Y107.604 E9.57020
G1 X79.717 Y107.863 E9.60012
G1 X79.458 Y107.956 E9.61368
G1 X78.869 Y108.108 E9.64360
G1 X78.597 Y108.151 E9.65715
G1 X78.000 Y108.188 E9.68660
G1 X77.403 Y108.151 E9.71605
G1 X76.843 Y108.044 E9.74409
G1 X76.274 Y107.859 E9.77353
G1 X75.733 Y107.604 E9.80298
G1 X75.252 Y107.299 E9.83102
G1 X74.791 Y106.918 E9.86046
G1 X74.381 Y106.481 E9.88991
G1 X74.212 Y106.264 E9.90347
G1 X73.887 Y105.750 E9.93339
G1 X73.762 Y105.505 E9.94694
G1 X73.538 Y104.940 E9.97686
G1 X73.461 Y104.675 E9.99041
G1 X73.349 Y104.088 E10.01986
G1 X73.312 Y103.500 E10.04884
G1 X73.349 Y102.912 E10.07781
G1 X73.461 Y102.325 E10.10726
G1 X73.538 Y102.060 E10.12081
G1 X73.762 Y101.495 E10.15073
G1 X73.887 Y101.250 E10.16429
G1 X74.212 Y100.736 E10.19421
G1 X74.381 Y100.519 E10.20776
G1 X74.791 Y100.082 E10.23721
G1 X75.252 Y99.701 E10.26666
G1 X75.733 Y99.396 E10.29469
G1 X76.274 Y99.141 E10.32414
G1 X76.843 Y98.956 E10.35359
G1 X77.112 Y98.896 E10.36714
G1 X77.713 Y98.820 E10.39694
G1 X78.037 Y98.813 E10.41291
G1 X78.587 Y98.849 E10.44003
G1 X79.175 Y98.961 E10.46951 F600.000
G1 X79.440 Y99.038 E10.48306
G1 X80.005 Y99.262 E10.51299
G1 X80.250 Y99.387 E10.52654
G1 X80.764 Y99.712 E10.55646
G1 X80.981 Y99.881 E10.57001
G1 X81.425 Y100.297 E10.59993
G1 X81.607 Y100.504 E10.61349
G1 X81.964 Y100.996 E10.64341
G1 X82.104 Y101.233 E10.65696
G1 X82.363 Y101.783 E10.68688
G1 X82.456 Y102.042 E10.70044
G1 X82.608 Y102.631 E10.73036
G1 X82.651 Y102.903 E10.74391
G1 X82.688 Y103.500 E10.77336
G1 X82.651 Y104.088 E10.80237
G1 X82.549 Y104.630 E10.82949
G1 X82.461 Y104.942 E10.84545
G1 X82.238 Y105.505 E10.87525
G1 X82.113 Y105.750 E10.88880
G1 X81.918 Y106.059 E10.90677
G1 X82.211 Y106.316 F9000.000
G1 X81.912 Y106.732 E10.93198 F600.000
G1 X81.471 Y107.202 E10.96370
G1 X81.238 Y107.408 E10.97904
G1 X80.716 Y107.787 E11.01075
G1 X80.448 Y107.945 E11.02609
G1 X79.865 Y108.220 E11.05780
G1 X79.572 Y108.325 E11.07315
G1 X78.947 Y108.486 E11.10486
G1 X78.640 Y108.534 E11.12020
G1 X78.000 Y108.575 E11.15174
G1 X77.360 Y108.534 E11.18328
G1 X76.741 Y108.416 E11.21429
G1 X76.132 Y108.218 E11.24583
G1 X75.552 Y107.945 E11.27737
G1 X75.020 Y107.608 E11.30839
G1 X74.526 Y107.199 E11.33992
G1 X74.088 Y106.732 E11.37146
G1 X73.896 Y106.486 E11.38680
G1 X73.551 Y105.942 E11.41851
G1 X73.410 Y105.664 E11.43386
G1 X73.172 Y105.065 E11.46557
G1 X73.086 Y104.765 E11.48091
G1 X72.965 Y104.136 E11.51245
G1 X72.925 Y103.500 E11.54381
G1 X72.965 Y102.864 E11.57517
G1 X73.086 Y102.235 E11.60671
G1 X73.172 Y101.935 E11.62205
G1 X73.410 Y101.336 E11.65377
G1 X73.551 Y101.058 E11.66911
G1 X73.896 Y100.514 E11.70082
G1 X74.088 Y100.268 E11.71616
G1 X74.526 Y99.801 E11.74770
G1 X75.020 Y99.392 E11.77924
G1 X75.552 Y99.055 E11.81025
G1 X76.132 Y98.782 E11.84179
G1 X76.741 Y98.584 E11.87333
G1 X77.046 Y98.516 E11.88867
G1 X77.684 Y98.435 E11.92034
G1 X78.045 Y98.427 E11.93812
G1 X78.636 Y98.465 E11.96725
G1 X79.265 Y98.586 E11.99880 F600.000
G1 X79.565 Y98.673 E12.01414
G1 X80.164 Y98.910 E12.04585
G1 X80.442 Y99.051 E12.06119
G1 X80.986 Y99.396 E12.09291
G1 X81.232 Y99.588 E12.10825
G1 X81.702 Y100.029 E12.13996
G1 X81.908 Y100.262 E12.15530
G1 X82.287 Y100.784 E12.18701
G1 X82.445 Y101.052 E12.20236
G1 X82.720 Y101.635 E12.23407
G1 X82.825 Y101.928 E12.24941
G1 X82.986 Y102.553 E12.28112
G1 X83.034 Y102.860 E12.29646
G1 X83.075 Y103.500 E12.32800
G1 X83.035 Y104.136 E12.35938
G1 X82.925 Y104.718 E12.38851
G1 X82.827 Y105.066 E12.40629
G1 X82.590 Y105.664 E12.43795
G1 X82.449 Y105.942 E12.45330
G1 X82.243 Y106.265 E12.47215
G1 X81.813 Y106.284 F9000.000
G1 X81.983 Y103.054 F9000.000
G1 X78.450 Y99.521 E12.72175 F600.000
G1 X79.172 Y99.690 E12.75884
G1 X81.815 Y102.333 E12.94552
G1 X80.824 Y102.449 F9000.000
G1 X82.014 Y103.639 E13.02958 F600.000
G1 X81.972 Y104.151 E13.05524
G1 X80.960 Y103.138 E13.12677
G1 X80.960 Y103.692 E13.15442
G1 X81.879 Y104.611 E13.21936
G1 X81.736 Y105.022 E13.24108
G1 X80.883 Y104.169 E13.30132
G1 X80.746 Y104.585 E13.32320
G1 X81.569 Y105.408 E13.38132
G1 X81.358 Y105.750 E13.40142
G1 X80.560 Y104.952 E13.45779
G1 X80.342 Y105.288 E13.47778
G1 X81.127 Y106.073 E13.53322
G1 X80.850 Y106.349 E13.55277
G1 X80.082 Y105.582 E13.60698
G1 X79.784 Y105.837 E13.62659
G1 X80.573 Y106.626 E13.68235
G1 X80.253 Y106.859 E13.70214
G1 X79.456 Y106.063 E13.75843
G1 X79.089 Y106.249 E13.77899
G1 X79.905 Y107.065 E13.83659
G1 X79.528 Y107.242 E13.85737
G1 X78.668 Y106.381 E13.91818
G1 X78.193 Y106.460 E13.94221
G1 X79.107 Y107.374 E14.00675
G1 X78.655 Y107.476 E14.02987
G1 X77.639 Y106.460 E14.10164
G1 X76.941 Y106.315 E14.13727
G1 X78.140 Y107.514 E14.22195
G1 X77.554 Y107.482 E14.25124
G1 X74.021 Y103.948 E14.50084
G1 X73.986 Y103.360 E14.53026
G1 X75.175 Y104.549 E14.61426
G1 X75.040 Y103.861 E14.64931
G1 X74.028 Y102.849 E14.72080
G1 X74.120 Y102.387 E14.74433
G1 X75.040 Y103.307 E14.80934
G1 X75.119 Y102.832 E14.83337
G1 X74.264 Y101.978 E14.89375
G1 X74.432 Y101.592 E14.91476
G1 X75.251 Y102.411 E14.97260
G1 X75.437 Y102.044 E14.99316
G1 X74.643 Y101.249 E15.04930
G1 X74.874 Y100.927 E15.06910
G1 X75.663 Y101.716 E15.12484
G1 X75.918 Y101.418 E15.14445
G1 X75.151 Y100.651 E15.19862
G1 X75.432 Y100.378 E15.21817
G1 X76.212 Y101.158 E15.27332
G1 X76.548 Y100.940 E15.29330
G1 X75.748 Y100.141 E15.34978
G1 X76.096 Y99.935 E15.36996
G1 X76.916 Y100.755 E15.42791
G1 X77.327 Y100.612 E15.44962
G1 X76.473 Y99.758 E15.50996
G1 X76.890 Y99.622 E15.53190
G1 X77.803 Y100.535 E15.59636
G1 X78.363 Y100.541 E15.62433
G1 X77.352 Y99.531 E15.69570
G1 X77.859 Y99.484 E15.72114
G1 X79.061 Y100.686 E15.80598
G1 X80.391 Y100.356 F9000.000
G1 X81.128 Y101.093 E15.85806 F600.000
G1 E9.85806 F1800.00000
G92 E0
G1 X76.821 Y107.302 F9000.000
G1 E6.00000 F1800.00000
G1 X74.190 Y104.671 E6.18587 F600.000
G1 X74.853 Y105.887 F9000.000
G1 X75.552 Y106.586 E6.23527 F600.000
G1 E0.23527 F1800.00000
G92 E0
G1 X78.506 Y89.153 F9000.000
G1 E6.00000 F1800.00000
G1 X78.000 Y89.201 E6.02502 F600.000
G1 X77.494 Y89.153 E6.05003
G1 X77.006 Y89.011 E6.07505
G1 X76.553 Y88.780 E6.10007
G1 X76.151 Y88.469 E6.12508
G1 X75.815 Y88.087 E6.15010
G1 X75.564 Y87.664 E6.17434
G1 X75.434 Y87.334 E6.19179
G1 X75.346 Y86.990 E6.20924
G1 X75.299 Y86.500 E6.23348
G1 X75.347 Y85.994 E6.25850
G1 X75.489 Y85.506 E6.28351
G1 X75.720 Y85.053 E6.30853
G1 X76.031 Y84.651 E6.33355
G1 X76.413 Y84.315 E6.35856
G1 X76.850 Y84.056 E6.38358
G1 X77.313 Y83.890 E6.40782
G1 X77.661 Y83.823 E6.42523
G1 X78.002 Y83.801 E6.44206 F600.000
G1 X78.504 Y83.847 E6.46686
G1 X78.994 Y83.989 E6.49198
G1 X79.447 Y84.220 E6.51699
G1 X79.849 Y84.531 E6.54201
G1 X80.186 Y84.914 E6.56713
G1 X80.441 Y85.349 E6.59193
G1 X80.566 Y85.667 E6.60875
G1 X80.654 Y86.010 E6.62616
G1 X80.701 Y86.502 E6.65051
G1 X80.651 Y87.004 E6.67531
G1 X80.566 Y87.335 E6.69213
G1 X80.436 Y87.663 E6.70954
G1 X80.185 Y88.087 E6.73378
G1 X79.849 Y88.469 E6.75880
G1 X79.447 Y88.780 E6.78382
G1 X78.994 Y89.011 E6.80883
G1 X78.564 Y89.136 E6.83090
G1 X78.433 Y88.772 F9000.000
G1 X78.000 Y88.813 E6.85233 F600.000
G1 X77.567 Y88.772 E6.87375
G1 X77.148 Y88.651 E6.89518
G1 X76.760 Y88.453 E6.91661
G1 X76.416 Y88.186 E6.93804
G1 X76.129 Y87.860 E6.95947
G1 X75.912 Y87.493 E6.98042
G1 X75.801 Y87.214 E6.99518
G1 X75.727 Y86.924 E7.00995
G1 X75.687 Y86.500 E7.03090
G1 X75.728 Y86.067 E7.05233
G1 X75.849 Y85.648 E7.07376
