; generated by Slic3r 1.2.9 on 2019-12-16 at 12:10:12

; external perimeters extrusion width = 0.40mm
; perimeters extrusion width = 0.62mm
; infill extrusion width = 0.33mm
; solid infill extrusion width = 0.62mm
; top infill extrusion width = 0.20mm
; support material extrusion width = 0.40mm

M106 S256; Turn on fan to 100% power
M104 S140; turn on extruder temperature at S value
M140 S60; turn on bed temperature at S value
G28; home all axes
M84; disable motors
G1 Z15 F15000; have Z move to 20mm at 15000 mm/min
M190 S55; turn on bed temperature at S value and wait
M140 S55; turn on bed temperature at S value (printing temperature)
M109 S200; turn on extruder temperature at S value and wait (printing temperature)
M104 S200; turn on extruder temperature at S value
G1 Z0 F12000; move Z back to home
G21 ; set units to millimeters
G90 ; use absolute coordinates
M82 ; use absolute distances for extrusion
G92 E0
M106 S255
;Layer change
G1 E-6.00000 F1800.00000
G92 E0
G1 Z0.300 F9000.000
G1 X49.917 Y13.256 F9000.000
G1 E6.00000 F1800.00000
G1 X50.033 Y12.900 E6.01842 F600.000
G1 X50.213 Y12.465 E6.04159
G1 X50.383 Y12.132 E6.06001
G1 X50.629 Y11.730 E6.08318
G1 X50.849 Y11.427 E6.10160
G1 X51.155 Y11.069 E6.12478
G1 X51.419 Y10.805 E6.14319
G1 X51.777 Y10.499 E6.16636
G1 X52.080 Y10.279 E6.18478
G1 X52.482 Y10.033 E6.20796
G1 X52.815 Y9.863 E6.22638
G1 X53.250 Y9.683 E6.24955
G1 X53.606 Y9.567 E6.26797
G1 X54.064 Y9.457 E6.29114
G1 X54.434 Y9.399 E6.30956
G1 X54.903 Y9.362 E6.33273
G1 X140.977 Y9.362 E10.56888
G1 X141.446 Y9.399 E10.59205 F600.000
G1 X141.816 Y9.457 E10.61047
G1 X142.274 Y9.567 E10.63364
G1 X142.646 Y9.690 E10.65294
G1 X143.065 Y9.863 E10.67524
G1 X143.398 Y10.033 E10.69364
G1 X143.800 Y10.279 E10.71683
G1 X144.103 Y10.499 E10.73526
G1 X144.461 Y10.805 E10.75843
G1 X144.725 Y11.069 E10.77683
G1 X145.031 Y11.427 E10.80002
G1 X145.251 Y11.730 E10.81845
G1 X145.497 Y12.132 E10.84161
G1 X145.667 Y12.465 E10.86002
G1 X145.847 Y12.900 E10.88318
G1 X145.963 Y13.256 E10.90161
G1 X146.073 Y13.714 E10.92479
G1 X146.131 Y14.084 E10.94322
G1 X146.176 Y14.740 E10.97559
G1 X146.176 Y60.440 E13.22472
G1 X146.131 Y61.096 E13.25709
G1 X146.073 Y61.466 E13.27553
G1 X145.963 Y61.924 E13.29870
G1 X145.847 Y62.280 E13.31713
G1 X145.667 Y62.715 E13.34032
G1 X145.497 Y63.048 E13.35870
G1 X145.251 Y63.450 E13.38188
G1 X145.031 Y63.753 E13.40033
G1 X144.725 Y64.111 E13.42349
G1 X144.461 Y64.375 E13.44187
G1 X144.103 Y64.681 E13.46504
G1 X143.800 Y64.901 E13.48350
G1 X143.398 Y65.147 E13.50667
G1 X143.065 Y65.317 E13.52506
G1 X142.630 Y65.497 E13.54823
G1 X142.274 Y65.613 E13.56667
G1 X141.816 Y65.723 E13.58984
G1 X141.446 Y65.781 E13.60827
G1 X140.977 Y65.818 E13.63144
G1 X55.090 Y65.826 E17.85837
G1 X54.434 Y65.781 E17.89075
G1 X54.064 Y65.723 E17.90918
G1 X53.606 Y65.613 E17.93235
G1 X53.250 Y65.497 E17.95077
G1 X52.815 Y65.317 E17.97395
G1 X52.482 Y65.147 E17.99234
G1 X52.080 Y64.901 E18.01551
G1 X51.777 Y64.681 E18.03397
G1 X51.419 Y64.375 E18.05714
G1 X51.155 Y64.111 E18.07554
G1 X50.849 Y63.753 E18.09870
G1 X50.629 Y63.450 E18.11714
G1 X50.383 Y63.048 E18.14031
G1 X50.213 Y62.715 E18.15873
G1 X50.033 Y62.280 E18.18189
G1 X49.917 Y61.924 E18.20032
G1 X49.807 Y61.466 E18.22349
G1 X49.749 Y61.096 E18.24191
G1 X49.712 Y60.627 E18.26508
G1 X49.704 Y14.740 E20.52342
G1 X49.749 Y14.084 E20.55580
G1 X49.807 Y13.714 E20.57423
G1 X49.903 Y13.314 E20.59445
G1 E14.59445 F1800.00000
G92 E0
G1 X56.567 Y59.367 F9000.000
G1 E6.00000 F1800.00000
G1 X56.717 Y59.611 E6.01410 F600.000
G1 X56.826 Y59.876 E6.02820
G1 X56.893 Y60.154 E6.04230
G1 X56.916 Y60.440 E6.05640
G1 X56.893 Y60.726 E6.07050
G1 X56.826 Y61.004 E6.08460
G1 X56.717 Y61.269 E6.09870
G1 X56.567 Y61.513 E6.11280
G1 X56.381 Y61.731 E6.12690
G1 X56.163 Y61.917 E6.14100
G1 X55.919 Y62.067 E6.15509
G1 X55.654 Y62.176 E6.16919
G1 X55.376 Y62.243 E6.18329
G1 X55.090 Y62.266 E6.19739
G1 X54.804 Y62.243 E6.21149
G1 X54.526 Y62.176 E6.22559
G1 X54.261 Y62.067 E6.23969
G1 X54.017 Y61.917 E6.25379
G1 X53.799 Y61.731 E6.26789
G1 X53.613 Y61.513 E6.28202
G1 X53.459 Y61.260 E6.29658
G1 X53.354 Y61.004 E6.31018
G1 X53.287 Y60.726 E6.32428
G1 X53.264 Y60.439 E6.33841
G1 X53.289 Y60.145 E6.35297
G1 X53.354 Y59.876 E6.36657
G1 X53.463 Y59.611 E6.38067
G1 X53.613 Y59.367 E6.39478
G1 X53.799 Y59.149 E6.40888
G1 X54.017 Y58.963 E6.42297
G1 X54.261 Y58.813 E6.43707
G1 X54.526 Y58.704 E6.45117
G1 X54.804 Y58.637 E6.46527
G1 X55.080 Y58.615 E6.47888 F600.000
G1 X55.375 Y58.637 E6.49343
G1 X55.654 Y58.704 E6.50756
G1 X55.919 Y58.813 E6.52166
G1 X56.163 Y58.963 E6.53576
G1 X56.352 Y59.115 E6.54769
G1 X56.528 Y59.321 E6.56104
G1 X56.853 Y59.344 F9000.000
G1 X65.923 Y54.107 F9000.000
G1 X65.923 Y40.573 E7.22716 F600.000
G1 X129.457 Y40.573 E10.35404
G1 X129.457 Y54.107 E11.02016
G1 X65.983 Y54.107 E14.14409
G1 X66.308 Y53.722 F9000.000
G1 X66.308 Y40.958 E14.77225 F600.000
G1 X129.072 Y40.958 E17.86117
G1 X129.072 Y53.722 E18.48934
G1 X66.368 Y53.722 E21.57531
G1 X66.694 Y53.336 F9000.000
G1 X66.694 Y41.344 E22.16552 F600.000
G1 X128.686 Y41.344 E25.21648
G1 X128.686 Y53.336 E25.80669
G1 X66.754 Y53.336 E28.85471
G1 X67.079 Y52.951 F9000.000
G1 X67.079 Y41.729 E29.40696 F600.000
G1 X128.301 Y41.729 E32.41997
G1 X128.301 Y52.951 E32.97222
G1 X67.139 Y52.951 E35.98228
G1 X67.465 Y52.565 F9000.000
G1 X67.465 Y42.115 E36.49657 F600.000
G1 X127.915 Y42.115 E39.47162
G1 X127.915 Y52.565 E39.98592
G1 X67.525 Y52.565 E42.95802
G1 X67.065 Y52.565 F9000.000
G1 E36.95802 F1800.00000
G92 E0
G1 X77.207 Y31.857 F9000.000
G1 E6.00000 F1800.00000
G1 X73.514 Y31.857 E6.18179 F600.000
G1 X73.027 Y32.427 E6.21866
G1 X72.422 Y32.944 E6.25784
G1 X71.743 Y33.360 E6.29701
G1 X71.008 Y33.665 E6.33619
G1 X70.233 Y33.851 E6.37537
G1 X69.440 Y33.913 E6.41455
G1 X68.646 Y33.851 E6.45372
G1 X67.872 Y33.665 E6.49291
G1 X67.137 Y33.360 E6.53208
G1 X66.458 Y32.944 E6.57125
G1 X65.853 Y32.427 E6.61043
G1 X65.336 Y31.822 E6.64962
G1 X64.920 Y31.143 E6.68879
G1 X64.615 Y30.408 E6.72796
G1 X64.430 Y29.633 E6.76715
G1 X64.367 Y28.840 E6.80632
G1 X64.430 Y28.046 E6.84549
G1 X64.615 Y27.272 E6.88467
G1 X64.920 Y26.537 E6.92385
G1 X65.336 Y25.858 E6.96302
G1 X65.853 Y25.253 E7.00220
G1 X66.458 Y24.736 E7.04139
G1 X67.137 Y24.320 E7.08056
G1 X67.872 Y24.015 E7.11973
G1 X68.646 Y23.830 E7.15892
G1 X69.416 Y23.769 E7.19689
G1 X70.229 Y23.828 E7.23700
G1 X71.008 Y24.015 E7.27644
G1 X71.743 Y24.320 E7.31561
G1 X72.422 Y24.736 E7.35478
G1 X73.027 Y25.253 E7.39396
G1 X73.514 Y25.823 E7.43083
G1 X77.207 Y25.823 E7.61262
G1 X77.207 Y31.797 E7.90668
G1 X76.822 Y31.472 F9000.000
G1 X73.306 Y31.472 E8.07970 F600.000
G1 X73.231 Y31.594 E8.08677
G1 X72.754 Y32.154 E8.12297
G1 X72.194 Y32.631 E8.15916
G1 X71.567 Y33.015 E8.19535
G1 X70.888 Y33.297 E8.23153
G1 X70.173 Y33.468 E8.26773
G1 X69.440 Y33.526 E8.30392
G1 X68.707 Y33.468 E8.34010
G1 X67.992 Y33.297 E8.37630
G1 X67.313 Y33.015 E8.41249
G1 X66.686 Y32.631 E8.44867
G1 X66.126 Y32.154 E8.48487
G1 X65.649 Y31.594 E8.52106
G1 X65.265 Y30.967 E8.55724
G1 X64.983 Y30.288 E8.59343
G1 X64.812 Y29.573 E8.62963
G1 X64.754 Y28.840 E8.66582
G1 X64.812 Y28.107 E8.70200
G1 X64.983 Y27.392 E8.73820
G1 X65.265 Y26.713 E8.77439
G1 X65.649 Y26.086 E8.81057
G1 X66.126 Y25.526 E8.84677
G1 X66.686 Y25.049 E8.88296
G1 X67.313 Y24.665 E8.91914
G1 X67.992 Y24.383 E8.95533
G1 X68.707 Y24.212 E8.99153
G1 X69.417 Y24.156 E9.02657
G1 X70.169 Y24.211 E9.06370
G1 X70.888 Y24.383 E9.10009
G1 X71.567 Y24.665 E9.13627
G1 X72.194 Y25.049 E9.17246
G1 X72.754 Y25.526 E9.20865
G1 X73.231 Y26.086 E9.24485
G1 X73.306 Y26.208 E9.25192
G1 X76.822 Y26.208 E9.42494
G1 X76.822 Y31.412 E9.68104
G1 X76.436 Y31.086 F9000.000
G1 X73.090 Y31.086 E9.84571 F600.000
G1 X72.918 Y31.367 E9.86191
G1 X72.480 Y31.880 E9.89512
G1 X71.967 Y32.318 E9.92833
G1 X71.392 Y32.671 E9.96152
G1 X70.769 Y32.929 E9.99473
G1 X70.112 Y33.086 E10.02793
G1 X69.440 Y33.139 E10.06113
G1 X68.767 Y33.086 E10.09433
G1 X68.111 Y32.929 E10.12754
G1 X67.488 Y32.671 E10.16074
G1 X66.913 Y32.318 E10.19394
G1 X66.400 Y31.880 E10.22715
G1 X65.962 Y31.367 E10.26035
G1 X65.609 Y30.792 E10.29355
G1 X65.351 Y30.169 E10.32675
G1 X65.194 Y29.512 E10.35996
G1 X65.141 Y28.840 E10.39316
G1 X65.194 Y28.167 E10.42636
G1 X65.351 Y27.511 E10.45957
G1 X65.609 Y26.888 E10.49277
G1 X65.962 Y26.313 E10.52597
G1 X66.400 Y25.800 E10.55917
G1 X66.913 Y25.362 E10.59238
G1 X67.488 Y25.009 E10.62558
G1 X68.111 Y24.751 E10.65878
G1 X68.767 Y24.594 E10.69199
G1 X69.418 Y24.542 E10.72409
G1 X70.110 Y24.593 E10.75824
G1 X70.769 Y24.751 E10.79158
G1 X71.392 Y25.009 E10.82479
G1 X71.967 Y25.362 E10.85798
G1 X72.480 Y25.800 E10.89119
G1 X72.918 Y26.313 E10.92440
G1 X73.090 Y26.594 E10.94060
G1 X76.436 Y26.594 E11.10527
G1 X76.436 Y31.026 E11.32342
G1 X73.161 Y30.049 F9000.000
G1 X72.926 Y30.616 E11.35363 F600.000
G1 X72.605 Y31.140 E11.38384
G1 X72.207 Y31.607 E11.41406
G1 X71.740 Y32.005 E11.44428
G1 X71.216 Y32.326 E11.47449
G1 X70.649 Y32.561 E11.50470
G1 X70.052 Y32.704 E11.53492
G1 X69.440 Y32.753 E11.56514
G1 X68.828 Y32.704 E11.59535
G1 X68.231 Y32.561 E11.62557
G1 X67.664 Y32.326 E11.65578
G1 X67.140 Y32.005 E11.68600
G1 X66.673 Y31.607 E11.71621
G1 X66.275 Y31.140 E11.74643
G1 X65.954 Y30.616 E11.77664
G1 X65.719 Y30.049 E11.80686
G1 X65.576 Y29.452 E11.83708
G1 X65.527 Y28.840 E11.86729
G1 X65.576 Y28.228 E11.89750
G1 X65.719 Y27.631 E11.92772
G1 X65.954 Y27.064 E11.95794
G1 X66.275 Y26.540 E11.98815
G1 X66.673 Y26.073 E12.01837
G1 X67.140 Y25.675 E12.04859
G1 X67.664 Y25.354 E12.07880
G1 X68.231 Y25.119 E12.10901
G1 X68.828 Y24.976 E12.13923
G1 X69.419 Y24.929 E12.16840 F600.000
G1 X70.050 Y24.975 E12.19956
G1 X70.649 Y25.119 E12.22987
G1 X71.216 Y25.354 E12.26008
G1 X71.740 Y25.675 E12.29029
G1 X72.207 Y26.073 E12.32051
G1 X72.605 Y26.540 E12.35073
G1 X72.926 Y27.064 E12.38094
G1 X73.161 Y27.631 E12.41115
G1 X73.304 Y28.228 E12.44138
G1 X73.353 Y28.840 E12.47159
G1 X73.304 Y29.452 E12.50180
G1 X73.175 Y29.991 E12.52907
G1 X72.793 Y29.930 F9000.000
G1 X72.581 Y30.441 E12.55630 F600.000
G1 X72.292 Y30.912 E12.58352
G1 X71.933 Y31.333 E12.61075
G1 X71.512 Y31.692 E12.63798
G1 X71.041 Y31.981 E12.66521
G1 X70.530 Y32.193 E12.69243
G1 X69.992 Y32.322 E12.71967
G1 X69.440 Y32.366 E12.74689
G1 X68.888 Y32.322 E12.77412
G1 X68.350 Y32.193 E12.80135
G1 X67.839 Y31.981 E12.82858
G1 X67.368 Y31.692 E12.85580
G1 X66.947 Y31.333 E12.88303
G1 X66.588 Y30.912 E12.91026
G1 X66.299 Y30.441 E12.93749
G1 X66.087 Y29.930 E12.96472
G1 X65.958 Y29.391 E12.99195
G1 X65.914 Y28.840 E13.01918
G1 X65.958 Y28.288 E13.04640
G1 X66.087 Y27.750 E13.07363
G1 X66.299 Y27.239 E13.10086
G1 X66.588 Y26.768 E13.12809
G1 X66.947 Y26.347 E13.15532
G1 X67.368 Y25.988 E13.18255
G1 X67.839 Y25.699 E13.20977
G1 X68.350 Y25.487 E13.23700
G1 X68.888 Y25.358 E13.26423
G1 X69.420 Y25.316 E13.29047 F600.000
G1 X69.991 Y25.358 E13.31864
G1 X70.530 Y25.487 E13.34590
G1 X71.041 Y25.699 E13.37313
G1 X71.512 Y25.988 E13.40036
G1 X71.933 Y26.347 E13.42759
G1 X72.292 Y26.768 E13.45482
G1 X72.581 Y27.239 E13.48204
G1 X72.793 Y27.750 E13.50927
G1 X72.922 Y28.288 E13.53650
G1 X72.966 Y28.840 E13.56373
G1 X72.922 Y29.391 E13.59095
G1 X72.807 Y29.871 E13.61523
G1 X73.053 Y30.234 F9000.000
G1 X73.629 Y30.701 F9000.000
G1 X73.629 Y26.979 E13.79837 F600.000
G1 X76.051 Y26.979 E13.91754
G1 X76.051 Y30.701 E14.10068
G1 X73.689 Y30.701 E14.21688
G1 X74.015 Y30.315 F9000.000
G1 X74.015 Y27.365 E14.36207 F600.000
G1 X75.665 Y27.365 E14.44327
G1 X75.665 Y30.315 E14.58846
G1 X74.075 Y30.315 E14.66671
G1 X73.615 Y30.315 F9000.000
G1 E8.66671 F1800.00000
G92 E0
G1 X95.207 Y31.857 F9000.000
G1 E6.00000 F1800.00000
G1 X91.514 Y31.857 E6.18179 F600.000
G1 X91.027 Y32.427 E6.21866
G1 X90.422 Y32.944 E6.25784
G1 X89.743 Y33.360 E6.29701
G1 X89.008 Y33.665 E6.33619
G1 X88.233 Y33.851 E6.37537
G1 X87.440 Y33.913 E6.41455
G1 X86.646 Y33.851 E6.45372
G1 X85.872 Y33.665 E6.49291
G1 X85.137 Y33.360 E6.53208
G1 X84.458 Y32.944 E6.57125
G1 X83.849 Y32.424 E6.61068
G1 X83.323 Y31.801 E6.65081
G1 X82.920 Y31.143 E6.68878
G1 X82.615 Y30.408 E6.72795
G1 X82.429 Y29.633 E6.76713
G1 X82.367 Y28.840 E6.80631
G1 X82.429 Y28.046 E6.84548
G1 X82.615 Y27.272 E6.88467
G1 X82.920 Y26.537 E6.92384
G1 X83.336 Y25.858 E6.96301
G1 X83.853 Y25.253 E7.00219
G1 X84.458 Y24.736 E7.04138
G1 X85.137 Y24.320 E7.08055
G1 X85.872 Y24.015 E7.11972
G1 X86.646 Y23.830 E7.15891
G1 X87.416 Y23.769 E7.19688
G1 X88.229 Y23.828 E7.23699
G1 X89.008 Y24.015 E7.27642
G1 X89.743 Y24.320 E7.31560
G1 X90.422 Y24.736 E7.35477
G1 X91.027 Y25.253 E7.39395
G1 X91.514 Y25.823 E7.43082
G1 X95.207 Y25.823 E7.61261
G1 X95.207 Y31.797 E7.90667
G1 X94.822 Y31.472 F9000.000
G1 X91.306 Y31.472 E8.07969 F600.000
G1 X91.231 Y31.594 E8.08676
G1 X90.754 Y32.154 E8.12296
G1 X90.194 Y32.631 E8.15915
G1 X89.567 Y33.015 E8.19533
G1 X88.888 Y33.297 E8.23152
G1 X88.173 Y33.468 E8.26772
G1 X87.440 Y33.526 E8.30391
G1 X86.707 Y33.468 E8.34009
G1 X85.992 Y33.297 E8.37629
G1 X85.313 Y33.015 E8.41248
G1 X84.686 Y32.631 E8.44866
G1 X84.123 Y32.151 E8.48505
G1 X83.637 Y31.574 E8.52219
G1 X83.265 Y30.967 E8.55722
G1 X82.983 Y30.288 E8.59341
G1 X82.812 Y29.573 E8.62961
G1 X82.754 Y28.840 E8.66579
G1 X82.812 Y28.107 E8.70198
G1 X82.983 Y27.392 E8.73818
G1 X83.265 Y26.713 E8.77436
G1 X83.649 Y26.086 E8.81055
G1 X84.126 Y25.526 E8.84674
G1 X84.686 Y25.049 E8.88294
G1 X85.313 Y24.665 E8.91912
G1 X85.992 Y24.383 E8.95531
G1 X86.707 Y24.212 E8.99151
G1 X87.417 Y24.156 E9.02654
G1 X88.169 Y24.211 E9.06368
G1 X88.888 Y24.383 E9.10006
G1 X89.567 Y24.665 E9.13625
G1 X90.194 Y25.049 E9.17244
G1 X90.754 Y25.526 E9.20863
G1 X91.231 Y26.086 E9.24483
G1 X91.306 Y26.208 E9.25190
G1 X94.822 Y26.208 E9.42492
G1 X94.822 Y31.412 E9.68102
G1 X94.436 Y31.086 F9000.000
G1 X91.090 Y31.086 E9.84569 F600.000
G1 X90.918 Y31.367 E9.86189
G1 X90.480 Y31.880 E9.89510
G1 X89.967 Y32.318 E9.92831
G1 X89.392 Y32.671 E9.96150
G1 X88.769 Y32.929 E9.99470
G1 X88.112 Y33.086 E10.02791
G1 X87.440 Y33.139 E10.06111
G1 X86.767 Y33.086 E10.09431
G1 X86.111 Y32.929 E10.12752
G1 X85.488 Y32.671 E10.16072
G1 X84.913 Y32.318 E10.19392
G1 X84.398 Y31.878 E10.22727
G1 X83.950 Y31.348 E10.26142
G1 X83.609 Y30.792 E10.29352
G1 X83.351 Y30.169 E10.32672
G1 X83.194 Y29.512 E10.35993
G1 X83.141 Y28.840 E10.39313
G1 X83.194 Y28.167 E10.42633
G1 X83.351 Y27.511 E10.45954
G1 X83.609 Y26.888 E10.49274
G1 X83.962 Y26.313 E10.52594
G1 X84.400 Y25.800 E10.55914
G1 X84.913 Y25.362 E10.59235
G1 X85.488 Y25.009 E10.62555
G1 X86.111 Y24.751 E10.65875
G1 X86.767 Y24.594 E10.69196
G1 X87.418 Y24.542 E10.72406
G1 X88.110 Y24.593 E10.75821
G1 X88.769 Y24.751 E10.79155
G1 X89.392 Y25.009 E10.82475
G1 X89.967 Y25.362 E10.85795
G1 X90.480 Y25.800 E10.89116
G1 X90.918 Y26.313 E10.92437
G1 X91.090 Y26.594 E10.94057
G1 X94.436 Y26.594 E11.10524
G1 X94.436 Y31.026 E11.32338
G1 X91.161 Y30.049 F9000.000
G1 X90.926 Y30.616 E11.35360 F600.000
G1 X90.605 Y31.140 E11.38381
G1 X90.207 Y31.607 E11.41403
G1 X89.740 Y32.005 E11.44425
G1 X89.216 Y32.326 E11.47446
G1 X88.649 Y32.561 E11.50467
G1 X88.052 Y32.704 E11.53489
G1 X87.440 Y32.753 E11.56511
G1 X86.828 Y32.704 E11.59532
G1 X86.231 Y32.561 E11.62554
G1 X85.664 Y32.326 E11.65575
G1 X85.140 Y32.005 E11.68596
G1 X84.672 Y31.605 E11.71627
G1 X84.264 Y31.122 E11.74743
G1 X83.954 Y30.616 E11.77660
G1 X83.719 Y30.049 E11.80682
G1 X83.576 Y29.452 E11.83704
G1 X83.527 Y28.840 E11.86725
G1 X83.576 Y28.228 E11.89746
G1 X83.719 Y27.631 E11.92768
G1 X83.954 Y27.064 E11.95790
G1 X84.275 Y26.540 E11.98811
G1 X84.673 Y26.073 E12.01833
G1 X85.140 Y25.675 E12.04855
G1 X85.664 Y25.354 E12.07876
G1 X86.231 Y25.119 E12.10897
G1 X86.828 Y24.976 E12.13919
G1 X87.419 Y24.929 E12.16836 F600.000
G1 X88.050 Y24.975 E12.19952
G1 X88.649 Y25.119 E12.22983
G1 X89.216 Y25.354 E12.26004
G1 X89.740 Y25.675 E12.29025
G1 X90.207 Y26.073 E12.32047
G1 X90.605 Y26.540 E12.35069
G1 X90.926 Y27.064 E12.38090
G1 X91.161 Y27.631 E12.41111
G1 X91.304 Y28.228 E12.44133
G1 X91.352 Y28.840 E12.47155
G1 X91.304 Y29.452 E12.50176
G1 X91.175 Y29.991 E12.52903
G1 X90.793 Y29.930 F9000.000
