; generated by Slic3r 1.2.9 on 2019-12-16 at 11:55:05

; external perimeters extrusion width = 0.40mm
; perimeters extrusion width = 0.62mm
; infill extrusion width = 0.33mm
; solid infill extrusion width = 0.62mm
; top infill extrusion width = 0.20mm
; support material extrusion width = 0.40mm

M106 S256; Turn on fan to 100% power
M104 S140; turn on extruder temperature at S value
M140 S60; turn on bed temperature at S value
G28; home all axes
M84; disable motors
G1 Z15 F15000; have Z move to 20mm at 15000 mm/min
M190 S55; turn on bed temperature at S value and wait
M140 S55; turn on bed temperature at S value (printing temperature)
M109 S200; turn on extruder temperature at S value and wait (printing temperature)
M104 S200; turn on extruder temperature at S value
G1 Z0 F12000; move Z back to home
G21 ; set units to millimeters
G90 ; use absolute coordinates
M82 ; use absolute distances for extrusion
G92 E0
M106 S255
;Layer change
G1 E-6.00000 F1800.00000
G92 E0
G1 Z0.300 F9000.000
G1 X71.974 Y20.370 F9000.000
G1 E6.00000 F1800.00000
G1 X72.366 Y19.060 E6.06727 F600.000
G1 X73.412 Y18.181 E6.13455
G1 X74.360 Y17.984 E6.18218
G1 X144.360 Y17.984 E9.62723
G1 X145.670 Y18.376 E9.69451
G1 X146.549 Y19.422 E9.76178 F600.000
G1 X146.746 Y20.370 E9.80941
G1 X146.746 Y40.370 E10.79372
G1 X146.354 Y41.680 E10.86099
G1 X145.308 Y42.559 E10.92826
G1 X144.360 Y42.756 E10.97590
G1 X74.360 Y42.756 E14.42095
G1 X73.050 Y42.364 E14.48822
G1 X72.171 Y41.318 E14.55550
G1 X71.974 Y40.370 E14.60313
G1 X71.974 Y20.430 E15.58448
G1 E9.58448 F1800.00000
G92 E0
G1 X138.027 Y35.287 F9000.000
G1 E6.00000 F1800.00000
G1 X132.693 Y35.287 E6.26256 F600.000
G1 X132.693 Y25.853 E6.72690
G1 X138.027 Y25.853 E6.98946
G1 X138.027 Y35.227 E7.45085
G1 X137.642 Y34.902 F9000.000
G1 X133.078 Y34.902 E7.67545 F600.000
G1 X133.078 Y26.238 E8.10184
G1 X137.642 Y26.238 E8.32644
G1 X137.642 Y34.842 E8.74988
G1 X137.256 Y34.516 F9000.000
G1 X133.464 Y34.516 E8.93652 F600.000
G1 X133.464 Y31.024 E9.10840
G1 X137.256 Y31.024 E9.29505
G1 X137.256 Y34.456 E9.46398
G1 X136.871 Y34.131 F9000.000
G1 X133.849 Y34.131 E9.61267 F600.000
G1 X133.849 Y31.409 E9.74660
G1 X136.871 Y31.409 E9.89529
G1 X136.871 Y34.071 E10.02626
G1 X136.485 Y33.745 F9000.000
G1 X134.235 Y33.745 E10.13700 F600.000
G1 X134.235 Y31.795 E10.23297
G1 X136.485 Y31.795 E10.34370
G1 X136.485 Y33.685 E10.43672
G1 X136.485 Y34.145 F9000.000
G1 X137.256 Y30.116 F9000.000
G1 X133.464 Y30.116 E10.62336 F600.000
G1 X133.464 Y26.624 E10.79525
G1 X137.256 Y26.624 E10.98189
G1 X137.256 Y30.056 E11.15082
G1 X136.871 Y29.731 F9000.000
G1 X133.849 Y29.731 E11.29951 F600.000
G1 X133.849 Y27.009 E11.43344
G1 X136.871 Y27.009 E11.58213
G1 X136.871 Y29.671 E11.71310
G1 X136.485 Y29.345 F9000.000
G1 X134.235 Y29.345 E11.82384 F600.000
G1 X134.235 Y27.395 E11.91981
G1 X136.485 Y27.395 E12.03054
G1 X136.485 Y29.285 E12.12356
G1 X136.485 Y29.745 F9000.000
G1 E6.12356 F1800.00000
G92 E0
G1 X131.027 Y25.853 F9000.000
G1 E6.00000 F1800.00000
G1 X131.027 Y35.287 E6.46434 F600.000
G1 X125.693 Y35.287 E6.72690
G1 X125.693 Y25.853 E7.19124
G1 X130.967 Y25.853 E7.45085
G1 X130.642 Y26.238 F9000.000
G1 X130.642 Y34.902 E7.87724 F600.000
G1 X126.078 Y34.902 E8.10184
G1 X126.078 Y26.238 E8.52823
G1 X130.582 Y26.238 E8.74988
G1 X130.256 Y31.024 F9000.000
G1 X130.256 Y34.516 E8.92176 F600.000
G1 X126.464 Y34.516 E9.10841
G1 X126.464 Y31.024 E9.28029
G1 X130.196 Y31.024 E9.46398
G1 X129.871 Y31.409 F9000.000
G1 X129.871 Y34.131 E9.59791 F600.000
G1 X126.849 Y34.131 E9.74660
G1 X126.849 Y31.409 E9.88052
G1 X129.811 Y31.409 E10.02626
G1 X129.485 Y31.795 F9000.000
G1 X129.485 Y33.745 E10.12223 F600.000
G1 X127.235 Y33.745 E10.23296
G1 X127.235 Y31.795 E10.32893
G1 X129.425 Y31.795 E10.43671
G1 X129.885 Y31.795 F9000.000
G1 X130.256 Y30.116 F9000.000
G1 X126.464 Y30.116 E10.62336 F600.000
G1 X126.464 Y26.624 E10.79524
G1 X130.256 Y26.624 E10.98189
G1 X130.256 Y30.056 E11.15082
G1 X129.871 Y29.731 F9000.000
G1 X126.849 Y29.731 E11.29951 F600.000
G1 X126.849 Y27.009 E11.43344
G1 X129.871 Y27.009 E11.58213
G1 X129.871 Y29.671 E11.71310
G1 X129.485 Y29.345 F9000.000
G1 X127.235 Y29.345 E11.82383 F600.000
G1 X127.235 Y27.395 E11.91980
G1 X129.485 Y27.395 E12.03054
G1 X129.485 Y29.285 E12.12355
G1 X129.485 Y29.745 F9000.000
G1 E6.12355 F1800.00000
G92 E0
G1 X122.027 Y25.853 F9000.000
G1 E6.00000 F1800.00000
G1 X122.027 Y35.287 E6.46434 F600.000
G1 X116.693 Y35.287 E6.72690
G1 X116.693 Y25.853 E7.19124
G1 X121.967 Y25.853 E7.45085
G1 X121.642 Y26.238 F9000.000
G1 X121.642 Y34.902 E7.87724 F600.000
G1 X117.078 Y34.902 E8.10184
G1 X117.078 Y26.238 E8.52822
G1 X121.582 Y26.238 E8.74987
G1 X121.256 Y31.024 F9000.000
G1 X121.256 Y34.516 E8.92176 F600.000
G1 X117.464 Y34.516 E9.10840
G1 X117.464 Y31.024 E9.28029
G1 X121.196 Y31.024 E9.46398
G1 X120.871 Y31.409 F9000.000
G1 X120.871 Y34.131 E9.59791 F600.000
G1 X117.849 Y34.131 E9.74660
G1 X117.849 Y31.409 E9.88052
G1 X120.811 Y31.409 E10.02626
G1 X120.485 Y31.795 F9000.000
G1 X120.485 Y33.745 E10.12223 F600.000
G1 X118.235 Y33.745 E10.23296
G1 X118.235 Y31.795 E10.32893
G1 X120.425 Y31.795 E10.43671
G1 X120.885 Y31.795 F9000.000
G1 X121.256 Y30.116 F9000.000
G1 X117.464 Y30.116 E10.62336 F600.000
G1 X117.464 Y26.624 E10.79524
G1 X121.256 Y26.624 E10.98189
G1 X121.256 Y30.056 E11.15082
G1 X120.871 Y29.731 F9000.000
G1 X117.849 Y29.731 E11.29951 F600.000
G1 X117.849 Y27.009 E11.43343
G1 X120.871 Y27.009 E11.58212
G1 X120.871 Y29.671 E11.71310
G1 X120.485 Y29.345 F9000.000
G1 X118.235 Y29.345 E11.82383 F600.000
G1 X118.235 Y27.395 E11.91980
G1 X120.485 Y27.395 E12.03053
G1 X120.485 Y29.285 E12.12355
G1 X120.485 Y29.745 F9000.000
G1 E6.12355 F1800.00000
G92 E0
G1 X115.027 Y25.853 F9000.000
G1 E6.00000 F1800.00000
G1 X115.027 Y35.287 E6.46434 F600.000
G1 X109.693 Y35.287 E6.72690
G1 X109.693 Y25.853 E7.19124
G1 X114.967 Y25.853 E7.45085
G1 X114.642 Y26.238 F9000.000
G1 X114.642 Y34.902 E7.87724 F600.000
G1 X110.078 Y34.902 E8.10184
G1 X110.078 Y26.238 E8.52822
G1 X114.582 Y26.238 E8.74987
G1 X114.256 Y31.024 F9000.000
G1 X114.256 Y34.516 E8.92176 F600.000
G1 X110.464 Y34.516 E9.10840
G1 X110.464 Y31.024 E9.28029
G1 X114.196 Y31.024 E9.46398
G1 X113.871 Y31.409 F9000.000
G1 X113.871 Y34.131 E9.59791 F600.000
G1 X110.849 Y34.131 E9.74660
G1 X110.849 Y31.409 E9.88052
G1 X113.811 Y31.409 E10.02626
G1 X113.485 Y31.795 F9000.000
G1 X113.485 Y33.745 E10.12223 F600.000
G1 X111.235 Y33.745 E10.23296
G1 X111.235 Y31.795 E10.32893
G1 X113.425 Y31.795 E10.43671
G1 X113.885 Y31.795 F9000.000
G1 X114.256 Y30.116 F9000.000
G1 X110.464 Y30.116 E10.62336 F600.000
G1 X110.464 Y26.624 E10.79524
G1 X114.256 Y26.624 E10.98189
G1 X114.256 Y30.056 E11.15082
G1 X113.871 Y29.731 F9000.000
G1 X110.849 Y29.731 E11.29951 F600.000
G1 X110.849 Y27.009 E11.43343
G1 X113.871 Y27.009 E11.58212
G1 X113.871 Y29.671 E11.71310
G1 X113.485 Y29.345 F9000.000
G1 X111.235 Y29.345 E11.82383 F600.000
G1 X111.235 Y27.395 E11.91980
G1 X113.485 Y27.395 E12.03053
G1 X113.485 Y29.285 E12.12355
G1 X113.485 Y29.745 F9000.000
G1 E6.12355 F1800.00000
G92 E0
G1 X106.027 Y25.853 F9000.000
G1 E6.00000 F1800.00000
G1 X106.027 Y35.287 E6.46434 F600.000
G1 X100.693 Y35.287 E6.72690
G1 X100.692 Y25.853 E7.19124
G1 X105.967 Y25.853 E7.45085
G1 X105.642 Y26.238 F9000.000
G1 X105.642 Y34.902 E7.87724 F600.000
G1 X101.078 Y34.902 E8.10184
G1 X101.078 Y26.238 E8.52823
G1 X105.582 Y26.238 E8.74988
G1 X105.256 Y31.024 F9000.000
G1 X105.256 Y34.516 E8.92176 F600.000
G1 X101.464 Y34.516 E9.10841
G1 X101.464 Y31.024 E9.28029
G1 X105.196 Y31.024 E9.46398
G1 X104.871 Y31.409 F9000.000
G1 X104.871 Y34.131 E9.59791 F600.000
G1 X101.849 Y34.131 E9.74660
G1 X101.849 Y31.409 E9.88052
G1 X104.811 Y31.409 E10.02626
G1 X104.485 Y31.795 F9000.000
G1 X104.485 Y33.745 E10.12223 F600.000
G1 X102.235 Y33.745 E10.23297
G1 X102.235 Y31.795 E10.32893
G1 X104.425 Y31.795 E10.43672
G1 X104.885 Y31.795 F9000.000
G1 X105.256 Y30.116 F9000.000
G1 X101.464 Y30.116 E10.62336 F600.000
G1 X101.464 Y26.624 E10.79524
G1 X105.256 Y26.624 E10.98189
G1 X105.256 Y30.056 E11.15082
G1 X104.871 Y29.731 F9000.000
G1 X101.849 Y29.731 E11.29951 F600.000
G1 X101.849 Y27.009 E11.43344
G1 X104.871 Y27.009 E11.58213
G1 X104.871 Y29.671 E11.71310
G1 X104.485 Y29.345 F9000.000
G1 X102.235 Y29.345 E11.82384 F600.000
G1 X102.235 Y27.395 E11.91981
G1 X104.485 Y27.395 E12.03054
G1 X104.485 Y29.285 E12.12356
G1 X104.485 Y29.745 F9000.000
G1 E6.12356 F1800.00000
G92 E0
G1 X99.027 Y25.853 F9000.000
G1 E6.00000 F1800.00000
G1 X99.027 Y35.287 E6.46434 F600.000
G1 X93.693 Y35.287 E6.72690
G1 X93.693 Y25.853 E7.19124
G1 X98.967 Y25.853 E7.45085
G1 X98.642 Y26.238 F9000.000
G1 X98.642 Y34.902 E7.87724 F600.000
G1 X94.078 Y34.902 E8.10184
G1 X94.078 Y26.238 E8.52822
G1 X98.582 Y26.238 E8.74987
G1 X98.256 Y31.024 F9000.000
G1 X98.256 Y34.516 E8.92176 F600.000
G1 X94.464 Y34.516 E9.10840
G1 X94.464 Y31.024 E9.28029
G1 X98.196 Y31.024 E9.46398
G1 X97.871 Y31.409 F9000.000
G1 X97.871 Y34.131 E9.59791 F600.000
G1 X94.849 Y34.131 E9.74660
G1 X94.849 Y31.409 E9.88052
G1 X97.811 Y31.409 E10.02626
G1 X97.485 Y31.795 F9000.000
G1 X97.485 Y33.745 E10.12223 F600.000
G1 X95.235 Y33.745 E10.23296
G1 X95.235 Y31.795 E10.32893
G1 X97.425 Y31.795 E10.43671
G1 X97.885 Y31.795 F9000.000
G1 X98.256 Y30.116 F9000.000
G1 X94.464 Y30.116 E10.62336 F600.000
G1 X94.464 Y26.624 E10.79524
G1 X98.256 Y26.624 E10.98189
G1 X98.256 Y30.056 E11.15082
G1 X97.871 Y29.731 F9000.000
G1 X94.849 Y29.731 E11.29951 F600.000
G1 X94.849 Y27.009 E11.43344
G1 X97.871 Y27.009 E11.58213
G1 X97.871 Y29.671 E11.71310
G1 X97.485 Y29.345 F9000.000
G1 X95.235 Y29.345 E11.82383 F600.000
G1 X95.235 Y27.395 E11.91980
G1 X97.485 Y27.395 E12.03054
G1 X97.485 Y29.285 E12.12355
G1 X97.485 Y29.745 F9000.000
G1 E6.12355 F1800.00000
G92 E0
G1 X90.027 Y25.853 F9000.000
G1 E6.00000 F1800.00000
G1 X90.027 Y35.287 E6.46434 F600.000
G1 X84.693 Y35.287 E6.72690
G1 X84.693 Y25.853 E7.19124
G1 X89.967 Y25.853 E7.45085
G1 X89.642 Y26.238 F9000.000
G1 X89.642 Y34.902 E7.87724 F600.000
G1 X85.078 Y34.902 E8.10184
G1 X85.078 Y26.238 E8.52822
G1 X89.582 Y26.238 E8.74987
G1 X89.256 Y31.024 F9000.000
G1 X89.256 Y34.516 E8.92176 F600.000
G1 X85.464 Y34.516 E9.10840
G1 X85.464 Y31.024 E9.28029
G1 X89.196 Y31.024 E9.46398
G1 X88.871 Y31.409 F9000.000
G1 X88.871 Y34.131 E9.59791 F600.000
G1 X85.849 Y34.131 E9.74660
G1 X85.849 Y31.409 E9.88052
G1 X88.811 Y31.409 E10.02626
G1 X88.485 Y31.795 F9000.000
G1 X88.485 Y33.745 E10.12223 F600.000
G1 X86.235 Y33.745 E10.23296
G1 X86.235 Y31.795 E10.32893
G1 X88.425 Y31.795 E10.43671
G1 X88.885 Y31.795 F9000.000
G1 X89.256 Y30.116 F9000.000
G1 X85.464 Y30.116 E10.62336 F600.000
G1 X85.464 Y26.624 E10.79524
G1 X89.256 Y26.624 E10.98189
G1 X89.256 Y30.056 E11.15082
G1 X88.871 Y29.731 F9000.000
G1 X85.849 Y29.731 E11.29951 F600.000
G1 X85.849 Y27.009 E11.43344
G1 X88.871 Y27.009 E11.58213
G1 X88.871 Y29.671 E11.71310
G1 X88.485 Y29.345 F9000.000
G1 X86.235 Y29.345 E11.82383 F600.000
G1 X86.235 Y27.395 E11.91980
G1 X88.485 Y27.395 E12.03054
G1 X88.485 Y29.285 E12.12355
G1 X88.485 Y29.745 F9000.000
G1 E6.12355 F1800.00000
G92 E0
G1 X83.027 Y25.853 F9000.000
G1 E6.00000 F1800.00000
G1 X83.027 Y35.287 E6.46434 F600.000
G1 X77.693 Y35.287 E6.72690
G1 X77.693 Y25.853 E7.19124
G1 X82.967 Y25.853 E7.45085
G1 X82.642 Y26.238 F9000.000
G1 X82.642 Y34.902 E7.87724 F600.000
G1 X78.078 Y34.902 E8.10184
G1 X78.078 Y26.238 E8.52822
G1 X82.582 Y26.238 E8.74987
G1 X82.256 Y31.024 F9000.000
G1 X82.256 Y34.516 E8.92176 F600.000
G1 X78.464 Y34.516 E9.10840
G1 X78.464 Y31.024 E9.28029
G1 X82.196 Y31.024 E9.46398
G1 X81.871 Y31.409 F9000.000
G1 X81.871 Y34.131 E9.59791 F600.000
G1 X78.849 Y34.131 E9.74660
G1 X78.849 Y31.409 E9.88052
G1 X81.811 Y31.409 E10.02626
G1 X81.485 Y31.795 F9000.000
G1 X81.485 Y33.745 E10.12223 F600.000
G1 X79.235 Y33.745 E10.23296
G1 X79.235 Y31.795 E10.32893
G1 X81.425 Y31.795 E10.43671
G1 X81.885 Y31.795 F9000.000
G1 X82.256 Y30.116 F9000.000
G1 X78.464 Y30.116 E10.62336 F600.000
G1 X78.464 Y26.624 E10.79524
G1 X82.256 Y26.624 E10.98189
G1 X82.256 Y30.056 E11.15082
G1 X81.871 Y29.731 F9000.000
G1 X78.849 Y29.731 E11.29951 F600.000
G1 X78.849 Y27.009 E11.43344
G1 X81.871 Y27.009 E11.58213
G1 X81.871 Y29.671 E11.71310
G1 X81.485 Y29.345 F9000.000
G1 X79.235 Y29.345 E11.82383 F600.000
G1 X79.235 Y27.395 E11.91980
G1 X81.485 Y27.395 E12.03054
G1 X81.485 Y29.285 E12.12355
G1 X81.485 Y29.745 F9000.000
G1 E6.12355 F1800.00000
G92 E0
G1 X76.127 Y22.137 F9000.000
G1 E6.00000 F1800.00000
G1 X142.593 Y22.137 E9.27108 F600.000
G1 X142.593 Y38.603 E10.08141
G1 X76.127 Y38.603 E13.35249
G1 X76.127 Y22.197 E14.15987
G1 X75.742 Y21.752 F9000.000
G1 X142.978 Y21.752 E17.46891 F600.000
G1 X142.978 Y38.988 E18.31719
G1 X75.742 Y38.988 E21.62623
G1 X75.742 Y21.812 E22.47156
G1 X75.356 Y21.366 F9000.000
G1 X143.364 Y21.366 E25.81856 F600.000
G1 X143.364 Y39.374 E26.70480
G1 X75.356 Y39.374 E30.05179
G1 X75.356 Y21.426 E30.93508
G1 X74.971 Y20.981 F9000.000
G1 X143.749 Y20.981 E34.32004 F600.000
G1 X143.749 Y39.759 E35.24423
G1 X74.971 Y39.759 E38.62918
G1 X74.971 Y21.041 E39.55043
G1 X74.585 Y20.595 F9000.000
G1 X144.135 Y20.595 E42.97334 F600.000
G1 X144.135 Y40.145 E43.93549
G1 X74.585 Y40.145 E47.35840
G1 X74.585 Y20.655 E48.31760
G1 X74.931 Y20.795 F9000.000
G1 X78.271 Y30.570 F9000.000
G1 X82.449 Y30.570 E48.76318 F600.000
G1 X85.271 Y30.570 F9000.000
G1 X89.449 Y30.570 E49.20876 F600.000
G1 X94.271 Y30.570 F9000.000
G1 X98.449 Y30.570 E49.65434 F600.000
G1 X101.271 Y30.570 F9000.000
G1 X105.449 Y30.570 E50.09991 F600.000
G1 X110.271 Y30.570 F9000.000
G1 X114.449 Y30.570 E50.54549 F600.000
G1 X117.271 Y30.570 F9000.000
G1 X121.449 Y30.570 E50.99107 F600.000
G1 X126.271 Y30.570 F9000.000
G1 X130.449 Y30.570 E51.43664 F600.000
G1 X133.271 Y30.570 F9000.000
G1 X137.449 Y30.570 E51.88222 F600.000
G1 X137.605 Y25.569 F9000.000
G1 X134.458 Y22.421 E52.10164 F600.000
G1 X133.912 Y22.421 E52.12857
G1 X137.059 Y25.569 E52.34798
G1 X136.513 Y25.569 E52.37491
G1 X133.365 Y22.421 E52.59433
G1 X132.819 Y22.421 E52.62125
G1 X135.967 Y25.569 E52.84067
G1 X135.420 Y25.569 E52.86760
G1 X132.273 Y22.421 E53.08702
G1 X131.727 Y22.421 E53.11394
G1 X134.874 Y25.569 E53.33336
G1 X134.328 Y25.569 E53.36028
G1 X131.181 Y22.421 E53.57970
G1 X130.634 Y22.421 E53.60663
G1 X133.782 Y25.569 E53.82605
G1 X133.236 Y25.569 E53.85297
G1 X130.088 Y22.421 E54.07239
G1 X129.542 Y22.421 E54.09932
G1 X132.689 Y25.569 E54.31873
G1 X132.409 Y25.834 F9000.000
G1 X128.996 Y22.421 E54.55667 F600.000
G1 X125.588 Y25.569 F9000.000
G1 X122.441 Y22.421 E54.77608 F600.000
G1 X122.987 Y22.421 E54.80301
G1 X126.135 Y25.569 E55.02243
G1 X126.681 Y25.569 E55.04935
G1 X123.533 Y22.421 E55.26877
G1 X124.080 Y22.421 E55.29570
G1 X127.227 Y25.569 E55.51511
G1 X127.773 Y25.569 E55.54204
G1 X124.626 Y22.421 E55.76146
G1 X125.172 Y22.421 E55.78838
G1 X128.320 Y25.569 E56.00780
G1 X128.866 Y25.569 E56.03473
G1 X125.718 Y22.421 E56.25415
G1 X126.265 Y22.421 E56.28107
G1 X129.412 Y25.569 E56.50049
G1 X129.958 Y25.569 E56.52742
G1 X126.811 Y22.421 E56.74683
G1 X127.357 Y22.421 E56.77376
G1 X130.504 Y25.569 E56.99318
G1 X131.051 Y25.569 E57.02010
G1 X127.903 Y22.421 E57.23952
G1 X128.449 Y22.421 E57.26645
G1 X132.409 Y26.381 E57.54246
G1 X132.409 Y26.927 E57.56938
G1 X131.311 Y25.829 E57.64589
G1 X131.311 Y26.376 E57.67282
G1 X132.409 Y27.473 E57.74932
G1 X132.409 Y28.019 E57.77625
G1 X131.311 Y26.922 E57.85276
G1 X131.311 Y27.468 E57.87968
G1 X132.409 Y28.565 E57.95619
G1 X132.409 Y29.112 E57.98311
G1 X131.311 Y28.014 E58.05962
G1 X131.311 Y28.560 E58.08655
G1 X132.409 Y29.658 E58.16305
G1 X132.409 Y30.204 E58.18998
G1 X131.311 Y29.107 E58.26649
G1 X131.311 Y29.653 E58.29341
G1 X132.409 Y30.750 E58.36992
G1 X132.409 Y31.297 E58.39684
G1 X131.311 Y30.199 E58.47335
G1 X131.311 Y30.745 E58.50028
G1 X132.409 Y31.843 E58.57678
G1 X132.409 Y32.389 E58.60371
G1 X131.311 Y31.292 E58.68022
G1 X131.311 Y31.838 E58.70714
G1 X132.409 Y32.935 E58.78365
G1 X132.409 Y33.481 E58.81057
G1 X131.311 Y32.384 E58.88708
