; generated by Slic3r 1.2.9 on 2019-12-15 at 14:04:12

; external perimeters extrusion width = 0.40mm
; perimeters extrusion width = 0.62mm
; infill extrusion width = 0.33mm
; solid infill extrusion width = 0.62mm
; top infill extrusion width = 0.20mm
; support material extrusion width = 0.40mm

M106 S256; Turn on fan to 100% power
M104 S140; turn on extruder temperature at S value
M140 S60; turn on bed temperature at S value
G28; home all axes
M84; disable motors
G1 Z15 F15000; have Z move to 20mm at 15000 mm/min
M190 S55; turn on bed temperature at S value and wait
M140 S55; turn on bed temperature at S value (printing temperature)
M109 S200; turn on extruder temperature at S value and wait (printing temperature)
M104 S200; turn on extruder temperature at S value
G1 Z0 F12000; move Z back to home
G21 ; set units to millimeters
G90 ; use absolute coordinates
M82 ; use absolute distances for extrusion
G92 E0
M106 S255
;Layer change
G1 E-6.00000 F1800.00000
G92 E0
G1 Z0.300 F9000.000
G1 X57.044 Y10.210 F9000.000
G1 E6.00000 F1800.00000
G1 X57.436 Y8.900 E6.06727 F600.000
G1 X58.482 Y8.021 E6.13455
G1 X59.430 Y7.824 E6.18218
G1 X129.430 Y7.824 E9.62723
G1 X130.740 Y8.216 E9.69451
G1 X131.340 Y8.781 E9.73508 F600.000
G1 X152.467 Y37.017 E11.47068
G1 X152.837 Y37.602 E11.50472
G1 X153.007 Y37.935 E11.52311
G1 X153.187 Y38.370 E11.54628
G1 X153.303 Y38.726 E11.56472
G1 X153.413 Y39.184 E11.58789
G1 X153.471 Y39.554 E11.60632
G1 X153.516 Y40.210 E11.63869
G1 X153.516 Y85.910 E13.88782
G1 X153.471 Y86.566 E13.92020
G1 X153.413 Y86.936 E13.93862
G1 X153.303 Y87.394 E13.96180
G1 X153.187 Y87.750 E13.98024
G1 X153.007 Y88.185 E14.00341
G1 X152.837 Y88.518 E14.02180
G1 X152.591 Y88.920 E14.04496
G1 X152.371 Y89.223 E14.06343
G1 X152.065 Y89.581 E14.08660
G1 X151.801 Y89.845 E14.10497
G1 X151.443 Y90.151 E14.12814
G1 X151.140 Y90.371 E14.14660
G1 X150.738 Y90.617 E14.16977
G1 X150.405 Y90.787 E14.18816
G1 X149.970 Y90.967 E14.21133
G1 X149.614 Y91.083 E14.22977
G1 X149.156 Y91.193 E14.25294
G1 X148.786 Y91.251 E14.27137
G1 X148.130 Y91.296 E14.30375
G1 X62.430 Y91.296 E18.52148
G1 X61.774 Y91.251 E18.55385
G1 X61.404 Y91.193 E18.57228
G1 X60.946 Y91.083 E18.59545
G1 X60.590 Y90.967 E18.61389
G1 X60.155 Y90.787 E18.63706
G1 X59.822 Y90.617 E18.65545
G1 X59.420 Y90.371 E18.67862
G1 X59.117 Y90.151 E18.69706
G1 X58.759 Y89.845 E18.72024
G1 X58.495 Y89.581 E18.73864
G1 X58.189 Y89.223 E18.76182
G1 X57.969 Y88.920 E18.78024
G1 X57.732 Y88.534 E18.80254
G1 X57.553 Y88.185 E18.82183
G1 X57.373 Y87.750 E18.84501
G1 X57.257 Y87.394 E18.86343
G1 X57.147 Y86.936 E18.88660
G1 X57.089 Y86.566 E18.90501
G1 X57.044 Y85.910 E18.93740
G1 X57.044 Y10.270 E22.66003
G1 E16.66003 F1800.00000
G92 E0
G1 X63.692 Y84.585 F9000.000
G1 E6.00000 F1800.00000
G1 X63.907 Y84.837 E6.01630 F600.000
G1 X64.057 Y85.081 E6.03040
G1 X64.166 Y85.346 E6.04450
G1 X64.233 Y85.624 E6.05860
G1 X64.256 Y85.911 E6.07273
G1 X64.231 Y86.205 E6.08729
G1 X64.166 Y86.474 E6.10089
G1 X64.057 Y86.739 E6.11499
G1 X63.907 Y86.983 E6.12909
G1 X63.721 Y87.201 E6.14319
G1 X63.503 Y87.387 E6.15729
G1 X63.259 Y87.537 E6.17139
G1 X63.003 Y87.643 E6.18500
G1 X62.716 Y87.713 E6.19955
G1 X62.430 Y87.736 E6.21368
G1 X62.144 Y87.713 E6.22778
G1 X61.866 Y87.646 E6.24188
G1 X61.601 Y87.537 E6.25598
G1 X61.357 Y87.387 E6.27008
G1 X61.139 Y87.201 E6.28418
G1 X60.953 Y86.983 E6.29831
G1 X60.799 Y86.730 E6.31287
G1 X60.694 Y86.474 E6.32647
G1 X60.627 Y86.196 E6.34057
G1 X60.604 Y85.909 E6.35470
G1 X60.629 Y85.615 E6.36926
G1 X60.694 Y85.346 E6.38286
G1 X60.803 Y85.081 E6.39696
G1 X60.953 Y84.837 E6.41107
G1 X61.139 Y84.619 E6.42517
G1 X61.357 Y84.433 E6.43926
G1 X61.601 Y84.283 E6.45336
G1 X61.866 Y84.174 E6.46746
G1 X62.144 Y84.107 E6.48156
G1 X62.420 Y84.085 E6.49517 F600.000
G1 X62.715 Y84.107 E6.50972
G1 X62.994 Y84.174 E6.52385
G1 X63.259 Y84.283 E6.53795
G1 X63.503 Y84.433 E6.55205
G1 X63.644 Y84.553 E6.56115
G1 X64.013 Y84.505 F9000.000
G1 X73.263 Y79.577 F9000.000
G1 X73.263 Y66.043 E7.22727 F600.000
G1 X136.797 Y66.043 E10.35415
G1 X136.797 Y79.577 E11.02027
G1 X73.323 Y79.577 E14.14420
G1 X73.648 Y79.192 F9000.000
G1 X73.648 Y66.428 E14.77237 F600.000
G1 X136.412 Y66.428 E17.86129
G1 X136.412 Y79.192 E18.48945
G1 X73.708 Y79.192 E21.57542
G1 X74.034 Y78.806 F9000.000
G1 X74.034 Y66.814 E22.16563 F600.000
G1 X136.026 Y66.814 E25.21660
G1 X136.026 Y78.806 E25.80681
G1 X74.094 Y78.806 E28.85482
G1 X74.419 Y78.421 F9000.000
G1 X74.419 Y67.199 E29.40707 F600.000
G1 X135.641 Y67.199 E32.42008
G1 X135.641 Y78.421 E32.97234
G1 X74.479 Y78.421 E35.98239
G1 X74.805 Y78.035 F9000.000
G1 X74.805 Y67.585 E36.49669 F600.000
G1 X135.255 Y67.585 E39.47174
G1 X135.255 Y78.035 E39.98604
G1 X74.865 Y78.035 E42.95814
G1 X74.405 Y78.035 F9000.000
G1 E36.95814 F1800.00000
G92 E0
G1 X76.284 Y59.244 F9000.000
G1 E6.00000 F1800.00000
G1 X76.002 Y59.222 E6.01391 F600.000
G1 X75.243 Y59.040 E6.05232
G1 X74.522 Y58.741 E6.09073
G1 X73.857 Y58.333 E6.12913
G1 X73.264 Y57.826 E6.16754
G1 X72.757 Y57.233 E6.20594
G1 X72.349 Y56.568 E6.24434
G1 X72.050 Y55.847 E6.28275
G1 X71.868 Y55.088 E6.32116
G1 X71.807 Y54.310 E6.35956
G1 X71.869 Y53.527 E6.39821
G1 X72.060 Y52.751 E6.43754
G1 X72.349 Y52.052 E6.47477
G1 X72.757 Y51.387 E6.51317
G1 X73.264 Y50.794 E6.55157
G1 X73.857 Y50.287 E6.58997
G1 X74.522 Y49.879 E6.62838
G1 X75.243 Y49.580 E6.66678
G1 X76.002 Y49.398 E6.70519
G1 X76.756 Y49.339 E6.74242 F600.000
G1 X77.553 Y49.397 E6.78174
G1 X78.317 Y49.580 E6.82040
G1 X79.038 Y49.879 E6.85880
G1 X79.703 Y50.287 E6.89721
G1 X80.296 Y50.794 E6.93561
G1 X80.803 Y51.387 E6.97401
G1 X81.211 Y52.052 E7.01242
G1 X81.510 Y52.773 E7.05082
G1 X81.692 Y53.532 E7.08923
G1 X81.753 Y54.310 E7.12763
G1 X81.692 Y55.088 E7.16604
G1 X81.510 Y55.847 E7.20445
G1 X81.211 Y56.568 E7.24285
G1 X80.803 Y57.233 E7.28126
G1 X80.296 Y57.826 E7.31966
G1 X79.703 Y58.333 E7.35806
G1 X79.038 Y58.741 E7.39646
G1 X78.317 Y59.040 E7.43487
G1 X77.558 Y59.222 E7.47328
G1 X76.780 Y59.283 E7.51168
G1 X76.344 Y59.249 E7.53322
G1 X76.314 Y58.859 F9000.000
G1 X76.063 Y58.840 E7.54564 F600.000
G1 X75.363 Y58.672 E7.58106
G1 X74.698 Y58.396 E7.61648
G1 X74.084 Y58.020 E7.65189
G1 X73.537 Y57.553 E7.68731
G1 X73.070 Y57.006 E7.72272
G1 X72.694 Y56.392 E7.75814
G1 X72.418 Y55.727 E7.79356
G1 X72.250 Y55.027 E7.82898
G1 X72.194 Y54.310 E7.86440
G1 X72.251 Y53.589 E7.90001
G1 X72.427 Y52.872 E7.93634
G1 X72.694 Y52.228 E7.97064
G1 X73.070 Y51.614 E8.00606
G1 X73.537 Y51.067 E8.04147
G1 X74.084 Y50.600 E8.07689
G1 X74.698 Y50.224 E8.11231
G1 X75.363 Y49.948 E8.14772
G1 X76.063 Y49.780 E8.18314
G1 X76.757 Y49.726 E8.21744 F600.000
G1 X77.494 Y49.779 E8.25377
G1 X78.197 Y49.948 E8.28939
G1 X78.862 Y50.224 E8.32480
G1 X79.476 Y50.600 E8.36022
G1 X80.023 Y51.067 E8.39564
G1 X80.490 Y51.614 E8.43105
G1 X80.866 Y52.228 E8.46647
G1 X81.142 Y52.893 E8.50189
G1 X81.310 Y53.593 E8.53731
G1 X81.366 Y54.310 E8.57273
G1 X81.310 Y55.027 E8.60814
G1 X81.142 Y55.727 E8.64356
G1 X80.866 Y56.392 E8.67898
G1 X80.490 Y57.006 E8.71440
G1 X80.023 Y57.553 E8.74981
G1 X79.476 Y58.020 E8.78523
G1 X78.862 Y58.396 E8.82065
G1 X78.197 Y58.672 E8.85606
G1 X77.497 Y58.840 E8.89149
G1 X76.780 Y58.896 E8.92690
G1 X76.374 Y58.864 E8.94694
G1 X76.344 Y58.475 F9000.000
G1 X76.123 Y58.458 E8.95787 F600.000
G1 X75.482 Y58.304 E8.99030
G1 X74.874 Y58.052 E9.02273
G1 X74.312 Y57.707 E9.05516
G1 X73.811 Y57.279 E9.08759
G1 X73.383 Y56.778 E9.12002
G1 X73.038 Y56.216 E9.15245
G1 X72.786 Y55.608 E9.18488
G1 X72.632 Y54.967 E9.21732
G1 X72.581 Y54.310 E9.24974
G1 X72.633 Y53.650 E9.28231
G1 X72.794 Y52.992 E9.31566
G1 X73.038 Y52.404 E9.34703
G1 X73.383 Y51.842 E9.37946
G1 X73.811 Y51.341 E9.41189
G1 X74.312 Y50.913 E9.44431
G1 X74.874 Y50.568 E9.47674
G1 X75.482 Y50.316 E9.50917
G1 X76.123 Y50.162 E9.54161
G1 X76.758 Y50.112 E9.57297 F600.000
G1 X77.434 Y50.162 E9.60632
G1 X78.078 Y50.316 E9.63889
G1 X78.686 Y50.568 E9.67132
G1 X79.248 Y50.913 E9.70375
G1 X79.749 Y51.341 E9.73618
G1 X80.177 Y51.842 E9.76861
G1 X80.522 Y52.404 E9.80104
G1 X80.774 Y53.012 E9.83347
G1 X80.928 Y53.653 E9.86590
G1 X80.979 Y54.310 E9.89833
G1 X80.928 Y54.967 E9.93076
G1 X80.774 Y55.608 E9.96319
G1 X80.522 Y56.216 E9.99562
G1 X80.177 Y56.778 E10.02805
G1 X79.749 Y57.279 E10.06048
G1 X79.248 Y57.707 E10.09291
G1 X78.686 Y58.052 E10.12534
G1 X78.078 Y58.304 E10.15777
G1 X77.437 Y58.458 E10.19020
G1 X76.780 Y58.509 E10.22263
G1 X76.404 Y58.480 E10.24118
G1 X76.375 Y58.091 F9000.000
G1 X76.184 Y58.076 E10.25061 F600.000
G1 X75.602 Y57.936 E10.28006
G1 X75.049 Y57.707 E10.30950
G1 X74.539 Y57.394 E10.33894
G1 X74.084 Y57.006 E10.36839
G1 X73.696 Y56.551 E10.39783
G1 X73.383 Y56.041 E10.42727
G1 X73.154 Y55.488 E10.45671
G1 X73.014 Y54.906 E10.48616
G1 X72.967 Y54.310 E10.51560
G1 X73.015 Y53.712 E10.54513
G1 X73.162 Y53.113 E10.57549
G1 X73.383 Y52.579 E10.60392
G1 X73.696 Y52.069 E10.63336
G1 X74.084 Y51.614 E10.66281
G1 X74.539 Y51.226 E10.69225
G1 X75.049 Y50.913 E10.72169
G1 X75.602 Y50.684 E10.75113
G1 X76.184 Y50.544 E10.78058
G1 X76.759 Y50.499 E10.80901 F600.000
G1 X77.375 Y50.544 E10.83937
G1 X77.958 Y50.684 E10.86890
G1 X78.511 Y50.913 E10.89834
G1 X79.021 Y51.226 E10.92778
G1 X79.476 Y51.614 E10.95723
G1 X79.864 Y52.069 E10.98667
G1 X80.177 Y52.579 E11.01611
G1 X80.406 Y53.132 E11.04555
G1 X80.546 Y53.714 E11.07500
G1 X80.593 Y54.310 E11.10444
G1 X80.546 Y54.906 E11.13388
G1 X80.406 Y55.488 E11.16333
G1 X80.177 Y56.041 E11.19277
G1 X79.864 Y56.551 E11.22221
G1 X79.476 Y57.006 E11.25166
G1 X79.021 Y57.394 E11.28110
G1 X78.511 Y57.707 E11.31054
G1 X77.958 Y57.936 E11.33998
G1 X77.376 Y58.076 E11.36943
G1 X76.780 Y58.123 E11.39887
G1 X76.435 Y58.095 E11.41593
G1 X76.405 Y57.706 F9000.000
G1 X76.244 Y57.694 E11.42387 F600.000
G1 X75.721 Y57.568 E11.45033
G1 X75.225 Y57.362 E11.47678
G1 X74.766 Y57.081 E11.50323
G1 X74.358 Y56.732 E11.52969
G1 X74.009 Y56.324 E11.55615
G1 X73.728 Y55.865 E11.58260
G1 X73.522 Y55.369 E11.60906
G1 X73.396 Y54.846 E11.63551
G1 X73.354 Y54.310 E11.66197
G1 X73.397 Y53.773 E11.68846
G1 X73.529 Y53.233 E11.71583
G1 X73.728 Y52.755 E11.74133
G1 X74.009 Y52.296 E11.76778
G1 X74.358 Y51.888 E11.79424
G1 X74.766 Y51.539 E11.82070
G1 X75.225 Y51.258 E11.84715
G1 X75.721 Y51.052 E11.87360
G1 X76.244 Y50.926 E11.90006
G1 X76.761 Y50.886 E11.92556 F600.000
G1 X77.315 Y50.926 E11.95293
G1 X77.839 Y51.052 E11.97942
G1 X78.335 Y51.258 E12.00588
G1 X78.794 Y51.539 E12.03233
G1 X79.202 Y51.888 E12.05879
G1 X79.551 Y52.296 E12.08524
G1 X79.832 Y52.755 E12.11169
G1 X80.038 Y53.251 E12.13815
G1 X80.164 Y53.774 E12.16461
G1 X80.206 Y54.310 E12.19106
G1 X80.164 Y54.846 E12.21752
G1 X80.038 Y55.369 E12.24398
G1 X79.832 Y55.865 E12.27043
G1 X79.551 Y56.324 E12.29689
G1 X79.202 Y56.732 E12.32334
G1 X78.794 Y57.081 E12.34980
G1 X78.335 Y57.362 E12.37625
G1 X77.839 Y57.568 E12.40271
G1 X77.316 Y57.694 E12.42917
G1 X76.780 Y57.736 E12.45562
G1 X76.465 Y57.711 E12.47118
G1 X76.314 Y57.839 F9000.000
G1 X89.868 Y55.088 F9000.000
G1 X89.807 Y54.310 E12.50959 F600.000
G1 X89.868 Y53.532 E12.54799
G1 X90.050 Y52.773 E12.58640
G1 X90.349 Y52.052 E12.62480
G1 X90.757 Y51.387 E12.66321
G1 X91.264 Y50.794 E12.70161
G1 X91.857 Y50.287 E12.74001
G1 X92.522 Y49.879 E12.77842
G1 X93.243 Y49.580 E12.81682
G1 X94.002 Y49.398 E12.85523
G1 X94.756 Y49.339 E12.89246 F600.000
G1 X95.553 Y49.397 E12.93178
G1 X96.317 Y49.580 E12.97044
G1 X97.038 Y49.879 E13.00884
G1 X97.703 Y50.287 E13.04725
G1 X98.296 Y50.794 E13.08565
G1 X98.803 Y51.387 E13.12405
G1 X99.211 Y52.052 E13.16245
G1 X99.510 Y52.773 E13.20086
G1 X99.692 Y53.532 E13.23927
G1 X99.753 Y54.310 E13.27767
G1 X99.692 Y55.088 E13.31607
G1 X99.510 Y55.847 E13.35448
G1 X99.211 Y56.568 E13.39289
G1 X98.803 Y57.233 E13.43129
G1 X98.296 Y57.826 E13.46969
G1 X97.703 Y58.333 E13.50810
G1 X97.038 Y58.741 E13.54650
G1 X96.317 Y59.040 E13.58491
G1 X95.558 Y59.222 E13.62332
G1 X94.780 Y59.283 E13.66172
G1 X94.002 Y59.222 E13.70012
G1 X93.243 Y59.040 E13.73853
G1 X92.522 Y58.741 E13.77694
G1 X91.857 Y58.333 E13.81534
G1 X91.264 Y57.826 E13.85374
G1 X90.757 Y57.233 E13.89214
G1 X90.349 Y56.568 E13.93055
G1 X90.050 Y55.847 E13.96895
G1 X89.882 Y55.146 E14.00441
G1 X90.250 Y55.027 F9000.000
G1 X90.194 Y54.310 E14.03983 F600.000
G1 X90.250 Y53.593 E14.07524
G1 X90.418 Y52.893 E14.11066
G1 X90.694 Y52.228 E14.14608
G1 X91.070 Y51.614 E14.18150
G1 X91.537 Y51.067 E14.21691
G1 X92.084 Y50.600 E14.25233
G1 X92.698 Y50.224 E14.28775
G1 X93.363 Y49.948 E14.32316
G1 X94.063 Y49.780 E14.35858
G1 X94.757 Y49.726 E14.39288 F600.000
G1 X95.494 Y49.779 E14.42921
G1 X96.197 Y49.948 E14.46483
G1 X96.862 Y50.224 E14.50024
G1 X97.476 Y50.600 E14.53566
G1 X98.023 Y51.067 E14.57108
G1 X98.490 Y51.614 E14.60649
G1 X98.866 Y52.228 E14.64191
G1 X99.142 Y52.893 E14.67733
G1 X99.310 Y53.593 E14.71275
G1 X99.366 Y54.310 E14.74817
G1 X99.310 Y55.027 E14.78358
G1 X99.142 Y55.727 E14.81900
G1 X98.866 Y56.392 E14.85442
G1 X98.490 Y57.006 E14.88984
G1 X98.023 Y57.553 E14.92525
G1 X97.476 Y58.020 E14.96067
G1 X96.862 Y58.396 E14.99609
G1 X96.197 Y58.672 E15.03150
G1 X95.497 Y58.840 E15.06693
G1 X94.780 Y58.896 E15.10234
G1 X94.063 Y58.840 E15.13776
G1 X93.363 Y58.672 E15.17318
G1 X92.698 Y58.396 E15.20860
G1 X92.084 Y58.020 E15.24401
G1 X91.537 Y57.553 E15.27943
G1 X91.070 Y57.006 E15.31484
G1 X90.694 Y56.392 E15.35026
G1 X90.418 Y55.727 E15.38568
G1 X90.264 Y55.086 E15.41815
G1 X90.632 Y54.967 F9000.000
G1 X90.581 Y54.310 E15.45058 F600.000
G1 X90.632 Y53.653 E15.48301
G1 X90.786 Y53.012 E15.51544
G1 X91.038 Y52.404 E15.54787
G1 X91.383 Y51.842 E15.58030
G1 X91.811 Y51.341 E15.61273
G1 X92.312 Y50.913 E15.64516
G1 X92.874 Y50.568 E15.67759
G1 X93.482 Y50.316 E15.71002
G1 X94.123 Y50.162 E15.74245
G1 X94.758 Y50.112 E15.77381 F600.000
G1 X95.434 Y50.162 E15.80716
G1 X96.078 Y50.316 E15.83973
G1 X96.686 Y50.568 E15.87216
G1 X97.248 Y50.913 E15.90459
G1 X97.749 Y51.341 E15.93702
G1 X98.177 Y51.842 E15.96945
G1 X98.522 Y52.403 E16.00188
G1 X98.774 Y53.012 E16.03431
G1 X98.928 Y53.653 E16.06674
G1 X98.979 Y54.310 E16.09917
G1 X98.928 Y54.967 E16.13160
G1 X98.774 Y55.608 E16.16403
G1 X98.522 Y56.216 E16.19647
G1 X98.177 Y56.778 E16.22889
G1 X97.749 Y57.279 E16.26132
G1 X97.248 Y57.707 E16.29375
G1 X96.686 Y58.052 E16.32618
G1 X96.078 Y58.304 E16.35861
G1 X95.437 Y58.458 E16.39105
G1 X94.780 Y58.509 E16.42347
G1 X94.123 Y58.458 E16.45590
G1 X93.482 Y58.304 E16.48834
G1 X92.874 Y58.052 E16.52077
G1 X92.312 Y57.707 E16.55320
G1 X91.811 Y57.279 E16.58563
G1 X91.383 Y56.778 E16.61806
G1 X91.038 Y56.216 E16.65048
G1 X90.786 Y55.608 E16.68292
G1 X90.646 Y55.025 E16.71240
G1 X91.014 Y54.906 F9000.000
G1 X90.967 Y54.310 E16.74184 F600.000
G1 X91.014 Y53.714 E16.77128
G1 X91.154 Y53.132 E16.80073
G1 X91.383 Y52.579 E16.83017
G1 X91.696 Y52.069 E16.85961
G1 X92.084 Y51.614 E16.88905
G1 X92.539 Y51.226 E16.91850
G1 X93.049 Y50.913 E16.94794
G1 X93.602 Y50.684 E16.97738
G1 X94.184 Y50.544 E17.00683
G1 X94.760 Y50.499 E17.03526 F600.000
G1 X95.375 Y50.544 E17.06562
G1 X95.958 Y50.684 E17.09515
G1 X96.511 Y50.913 E17.12459
G1 X97.021 Y51.226 E17.15403
G1 X97.476 Y51.614 E17.18347
G1 X97.864 Y52.069 E17.21292
G1 X98.177 Y52.579 E17.24236
G1 X98.406 Y53.132 E17.27180
G1 X98.546 Y53.714 E17.30125
G1 X98.593 Y54.310 E17.33069
G1 X98.546 Y54.906 E17.36013
G1 X98.406 Y55.488 E17.38958
G1 X98.177 Y56.041 E17.41902
G1 X97.864 Y56.551 E17.44846
G1 X97.476 Y57.006 E17.47790
G1 X97.021 Y57.394 E17.50735
G1 X96.511 Y57.707 E17.53679
G1 X95.958 Y57.936 E17.56623
G1 X95.376 Y58.076 E17.59568
G1 X94.780 Y58.123 E17.62512
G1 X94.184 Y58.076 E17.65456
G1 X93.602 Y57.936 E17.68401
G1 X93.049 Y57.707 E17.71345
G1 X92.539 Y57.394 E17.74289
G1 X92.084 Y57.006 E17.77233
G1 X91.696 Y56.551 E17.80178
G1 X91.383 Y56.041 E17.83122
G1 X91.154 Y55.488 E17.86066
G1 X91.028 Y54.965 E17.88715
G1 X91.396 Y54.846 F9000.000
G1 X91.354 Y54.310 E17.91361 F600.000
G1 X91.396 Y53.774 E17.94007
G1 X91.522 Y53.251 E17.96652
G1 X91.728 Y52.755 E17.99298
G1 X92.009 Y52.296 E18.01943
G1 X92.358 Y51.888 E18.04589
G1 X92.766 Y51.539 E18.07235
G1 X93.225 Y51.258 E18.09880
