; generated by Slic3r 1.2.9 on 2019-12-15 at 17:37:58

; external perimeters extrusion width = 0.40mm
; perimeters extrusion width = 0.62mm
; infill extrusion width = 0.33mm
; solid infill extrusion width = 0.62mm
; top infill extrusion width = 0.20mm
; support material extrusion width = 0.40mm

M106 S256; Turn on fan to 100% power
M104 S140; turn on extruder temperature at S value
M140 S60; turn on bed temperature at S value
G28; home all axes
M84; disable motors
G1 Z15 F15000; have Z move to 20mm at 15000 mm/min
M190 S55; turn on bed temperature at S value and wait
M140 S55; turn on bed temperature at S value (printing temperature)
M109 S200; turn on extruder temperature at S value and wait (printing temperature)
M104 S200; turn on extruder temperature at S value
G1 Z0 F12000; move Z back to home
G21 ; set units to millimeters
G90 ; use absolute coordinates
M82 ; use absolute distances for extrusion
G92 E0
M106 S255
;Layer change
G1 E-6.00000 F1800.00000
G92 E0
G1 Z0.300 F9000.000
G1 X51.333 Y26.322 F9000.000
G1 E6.00000 F1800.00000
G1 X51.579 Y25.920 E6.02319 F600.000
G1 X51.799 Y25.617 E6.04159
G1 X52.105 Y25.259 E6.06477
G1 X52.369 Y24.995 E6.08317
G1 X52.727 Y24.689 E6.10635
G1 X53.030 Y24.469 E6.12478
G1 X53.432 Y24.223 E6.14794
G1 X53.765 Y24.053 E6.16634
G1 X54.200 Y23.873 E6.18954
G1 X54.556 Y23.757 E6.20796
G1 X55.014 Y23.647 E6.23113
G1 X55.383 Y23.589 E6.24954
G1 X56.040 Y23.544 E6.28193
G1 X141.926 Y23.552 E10.50880
G1 X142.397 Y23.589 E10.53205 F600.000
G1 X142.766 Y23.647 E10.55045
G1 X143.224 Y23.757 E10.57364
G1 X143.580 Y23.873 E10.59204
G1 X144.015 Y24.053 E10.61523
G1 X144.348 Y24.222 E10.63361
G1 X144.750 Y24.469 E10.65682
G1 X145.052 Y24.688 E10.67518
G1 X145.411 Y24.995 E10.69842
G1 X145.675 Y25.259 E10.71682
G1 X145.981 Y25.617 E10.73999
G1 X146.201 Y25.920 E10.75845
G1 X146.447 Y26.322 E10.78163
G1 X146.617 Y26.655 E10.80001
G1 X146.797 Y27.090 E10.82318
G1 X146.913 Y27.446 E10.84161
G1 X147.023 Y27.904 E10.86478
G1 X147.081 Y28.274 E10.88321
G1 X147.126 Y28.930 E10.91559
G1 X147.126 Y74.630 E13.16471
G1 X147.081 Y75.287 E13.19714
G1 X147.023 Y75.656 E13.21552
G1 X146.913 Y76.114 E13.23871
G1 X146.797 Y76.470 E13.25713
G1 X146.617 Y76.905 E13.28030
G1 X146.447 Y77.238 E13.29869
G1 X146.201 Y77.640 E13.32186
G1 X145.981 Y77.943 E13.34032
G1 X145.674 Y78.302 E13.36353
G1 X145.411 Y78.565 E13.38186
G1 X145.053 Y78.871 E13.40503
G1 X144.750 Y79.091 E13.42350
G1 X144.348 Y79.337 E13.44666
G1 X144.015 Y79.507 E13.46506
G1 X143.580 Y79.687 E13.48823
G1 X143.224 Y79.803 E13.50666
G1 X142.766 Y79.913 E13.52983
G1 X142.396 Y79.971 E13.54826
G1 X141.740 Y80.016 E13.58064
G1 X56.040 Y80.016 E17.79837
G1 X55.384 Y79.971 E17.83074
G1 X55.014 Y79.913 E17.84918
G1 X54.556 Y79.803 E17.87234
G1 X54.200 Y79.687 E17.89078
G1 X53.765 Y79.507 E17.91395
G1 X53.432 Y79.338 E17.93231
G1 X53.030 Y79.091 E17.95551
G1 X52.727 Y78.871 E17.97397
G1 X52.369 Y78.565 E17.99714
G1 X52.105 Y78.301 E18.01553
G1 X51.799 Y77.943 E18.03870
G1 X51.579 Y77.640 E18.05714
G1 X51.333 Y77.238 E18.08030
G1 X51.163 Y76.905 E18.09872
G1 X50.983 Y76.470 E18.12192
G1 X50.867 Y76.114 E18.14032
G1 X50.757 Y75.656 E18.16349
G1 X50.699 Y75.287 E18.18191
G1 X50.662 Y74.816 E18.20511
G1 X50.654 Y28.930 E20.46342
G1 X50.699 Y28.273 E20.49584
G1 X50.757 Y27.904 E20.51422
G1 X50.867 Y27.446 E20.53739
G1 X50.983 Y27.090 E20.55582
G1 X51.163 Y26.655 E20.57898
G1 X51.306 Y26.375 E20.59446
G1 E14.59446 F1800.00000
G92 E0
G1 X139.902 Y73.694 F9000.000
G1 E6.00000 F1800.00000
G1 X140.071 Y73.418 E6.01593 F600.000
G1 X140.282 Y73.172 E6.03186
G1 X140.528 Y72.961 E6.04779
G1 X140.804 Y72.792 E6.06372
G1 X141.103 Y72.668 E6.07965
G1 X141.417 Y72.593 E6.09557
G1 X141.740 Y72.567 E6.11150 F600.000
G1 X142.063 Y72.593 E6.12743
G1 X142.377 Y72.668 E6.14335
G1 X142.676 Y72.792 E6.15928
G1 X142.952 Y72.961 E6.17522
G1 X143.198 Y73.172 E6.19114
G1 X143.409 Y73.418 E6.20707
G1 X143.578 Y73.694 E6.22300
G1 X143.702 Y73.993 E6.23893
G1 X143.777 Y74.307 E6.25486
G1 X143.803 Y74.630 E6.27078
G1 X143.777 Y74.953 E6.28671
G1 X143.702 Y75.267 E6.30264
G1 X143.578 Y75.566 E6.31857
G1 X143.409 Y75.842 E6.33450
G1 X143.198 Y76.088 E6.35043
G1 X142.952 Y76.299 E6.36635
G1 X142.676 Y76.468 E6.38229
G1 X142.377 Y76.592 E6.39822
G1 X142.063 Y76.667 E6.41414
G1 X141.740 Y76.693 E6.43007
G1 X141.417 Y76.667 E6.44599
G1 X141.103 Y76.592 E6.46192
G1 X140.804 Y76.468 E6.47785
G1 X140.528 Y76.299 E6.49378
G1 X140.282 Y76.088 E6.50971
G1 X140.071 Y75.842 E6.52563
G1 X139.902 Y75.566 E6.54157
G1 X139.778 Y75.267 E6.55750
G1 X139.703 Y74.953 E6.57342
G1 X139.677 Y74.630 E6.58935
G1 X139.703 Y74.307 E6.60528
G1 X139.778 Y73.993 E6.62120
G1 X139.879 Y73.749 E6.63418
G1 X140.247 Y73.869 F9000.000
G1 X140.384 Y73.645 E6.64712 F600.000
G1 X140.555 Y73.445 E6.66006
G1 X140.755 Y73.274 E6.67300
G1 X140.979 Y73.137 E6.68594
G1 X141.222 Y73.036 E6.69889
G1 X141.478 Y72.975 E6.71183
G1 X141.740 Y72.954 E6.72477 F600.000
G1 X142.002 Y72.975 E6.73771
G1 X142.258 Y73.036 E6.75065
G1 X142.501 Y73.137 E6.76359
G1 X142.725 Y73.274 E6.77653
G1 X142.925 Y73.445 E6.78947
G1 X143.096 Y73.645 E6.80241
G1 X143.233 Y73.869 E6.81535
G1 X143.334 Y74.112 E6.82829
G1 X143.395 Y74.368 E6.84124
G1 X143.416 Y74.630 E6.85418
G1 X143.395 Y74.892 E6.86711
G1 X143.334 Y75.148 E6.88006
G1 X143.233 Y75.391 E6.89300
G1 X143.096 Y75.615 E6.90594
G1 X142.925 Y75.815 E6.91888
G1 X142.725 Y75.986 E6.93182
G1 X142.501 Y76.123 E6.94476
G1 X142.258 Y76.224 E6.95771
G1 X142.002 Y76.285 E6.97065
G1 X141.740 Y76.306 E6.98359
G1 X141.478 Y76.285 E6.99653
G1 X141.222 Y76.224 E7.00947
G1 X140.979 Y76.123 E7.02241
G1 X140.755 Y75.986 E7.03535
G1 X140.555 Y75.815 E7.04829
G1 X140.384 Y75.615 E7.06123
G1 X140.247 Y75.391 E7.07418
G1 X140.146 Y75.148 E7.08711
G1 X140.085 Y74.892 E7.10006
G1 X140.064 Y74.630 E7.11300
G1 X140.085 Y74.368 E7.12594
G1 X140.146 Y74.112 E7.13888
G1 X140.224 Y73.925 E7.14886
G1 X140.109 Y73.645 F9000.000
G1 X138.873 Y71.763 F9000.000
G1 X58.907 Y71.763 E11.08435 F600.000
G1 X58.907 Y31.797 E13.05123
G1 X138.873 Y31.797 E16.98672
G1 X138.873 Y71.703 E18.95065
G1 X139.258 Y72.148 F9000.000
G1 X58.522 Y72.148 E22.92409 F600.000
G1 X58.522 Y31.412 E24.92893
G1 X139.258 Y31.412 E28.90237
G1 X139.258 Y72.088 E30.90426
G1 X139.644 Y72.534 F9000.000
G1 X58.136 Y72.534 E34.91566 F600.000
G1 X58.136 Y31.026 E36.95845
G1 X139.644 Y31.026 E40.96985
G1 X139.644 Y72.474 E43.00970
G1 E37.00970 F1800.00000
G92 E0
G1 X141.740 Y30.993 F9000.000
G1 E6.00000 F1800.00000
G1 X141.417 Y30.967 E6.01593 F600.000
G1 X141.103 Y30.892 E6.03186
G1 X140.804 Y30.768 E6.04779
G1 X140.528 Y30.599 E6.06371
G1 X140.282 Y30.388 E6.07964
G1 X140.071 Y30.142 E6.09557
G1 X139.902 Y29.866 E6.11150
G1 X139.778 Y29.567 E6.12743
G1 X139.703 Y29.253 E6.14335
G1 X139.677 Y28.930 E6.15928
G1 X139.703 Y28.607 E6.17521
G1 X139.778 Y28.293 E6.19113
G1 X139.902 Y27.994 E6.20706
G1 X140.071 Y27.718 E6.22300
G1 X140.282 Y27.472 E6.23892
G1 X140.528 Y27.261 E6.25485
G1 X140.804 Y27.092 E6.27078
G1 X141.103 Y26.968 E6.28671
G1 X141.417 Y26.893 E6.30264
G1 X141.740 Y26.867 E6.31857 F600.000
G1 X142.063 Y26.893 E6.33449
G1 X142.377 Y26.968 E6.35042
G1 X142.676 Y27.092 E6.36635
G1 X142.952 Y27.261 E6.38228
G1 X143.198 Y27.472 E6.39820
G1 X143.409 Y27.718 E6.41413
G1 X143.578 Y27.994 E6.43007
G1 X143.702 Y28.293 E6.44599
G1 X143.777 Y28.607 E6.46192
G1 X143.802 Y28.930 E6.47785
G1 X143.777 Y29.253 E6.49378
G1 X143.702 Y29.567 E6.50970
G1 X143.578 Y29.866 E6.52563
G1 X143.409 Y30.142 E6.54156
G1 X143.198 Y30.388 E6.55749
G1 X142.952 Y30.599 E6.57342
G1 X142.676 Y30.768 E6.58934
G1 X142.377 Y30.892 E6.60527
G1 X142.063 Y30.967 E6.62120
G1 X141.800 Y30.988 E6.63418
G1 X141.740 Y30.606 F9000.000
G1 X141.478 Y30.585 E6.64712 F600.000
G1 X141.222 Y30.524 E6.66006
G1 X140.979 Y30.423 E6.67300
G1 X140.755 Y30.286 E6.68594
G1 X140.555 Y30.115 E6.69888
G1 X140.384 Y29.915 E6.71182
G1 X140.247 Y29.691 E6.72477
G1 X140.146 Y29.448 E6.73771
G1 X140.085 Y29.192 E6.75065
G1 X140.064 Y28.930 E6.76359
G1 X140.085 Y28.668 E6.77653
G1 X140.146 Y28.412 E6.78947
G1 X140.247 Y28.169 E6.80241
G1 X140.384 Y27.945 E6.81535
G1 X140.555 Y27.745 E6.82829
G1 X140.755 Y27.574 E6.84123
G1 X140.979 Y27.437 E6.85417
G1 X141.222 Y27.336 E6.86711
G1 X141.478 Y27.275 E6.88006
G1 X141.740 Y27.254 E6.89300 F600.000
G1 X142.002 Y27.275 E6.90594
G1 X142.258 Y27.336 E6.91888
G1 X142.501 Y27.437 E6.93182
G1 X142.725 Y27.574 E6.94476
G1 X142.925 Y27.745 E6.95770
G1 X143.096 Y27.945 E6.97064
G1 X143.233 Y28.169 E6.98359
G1 X143.334 Y28.412 E6.99653
G1 X143.395 Y28.668 E7.00947
G1 X143.416 Y28.930 E7.02241
G1 X143.395 Y29.192 E7.03535
G1 X143.334 Y29.448 E7.04829
G1 X143.233 Y29.691 E7.06123
G1 X143.096 Y29.915 E7.07417
G1 X142.925 Y30.115 E7.08711
G1 X142.725 Y30.286 E7.10005
G1 X142.501 Y30.423 E7.11299
G1 X142.258 Y30.524 E7.12593
G1 X142.002 Y30.585 E7.13888
G1 X141.800 Y30.601 E7.14886
G1 X141.603 Y30.830 F9000.000
G1 E1.14886 F1800.00000
G92 E0
G1 X58.103 Y28.930 F9000.000
G1 E6.00000 F1800.00000
G1 X58.077 Y29.253 E6.01593 F600.000
G1 X58.002 Y29.567 E6.03186
G1 X57.878 Y29.866 E6.04778
G1 X57.709 Y30.142 E6.06371
G1 X57.498 Y30.388 E6.07964
G1 X57.252 Y30.599 E6.09557
G1 X56.976 Y30.768 E6.11150
G1 X56.677 Y30.892 E6.12743
G1 X56.363 Y30.967 E6.14335
G1 X56.040 Y30.993 E6.15928
G1 X55.717 Y30.967 E6.17521
G1 X55.403 Y30.892 E6.19114
G1 X55.104 Y30.768 E6.20707
G1 X54.828 Y30.599 E6.22300
G1 X54.582 Y30.388 E6.23892
G1 X54.371 Y30.142 E6.25485
G1 X54.202 Y29.866 E6.27078
G1 X54.078 Y29.567 E6.28671
G1 X54.003 Y29.253 E6.30264
G1 X53.977 Y28.930 E6.31856
G1 X54.003 Y28.607 E6.33449
G1 X54.078 Y28.293 E6.35042
G1 X54.202 Y27.994 E6.36635
G1 X54.371 Y27.718 E6.38228
G1 X54.582 Y27.472 E6.39821
G1 X54.828 Y27.261 E6.41413
G1 X55.104 Y27.092 E6.43006
G1 X55.403 Y26.968 E6.44599
G1 X55.717 Y26.893 E6.46192
G1 X56.040 Y26.867 E6.47785 F600.000
G1 X56.363 Y26.893 E6.49377
G1 X56.677 Y26.968 E6.50970
G1 X56.976 Y27.092 E6.52563
G1 X57.252 Y27.261 E6.54156
G1 X57.498 Y27.472 E6.55749
G1 X57.709 Y27.718 E6.57342
G1 X57.878 Y27.994 E6.58934
G1 X58.002 Y28.293 E6.60527
G1 X58.077 Y28.607 E6.62120
G1 X58.098 Y28.870 E6.63418
G1 X57.716 Y28.930 F9000.000
G1 X57.695 Y29.192 E6.64712 F600.000
G1 X57.634 Y29.448 E6.66006
G1 X57.533 Y29.691 E6.67300
G1 X57.396 Y29.915 E6.68594
G1 X57.225 Y30.115 E6.69888
G1 X57.025 Y30.286 E6.71182
G1 X56.801 Y30.423 E6.72476
G1 X56.558 Y30.524 E6.73770
G1 X56.302 Y30.585 E6.75064
G1 X56.040 Y30.606 E6.76359
G1 X55.778 Y30.585 E6.77653
G1 X55.522 Y30.524 E6.78947
G1 X55.279 Y30.423 E6.80241
G1 X55.055 Y30.286 E6.81535
G1 X54.855 Y30.115 E6.82829
G1 X54.684 Y29.915 E6.84123
G1 X54.547 Y29.691 E6.85417
G1 X54.446 Y29.448 E6.86711
G1 X54.385 Y29.192 E6.88005
G1 X54.364 Y28.930 E6.89299
G1 X54.385 Y28.668 E6.90594
G1 X54.446 Y28.412 E6.91888
G1 X54.547 Y28.169 E6.93182
G1 X54.684 Y27.945 E6.94476
G1 X54.855 Y27.745 E6.95770
G1 X55.055 Y27.574 E6.97064
G1 X55.279 Y27.437 E6.98358
G1 X55.522 Y27.336 E6.99652
G1 X55.778 Y27.275 E7.00946
G1 X56.040 Y27.254 E7.02240 F600.000
G1 X56.302 Y27.275 E7.03534
G1 X56.558 Y27.336 E7.04829
G1 X56.801 Y27.437 E7.06123
G1 X57.025 Y27.574 E7.07417
G1 X57.225 Y27.745 E7.08711
G1 X57.396 Y27.945 E7.10005
G1 X57.533 Y28.169 E7.11299
G1 X57.634 Y28.412 E7.12593
G1 X57.695 Y28.668 E7.13887
G1 X57.711 Y28.870 E7.14886
G1 X57.940 Y29.067 F9000.000
G1 E1.14886 F1800.00000
G92 E0
G1 X56.040 Y72.567 F9000.000
G1 E6.00000 F1800.00000
G1 X56.363 Y72.593 E6.01593 F600.000
G1 X56.677 Y72.668 E6.03185
G1 X56.976 Y72.792 E6.04778
G1 X57.252 Y72.961 E6.06371
G1 X57.498 Y73.172 E6.07964
G1 X57.709 Y73.418 E6.09557
G1 X57.878 Y73.694 E6.11150
G1 X58.002 Y73.993 E6.12742
G1 X58.077 Y74.307 E6.14336
G1 X58.103 Y74.630 E6.15928
G1 X58.077 Y74.953 E6.17521
G1 X58.002 Y75.267 E6.19114
G1 X57.878 Y75.566 E6.20707
G1 X57.709 Y75.842 E6.22300
G1 X57.498 Y76.088 E6.23892
G1 X57.252 Y76.299 E6.25485
G1 X56.976 Y76.468 E6.27078
G1 X56.677 Y76.592 E6.28671
G1 X56.363 Y76.667 E6.30263
G1 X56.040 Y76.693 E6.31856
G1 X55.717 Y76.667 E6.33449
G1 X55.403 Y76.592 E6.35042
G1 X55.104 Y76.468 E6.36634
G1 X54.828 Y76.299 E6.38228
G1 X54.582 Y76.088 E6.39821
G1 X54.371 Y75.842 E6.41413
G1 X54.202 Y75.566 E6.43006
G1 X54.078 Y75.267 E6.44599
G1 X54.003 Y74.953 E6.46192
G1 X53.977 Y74.630 E6.47785
G1 X54.003 Y74.307 E6.49377
G1 X54.078 Y73.993 E6.50970
G1 X54.202 Y73.694 E6.52563
G1 X54.371 Y73.418 E6.54156
G1 X54.582 Y73.172 E6.55749
G1 X54.828 Y72.961 E6.57341
G1 X55.104 Y72.792 E6.58935
G1 X55.403 Y72.668 E6.60528
G1 X55.717 Y72.593 E6.62120
G1 X55.980 Y72.572 E6.63418 F600.000
G1 X56.040 Y72.954 F9000.000
G1 X56.302 Y72.975 E6.64712 F600.000
G1 X56.558 Y73.036 E6.66005
G1 X56.801 Y73.137 E6.67300
G1 X57.025 Y73.274 E6.68594
G1 X57.225 Y73.445 E6.69888
G1 X57.396 Y73.645 E6.71182
G1 X57.533 Y73.869 E6.72476
G1 X57.634 Y74.112 E6.73770
G1 X57.695 Y74.368 E6.75065
G1 X57.716 Y74.630 E6.76358
G1 X57.695 Y74.892 E6.77652
G1 X57.634 Y75.148 E6.78947
G1 X57.533 Y75.391 E6.80241
G1 X57.396 Y75.615 E6.81535
G1 X57.225 Y75.815 E6.82829
G1 X57.025 Y75.986 E6.84123
G1 X56.801 Y76.123 E6.85417
G1 X56.558 Y76.224 E6.86711
G1 X56.302 Y76.285 E6.88005
G1 X56.040 Y76.306 E6.89299
G1 X55.778 Y76.285 E6.90594
G1 X55.522 Y76.224 E6.91887
G1 X55.279 Y76.123 E6.93181
G1 X55.055 Y75.986 E6.94476
G1 X54.855 Y75.815 E6.95770
G1 X54.684 Y75.615 E6.97064
G1 X54.547 Y75.391 E6.98358
G1 X54.446 Y75.148 E6.99652
G1 X54.385 Y74.892 E7.00946
G1 X54.364 Y74.630 E7.02240
G1 X54.385 Y74.368 E7.03534
G1 X54.446 Y74.112 E7.04829
G1 X54.547 Y73.869 E7.06123
G1 X54.684 Y73.645 E7.07417
G1 X54.855 Y73.445 E7.08711
G1 X55.055 Y73.274 E7.10005
G1 X55.279 Y73.137 E7.11299
G1 X55.522 Y73.036 E7.12593
G1 X55.778 Y72.975 E7.13887
G1 X55.980 Y72.959 E7.14886 F600.000
G1 X56.177 Y72.730 F9000.000
G1 X57.751 Y72.763 F9000.000
G1 X57.751 Y30.798 E9.21417 F600.000
G1 X56.778 Y31.201 E9.26599
G1 X56.413 Y31.288 E9.28443
G1 X56.040 Y31.317 E9.30287
G1 X55.667 Y31.288 E9.32131
G1 X55.302 Y31.201 E9.33975
G1 X54.956 Y31.057 E9.35818
G1 X54.637 Y30.862 E9.37662
G1 X54.352 Y30.618 E9.39506
G1 X54.108 Y30.333 E9.41350
G1 X53.913 Y30.014 E9.43194
G1 X53.769 Y29.668 E9.45037
G1 X53.682 Y29.303 E9.46881
G1 X53.653 Y28.933 E9.48712
G1 X53.682 Y28.556 E9.50570
G1 X53.769 Y28.192 E9.52412
G1 X53.913 Y27.846 E9.54256
G1 X54.108 Y27.527 E9.56100
G1 X54.352 Y27.242 E9.57944
G1 X54.637 Y26.998 E9.59788
G1 X54.956 Y26.803 E9.61631
G1 X55.302 Y26.659 E9.63475
G1 X55.667 Y26.572 E9.65319
G1 X56.040 Y26.543 E9.67163
G1 X56.413 Y26.572 E9.69007
G1 X56.778 Y26.659 E9.70850
G1 X57.124 Y26.803 E9.72694
G1 X57.443 Y26.998 E9.74538
G1 X57.728 Y27.242 E9.76382
G1 X57.972 Y27.527 E9.78226
G1 X58.167 Y27.846 E9.80069
G1 X58.311 Y28.192 E9.81913
G1 X58.398 Y28.557 E9.83757
G1 X58.427 Y28.930 E9.85601
G1 X58.398 Y29.303 E9.87445
G1 X58.311 Y29.668 E9.89288
G1 X57.908 Y30.641 E9.94471
G1 X139.873 Y30.641 E13.97862
G1 X139.469 Y29.668 E14.03046
G1 X139.382 Y29.304 E14.04889
G1 X139.353 Y28.930 E14.06733
G1 X139.382 Y28.556 E14.08577
G1 X139.469 Y28.192 E14.10420
G1 X139.613 Y27.846 E14.12264
G1 X139.809 Y27.527 E14.14108
G1 X140.052 Y27.242 E14.15952
G1 X140.337 Y26.998 E14.17796
G1 X140.656 Y26.803 E14.19639
G1 X141.002 Y26.659 E14.21483
G1 X141.366 Y26.572 E14.23326
G1 X141.743 Y26.543 E14.25184
G1 X142.113 Y26.572 E14.27014
G1 X142.478 Y26.659 E14.28858
G1 X142.824 Y26.803 E14.30702
G1 X143.143 Y26.998 E14.32546
G1 X143.428 Y27.242 E14.34390
G1 X143.672 Y27.527 E14.36234
G1 X143.867 Y27.846 E14.38077
G1 X144.011 Y28.192 E14.39921
G1 X144.098 Y28.557 E14.41765
G1 X144.128 Y28.930 E14.43609
G1 X144.098 Y29.303 E14.45453
G1 X144.011 Y29.665 E14.47283
G1 X143.867 Y30.014 E14.49142
G1 X143.672 Y30.333 E14.50984
G1 X143.428 Y30.618 E14.52828
G1 X143.143 Y30.862 E14.54671
G1 X142.824 Y31.057 E14.56515
G1 X142.478 Y31.201 E14.58359
G1 X142.113 Y31.288 E14.60203
G1 X141.740 Y31.317 E14.62047
G1 X141.367 Y31.288 E14.63890
G1 X141.002 Y31.201 E14.65734
G1 X140.029 Y30.798 E14.70916
G1 X140.029 Y72.763 E16.77446
G1 X141.002 Y72.359 E16.82630
