; generated by Slic3r 1.2.9 on 2018-05-11 at 14:55:51

; external perimeters extrusion width = 0.40mm
; perimeters extrusion width = 0.62mm
; infill extrusion width = 0.33mm
; solid infill extrusion width = 0.62mm
; top infill extrusion width = 0.20mm

M106 S256; Turn on fan to 100% power
M104 S140; turn on extruder temperature at S value
M140 S60; turn on bed temperature at S value
G28; home all axes
M84; disable motors
G1 Z15 F15000; have Z move to 20mm at 15000 mm/min
M190 S55; turn on bed temperature at S value and wait
M140 S55; turn on bed temperature at S value (printing temperature)
M109 S200; turn on extruder temperature at S value and wait (printing temperature)
M104 S200; turn on extruder temperature at S value
G1 Z0 F12000; move Z back to home
G21 ; set units to millimeters
G90 ; use absolute coordinates
M82 ; use absolute distances for extrusion
G92 E0
M106 S255
;Layer change
G1 E-6.00000 F1800.00000
G92 E0
G1 Z0.300 F9000.000
G1 X108.356 Y14.272 F9000.000
G1 E6.00000 F1800.00000
G1 X108.497 Y13.520 E6.03767 F600.000
G1 X108.638 Y13.007 E6.06389
G1 X108.853 Y12.412 E6.09502
G1 X109.200 Y11.674 E6.13515
G1 X109.522 Y11.129 E6.16628
G1 X110.001 Y10.470 E6.20641
G1 X110.420 Y9.995 E6.23754
G1 X111.014 Y9.437 E6.27767
G1 X111.514 Y9.049 E6.30881
G1 X112.202 Y8.612 E6.34894
G1 X112.766 Y8.325 E6.38007
G1 X113.524 Y8.025 E6.42020
G1 X114.132 Y7.848 E6.45133
G1 X114.933 Y7.696 E6.49146
G1 X115.562 Y7.636 E6.52259
G1 X116.095 Y7.627 E6.54881
G1 X116.859 Y7.677 E6.58648 F600.000
G1 X117.336 Y7.748 E6.61025
G1 X117.954 Y7.886 E6.64138
G1 X118.416 Y8.025 E6.66514
G1 X119.174 Y8.325 E6.70527
G1 X119.606 Y8.540 E6.72903
G1 X120.024 Y8.782 E6.75279
G1 X120.547 Y9.137 E6.78392
G1 X120.926 Y9.437 E6.80768
G1 X121.285 Y9.760 E6.83144
G1 X121.843 Y10.354 E6.87157
G1 X122.143 Y10.733 E6.89533
G1 X122.418 Y11.129 E6.91909
G1 X122.740 Y11.674 E6.95022
G1 X122.955 Y12.106 E6.97398
G1 X123.255 Y12.864 E7.01411
G1 X123.394 Y13.326 E7.03787
G1 X123.532 Y13.944 E7.06900
G1 X123.603 Y14.421 E7.09276
G1 X123.644 Y14.902 E7.11652
G1 X123.654 Y15.385 E7.14028
G1 X123.603 Y16.199 E7.18041
G1 X123.532 Y16.676 E7.20418
G1 X123.394 Y17.294 E7.23530
G1 X123.255 Y17.756 E7.25907
G1 X122.955 Y18.514 E7.29919
G1 X122.740 Y18.946 E7.32295
G1 X122.498 Y19.364 E7.34671
G1 X122.231 Y19.766 E7.37047
G1 X121.843 Y20.266 E7.40161
G1 X121.320 Y20.825 E7.43928
G1 X120.926 Y21.183 E7.46549
G1 X120.547 Y21.483 E7.48926
G1 X120.024 Y21.838 E7.52039
G1 X119.606 Y22.080 E7.54414
G1 X119.128 Y22.315 E7.57036
G1 X118.416 Y22.595 E7.60803
G1 X117.954 Y22.734 E7.63179
G1 X117.336 Y22.872 E7.66292
G1 X116.859 Y22.943 E7.68668
G1 X116.378 Y22.984 E7.71044
G1 X115.895 Y22.994 E7.73420
G1 X115.081 Y22.943 E7.77433
G1 X114.604 Y22.872 E7.79810
G1 X113.986 Y22.734 E7.82923
G1 X113.524 Y22.595 E7.85299
G1 X113.071 Y22.427 E7.87675
G1 X112.334 Y22.080 E7.91688
G1 X111.916 Y21.838 E7.94064
G1 X111.393 Y21.483 E7.97177
G1 X111.014 Y21.183 E7.99553
G1 X110.655 Y20.860 E8.01929
G1 X110.130 Y20.303 E8.05696
G1 X109.797 Y19.887 E8.08318
G1 X109.522 Y19.491 E8.10694
G1 X109.200 Y18.946 E8.13807
G1 X108.985 Y18.514 E8.16183
G1 X108.685 Y17.756 E8.20196
G1 X108.546 Y17.294 E8.22572
G1 X108.408 Y16.676 E8.25685
G1 X108.337 Y16.199 E8.28061
G1 X108.286 Y15.385 E8.32075
G1 X108.296 Y14.902 E8.34450
G1 X108.348 Y14.332 E8.37268
G1 E2.37268 F1800.00000
G92 E0
G1 X118.283 Y15.310 F9000.000
G1 E6.00000 F1800.00000
G1 X118.242 Y15.743 E6.02143 F600.000
G1 X118.121 Y16.162 E6.04286
G1 X117.923 Y16.551 E6.06435
G1 X117.654 Y16.895 E6.08585
G1 X117.443 Y17.092 E6.10002
G1 X117.201 Y17.268 E6.11476
G1 X116.822 Y17.461 E6.13571
G1 X116.403 Y17.582 E6.15714
G1 X115.970 Y17.623 E6.17857
G1 X115.537 Y17.582 E6.20000
G1 X115.118 Y17.461 E6.22143
G1 X114.730 Y17.263 E6.24286
G1 X114.386 Y16.996 E6.26429
G1 X114.098 Y16.670 E6.28572
G1 X113.882 Y16.303 E6.30667
G1 X113.771 Y16.024 E6.32143
G1 X113.697 Y15.734 E6.33619
G1 X113.657 Y15.310 E6.35715
G1 X113.698 Y14.877 E6.37858
G1 X113.819 Y14.458 E6.40000
G1 X114.017 Y14.070 E6.42143
G1 X114.284 Y13.726 E6.44286
G1 X114.610 Y13.438 E6.46429
G1 X114.985 Y13.217 E6.48572
G1 X115.386 Y13.073 E6.50667
G1 X115.680 Y13.017 E6.52141
G1 X115.967 Y12.998 E6.53559 F600.000
G1 X116.402 Y13.037 E6.55709
G1 X116.822 Y13.159 E6.57858
G1 X117.210 Y13.357 E6.60000
G1 X117.554 Y13.624 E6.62143
G1 X117.842 Y13.950 E6.64286
G1 X118.058 Y14.317 E6.66382
G1 X118.169 Y14.596 E6.67858
G1 X118.243 Y14.886 E6.69334
G1 X118.278 Y15.250 E6.71134
G1 X117.896 Y15.310 F9000.000
G1 X117.862 Y15.671 E6.72918 F600.000
G1 X117.761 Y16.019 E6.74702
G1 X117.596 Y16.342 E6.76489
G1 X117.368 Y16.634 E6.78308
G1 X117.197 Y16.794 E6.79461
G1 X116.999 Y16.938 E6.80668
G1 X116.679 Y17.101 E6.82434
G1 X116.331 Y17.202 E6.84218
G1 X115.970 Y17.236 E6.86002
G1 X115.609 Y17.202 E6.87786
G1 X115.261 Y17.101 E6.89570
G1 X114.938 Y16.936 E6.91354
G1 X114.652 Y16.714 E6.93139
G1 X114.412 Y16.442 E6.94923
G1 X114.229 Y16.133 E6.96689
G1 X114.139 Y15.905 E6.97897
G1 X114.078 Y15.667 E6.99104
G1 X114.044 Y15.310 E7.00871
G1 X114.078 Y14.949 E7.02655
G1 X114.179 Y14.601 E7.04439
G1 X114.344 Y14.278 E7.06223
G1 X114.566 Y13.992 E7.08007
G1 X114.838 Y13.752 E7.09791
G1 X115.150 Y13.567 E7.11575
G1 X115.488 Y13.446 E7.13342
G1 X115.728 Y13.400 E7.14548
G1 X115.962 Y13.385 E7.15701 F600.000
G1 X116.330 Y13.418 E7.17521
G1 X116.679 Y13.519 E7.19307
G1 X117.002 Y13.684 E7.21091
G1 X117.288 Y13.906 E7.22875
G1 X117.528 Y14.178 E7.24659
G1 X117.711 Y14.487 E7.26426
G1 X117.801 Y14.715 E7.27633
G1 X117.862 Y14.953 E7.28841
G1 X117.890 Y15.250 E7.30312
G1 X118.204 Y15.501 F9000.000
G1 X120.647 Y15.137 F9000.000
G1 X120.658 Y15.310 E7.31165 F600.000
G1 X120.621 Y15.907 E7.34110
G1 X120.578 Y16.179 E7.35465
G1 X120.426 Y16.768 E7.38458
G1 X120.217 Y17.298 E7.41261
G1 X119.928 Y17.822 E7.44206
G1 X119.582 Y18.299 E7.47108
G1 X119.206 Y18.702 E7.49819
G1 X118.964 Y18.918 E7.51416
G1 X118.476 Y19.273 E7.54383
G1 X118.196 Y19.435 E7.55980
G1 X117.690 Y19.672 E7.58727
G1 X117.383 Y19.779 E7.60327
G1 X116.842 Y19.917 E7.63074
G1 X116.521 Y19.965 E7.64674
G1 X115.971 Y19.998 E7.67386
G1 X115.373 Y19.961 E7.70335
G1 X114.813 Y19.854 E7.73138
G1 X114.244 Y19.669 E7.76083
G1 X113.703 Y19.414 E7.79028
G1 X113.466 Y19.274 E7.80383
G1 X112.974 Y18.917 E7.83375
G1 X112.767 Y18.734 E7.84734
G1 X112.382 Y18.326 E7.87493
G1 X112.016 Y17.830 E7.90525
G1 X111.728 Y17.306 E7.93470
G1 X111.508 Y16.750 E7.96415
G1 X111.431 Y16.485 E7.97770
G1 X111.319 Y15.898 E8.00715
G1 X111.282 Y15.310 E8.03613
G1 X111.319 Y14.713 E8.06558
G1 X111.362 Y14.441 E8.07913
G1 X111.511 Y13.861 E8.10862
G1 X111.713 Y13.348 E8.13573
G1 X111.858 Y13.057 E8.15170
G1 X112.182 Y12.546 E8.18150
G1 X112.351 Y12.329 E8.19505
G1 X112.767 Y11.885 E8.22497
G1 X112.974 Y11.703 E8.23852
G1 X113.466 Y11.346 E8.26845
G1 X113.703 Y11.206 E8.28200
G1 X114.251 Y10.948 E8.31180
G1 X114.557 Y10.841 E8.32776
G1 X115.091 Y10.705 E8.35488
G1 X115.683 Y10.630 E8.38424
G1 X116.007 Y10.623 E8.40021
G1 X116.557 Y10.659 E8.42732
G1 X117.145 Y10.771 E8.45681 F600.000
G1 X117.410 Y10.848 E8.47036
G1 X117.975 Y11.072 E8.50029
G1 X118.220 Y11.197 E8.51384
G1 X118.734 Y11.522 E8.54376
G1 X118.951 Y11.691 E8.55731
G1 X119.395 Y12.107 E8.58723
G1 X119.577 Y12.314 E8.60079
G1 X119.934 Y12.806 E8.63071
G1 X120.074 Y13.043 E8.64426
G1 X120.333 Y13.593 E8.67418
G1 X120.426 Y13.852 E8.68773
G1 X120.578 Y14.441 E8.71766
G1 X120.621 Y14.713 E8.73121
G1 X120.644 Y15.077 E8.74917
G1 X121.032 Y15.113 F9000.000
G1 X121.045 Y15.310 E8.75890 F600.000
G1 X121.004 Y15.950 E8.79044
G1 X120.956 Y16.257 E8.80578
G1 X120.795 Y16.882 E8.83749
G1 X120.563 Y17.468 E8.86851
G1 X120.255 Y18.029 E8.90004
G1 X119.880 Y18.545 E8.93142
G1 X119.476 Y18.977 E8.96055
G1 X119.207 Y19.218 E8.97833
G1 X118.687 Y19.596 E9.00995
G1 X118.374 Y19.777 E9.02773
G1 X117.836 Y20.029 E9.05699
G1 X117.495 Y20.149 E9.07478
G1 X116.919 Y20.295 E9.10404
G1 X116.561 Y20.349 E9.12183
G1 X115.970 Y20.385 E9.15096
G1 X115.330 Y20.344 E9.18251
G1 X114.711 Y20.226 E9.21353
G1 X114.102 Y20.028 E9.24507
G1 X113.522 Y19.755 E9.27661
G1 X113.254 Y19.597 E9.29195
G1 X112.732 Y19.218 E9.32366
G1 X112.498 Y19.012 E9.33902
G1 X112.090 Y18.579 E9.36832
G1 X111.687 Y18.032 E9.40172
G1 X111.378 Y17.471 E9.43326
G1 X111.143 Y16.875 E9.46480
G1 X111.056 Y16.575 E9.48014
G1 X110.935 Y15.946 E9.51168
G1 X110.895 Y15.310 E9.54304
G1 X110.936 Y14.670 E9.57458
G1 X110.984 Y14.363 E9.58992
G1 X111.144 Y13.742 E9.62147
G1 X111.360 Y13.191 E9.65060
G1 X111.522 Y12.868 E9.66838
G1 X111.867 Y12.324 E9.70005
G1 X112.058 Y12.078 E9.71539
G1 X112.499 Y11.608 E9.74710
G1 X112.732 Y11.402 E9.76244
G1 X113.254 Y11.023 E9.79415
G1 X113.522 Y10.865 E9.80950
G1 X114.104 Y10.591 E9.84116
G1 X114.445 Y10.471 E9.85894
G1 X115.019 Y10.325 E9.88807
G1 X115.654 Y10.245 E9.91958
G1 X116.015 Y10.237 E9.93736
G1 X116.606 Y10.275 E9.96649
G1 X117.235 Y10.396 E9.99804 F600.000
G1 X117.535 Y10.483 E10.01338
G1 X118.134 Y10.720 E10.04509
G1 X118.412 Y10.861 E10.06043
G1 X118.956 Y11.206 E10.09215
G1 X119.202 Y11.398 E10.10749
G1 X119.672 Y11.839 E10.13920
G1 X119.878 Y12.072 E10.15454
G1 X120.257 Y12.594 E10.18625
G1 X120.415 Y12.862 E10.20160
G1 X120.690 Y13.445 E10.23331
G1 X120.795 Y13.738 E10.24865
G1 X120.956 Y14.363 E10.28036
G1 X121.004 Y14.670 E10.29570
G1 X121.028 Y15.053 E10.31456
G1 X120.867 Y15.222 F9000.000
G1 X120.273 Y16.296 F9000.000
G1 X118.455 Y14.478 E10.44282 F600.000
G1 X118.560 Y15.136 E10.47605
G1 X120.160 Y16.736 E10.58894
G1 X120.006 Y17.135 E10.61027
G1 X118.528 Y15.657 E10.71454
G1 X118.415 Y16.096 E10.73719
G1 X119.816 Y17.498 E10.83606
G1 X119.605 Y17.839 E10.85610
G1 X118.246 Y16.480 E10.95203
G1 X118.031 Y16.819 E10.97202
G1 X119.369 Y18.156 E11.06640
G1 X119.092 Y18.433 E11.08590
G1 X117.779 Y17.119 E11.17856
G1 X117.482 Y17.374 E11.19812
G1 X118.816 Y18.709 E11.29228
G1 X118.499 Y18.945 E11.31200
G1 X117.140 Y17.586 E11.40792
G1 X116.756 Y17.755 E11.42884
G1 X118.163 Y19.161 E11.52806
G1 X117.790 Y19.341 E11.54871
G1 X116.317 Y17.868 E11.65266
G1 X115.796 Y17.900 E11.67871
G1 X117.394 Y19.499 E11.79150
G1 X116.956 Y19.613 E11.81410
G1 X115.130 Y17.787 E11.94297
G1 X113.309 Y18.731 F9000.000
G1 X112.552 Y17.973 E11.99642 F600.000
G1 X111.832 Y16.701 F9000.000
G1 X114.580 Y19.449 E12.19033 F600.000
G1 X115.331 Y19.647 E12.22905
G1 X111.635 Y15.951 E12.48983
G1 X111.573 Y15.336 E12.52065
G1 X115.944 Y19.707 E12.82905
G1 X116.478 Y19.688 E12.85571
G1 X111.593 Y14.803 E13.20039
G1 X113.485 Y16.142 F9000.000
G1 X111.667 Y14.324 E13.32865 F600.000
G1 X111.781 Y13.885 E13.35128
G1 X113.380 Y15.484 E13.46413
G1 X113.412 Y14.963 E13.49017
G1 X111.937 Y13.488 E13.59425
G1 X112.119 Y13.118 E13.61486
G1 X113.525 Y14.524 E13.71406
G1 X113.694 Y14.140 E13.73498
G1 X112.334 Y12.779 E13.83099
G1 X112.571 Y12.464 E13.85069
G1 X113.908 Y13.801 E13.94504
G1 X114.161 Y13.501 E13.96462
G1 X112.847 Y12.188 E14.05730
G1 X113.124 Y11.911 E14.07680
G1 X114.455 Y13.242 E14.17071
G1 X114.798 Y13.033 E14.19078
G1 X113.441 Y11.675 E14.28658
G1 X113.776 Y11.457 E14.30652
G1 X115.186 Y12.867 E14.40601
G1 X115.624 Y12.752 E14.42860
G1 X114.150 Y11.279 E14.53257
G1 X114.546 Y11.121 E14.55380
G1 X116.146 Y12.721 E14.66669
G1 X116.810 Y12.833 E14.70031
G1 X114.984 Y11.007 E14.82918
G1 X115.464 Y10.934 E14.85341
G1 X120.347 Y15.817 E15.19794
G1 X120.367 Y15.284 E15.22455
G1 X115.995 Y10.912 E15.53305
G1 X116.611 Y10.975 E15.56395
G1 X120.314 Y14.678 E15.82524
G1 X120.118 Y13.930 E15.86385
G1 X117.361 Y11.172 E16.05841
G1 X118.619 Y11.878 F9000.000
G1 X119.391 Y12.650 E16.11289 F600.000
M140 S55 ; wait for bed temperature to be reached
;Layer change
G1 E10.11289 F1800.00000
G92 E0
G1 Z0.520 F9000.000
G1 X118.335 Y15.310 F9000.000
G1 E6.00000 F1800.00000
G1 X118.293 Y15.753 E6.02380 F900.000
G1 X118.169 Y16.181 E6.04759
G1 X117.967 Y16.577 E6.07139
G1 X117.694 Y16.929 E6.09518
G1 X117.360 Y17.223 E6.11898
G1 X116.984 Y17.445 E6.14231
G1 X116.653 Y17.575 E6.16134
G1 X116.428 Y17.628 E6.17371
G1 X115.973 Y17.675 E6.19812
G1 X115.527 Y17.633 E6.22210
G1 X115.099 Y17.509 E6.24590
G1 X114.703 Y17.307 E6.26969
G1 X114.351 Y17.034 E6.29349
G1 X114.057 Y16.700 E6.31729
G1 X113.835 Y16.326 E6.34052
G1 X113.722 Y16.040 E6.35695
G1 X113.646 Y15.743 E6.37337
G1 X113.605 Y15.310 E6.39661
G1 X113.647 Y14.867 E6.42040
G1 X113.771 Y14.439 E6.44420
G1 X113.973 Y14.043 E6.46800
G1 X114.246 Y13.691 E6.49179
G1 X114.580 Y13.397 E6.51559
G1 X114.963 Y13.170 E6.53938
G1 X115.390 Y13.017 E6.56362
G1 X115.925 Y12.945 E6.59247 F900.000
G1 X116.410 Y12.986 E6.61850
G1 X116.841 Y13.111 E6.64249
G1 X117.237 Y13.313 E6.66628
G1 X117.589 Y13.586 E6.69008
G1 X117.883 Y13.920 E6.71388
G1 X118.105 Y14.294 E6.73711
G1 X118.218 Y14.580 E6.75354
G1 X118.294 Y14.877 E6.76996
G1 X118.329 Y15.250 E6.78999
G1 X117.871 Y15.310 F9000.000
G1 X117.837 Y15.666 E6.80180 F900.000
G1 X117.737 Y16.010 E6.81362
G1 X117.575 Y16.329 E6.82543
G1 X117.356 Y16.611 E6.83724
G1 X117.087 Y16.848 E6.84906
G1 X116.782 Y17.029 E6.86078
G1 X116.515 Y17.132 E6.87022
G1 X116.350 Y17.171 E6.87581
G1 X115.971 Y17.211 E6.88841
G1 X115.614 Y17.177 E6.90026
G1 X115.270 Y17.077 E6.91207
G1 X114.951 Y16.915 E6.92388
G1 X114.669 Y16.696 E6.93569
G1 X114.432 Y16.427 E6.94751
G1 X114.252 Y16.122 E6.95922
G1 X114.163 Y15.897 E6.96720
G1 X114.102 Y15.663 E6.97519
G1 X114.069 Y15.310 E6.98689
G1 X114.103 Y14.954 E6.99871
G1 X114.203 Y14.610 E7.01052
G1 X114.365 Y14.291 E7.02233
G1 X114.584 Y14.009 E7.03415
G1 X114.853 Y13.772 E7.04596
G1 X115.161 Y13.590 E7.05777
G1 X115.500 Y13.468 E7.06967
G1 X115.936 Y13.410 E7.08420 F900.000
G1 X116.325 Y13.442 E7.09710
G1 X116.670 Y13.543 E7.10895
G1 X116.989 Y13.705 E7.12076
G1 X117.271 Y13.924 E7.13258
G1 X117.508 Y14.193 E7.14439
G1 X117.688 Y14.498 E7.15610
G1 X117.777 Y14.723 E7.16408
G1 X117.838 Y14.957 E7.17207
G1 X117.865 Y15.250 E7.18179
G1 X118.175 Y15.499 F9000.000
G1 X120.596 Y15.481 F9000.000
G1 X120.570 Y15.892 E7.20381 F900.000
G1 X120.474 Y16.406 E7.23173
G1 X120.382 Y16.737 E7.25009
G1 X120.165 Y17.284 E7.28157
G1 X119.880 Y17.804 E7.31326
G1 X119.722 Y18.036 E7.32827
G1 X119.550 Y18.258 E7.34329
G1 X119.137 Y18.698 E7.37554
G1 X118.934 Y18.877 E7.39000
G1 X118.446 Y19.231 E7.42224
G1 X118.213 Y19.369 E7.43670
G1 X117.667 Y19.626 E7.46895
G1 X117.413 Y19.717 E7.48341
G1 X116.829 Y19.867 E7.51565
G1 X116.562 Y19.909 E7.53012
G1 X115.970 Y19.947 E7.56180
G1 X115.378 Y19.909 E7.59349
G1 X114.827 Y19.804 E7.62351
G1 X114.263 Y19.621 E7.65520
G1 X113.727 Y19.369 E7.68688
G1 X113.494 Y19.231 E7.70134
G1 X113.006 Y18.877 E7.73359
G1 X112.803 Y18.698 E7.74805
G1 X112.390 Y18.258 E7.78029
G1 X112.223 Y18.042 E7.79490
G1 X111.966 Y17.645 E7.82017
G1 X111.776 Y17.288 E7.84178
G1 X111.556 Y16.733 E7.87370
G1 X111.481 Y16.473 E7.88816
G1 X111.370 Y15.891 E7.91985
G1 X111.333 Y15.310 E7.95098
G1 X111.370 Y14.728 E7.98218
G1 X111.466 Y14.214 E8.01010
G1 X111.558 Y13.883 E8.02845
G1 X111.775 Y13.336 E8.05994
G1 X112.060 Y12.816 E8.09162
G1 X112.390 Y12.362 E8.12164
G1 X112.803 Y11.922 E8.15389
G1 X113.006 Y11.743 E8.16835
G1 X113.494 Y11.389 E8.20059
G1 X113.727 Y11.251 E8.21506
G1 X114.273 Y10.994 E8.24730
G1 X114.527 Y10.903 E8.26176
G1 X115.101 Y10.755 E8.29345
G1 X115.683 Y10.682 E8.32481
G1 X116.087 Y10.677 E8.34642
G1 X116.548 Y10.709 E8.37113
G1 X117.133 Y10.821 E8.40296 F900.000
G1 X117.393 Y10.896 E8.41742
G1 X117.954 Y11.118 E8.44967
G1 X118.195 Y11.241 E8.46413
G1 X118.704 Y11.564 E8.49637
G1 X118.918 Y11.730 E8.51084
G1 X119.358 Y12.143 E8.54308
G1 X119.537 Y12.346 E8.55754
G1 X119.885 Y12.826 E8.58923
G1 X120.170 Y13.345 E8.62091
G1 X120.377 Y13.867 E8.65094
G1 X120.527 Y14.451 E8.68318
G1 X120.569 Y14.718 E8.69764
G1 X120.600 Y15.422 E8.73526
G1 X121.057 Y15.510 F9000.000
G1 X121.029 Y15.950 E8.74979 F900.000
G1 X120.925 Y16.510 E8.76863
G1 X120.821 Y16.884 E8.78143
G1 X120.584 Y17.481 E8.80264
G1 X120.274 Y18.045 E8.82389
G1 X120.096 Y18.308 E8.83437
G1 X119.901 Y18.558 E8.84484
G1 X119.459 Y19.030 E8.86620
G1 X119.223 Y19.237 E8.87657
G1 X118.700 Y19.618 E8.89792
