; generated by Slic3r 1.2.9 on 2018-05-11 at 17:03:24

; external perimeters extrusion width = 0.40mm
; perimeters extrusion width = 0.62mm
; infill extrusion width = 0.33mm
; solid infill extrusion width = 0.62mm
; top infill extrusion width = 0.20mm

M106 S256; Turn on fan to 100% power
M104 S140; turn on extruder temperature at S value
M140 S60; turn on bed temperature at S value
G28; home all axes
M84; disable motors
G1 Z15 F15000; have Z move to 20mm at 15000 mm/min
M190 S55; turn on bed temperature at S value and wait
M140 S55; turn on bed temperature at S value (printing temperature)
M109 S200; turn on extruder temperature at S value and wait (printing temperature)
M104 S200; turn on extruder temperature at S value
G1 Z0 F12000; move Z back to home
G21 ; set units to millimeters
G90 ; use absolute coordinates
M82 ; use absolute distances for extrusion
G92 E0
M106 S255
;Layer change
G1 E-6.00000 F1800.00000
G92 E0
G1 Z0.300 F9000.000
G1 X63.714 Y28.947 F9000.000
G1 E6.00000 F1800.00000
G1 X64.006 Y28.375 E6.03159 F600.000
G1 X64.260 Y27.954 E6.05583
G1 X64.751 Y27.279 E6.09686
G1 X65.073 Y26.907 E6.12108
G1 X65.417 Y26.555 E6.14532
G1 X65.783 Y26.226 E6.16953
G1 X66.170 Y25.921 E6.19378
G1 X66.700 Y25.560 E6.22535
G1 X67.126 Y25.313 E6.24958
G1 X67.881 Y24.958 E6.29064
G1 X68.343 Y24.787 E6.31487
G1 X68.814 Y24.645 E6.33907
G1 X69.293 Y24.533 E6.36331
G1 X69.927 Y24.433 E6.39490
G1 X70.418 Y24.391 E6.41913
G1 X70.961 Y24.382 E6.44587
G1 X71.743 Y24.433 E6.48441 F600.000
G1 X72.377 Y24.533 E6.51600
G1 X73.185 Y24.741 E6.55706
G1 X73.649 Y24.903 E6.58129
G1 X74.239 Y25.158 E6.61288
G1 X74.675 Y25.386 E6.63710
G1 X75.096 Y25.640 E6.66133
G1 X75.771 Y26.131 E6.70238
G1 X76.253 Y26.555 E6.73398
G1 X76.597 Y26.907 E6.75820
G1 X76.919 Y27.279 E6.78243
G1 X77.410 Y27.954 E6.82348
G1 X77.664 Y28.375 E6.84771
G1 X77.956 Y28.947 E6.87930
G1 X78.147 Y29.401 E6.90353
G1 X78.405 Y30.194 E6.94459
G1 X78.517 Y30.673 E6.96881
G1 X78.617 Y31.307 E7.00040
G1 X78.659 Y31.798 E7.02463
G1 X78.659 Y32.632 E7.06568
G1 X78.617 Y33.123 E7.08991
G1 X78.517 Y33.757 E7.12151
G1 X78.309 Y34.565 E7.16256
G1 X78.147 Y35.029 E7.18679
G1 X77.956 Y35.483 E7.21101
G1 X77.664 Y36.055 E7.24260
G1 X77.410 Y36.476 E7.26683
G1 X76.919 Y37.151 E7.30789
G1 X76.597 Y37.523 E7.33211
G1 X76.143 Y37.977 E7.36370
G1 X75.771 Y38.299 E7.38793
G1 X75.096 Y38.790 E7.42898
G1 X74.675 Y39.044 E7.45321
G1 X74.103 Y39.336 E7.48481
G1 X73.327 Y39.643 E7.52586
G1 X72.711 Y39.822 E7.55746
G1 X72.229 Y39.925 E7.58168
G1 X71.402 Y40.029 E7.62274
G1 X70.910 Y40.049 E7.64697
G1 X70.268 Y40.029 E7.67856
G1 X69.779 Y39.978 E7.70279
G1 X68.959 Y39.822 E7.74384
G1 X68.485 Y39.689 E7.76807
G1 X67.881 Y39.472 E7.79966
G1 X67.126 Y39.117 E7.84072
G1 X66.700 Y38.870 E7.86494
G1 X66.170 Y38.509 E7.89652
G1 X65.783 Y38.204 E7.92077
G1 X65.175 Y37.633 E7.96182
G1 X64.846 Y37.267 E7.98605
G1 X64.453 Y36.760 E8.01762
G1 X64.180 Y36.350 E8.04186
G1 X63.933 Y35.923 E8.06610
G1 X63.578 Y35.169 E8.10714
G1 X63.407 Y34.707 E8.13136
G1 X63.228 Y34.091 E8.16296
G1 X63.125 Y33.609 E8.18721
G1 X63.021 Y32.782 E8.22825
G1 X63.001 Y32.140 E8.25985
G1 X63.021 Y31.648 E8.28406
G1 X63.125 Y30.821 E8.32510
G1 X63.228 Y30.339 E8.34935
G1 X63.407 Y29.723 E8.38095
G1 X63.691 Y29.002 E8.41906
G1 E2.41906 F1800.00000
G92 E0
G1 X73.107 Y32.647 F9000.000
G1 E6.00000 F1800.00000
G1 X73.034 Y32.930 E6.01438 F600.000
G1 X72.923 Y33.208 E6.02913
G1 X72.707 Y33.575 E6.05008
G1 X72.419 Y33.901 E6.07151
G1 X72.075 Y34.168 E6.09294
G1 X71.687 Y34.366 E6.11437
G1 X71.268 Y34.487 E6.13579
G1 X70.835 Y34.528 E6.15722
G1 X70.402 Y34.487 E6.17865
G1 X69.983 Y34.366 E6.20008
G1 X69.595 Y34.168 E6.22151
G1 X69.251 Y33.901 E6.24294
G1 X68.964 Y33.575 E6.26436
G1 X68.747 Y33.208 E6.28532
G1 X68.636 Y32.929 E6.30008
G1 X68.562 Y32.639 E6.31484
G1 X68.522 Y32.215 E6.33580
G1 X68.563 Y31.782 E6.35723
G1 X68.684 Y31.363 E6.37865
G1 X68.882 Y30.975 E6.40008
G1 X69.149 Y30.631 E6.42152
G1 X69.475 Y30.343 E6.44294
G1 X69.850 Y30.122 E6.46437
G1 X70.251 Y29.978 E6.48532
G1 X70.545 Y29.921 E6.50007
G1 X70.837 Y29.903 E6.51445 F600.000
G1 X71.268 Y29.942 E6.53576
G1 X71.687 Y30.064 E6.55723
G1 X72.075 Y30.262 E6.57866
G1 X72.419 Y30.529 E6.60008
G1 X72.707 Y30.856 E6.62155
G1 X72.926 Y31.229 E6.64286
G1 X73.034 Y31.501 E6.65724
G1 X73.108 Y31.791 E6.67199
G1 X73.148 Y32.216 E6.69298
G1 X73.112 Y32.587 E6.71134
G1 X72.726 Y32.580 F9000.000
G1 X72.666 Y32.810 E6.72306 F600.000
G1 X72.576 Y33.038 E6.73513
G1 X72.393 Y33.347 E6.75279
G1 X72.153 Y33.619 E6.77063
G1 X71.867 Y33.841 E6.78847
G1 X71.544 Y34.006 E6.80631
G1 X71.196 Y34.107 E6.82415
G1 X70.835 Y34.141 E6.84200
G1 X70.474 Y34.107 E6.85983
G1 X70.126 Y34.006 E6.87768
G1 X69.803 Y33.841 E6.89552
G1 X69.517 Y33.619 E6.91336
G1 X69.277 Y33.347 E6.93120
G1 X69.094 Y33.038 E6.94886
G1 X69.004 Y32.810 E6.96094
G1 X68.943 Y32.572 E6.97301
G1 X68.909 Y32.215 E6.99068
G1 X68.943 Y31.854 E7.00852
G1 X69.044 Y31.506 E7.02636
G1 X69.209 Y31.183 E7.04420
G1 X69.431 Y30.897 E7.06205
G1 X69.703 Y30.657 E7.07988
G1 X70.015 Y30.472 E7.09772
G1 X70.353 Y30.351 E7.11539
G1 X70.594 Y30.305 E7.12746
G1 X70.831 Y30.290 E7.13918 F600.000
G1 X71.196 Y30.323 E7.15719
G1 X71.544 Y30.424 E7.17504
G1 X71.867 Y30.589 E7.19288
G1 X72.153 Y30.811 E7.21072
G1 X72.393 Y31.083 E7.22858
G1 X72.579 Y31.399 E7.24659
G1 X72.666 Y31.620 E7.25831
G1 X72.727 Y31.858 E7.27038
G1 X72.761 Y32.215 E7.28806
G1 X72.731 Y32.520 E7.30312
G1 X72.904 Y32.737 F9000.000
G1 X75.541 Y33.302 F9000.000
G1 X75.434 Y33.719 E7.32430 F600.000
G1 X75.217 Y34.267 E7.35327
G1 X74.920 Y34.807 E7.38364
G1 X74.557 Y35.307 E7.41402
G1 X74.369 Y35.520 E7.42803
G1 X73.912 Y35.949 E7.45888
G1 X73.436 Y36.295 E7.48785
G1 X72.895 Y36.593 E7.51822
G1 X72.330 Y36.816 E7.54812
G1 X71.742 Y36.967 E7.57803
G1 X71.129 Y37.045 E7.60840
G1 X70.541 Y37.045 E7.63736
G1 X69.919 Y36.966 E7.66821
G1 X69.641 Y36.904 E7.68223
G1 X69.054 Y36.713 E7.71261
G1 X68.495 Y36.451 E7.74298
G1 X68.250 Y36.306 E7.75700
G1 X67.750 Y35.942 E7.78741
G1 X67.335 Y35.554 E7.81538
G1 X67.111 Y35.305 E7.83188
G1 X66.744 Y34.800 E7.86261
G1 X66.599 Y34.555 E7.87663
G1 X66.332 Y33.987 E7.90748
G1 X66.236 Y33.719 E7.92149
G1 X66.080 Y33.112 E7.95234
G1 X66.036 Y32.831 E7.96635
G1 X65.997 Y32.214 E7.99677
G1 X66.031 Y31.647 E8.02474
G1 X66.081 Y31.315 E8.04125
G1 X66.236 Y30.711 E8.07197
G1 X66.332 Y30.443 E8.08598
G1 X66.599 Y29.875 E8.11683
G1 X66.744 Y29.630 E8.13085
G1 X67.107 Y29.131 E8.16123
G1 X67.530 Y28.681 E8.19160
G1 X67.743 Y28.493 E8.20562
G1 X68.250 Y28.124 E8.23647
G1 X68.495 Y27.979 E8.25048
G1 X69.054 Y27.717 E8.28086
G1 X69.641 Y27.526 E8.31123
G1 X69.919 Y27.464 E8.32525
G1 X70.538 Y27.385 E8.35598
G1 X70.873 Y27.378 E8.37248
G1 X71.441 Y27.415 E8.40045
G1 X72.048 Y27.531 E8.43086 F600.000
G1 X72.321 Y27.610 E8.44488
G1 X72.895 Y27.837 E8.47526
G1 X73.436 Y28.135 E8.50563
G1 X73.912 Y28.481 E8.53459
G1 X74.369 Y28.910 E8.56544
G1 X74.557 Y29.123 E8.57946
G1 X74.920 Y29.623 E8.60987
G1 X75.196 Y30.121 E8.63785
G1 X75.335 Y30.436 E8.65482
G1 X75.434 Y30.711 E8.66918
G1 X75.587 Y31.308 E8.69956
G1 X75.665 Y31.921 E8.72994
G1 X75.674 Y32.215 E8.74442
G1 X75.665 Y32.509 E8.75891
G1 X75.587 Y33.122 E8.78929
G1 X75.556 Y33.244 E8.79553
G1 X75.915 Y33.398 F9000.000
G1 X75.803 Y33.833 E8.81761 F600.000
G1 X75.564 Y34.436 E8.84955
G1 X75.246 Y35.014 E8.88202
G1 X74.859 Y35.548 E8.91448
G1 X74.646 Y35.789 E8.93029
G1 X74.163 Y36.243 E8.96293
G1 X73.638 Y36.625 E8.99487
G1 X73.060 Y36.942 E9.02733
G1 X72.449 Y37.184 E9.05962
G1 X71.814 Y37.347 E9.09191
G1 X71.160 Y37.430 E9.12438
G1 X70.510 Y37.430 E9.15632
G1 X69.853 Y37.347 E9.18896
G1 X69.539 Y37.277 E9.20477
G1 X68.912 Y37.073 E9.23723
G1 X68.315 Y36.792 E9.26970
G1 X68.038 Y36.628 E9.28551
G1 X67.504 Y36.240 E9.31798
G1 X67.059 Y35.825 E9.34797
G1 X66.811 Y35.547 E9.36628
G1 X66.422 Y35.012 E9.39888
G1 X66.258 Y34.735 E9.41468
G1 X65.976 Y34.135 E9.44732
G1 X65.867 Y33.833 E9.46313
G1 X65.702 Y33.191 E9.49576
G1 X65.652 Y32.873 E9.51157
G1 X65.610 Y32.215 E9.54405
G1 X65.647 Y31.607 E9.57403
G1 X65.702 Y31.239 E9.59235
G1 X65.867 Y30.597 E9.62494
G1 X65.976 Y30.295 E9.64075
G1 X66.258 Y29.695 E9.67339
G1 X66.422 Y29.418 E9.68919
G1 X66.809 Y28.885 E9.72166
G1 X67.261 Y28.404 E9.75412
G1 X67.502 Y28.191 E9.76993
G1 X68.038 Y27.802 E9.80257
G1 X68.315 Y27.638 E9.81837
G1 X68.912 Y27.357 E9.85084
G1 X69.539 Y27.153 E9.88330
G1 X69.853 Y27.083 E9.89911
G1 X70.510 Y27.000 E9.93170
G1 X70.882 Y26.992 E9.95002
G1 X71.490 Y27.032 E9.98000
G1 X72.138 Y27.155 E10.01248 F600.000
G1 X72.446 Y27.245 E10.02829
G1 X73.060 Y27.488 E10.06075
G1 X73.638 Y27.805 E10.09322
G1 X74.163 Y28.187 E10.12516
G1 X74.646 Y28.641 E10.15780
G1 X74.859 Y28.882 E10.17361
G1 X75.246 Y29.416 E10.20608
G1 X75.541 Y29.949 E10.23607
G1 X75.693 Y30.292 E10.25456
G1 X75.803 Y30.597 E10.27049
G1 X75.967 Y31.236 E10.30296
G1 X76.050 Y31.890 E10.33542
G1 X76.060 Y32.215 E10.35140
G1 X76.050 Y32.540 E10.36738
G1 X75.967 Y33.194 E10.39985
G1 X75.929 Y33.340 E10.40728
G1 X75.529 Y33.506 F9000.000
G1 X75.310 Y33.133 F9000.000
G1 X73.181 Y31.004 E10.55594 F600.000
G1 X73.399 Y31.770 E10.59526
G1 X75.198 Y33.568 E10.72089
G1 X75.055 Y33.972 E10.74206
G1 X73.415 Y32.332 E10.85661
G1 X73.340 Y32.805 E10.88026
G1 X74.883 Y34.347 E10.98797
G1 X74.688 Y34.700 E11.00786
G1 X73.201 Y33.213 E11.11172
G1 X73.006 Y33.566 E11.13162
G1 X74.457 Y35.017 E11.23296
G1 X74.200 Y35.307 E11.25211
G1 X72.772 Y33.879 E11.35185
G1 X72.501 Y34.155 E11.37097
G1 X73.927 Y35.580 E11.47053
G1 X73.637 Y35.838 E11.48968
G1 X72.193 Y34.394 E11.59056
G1 X71.831 Y34.579 E11.61065
G1 X73.320 Y36.068 E11.71467
G1 X72.967 Y36.263 E11.73457
G1 X71.422 Y34.718 E11.84246
G1 X70.952 Y34.795 E11.86599
G1 X72.591 Y36.434 E11.98047
G1 X72.188 Y36.578 E12.00161
G1 X70.389 Y34.779 E12.12724
G1 X69.607 Y34.544 E12.16758
G1 X71.752 Y36.690 E12.31743
G1 X71.267 Y36.751 E12.34161
G1 X66.302 Y31.787 E12.68835
G1 X66.360 Y31.297 E12.71269
G1 X68.489 Y33.427 E12.86142
G1 X68.271 Y32.661 E12.90076
G1 X66.472 Y30.862 E13.02640
G1 X66.611 Y30.454 E13.04769
G1 X68.255 Y32.098 E13.16252
G1 X68.332 Y31.628 E13.18605
G1 X66.786 Y30.082 E13.29403
G1 X66.982 Y29.730 E13.31389
G1 X68.471 Y31.219 E13.41786
G1 X68.656 Y30.857 E13.43795
G1 X67.213 Y29.414 E13.53877
G1 X67.470 Y29.123 E13.55792
G1 X68.895 Y30.549 E13.65749
G1 X69.171 Y30.278 E13.67660
G1 X67.743 Y28.850 E13.77635
G1 X68.033 Y28.593 E13.79549
G1 X69.484 Y30.044 E13.89683
G1 X69.837 Y29.849 E13.91673
G1 X68.350 Y28.362 E14.02058
G1 X68.702 Y28.166 E14.04044
G1 X70.240 Y29.705 E14.14790
G1 X70.714 Y29.631 E14.17158
G1 X69.074 Y27.991 E14.28615
G1 X69.483 Y27.853 E14.30748
G1 X71.281 Y29.651 E14.43303
G1 X72.063 Y29.886 E14.47336
G1 X69.917 Y27.740 E14.62319
G1 X70.403 Y27.679 E14.64737
G1 X75.371 Y32.647 E14.99435
G1 X75.381 Y32.109 E15.02089
G1 X70.944 Y27.672 E15.33080
G1 X71.563 Y27.744 E15.36159
G1 X75.314 Y31.495 E15.62357
G1 X75.096 Y30.730 E15.66285
G1 X72.319 Y27.953 E15.85681
G1 X73.584 Y28.670 F9000.000
G1 X74.370 Y29.456 E15.91171 F600.000
G1 X70.729 Y36.761 F9000.000
G1 X66.293 Y32.325 E16.22153 F600.000
G1 X66.353 Y32.932 E16.25163
G1 X70.115 Y36.694 E16.51440
G1 X69.356 Y36.482 E16.55330
G1 X66.560 Y33.687 E16.74857
G1 X67.301 Y34.974 F9000.000
G1 X68.076 Y35.749 E16.80270 F600.000
M140 S55 ; wait for bed temperature to be reached
;Layer change
G1 E10.80270 F1800.00000
G92 E0
G1 Z0.520 F9000.000
G1 X73.149 Y32.688 F9000.000
G1 E6.00000 F1800.00000
G1 X73.083 Y32.945 E6.01419 F900.000
G1 X72.970 Y33.231 E6.03062
G1 X72.748 Y33.605 E6.05385
G1 X72.454 Y33.939 E6.07765
G1 X72.102 Y34.212 E6.10144
G1 X71.706 Y34.414 E6.12524
G1 X71.278 Y34.538 E6.14904
G1 X70.835 Y34.580 E6.17283
G1 X70.392 Y34.538 E6.19663
G1 X69.964 Y34.414 E6.22042
G1 X69.568 Y34.212 E6.24422
G1 X69.216 Y33.939 E6.26802
G1 X68.922 Y33.605 E6.29181
G1 X68.700 Y33.231 E6.31505
G1 X68.587 Y32.945 E6.33147
G1 X68.511 Y32.648 E6.34790
G1 X68.470 Y32.215 E6.37113
G1 X68.512 Y31.772 E6.39493
G1 X68.636 Y31.344 E6.41872
G1 X68.838 Y30.948 E6.44252
G1 X69.111 Y30.596 E6.46632
G1 X69.445 Y30.302 E6.49011
G1 X69.828 Y30.075 E6.51391
G1 X70.255 Y29.921 E6.53819
G1 X70.802 Y29.850 E6.56765 F900.000
G1 X71.276 Y29.891 E6.59309
G1 X71.706 Y30.016 E6.61701
G1 X72.102 Y30.218 E6.64081
G1 X72.454 Y30.491 E6.66461
G1 X72.748 Y30.825 E6.68840
G1 X72.970 Y31.199 E6.71164
G1 X73.083 Y31.485 E6.72806
G1 X73.159 Y31.782 E6.74449
G1 X73.200 Y32.215 E6.76772
G1 X73.161 Y32.630 E6.78999
G1 X72.701 Y32.573 F9000.000
G1 X72.642 Y32.802 E6.79779 F900.000
G1 X72.553 Y33.027 E6.80578
G1 X72.373 Y33.332 E6.81748
G1 X72.136 Y33.601 E6.82930
G1 X71.854 Y33.820 E6.84111
G1 X71.535 Y33.982 E6.85292
G1 X71.191 Y34.082 E6.86474
G1 X70.835 Y34.116 E6.87655
G1 X70.479 Y34.082 E6.88836
G1 X70.135 Y33.982 E6.90018
G1 X69.816 Y33.820 E6.91199
G1 X69.534 Y33.601 E6.92380
G1 X69.297 Y33.332 E6.93562
G1 X69.117 Y33.027 E6.94733
G1 X69.028 Y32.802 E6.95531
G1 X68.967 Y32.568 E6.96329
G1 X68.934 Y32.215 E6.97500
G1 X68.968 Y31.859 E6.98682
G1 X69.068 Y31.515 E6.99863
G1 X69.230 Y31.196 E7.01044
G1 X69.449 Y30.914 E7.02226
G1 X69.718 Y30.677 E7.03407
G1 X70.026 Y30.495 E7.04588
G1 X70.365 Y30.373 E7.05778
G1 X70.812 Y30.314 E7.07266 F900.000
G1 X71.191 Y30.348 E7.08522
G1 X71.535 Y30.448 E7.09706
G1 X71.854 Y30.610 E7.10887
G1 X72.136 Y30.829 E7.12068
G1 X72.373 Y31.098 E7.13250
G1 X72.553 Y31.403 E7.14421
G1 X72.642 Y31.628 E7.15219
G1 X72.703 Y31.862 E7.16017
G1 X72.736 Y32.215 E7.17188
G1 X72.708 Y32.514 E7.18179
G1 X72.878 Y32.730 F9000.000
G1 X75.559 Y32.934 F9000.000
G1 X75.475 Y33.395 E7.20685 F900.000
G1 X75.282 Y33.987 E7.24011
G1 X75.171 Y34.244 E7.25507
G1 X74.877 Y34.780 E7.28776
G1 X74.517 Y35.275 E7.32046
G1 X74.332 Y35.485 E7.33542
G1 X73.879 Y35.910 E7.36867
G1 X73.409 Y36.252 E7.39970
G1 X72.873 Y36.546 E7.43240
G1 X72.311 Y36.769 E7.46471
G1 X71.870 Y36.886 E7.48910
G1 X71.439 Y36.964 E7.51254
G1 X70.825 Y37.002 E7.54544
G1 X70.545 Y36.994 E7.56040
G1 X69.928 Y36.916 E7.59365
G1 X69.654 Y36.855 E7.60862
G1 X69.073 Y36.666 E7.64131
G1 X68.520 Y36.405 E7.67401
G1 X68.279 Y36.263 E7.68897
G1 X67.784 Y35.903 E7.72166
G1 X67.338 Y35.485 E7.75436
G1 X67.153 Y35.275 E7.76932
G1 X66.787 Y34.771 E7.80257
G1 X66.645 Y34.530 E7.81754
G1 X66.380 Y33.968 E7.85079
G1 X66.285 Y33.704 E7.86576
G1 X66.130 Y33.102 E7.89900
G1 X66.087 Y32.825 E7.91397
G1 X66.048 Y32.212 E7.94681
G1 X66.074 Y31.736 E7.97233
G1 X66.132 Y31.322 E7.99465
G1 X66.285 Y30.726 E8.02757
G1 X66.380 Y30.462 E8.04253
G1 X66.645 Y29.900 E8.07579
G1 X66.787 Y29.659 E8.09075
G1 X67.147 Y29.164 E8.12345
G1 X67.565 Y28.718 E8.15614
G1 X67.775 Y28.533 E8.17110
G1 X68.279 Y28.167 E8.20435
G1 X68.520 Y28.025 E8.21932
G1 X69.073 Y27.764 E8.25201
G1 X69.654 Y27.575 E8.28471
G1 X69.928 Y27.514 E8.29967
G1 X70.539 Y27.437 E8.33260
G1 X70.956 Y27.432 E8.35492
G1 X71.432 Y27.466 E8.38043
G1 X72.036 Y27.581 E8.41327 F900.000
G1 X72.304 Y27.659 E8.42824
G1 X72.873 Y27.884 E8.46093
G1 X73.409 Y28.178 E8.49362
G1 X73.649 Y28.342 E8.50915
G1 X73.879 Y28.520 E8.52467
G1 X74.332 Y28.945 E8.55792
G1 X74.517 Y29.155 E8.57288
G1 X74.877 Y29.650 E8.60558
G1 X75.171 Y30.186 E8.63827
G1 X75.385 Y30.726 E8.66930
G1 X75.537 Y31.318 E8.70199
G1 X75.614 Y31.925 E8.73469
G1 X75.614 Y32.505 E8.76572
G1 X75.567 Y32.875 E8.78564
G1 X76.018 Y32.992 F9000.000
G1 X75.921 Y33.518 E8.80327 F900.000
G1 X75.715 Y34.151 E8.82525
G1 X75.587 Y34.447 E8.83593
G1 X75.267 Y35.028 E8.85780
G1 X74.878 Y35.564 E8.87967
G1 X74.664 Y35.806 E8.89035
G1 X74.179 Y36.262 E8.91233
G1 X73.651 Y36.646 E8.93389
G1 X73.070 Y36.965 E8.95576
G1 X72.456 Y37.208 E8.97756
G1 X71.971 Y37.338 E8.99415
G1 X71.494 Y37.423 E9.01014
G1 X70.832 Y37.465 E9.03205
G1 X70.509 Y37.455 E9.04273
G1 X69.848 Y37.371 E9.06471
G1 X69.532 Y37.301 E9.07539
G1 X68.902 Y37.096 E9.09726
G1 X68.303 Y36.814 E9.11914
G1 X68.025 Y36.649 E9.12982
G1 X67.489 Y36.260 E9.15169
G1 X67.006 Y35.806 E9.17356
G1 X66.792 Y35.564 E9.18424
G1 X66.401 Y35.025 E9.20622
G1 X66.236 Y34.747 E9.21690
G1 X65.953 Y34.145 E9.23887
G1 X65.843 Y33.840 E9.24956
