; generated by Slic3r 1.2.9 on 2020-09-21 at 10:42:30

; external perimeters extrusion width = 0.40mm
; perimeters extrusion width = 0.62mm
; infill extrusion width = 0.33mm
; solid infill extrusion width = 0.62mm
; top infill extrusion width = 0.20mm

M106 S256; Turn on fan to 100% power
M104 S140; turn on extruder temperature at S value
M140 S60; turn on bed temperature at S value
G28; home all axes
M84; disable motors
G1 Z15 F15000; have Z move to 20mm at 15000 mm/min
M190 S55; turn on bed temperature at S value and wait
M140 S55; turn on bed temperature at S value (printing temperature)
M109 S200; turn on extruder temperature at S value and wait (printing temperature)
M104 S200; turn on extruder temperature at S value
G1 Z0 F12000; move Z back to home
G21 ; set units to millimeters
G90 ; use absolute coordinates
M82 ; use absolute distances for extrusion
G92 E0
M106 S255
;Layer change
G1 E-6.00000 F1800.00000
G92 E0
G1 Z0.300 F9000.000
G1 X20.468 Y13.280 F9000.000
G1 E6.00000 F1800.00000
G1 X21.515 Y12.401 E6.06727 F600.000
G1 X22.462 Y12.204 E6.11491
G1 X89.462 Y12.204 E9.41232
G1 X90.735 Y12.572 E9.47752
G1 X112.930 Y26.572 E10.76902 F600.000
G1 X113.765 Y27.471 E10.82935
G1 X198.765 Y187.471 E19.74598
G1 X199.043 Y188.590 E19.80274
G1 X199.043 Y193.590 E20.04882
G1 X198.652 Y194.900 E20.11609
G1 X197.605 Y195.779 E20.18337
G1 X196.658 Y195.976 E20.23100
G1 X22.462 Y195.976 E28.80404
G1 X21.153 Y195.584 E28.87132
G1 X20.273 Y194.538 E28.93859
G1 X20.077 Y193.590 E28.98622
G1 X20.077 Y14.590 E37.79572
G1 X20.451 Y13.338 E37.86004
G1 E31.86004 F1800.00000
G92 E0
G1 X31.048 Y32.594 F9000.000
G1 E6.00000 F1800.00000
G1 X110.662 Y127.473 E12.09559 F600.000
G1 X110.662 Y132.152 E12.32586
G1 X94.951 Y113.429 E13.52870
G1 X31.048 Y189.586 E18.42144
G1 X195.662 Y189.586 E26.52289
G1 X195.662 Y192.594 E26.67091
G1 X116.254 Y192.594 E30.57895
G1 X116.254 Y190.094 E30.70199
G1 X107.062 Y190.094 E31.15440
G1 X107.062 Y192.594 E31.27744
G1 X24.599 Y192.594 E35.33585
G1 X92.988 Y111.090 E40.57212
G1 X24.599 Y29.586 E45.80839
G1 X110.662 Y29.586 E50.04397
G1 X110.662 Y32.594 E50.19199
G1 X31.108 Y32.594 E54.10721
G1 X31.875 Y32.979 F9000.000
G1 X111.047 Y127.333 E60.16900 F600.000
G1 X111.047 Y133.211 E60.45832
G1 X94.951 Y114.029 E61.69069
G1 X31.875 Y189.201 E66.52012
G1 X196.047 Y189.201 E74.59984
G1 X196.047 Y192.979 E74.78582
G1 X115.868 Y192.979 E78.73182
G1 X115.868 Y190.479 E78.85486
G1 X107.447 Y190.479 E79.26931
G1 X107.447 Y192.979 E79.39235
G1 X23.772 Y192.979 E83.51044
G1 X92.485 Y111.090 E88.77148
G1 X23.772 Y29.201 E94.03252
G1 X111.047 Y29.201 E98.32779
G1 X111.047 Y32.979 E98.51376
G1 X31.935 Y32.979 E102.40725
G1 X32.702 Y33.365 F9000.000
G1 X111.433 Y127.192 E108.43526 F600.000
G1 X111.433 Y134.271 E108.78363
G1 X94.951 Y114.629 E110.04552
G1 X32.702 Y188.815 E114.81163
G1 X196.433 Y188.815 E122.86964
G1 X196.433 Y193.365 E123.09357
G1 X115.483 Y193.365 E127.07752
G1 X115.483 Y190.865 E127.20056
G1 X107.833 Y190.865 E127.57706
G1 X107.833 Y193.365 E127.70010
G1 X22.945 Y193.365 E131.87786
G1 X91.982 Y111.090 E137.16368
G1 X22.945 Y28.815 E142.44950
G1 X111.433 Y28.815 E146.80444
G1 X111.433 Y33.365 E147.02837
G1 X32.762 Y33.365 E150.90014
G1 X32.345 Y33.545 F9000.000
G1 X30.838 Y32.897 F9000.000
G1 X27.812 Y29.870 E151.11082 F600.000
G1 X28.357 Y29.870 E151.13767
G1 X30.797 Y32.310 E151.30752
G1 X31.343 Y32.310 E151.33437
G1 X28.903 Y29.870 E151.50422
G1 X29.448 Y29.870 E151.53107
G1 X31.888 Y32.310 E151.70092
G1 X32.434 Y32.310 E151.72777
G1 X29.994 Y29.870 E151.89762
G1 X30.539 Y29.870 E151.92447
G1 X32.979 Y32.310 E152.09432
G1 X33.524 Y32.310 E152.12117
G1 X31.084 Y29.870 E152.29102
G1 X31.630 Y29.870 E152.31787
G1 X34.070 Y32.310 E152.48772
G1 X34.615 Y32.310 E152.51457
G1 X32.175 Y29.870 E152.68442
G1 X32.721 Y29.870 E152.71127
G1 X35.161 Y32.310 E152.88112
G1 X35.706 Y32.310 E152.90797
G1 X33.266 Y29.870 E153.07782
G1 X33.812 Y29.870 E153.10467
G1 X36.252 Y32.310 E153.27452
G1 X36.797 Y32.310 E153.30137
G1 X34.357 Y29.870 E153.47122
G1 X34.903 Y29.870 E153.49807
G1 X37.343 Y32.310 E153.66792
G1 X37.888 Y32.310 E153.69477
G1 X35.448 Y29.870 E153.86462
G1 X35.993 Y29.870 E153.89147
G1 X38.433 Y32.310 E154.06132
G1 X38.979 Y32.310 E154.08817
G1 X36.539 Y29.870 E154.25802
G1 X37.084 Y29.870 E154.28487
G1 X39.524 Y32.310 E154.45472
G1 X40.070 Y32.310 E154.48157
G1 X37.630 Y29.870 E154.65142
G1 X38.175 Y29.870 E154.67827
G1 X40.615 Y32.310 E154.84812
G1 X41.161 Y32.310 E154.87497
G1 X38.721 Y29.870 E155.04482
G1 X39.266 Y29.870 E155.07167
G1 X41.706 Y32.310 E155.24152
G1 X42.252 Y32.310 E155.26837
G1 X39.812 Y29.870 E155.43823
G1 X40.357 Y29.870 E155.46507
G1 X42.797 Y32.310 E155.63493
G1 X43.342 Y32.310 E155.66177
G1 X40.903 Y29.870 E155.83163
G1 X41.448 Y29.870 E155.85847
G1 X43.888 Y32.310 E156.02833
G1 X44.433 Y32.310 E156.05517
G1 X41.993 Y29.870 E156.22503
G1 X42.539 Y29.870 E156.25187
G1 X44.979 Y32.310 E156.42173
G1 X45.524 Y32.310 E156.44857
G1 X43.084 Y29.870 E156.61843
G1 X43.630 Y29.870 E156.64527
G1 X46.070 Y32.310 E156.81513
G1 X46.615 Y32.310 E156.84197
G1 X44.175 Y29.870 E157.01183
G1 X44.721 Y29.870 E157.03867
G1 X47.161 Y32.310 E157.20853
G1 X47.706 Y32.310 E157.23537
G1 X45.266 Y29.870 E157.40523
G1 X45.812 Y29.870 E157.43207
G1 X48.251 Y32.310 E157.60193
G1 X48.797 Y32.310 E157.62877
G1 X46.357 Y29.870 E157.79863
G1 X46.902 Y29.870 E157.82548
G1 X49.342 Y32.310 E157.99533
G1 X49.888 Y32.310 E158.02218
G1 X47.448 Y29.870 E158.19203
G1 X47.993 Y29.870 E158.21888
G1 X50.433 Y32.310 E158.38873
G1 X50.979 Y32.310 E158.41558
G1 X48.539 Y29.870 E158.58543
G1 X49.084 Y29.870 E158.61228
G1 X51.524 Y32.310 E158.78213
G1 X52.070 Y32.310 E158.80898
G1 X49.630 Y29.870 E158.97883
G1 X50.175 Y29.870 E159.00568
G1 X52.615 Y32.310 E159.17553
G1 X53.160 Y32.310 E159.20238
G1 X50.721 Y29.870 E159.37223
G1 X51.266 Y29.870 E159.39908
G1 X53.706 Y32.310 E159.56893
G1 X54.251 Y32.310 E159.59578
G1 X51.811 Y29.870 E159.76563
G1 X52.357 Y29.870 E159.79248
G1 X54.797 Y32.310 E159.96233
G1 X55.342 Y32.310 E159.98918
G1 X52.902 Y29.870 E160.15903
G1 X53.448 Y29.870 E160.18588
G1 X55.888 Y32.310 E160.35573
G1 X56.433 Y32.310 E160.38258
G1 X53.993 Y29.870 E160.55243
G1 X54.539 Y29.870 E160.57928
G1 X56.979 Y32.310 E160.74913
G1 X57.524 Y32.310 E160.77598
G1 X55.084 Y29.870 E160.94583
G1 X55.630 Y29.870 E160.97268
G1 X58.069 Y32.310 E161.14253
G1 X58.615 Y32.310 E161.16938
G1 X56.175 Y29.870 E161.33923
G1 X56.720 Y29.870 E161.36608
G1 X59.160 Y32.310 E161.53593
G1 X59.706 Y32.310 E161.56278
G1 X57.266 Y29.870 E161.73263
G1 X57.811 Y29.870 E161.75948
G1 X60.251 Y32.310 E161.92933
G1 X60.797 Y32.310 E161.95618
G1 X58.357 Y29.870 E162.12603
G1 X58.902 Y29.870 E162.15288
G1 X61.342 Y32.310 E162.32273
G1 X61.888 Y32.310 E162.34958
G1 X59.448 Y29.870 E162.51943
G1 X59.993 Y29.870 E162.54628
G1 X62.433 Y32.310 E162.71613
G1 X62.978 Y32.310 E162.74298
G1 X60.539 Y29.870 E162.91283
G1 X61.084 Y29.870 E162.93968
G1 X63.524 Y32.310 E163.10953
G1 X64.069 Y32.310 E163.13638
G1 X61.629 Y29.870 E163.30623
G1 X62.175 Y29.870 E163.33308
G1 X64.615 Y32.310 E163.50293
G1 X65.160 Y32.310 E163.52978
G1 X62.720 Y29.870 E163.69963
G1 X63.266 Y29.870 E163.72648
G1 X65.706 Y32.310 E163.89633
G1 X66.251 Y32.310 E163.92318
G1 X63.811 Y29.870 E164.09303
G1 X64.357 Y29.870 E164.11988
G1 X66.797 Y32.310 E164.28973
G1 X67.342 Y32.310 E164.31658
G1 X64.902 Y29.870 E164.48643
G1 X65.448 Y29.870 E164.51328
G1 X67.887 Y32.310 E164.68313
G1 X68.433 Y32.310 E164.70998
G1 X65.993 Y29.870 E164.87983
G1 X66.538 Y29.870 E164.90668
G1 X68.978 Y32.310 E165.07653
G1 X69.524 Y32.310 E165.10338
G1 X67.084 Y29.870 E165.27323
G1 X67.629 Y29.870 E165.30008
G1 X70.069 Y32.310 E165.46993
G1 X70.615 Y32.310 E165.49678
G1 X68.175 Y29.870 E165.66663
G1 X68.720 Y29.870 E165.69348
G1 X71.160 Y32.310 E165.86333
G1 X71.706 Y32.310 E165.89018
G1 X69.266 Y29.870 E166.06003
G1 X69.811 Y29.870 E166.08688
G1 X72.251 Y32.310 E166.25673
G1 X72.797 Y32.310 E166.28358
G1 X70.357 Y29.870 E166.45343
G1 X70.902 Y29.870 E166.48028
G1 X73.342 Y32.310 E166.65013
G1 X73.887 Y32.310 E166.67698
G1 X71.447 Y29.870 E166.84683
G1 X71.993 Y29.870 E166.87368
G1 X74.433 Y32.310 E167.04353
G1 X74.978 Y32.310 E167.07038
G1 X72.538 Y29.870 E167.24023
G1 X73.084 Y29.870 E167.26708
G1 X75.524 Y32.310 E167.43693
G1 X76.069 Y32.310 E167.46378
G1 X73.629 Y29.870 E167.63363
G1 X74.175 Y29.870 E167.66048
G1 X76.615 Y32.310 E167.83033
G1 X77.160 Y32.310 E167.85718
G1 X74.720 Y29.870 E168.02703
G1 X75.266 Y29.870 E168.05388
G1 X77.706 Y32.310 E168.22373
G1 X78.251 Y32.310 E168.25058
G1 X75.811 Y29.870 E168.42043
G1 X76.356 Y29.870 E168.44728
G1 X78.796 Y32.310 E168.61713
G1 X79.342 Y32.310 E168.64398
G1 X76.902 Y29.870 E168.81383
G1 X77.447 Y29.870 E168.84068
G1 X79.887 Y32.310 E169.01053
G1 X80.433 Y32.310 E169.03738
G1 X77.993 Y29.870 E169.20723
G1 X78.538 Y29.870 E169.23408
G1 X80.978 Y32.310 E169.40393
G1 X81.524 Y32.310 E169.43078
G1 X79.084 Y29.870 E169.60063
G1 X79.629 Y29.870 E169.62748
G1 X82.069 Y32.310 E169.79733
G1 X82.615 Y32.310 E169.82418
G1 X80.175 Y29.870 E169.99403
G1 X80.720 Y29.870 E170.02088
G1 X83.160 Y32.310 E170.19073
G1 X83.705 Y32.310 E170.21758
G1 X81.265 Y29.870 E170.38743
G1 X81.811 Y29.870 E170.41428
G1 X84.251 Y32.310 E170.58413
G1 X84.796 Y32.310 E170.61098
G1 X82.356 Y29.870 E170.78083
G1 X82.902 Y29.870 E170.80768
G1 X85.342 Y32.310 E170.97753
G1 X85.887 Y32.310 E171.00438
G1 X83.447 Y29.870 E171.17423
G1 X83.993 Y29.870 E171.20108
G1 X86.433 Y32.310 E171.37093
G1 X86.978 Y32.310 E171.39778
G1 X84.538 Y29.870 E171.56763
G1 X85.084 Y29.870 E171.59448
G1 X87.524 Y32.310 E171.76433
G1 X88.069 Y32.310 E171.79118
G1 X85.629 Y29.870 E171.96103
G1 X86.175 Y29.870 E171.98788
G1 X88.614 Y32.310 E172.15773
G1 X89.160 Y32.310 E172.18458
G1 X86.720 Y29.870 E172.35443
G1 X87.265 Y29.870 E172.38128
G1 X89.705 Y32.310 E172.55113
G1 X90.251 Y32.310 E172.57798
G1 X87.811 Y29.870 E172.74783
G1 X88.356 Y29.870 E172.77468
G1 X90.796 Y32.310 E172.94453
G1 X91.342 Y32.310 E172.97138
G1 X88.902 Y29.870 E173.14123
G1 X89.447 Y29.870 E173.16808
G1 X91.887 Y32.310 E173.33793
G1 X92.433 Y32.310 E173.36478
G1 X89.993 Y29.870 E173.53463
G1 X90.538 Y29.870 E173.56148
G1 X92.978 Y32.310 E173.73133
G1 X93.523 Y32.310 E173.75818
G1 X91.084 Y29.870 E173.92803
G1 X91.629 Y29.870 E173.95488
G1 X94.069 Y32.310 E174.12473
G1 X94.614 Y32.310 E174.15158
G1 X92.174 Y29.870 E174.32143
G1 X92.720 Y29.870 E174.34828
G1 X95.160 Y32.310 E174.51813
G1 X95.705 Y32.310 E174.54498
G1 X93.265 Y29.870 E174.71483
G1 X93.811 Y29.870 E174.74168
G1 X96.251 Y32.310 E174.91153
G1 X96.796 Y32.310 E174.93838
G1 X94.356 Y29.870 E175.10823
G1 X94.902 Y29.870 E175.13508
G1 X97.342 Y32.310 E175.30493
G1 X97.887 Y32.310 E175.33178
G1 X95.447 Y29.870 E175.50163
G1 X95.993 Y29.870 E175.52848
G1 X98.432 Y32.310 E175.69833
G1 X98.978 Y32.310 E175.72518
G1 X96.538 Y29.870 E175.89503
G1 X97.083 Y29.870 E175.92188
G1 X99.523 Y32.310 E176.09173
G1 X100.069 Y32.310 E176.11858
G1 X97.629 Y29.870 E176.28843
G1 X98.174 Y29.870 E176.31528
G1 X100.614 Y32.310 E176.48514
G1 X101.160 Y32.310 E176.51198
G1 X98.720 Y29.870 E176.68184
G1 X99.265 Y29.870 E176.70868
G1 X101.705 Y32.310 E176.87854
G1 X102.251 Y32.310 E176.90538
G1 X99.811 Y29.870 E177.07524
G1 X100.356 Y29.870 E177.10208
G1 X102.796 Y32.310 E177.27194
G1 X103.341 Y32.310 E177.29878
G1 X100.902 Y29.870 E177.46864
G1 X101.447 Y29.870 E177.49548
G1 X103.887 Y32.310 E177.66534
G1 X104.432 Y32.310 E177.69218
G1 X101.992 Y29.870 E177.86204
G1 X102.538 Y29.870 E177.88888
G1 X104.978 Y32.310 E178.05874
G1 X105.523 Y32.310 E178.08558
G1 X103.083 Y29.870 E178.25544
G1 X103.629 Y29.870 E178.28228
G1 X106.069 Y32.310 E178.45214
G1 X106.614 Y32.310 E178.47898
G1 X104.174 Y29.870 E178.64884
G1 X104.720 Y29.870 E178.67568
G1 X107.160 Y32.310 E178.84554
G1 X107.705 Y32.310 E178.87239
G1 X105.265 Y29.870 E179.04224
G1 X105.811 Y29.870 E179.06909
G1 X108.250 Y32.310 E179.23894
G1 X108.796 Y32.310 E179.26579
G1 X106.356 Y29.870 E179.43564
G1 X106.901 Y29.870 E179.46249
G1 X109.341 Y32.310 E179.63234
G1 X109.887 Y32.310 E179.65919
G1 X107.447 Y29.870 E179.82904
G1 X107.992 Y29.870 E179.85589
G1 X110.378 Y32.255 E180.02194
G1 X110.378 Y31.710 E180.04879
G1 X108.538 Y29.870 E180.17687
G1 X109.083 Y29.870 E180.20372
G1 X110.378 Y31.165 E180.29384
G1 X110.378 Y30.619 E180.32068
G1 X109.629 Y29.870 E180.37283
G1 X110.174 Y29.870 E180.39968
G1 X110.378 Y30.074 E180.41385
G1 E174.41385 F1800.00000
G92 E0
G1 X62.128 Y70.186 F9000.000
G1 E6.00000 F1800.00000
G1 X43.496 Y51.554 E7.29701 F600.000
G1 X45.061 Y49.846 F9000.000
G1 X26.429 Y31.215 E8.59402 F600.000
G1 X29.274 Y34.605 F9000.000
G1 X47.905 Y53.236 E9.89103 F600.000
G1 X46.341 Y54.944 F9000.000
G1 X64.972 Y73.576 E11.18805 F600.000
G1 X63.408 Y75.284 F9000.000
G1 X82.040 Y93.916 E12.48506 F600.000
G1 X80.475 Y95.624 F9000.000
G1 X99.107 Y114.256 E13.78208 F600.000
G1 X97.542 Y115.964 F9000.000
G1 X110.378 Y128.799 E14.67561 F600.000
G1 X110.378 Y128.254 E14.70246
G1 X93.269 Y111.145 E15.89345
G1 X93.020 Y111.442 E15.91251
G1 X94.799 Y113.221 E16.03637
G1 X94.551 Y113.518 E16.05543
G1 X92.771 Y111.738 E16.17930
G1 X92.522 Y112.035 E16.19836
G1 X94.302 Y113.814 E16.32222
G1 X94.053 Y114.111 E16.34128
G1 X92.274 Y112.331 E16.46515
G1 X92.025 Y112.628 E16.48420
G1 X93.804 Y114.407 E16.60807
G1 X93.555 Y114.704 E16.62713
G1 X91.776 Y112.925 E16.75099
G1 X91.527 Y113.221 E16.77005
G1 X93.306 Y115.001 E16.89392
G1 X93.057 Y115.297 E16.91298
G1 X91.278 Y113.518 E17.03684
G1 X91.029 Y113.814 E17.05590
G1 X92.809 Y115.594 E17.17977
G1 X92.560 Y115.890 E17.19882
G1 X90.780 Y114.111 E17.32269
G1 X90.532 Y114.408 E17.34175
G1 X92.311 Y116.187 E17.46562
G1 X92.062 Y116.484 E17.48467
G1 X90.283 Y114.704 E17.60854
G1 X90.034 Y115.001 E17.62760
G1 X91.813 Y116.780 E17.75146
G1 X91.564 Y117.077 E17.77052
G1 X89.785 Y115.297 E17.89439
G1 X89.536 Y115.594 E17.91345
G1 X91.315 Y117.373 E18.03731
G1 X91.067 Y117.670 E18.05637
G1 X89.287 Y115.890 E18.18024
G1 X89.038 Y116.187 E18.19929
G1 X90.818 Y117.966 E18.32316
G1 X90.569 Y118.263 E18.34222
G1 X88.789 Y116.484 E18.46608
G1 X88.541 Y116.780 E18.48514
G1 X90.320 Y118.560 E18.60901
G1 X90.071 Y118.856 E18.62807
G1 X88.292 Y117.077 E18.75193
G1 X88.043 Y117.373 E18.77099
G1 X89.822 Y119.153 E18.89486
G1 X89.573 Y119.449 E18.91391
G1 X87.794 Y117.670 E19.03778
G1 X87.545 Y117.967 E19.05684
G1 X89.325 Y119.746 E19.18070
G1 X89.076 Y120.043 E19.19976
G1 X87.296 Y118.263 E19.32363
G1 X87.047 Y118.560 E19.34269
G1 X88.827 Y120.339 E19.46655
G1 X88.578 Y120.636 E19.48561
G1 X86.799 Y118.856 E19.60948
G1 X86.550 Y119.153 E19.62853
G1 X88.329 Y120.932 E19.75240
G1 X88.080 Y121.229 E19.77146
G1 X86.301 Y119.449 E19.89533
G1 X86.052 Y119.746 E19.91438
G1 X87.831 Y121.525 E20.03825
G1 X87.582 Y121.822 E20.05731
G1 X85.803 Y120.043 E20.18117
G1 X85.554 Y120.339 E20.20023
G1 X87.334 Y122.119 E20.32410
G1 X87.085 Y122.415 E20.34316
G1 X85.305 Y120.636 E20.46702
G1 X85.057 Y120.932 E20.48608
G1 X86.836 Y122.712 E20.60995
G1 X86.587 Y123.008 E20.62900
G1 X84.808 Y121.229 E20.75287
G1 X84.559 Y121.526 E20.77193
G1 X86.338 Y123.305 E20.89579
G1 X86.089 Y123.602 E20.91485
G1 X84.310 Y121.822 E21.03872
G1 X84.061 Y122.119 E21.05778
G1 X85.840 Y123.898 E21.18164
G1 X85.592 Y124.195 E21.20070
G1 X83.812 Y122.415 E21.32457
G1 X83.563 Y122.712 E21.34362
G1 X85.343 Y124.491 E21.46749
G1 X85.094 Y124.788 E21.48655
G1 X83.314 Y123.008 E21.61042
G1 X83.066 Y123.305 E21.62947
G1 X84.845 Y125.084 E21.75334
G1 X84.596 Y125.381 E21.77240
G1 X82.817 Y123.602 E21.89626
G1 X82.568 Y123.898 E21.91532
G1 X84.347 Y125.678 E22.03919
G1 X84.098 Y125.974 E22.05825
G1 X82.319 Y124.195 E22.18211
G1 X82.070 Y124.491 E22.20117
G1 X83.850 Y126.271 E22.32504
G1 X83.601 Y126.567 E22.34409
G1 X81.821 Y124.788 E22.46796
G1 X81.572 Y125.085 E22.48702
G1 X83.352 Y126.864 E22.61088
G1 X83.103 Y127.160 E22.62994
G1 X81.324 Y125.381 E22.75381
G1 X81.075 Y125.678 E22.77287
G1 X82.854 Y127.457 E22.89673
G1 X82.605 Y127.754 E22.91579
G1 X80.826 Y125.974 E23.03966
