; generated by Slic3r 1.2.9 on 2020-09-21 at 10:39:15

; external perimeters extrusion width = 0.40mm
; perimeters extrusion width = 0.62mm
; infill extrusion width = 0.33mm
; solid infill extrusion width = 0.62mm
; top infill extrusion width = 0.20mm

M106 S256; Turn on fan to 100% power
M104 S140; turn on extruder temperature at S value
M140 S60; turn on bed temperature at S value
G28; home all axes
M84; disable motors
G1 Z15 F15000; have Z move to 20mm at 15000 mm/min
M190 S55; turn on bed temperature at S value and wait
M140 S55; turn on bed temperature at S value (printing temperature)
M109 S200; turn on extruder temperature at S value and wait (printing temperature)
M104 S200; turn on extruder temperature at S value
G1 Z0 F12000; move Z back to home
G21 ; set units to millimeters
G90 ; use absolute coordinates
M82 ; use absolute distances for extrusion
G92 E0
M106 S255
;Layer change
G1 E-6.00000 F1800.00000
G92 E0
G1 Z0.300 F9000.000
G1 X8.032 Y36.645 F9000.000
G1 E6.00000 F1800.00000
G1 X193.228 Y36.645 E15.11441 F600.000
G1 X194.537 Y37.036 E15.18168
G1 X195.417 Y38.083 E15.24896 F600.000
G1 X195.613 Y39.030 E15.29659
G1 X195.613 Y145.330 E20.52810
G1 X195.222 Y146.639 E20.59538
G1 X194.175 Y147.519 E20.66265
G1 X193.228 Y147.715 E20.71028
G1 X97.228 Y147.715 E25.43493
G1 X95.918 Y147.324 E25.50220
G1 X95.400 Y146.863 E25.53631
G1 X6.205 Y40.564 E32.36557
G1 X5.663 Y39.309 E32.43284
G1 X5.899 Y37.963 E32.50012
G1 X6.835 Y36.967 E32.56739
G1 X7.974 Y36.660 E32.62543
G1 E26.62543 F1800.00000
G92 E0
G1 X112.618 Y43.034 F9000.000
G1 E6.00000 F1800.00000
G1 X192.231 Y137.914 E12.09559 F600.000
G1 X192.231 Y142.592 E12.32586
G1 X106.169 Y40.027 E18.91526
G1 X192.231 Y40.027 E23.15085
G1 X192.231 Y43.034 E23.29887
G1 X112.678 Y43.034 E27.21408
G1 X113.445 Y43.420 F9000.000
G1 X192.617 Y137.773 E33.27587 F600.000
G1 X192.617 Y143.652 E33.56520
G1 X105.342 Y39.641 E40.24744
G1 X192.617 Y39.641 E44.54271
G1 X192.617 Y43.420 E44.72868
G1 X113.505 Y43.420 E48.62217
G1 X114.272 Y43.805 F9000.000
G1 X193.003 Y137.633 E54.65017 F600.000
G1 X193.003 Y144.711 E54.99855
G1 X104.515 Y39.255 E61.77363
G1 X193.003 Y39.255 E66.12858
G1 X193.003 Y43.805 E66.35250
G1 X114.332 Y43.805 E70.22428
G1 X113.915 Y43.985 F9000.000
G1 X113.316 Y44.419 F9000.000
G1 X109.208 Y40.310 E70.51090 F600.000
G1 X109.754 Y40.310 E70.53786
G1 X112.194 Y42.750 E70.70807
G1 X112.741 Y42.750 E70.73504
G1 X110.301 Y40.310 E70.90525
G1 X110.847 Y40.310 E70.93221
G1 X113.287 Y42.750 E71.10242
G1 X113.834 Y42.750 E71.12938
G1 X111.394 Y40.310 E71.29959
G1 X111.941 Y40.310 E71.32656
G1 X114.381 Y42.750 E71.49677
G1 X114.927 Y42.750 E71.52373
G1 X112.487 Y40.310 E71.69394
G1 X113.034 Y40.310 E71.72090
G1 X115.474 Y42.750 E71.89111
G1 X116.020 Y42.750 E71.91807
G1 X113.580 Y40.310 E72.08828
G1 X114.127 Y40.310 E72.11525
G1 X116.567 Y42.750 E72.28546
G1 X117.114 Y42.750 E72.31242
G1 X114.674 Y40.310 E72.48263
G1 X115.220 Y40.310 E72.50959
G1 X117.660 Y42.750 E72.67980
G1 X118.207 Y42.750 E72.70676
G1 X115.767 Y40.310 E72.87697
G1 X116.313 Y40.310 E72.90394
G1 X118.753 Y42.750 E73.07415
G1 X119.300 Y42.750 E73.10111
G1 X116.860 Y40.310 E73.27132
G1 X117.407 Y40.310 E73.29828
G1 X119.847 Y42.750 E73.46849
G1 X120.393 Y42.750 E73.49546
G1 X117.953 Y40.310 E73.66567
G1 X118.500 Y40.310 E73.69263
G1 X120.940 Y42.750 E73.86284
G1 X121.486 Y42.750 E73.88980
G1 X119.046 Y40.310 E74.06001
G1 X119.593 Y40.310 E74.08697
G1 X122.033 Y42.750 E74.25718
G1 X122.580 Y42.750 E74.28415
G1 X120.140 Y40.310 E74.45436
G1 X120.686 Y40.310 E74.48132
G1 X123.126 Y42.750 E74.65153
G1 X123.673 Y42.750 E74.67849
G1 X121.233 Y40.310 E74.84870
G1 X121.779 Y40.310 E74.87566
G1 X124.219 Y42.750 E75.04587
G1 X124.766 Y42.750 E75.07284
G1 X122.326 Y40.310 E75.24305
G1 X122.873 Y40.310 E75.27001
G1 X125.313 Y42.750 E75.44022
G1 X125.859 Y42.750 E75.46718
G1 X123.419 Y40.310 E75.63739
G1 X123.966 Y40.310 E75.66436
G1 X126.406 Y42.750 E75.83457
G1 X126.952 Y42.750 E75.86153
G1 X124.512 Y40.310 E76.03174
G1 X125.059 Y40.310 E76.05870
G1 X127.499 Y42.750 E76.22891
G1 X128.046 Y42.750 E76.25587
G1 X125.606 Y40.310 E76.42608
G1 X126.152 Y40.310 E76.45305
G1 X128.592 Y42.750 E76.62326
G1 X129.139 Y42.750 E76.65022
G1 X126.699 Y40.310 E76.82043
G1 X127.245 Y40.310 E76.84739
G1 X129.685 Y42.750 E77.01760
G1 X130.232 Y42.750 E77.04456
G1 X127.792 Y40.310 E77.21477
G1 X128.339 Y40.310 E77.24174
G1 X130.779 Y42.750 E77.41195
G1 X131.325 Y42.750 E77.43891
G1 X128.885 Y40.310 E77.60912
G1 X129.432 Y40.310 E77.63608
G1 X131.872 Y42.750 E77.80629
G1 X132.418 Y42.750 E77.83326
G1 X129.978 Y40.310 E78.00347
G1 X130.525 Y40.310 E78.03043
G1 X132.965 Y42.750 E78.20064
G1 X133.512 Y42.750 E78.22760
G1 X131.072 Y40.310 E78.39781
G1 X131.618 Y40.310 E78.42477
G1 X134.058 Y42.750 E78.59498
G1 X134.605 Y42.750 E78.62195
G1 X132.165 Y40.310 E78.79216
G1 X132.711 Y40.310 E78.81912
G1 X135.151 Y42.750 E78.98933
G1 X135.698 Y42.750 E79.01629
G1 X133.258 Y40.310 E79.18650
G1 X133.805 Y40.310 E79.21346
G1 X136.245 Y42.750 E79.38367
G1 X136.791 Y42.750 E79.41064
G1 X134.351 Y40.310 E79.58085
G1 X134.898 Y40.310 E79.60781
G1 X137.338 Y42.750 E79.77802
G1 X137.884 Y42.750 E79.80498
G1 X135.444 Y40.310 E79.97519
G1 X135.991 Y40.310 E80.00215
G1 X138.431 Y42.750 E80.17236
G1 X138.978 Y42.750 E80.19933
G1 X136.538 Y40.310 E80.36954
G1 X137.084 Y40.310 E80.39650
G1 X139.524 Y42.750 E80.56671
G1 X140.071 Y42.750 E80.59367
G1 X137.631 Y40.310 E80.76388
G1 X138.177 Y40.310 E80.79084
G1 X140.617 Y42.750 E80.96105
G1 X141.164 Y42.750 E80.98802
G1 X138.724 Y40.310 E81.15823
G1 X139.271 Y40.310 E81.18519
G1 X141.711 Y42.750 E81.35540
G1 X142.257 Y42.750 E81.38236
G1 X139.817 Y40.310 E81.55257
G1 X140.364 Y40.310 E81.57954
G1 X142.804 Y42.750 E81.74975
G1 X143.350 Y42.750 E81.77671
G1 X140.910 Y40.310 E81.94692
G1 X141.457 Y40.310 E81.97388
G1 X143.897 Y42.750 E82.14409
G1 X144.444 Y42.750 E82.17105
G1 X142.004 Y40.310 E82.34126
G1 X142.550 Y40.310 E82.36823
G1 X144.990 Y42.750 E82.53844
G1 X145.537 Y42.750 E82.56540
G1 X143.097 Y40.310 E82.73561
G1 X143.643 Y40.310 E82.76257
G1 X146.083 Y42.750 E82.93278
G1 X146.630 Y42.750 E82.95974
G1 X144.190 Y40.310 E83.12995
G1 X144.737 Y40.310 E83.15692
G1 X147.177 Y42.750 E83.32713
G1 X147.723 Y42.750 E83.35409
G1 X145.283 Y40.310 E83.52430
G1 X145.830 Y40.310 E83.55126
G1 X148.270 Y42.750 E83.72147
G1 X148.816 Y42.750 E83.74843
G1 X146.376 Y40.310 E83.91864
G1 X146.923 Y40.310 E83.94561
G1 X149.363 Y42.750 E84.11582
G1 X149.910 Y42.750 E84.14278
G1 X147.470 Y40.310 E84.31299
G1 X148.016 Y40.310 E84.33995
G1 X150.456 Y42.750 E84.51016
G1 X151.003 Y42.750 E84.53712
G1 X148.563 Y40.310 E84.70733
G1 X149.109 Y40.310 E84.73430
G1 X151.549 Y42.750 E84.90451
G1 X152.096 Y42.750 E84.93147
G1 X149.656 Y40.311 E85.10168
G1 X150.203 Y40.311 E85.12864
G1 X152.643 Y42.750 E85.29885
G1 X153.189 Y42.750 E85.32581
G1 X150.749 Y40.311 E85.49602
G1 X151.296 Y40.311 E85.52299
G1 X153.736 Y42.750 E85.69320
G1 X154.282 Y42.750 E85.72016
G1 X151.842 Y40.311 E85.89037
G1 X152.389 Y40.311 E85.91733
G1 X154.829 Y42.750 E86.08754
G1 X155.376 Y42.750 E86.11451
G1 X152.936 Y40.311 E86.28471
G1 X153.482 Y40.311 E86.31168
G1 X155.922 Y42.750 E86.48189
G1 X156.469 Y42.750 E86.50885
G1 X154.029 Y40.311 E86.67906
G1 X154.575 Y40.311 E86.70602
G1 X157.015 Y42.750 E86.87623
G1 X157.562 Y42.750 E86.90320
G1 X155.122 Y40.311 E87.07341
G1 X155.669 Y40.311 E87.10037
G1 X158.109 Y42.750 E87.27058
G1 X158.655 Y42.750 E87.29754
G1 X156.215 Y40.311 E87.46775
G1 X156.762 Y40.311 E87.49471
G1 X159.202 Y42.750 E87.66492
G1 X159.748 Y42.750 E87.69189
G1 X157.308 Y40.311 E87.86210
G1 X157.855 Y40.311 E87.88906
G1 X160.295 Y42.750 E88.05927
G1 X160.841 Y42.750 E88.08623
G1 X158.402 Y40.311 E88.25644
G1 X158.948 Y40.311 E88.28340
G1 X161.388 Y42.750 E88.45361
G1 X161.935 Y42.750 E88.48058
G1 X159.495 Y40.311 E88.65079
G1 X160.041 Y40.311 E88.67775
G1 X162.481 Y42.750 E88.84796
G1 X163.028 Y42.750 E88.87492
G1 X160.588 Y40.311 E89.04513
G1 X161.135 Y40.311 E89.07209
G1 X163.574 Y42.750 E89.24230
G1 X164.121 Y42.750 E89.26927
G1 X161.681 Y40.311 E89.43948
G1 X162.228 Y40.311 E89.46644
G1 X164.668 Y42.750 E89.63665
G1 X165.214 Y42.750 E89.66361
G1 X162.774 Y40.311 E89.83382
G1 X163.321 Y40.311 E89.86078
G1 X165.761 Y42.750 E90.03099
G1 X166.307 Y42.750 E90.05796
G1 X163.868 Y40.311 E90.22817
G1 X164.414 Y40.311 E90.25513
G1 X166.854 Y42.750 E90.42534
G1 X167.401 Y42.750 E90.45230
G1 X164.961 Y40.311 E90.62251
G1 X165.507 Y40.311 E90.64947
G1 X167.947 Y42.750 E90.81968
G1 X168.494 Y42.750 E90.84665
G1 X166.054 Y40.311 E91.01686
G1 X166.601 Y40.311 E91.04382
G1 X169.040 Y42.750 E91.21403
G1 X169.587 Y42.750 E91.24099
G1 X167.147 Y40.311 E91.41120
G1 X167.694 Y40.311 E91.43816
G1 X170.134 Y42.750 E91.60837
G1 X170.680 Y42.750 E91.63534
G1 X168.240 Y40.311 E91.80555
G1 X168.787 Y40.311 E91.83251
G1 X171.227 Y42.750 E92.00272
G1 X171.773 Y42.750 E92.02968
G1 X169.334 Y40.311 E92.19989
G1 X169.880 Y40.311 E92.22685
G1 X172.320 Y42.750 E92.39706
G1 X172.867 Y42.750 E92.42403
G1 X170.427 Y40.311 E92.59424
G1 X170.973 Y40.311 E92.62120
G1 X173.413 Y42.750 E92.79141
G1 X173.960 Y42.750 E92.81837
G1 X171.520 Y40.311 E92.98858
G1 X172.067 Y40.311 E93.01554
G1 X174.506 Y42.750 E93.18575
G1 X175.053 Y42.750 E93.21272
G1 X172.613 Y40.311 E93.38293
G1 X173.160 Y40.311 E93.40989
G1 X175.600 Y42.750 E93.58010
G1 X176.146 Y42.750 E93.60706
G1 X173.706 Y40.311 E93.77727
G1 X174.253 Y40.311 E93.80423
G1 X176.693 Y42.750 E93.97444
G1 X177.239 Y42.750 E94.00140
G1 X174.800 Y40.311 E94.17161
G1 X175.346 Y40.311 E94.19858
G1 X177.786 Y42.750 E94.36879
G1 X178.333 Y42.750 E94.39575
G1 X175.893 Y40.311 E94.56596
G1 X176.439 Y40.311 E94.59292
G1 X178.879 Y42.750 E94.76313
G1 X179.426 Y42.750 E94.79009
G1 X176.986 Y40.311 E94.96030
G1 X177.533 Y40.311 E94.98727
G1 X179.972 Y42.750 E95.15748
G1 X180.519 Y42.750 E95.18444
G1 X178.079 Y40.311 E95.35465
G1 X178.626 Y40.311 E95.38161
G1 X181.066 Y42.750 E95.55182
G1 X181.612 Y42.750 E95.57878
G1 X179.172 Y40.311 E95.74899
G1 X179.719 Y40.311 E95.77596
G1 X182.159 Y42.750 E95.94617
G1 X182.705 Y42.750 E95.97313
G1 X180.266 Y40.311 E96.14334
G1 X180.812 Y40.311 E96.17030
G1 X183.252 Y42.750 E96.34051
G1 X183.799 Y42.750 E96.36747
G1 X181.359 Y40.311 E96.53768
G1 X181.905 Y40.311 E96.56465
G1 X184.345 Y42.750 E96.73486
G1 X184.892 Y42.750 E96.76182
G1 X182.452 Y40.311 E96.93203
G1 X182.999 Y40.311 E96.95899
G1 X185.438 Y42.750 E97.12920
G1 X185.985 Y42.750 E97.15616
G1 X183.545 Y40.311 E97.32637
G1 X184.092 Y40.311 E97.35334
G1 X186.532 Y42.750 E97.52355
G1 X187.078 Y42.750 E97.55051
G1 X184.638 Y40.311 E97.72072
G1 X185.185 Y40.311 E97.74768
G1 X187.625 Y42.750 E97.91789
G1 X188.171 Y42.750 E97.94485
G1 X185.732 Y40.311 E98.11506
G1 X186.278 Y40.311 E98.14203
G1 X188.718 Y42.750 E98.31224
G1 X189.265 Y42.750 E98.33920
G1 X186.825 Y40.311 E98.50941
G1 X187.371 Y40.311 E98.53637
G1 X189.811 Y42.750 E98.70658
G1 X190.358 Y42.750 E98.73354
G1 X187.918 Y40.311 E98.90375
G1 X188.465 Y40.311 E98.93072
G1 X190.904 Y42.750 E99.10093
G1 X191.451 Y42.750 E99.12789
G1 X189.011 Y40.311 E99.29810
G1 X189.558 Y40.311 E99.32506
G1 X191.948 Y42.701 E99.49179
G1 X191.948 Y42.154 E99.51875
G1 X190.104 Y40.311 E99.64735
G1 X190.651 Y40.311 E99.67431
G1 X191.948 Y41.607 E99.76477
G1 X191.948 Y41.061 E99.79174
G1 X191.197 Y40.311 E99.84407
G1 X191.744 Y40.311 E99.87103
G1 X191.948 Y40.514 E99.88524
G1 E93.88524 F1800.00000
G92 E0
G1 X144.672 Y81.788 F9000.000
G1 E6.00000 F1800.00000
G1 X126.040 Y63.156 E7.29975 F600.000
G1 X127.569 Y61.405 F9000.000
G1 X108.937 Y42.773 E8.59951 F600.000
G1 X111.788 Y46.170 F9000.000
G1 X130.420 Y64.802 E9.89926 F600.000
G1 X128.891 Y66.553 F9000.000
G1 X147.523 Y85.185 E11.19901 F600.000
G1 X145.994 Y86.936 F9000.000
G1 X164.626 Y105.567 E12.49877 F600.000
G1 X163.097 Y107.318 F9000.000
G1 X181.729 Y125.950 E13.79852 F600.000
G1 X180.200 Y127.701 F9000.000
G1 X191.948 Y139.448 E14.61802 F600.000
G1 X191.948 Y139.995 E14.64498
G1 X183.051 Y131.098 E15.26563
G1 X184.580 Y129.347 F9000.000
G1 X165.948 Y110.716 E16.56538 F600.000
G1 X167.476 Y108.965 F9000.000
G1 X148.845 Y90.333 E17.86514 F600.000
G1 X150.373 Y88.582 F9000.000
G1 X131.741 Y69.950 E19.16489 F600.000
G1 X133.270 Y68.199 F9000.000
G1 X114.638 Y49.567 E20.46464 F600.000
G1 X116.167 Y47.816 F9000.000
G1 X108.661 Y40.310 E20.98825 F600.000
G1 X108.114 Y40.310 E21.01522
G1 X119.017 Y51.213 E21.77581
G1 X117.489 Y52.964 F9000.000
G1 X136.121 Y71.596 E23.07556 F600.000
G1 X134.592 Y73.347 F9000.000
G1 X153.224 Y91.979 E24.37532 F600.000
G1 X151.695 Y93.730 F9000.000
G1 X170.327 Y112.362 E25.67507 F600.000
G1 X168.798 Y114.113 F9000.000
G1 X187.430 Y132.744 E26.97483 F600.000
G1 X185.901 Y134.495 F9000.000
G1 X191.948 Y140.542 E27.39662 F600.000
G1 X191.948 Y141.088 E27.42358
G1 X188.752 Y137.893 E27.64652
G1 X190.281 Y136.142 F9000.000
G1 X171.649 Y117.510 E28.94627 F600.000
G1 X173.177 Y115.759 F9000.000
G1 X154.546 Y97.127 E30.24603 F600.000
G1 X156.074 Y95.376 F9000.000
G1 X137.443 Y76.744 E31.54578 F600.000
G1 X138.971 Y74.993 F9000.000
G1 X120.339 Y56.362 E32.84554 F600.000
G1 X121.868 Y54.611 F9000.000
G1 X107.568 Y40.310 E33.84312 F600.000
G1 X107.021 Y40.310 E33.87008
G1 X124.718 Y58.008 E35.10464
G1 X123.190 Y59.759 F9000.000
G1 X141.822 Y78.390 E36.40439 F600.000
G1 X140.293 Y80.141 F9000.000
G1 X158.925 Y98.773 E37.70415 F600.000
G1 X157.396 Y100.524 F9000.000
G1 X176.028 Y119.156 E39.00390 F600.000
G1 X174.499 Y120.907 F9000.000
G1 X191.948 Y138.355 E40.22111 F600.000
G1 X191.948 Y138.902 E40.24807
G1 X177.350 Y124.304 E41.26642
G1 X178.878 Y122.553 F9000.000
G1 X160.247 Y103.921 E42.56617 F600.000
G1 X161.775 Y102.170 F9000.000
G1 X143.144 Y83.539 E43.86593 F600.000
G1 X191.602 Y141.290 F9000.000
G1 X191.928 Y141.615 E43.88861 F600.000
G1 E37.88861 F1800.00000
G92 E0
G1 X16.618 Y43.034 F9000.000
G1 E6.00000 F1800.00000
G1 X96.232 Y137.914 E12.09559 F600.000
G1 X96.232 Y142.592 E12.32586
G1 X10.169 Y40.027 E18.91526
G1 X96.232 Y40.027 E23.15085
G1 X96.232 Y43.034 E23.29887
G1 X16.678 Y43.034 E27.21408
G1 X17.445 Y43.420 F9000.000
G1 X96.617 Y137.773 E33.27588 F600.000
G1 X96.617 Y143.652 E33.56520
G1 X9.342 Y39.641 E40.24744
G1 X96.617 Y39.641 E44.54271
G1 X96.617 Y43.420 E44.72868
G1 X17.505 Y43.420 E48.62217
G1 X18.272 Y43.805 F9000.000
G1 X97.003 Y137.633 E54.65018 F600.000
G1 X97.003 Y144.711 E54.99855
G1 X8.515 Y39.255 E61.77364
G1 X97.003 Y39.255 E66.12858
G1 X97.003 Y43.805 E66.35251
G1 X18.332 Y43.805 E70.22428
G1 X17.915 Y43.985 F9000.000
G1 X17.316 Y44.419 F9000.000
G1 X13.208 Y40.310 E70.51090 F600.000
G1 X13.754 Y40.310 E70.53787
G1 X16.194 Y42.750 E70.70808
G1 X16.741 Y42.750 E70.73504
G1 X14.301 Y40.310 E70.90525
G1 X14.847 Y40.310 E70.93221
G1 X17.287 Y42.750 E71.10242
G1 X17.834 Y42.750 E71.12938
G1 X15.394 Y40.310 E71.29959
G1 X15.941 Y40.310 E71.32656
G1 X18.381 Y42.750 E71.49677
G1 X18.927 Y42.750 E71.52373
G1 X16.487 Y40.310 E71.69394
G1 X17.034 Y40.310 E71.72090
G1 X19.474 Y42.750 E71.89111
G1 X20.020 Y42.750 E71.91807
G1 X17.580 Y40.310 E72.08828
G1 X18.127 Y40.310 E72.11525
G1 X20.567 Y42.750 E72.28546
G1 X21.114 Y42.750 E72.31242
G1 X18.674 Y40.310 E72.48263
G1 X19.220 Y40.310 E72.50959
G1 X21.660 Y42.750 E72.67980
G1 X22.207 Y42.750 E72.70677
G1 X19.767 Y40.310 E72.87698
G1 X20.313 Y40.310 E72.90394
G1 X22.753 Y42.750 E73.07415
G1 X23.300 Y42.750 E73.10111
G1 X20.860 Y40.310 E73.27132
G1 X21.407 Y40.310 E73.29828
G1 X23.847 Y42.750 E73.46849
G1 X24.393 Y42.750 E73.49546
G1 X21.953 Y40.310 E73.66567
G1 X22.500 Y40.310 E73.69263
G1 X24.940 Y42.750 E73.86284
G1 X25.486 Y42.750 E73.88980
G1 X23.046 Y40.310 E74.06001
G1 X23.593 Y40.310 E74.08697
G1 X26.033 Y42.750 E74.25718
G1 X26.580 Y42.750 E74.28415
G1 X24.140 Y40.310 E74.45436
G1 X24.686 Y40.310 E74.48132
G1 X27.126 Y42.750 E74.65153
G1 X27.673 Y42.750 E74.67849
G1 X25.233 Y40.310 E74.84870
G1 X25.779 Y40.310 E74.87566
G1 X28.219 Y42.750 E75.04588
G1 X28.766 Y42.750 E75.07284
G1 X26.326 Y40.310 E75.24305
G1 X26.873 Y40.310 E75.27001
