; generated by Slic3r 1.2.9 on 2020-09-18 at 21:37:33

; external perimeters extrusion width = 0.40mm
; perimeters extrusion width = 0.62mm
; infill extrusion width = 0.33mm
; solid infill extrusion width = 0.62mm
; top infill extrusion width = 0.20mm

M106 S256; Turn on fan to 100% power
M104 S140; turn on extruder temperature at S value
M140 S60; turn on bed temperature at S value
G28; home all axes
M84; disable motors
G1 Z15 F15000; have Z move to 20mm at 15000 mm/min
M190 S55; turn on bed temperature at S value and wait
M140 S55; turn on bed temperature at S value (printing temperature)
M109 S200; turn on extruder temperature at S value and wait (printing temperature)
M104 S200; turn on extruder temperature at S value
G1 Z0 F12000; move Z back to home
G21 ; set units to millimeters
G90 ; use absolute coordinates
M82 ; use absolute distances for extrusion
G92 E0
M106 S255
;Layer change
G1 E-6.00000 F1800.00000
G92 E0
G1 Z0.300 F9000.000
G1 X73.006 Y84.955 F9000.000
G1 E6.00000 F1800.00000
G1 X74.052 Y84.076 E6.06727 F600.000
G1 X75.000 Y83.879 E6.11491
G1 X135.000 Y83.879 E9.06781
G1 X136.310 Y84.271 E9.13508
G1 X137.189 Y85.317 E9.20236 F600.000
G1 X137.386 Y86.265 E9.24999
G1 X137.386 Y98.265 E9.84057
G1 X136.994 Y99.575 E9.90784
G1 X135.978 Y100.441 E9.97355
G1 X79.570 Y125.795 E13.01721
G1 X79.075 Y125.953 E13.04280
G1 X78.533 Y126.068 E13.07004
G1 X78.037 Y126.121 E13.09459
G1 X77.463 Y126.121 E13.12288
G1 X76.967 Y126.068 E13.14742
G1 X76.404 Y125.949 E13.17572
G1 X75.930 Y125.795 E13.20026
G1 X75.405 Y125.561 E13.22856
G1 X74.973 Y125.312 E13.25310
G1 X74.508 Y124.974 E13.28140
G1 X74.137 Y124.640 E13.30594
G1 X73.752 Y124.213 E13.33424
G1 X73.459 Y123.809 E13.35878
G1 X73.182 Y123.330 E13.38602
G1 X72.969 Y122.856 E13.41161
G1 X72.791 Y122.309 E13.43991
G1 X72.688 Y121.821 E13.46445
G1 X72.614 Y121.000 E13.50503
G1 X72.614 Y86.265 E15.21451
G1 X72.989 Y85.013 E15.27883
G1 E9.27883 F1800.00000
G92 E0
G1 X79.023 Y121.567 F9000.000
G1 E6.00000 F1800.00000
G1 X78.714 Y121.992 E6.02586 F600.000
G1 X78.395 Y122.223 E6.04525
G1 X77.896 Y122.386 E6.07111
G1 X77.319 Y122.325 E6.09963
G1 X76.818 Y122.036 E6.12815
G1 X76.509 Y121.610 E6.15401
G1 X76.387 Y121.236 E6.17340
G1 X76.387 Y120.710 E6.19926
G1 X76.623 Y120.181 E6.22778
G1 X77.053 Y119.793 E6.25630
G1 X77.604 Y119.614 E6.28481 F600.000
G1 X78.181 Y119.675 E6.31333
G1 X78.682 Y119.964 E6.34185
G1 X79.023 Y120.433 E6.37037
G1 X79.143 Y121.000 E6.39888
G1 X79.036 Y121.508 E6.42445
G1 X78.663 Y121.406 F9000.000
G1 X78.438 Y121.716 E6.44327 F600.000
G1 X78.218 Y121.876 E6.45665
G1 X77.854 Y121.994 E6.47547
G1 X77.441 Y121.950 E6.49592
G1 X77.081 Y121.743 E6.51637
G1 X76.857 Y121.433 E6.53519
G1 X76.773 Y121.175 E6.54857
G1 X76.773 Y120.792 E6.56739
G1 X76.942 Y120.413 E6.58784
G1 X77.250 Y120.135 E6.60829
G1 X77.646 Y120.006 E6.62874 F600.000
G1 X78.059 Y120.050 E6.64919
G1 X78.419 Y120.257 E6.66964
G1 X78.663 Y120.594 E6.69009
G1 X78.749 Y121.000 E6.71054
G1 X78.675 Y121.348 E6.72803
G1 X78.041 Y121.528 F9000.000
G1 X77.813 Y121.602 E6.73982 F600.000
G1 X77.563 Y121.575 E6.75220
G1 X77.345 Y121.450 E6.76458
G1 X77.204 Y121.256 E6.77636
G1 X77.158 Y121.114 E6.78373
G1 X77.158 Y120.874 E6.79551
G1 X77.261 Y120.644 E6.80789
G1 X77.447 Y120.476 E6.82027
G1 X77.687 Y120.398 E6.83265
G1 X77.937 Y120.425 E6.84504
G1 X78.155 Y120.550 E6.85742
G1 X78.303 Y120.754 E6.86980
G1 X78.355 Y121.000 E6.88218
G1 X78.303 Y121.246 E6.89456
G1 X78.162 Y121.440 E6.90635
G1 X78.089 Y121.492 E6.91076
G1 X78.016 Y121.766 F9000.000
G1 X78.504 Y122.568 F9000.000
G1 X78.290 Y122.663 E6.92227 F600.000
G1 X77.933 Y122.739 E6.94026
G1 X77.567 Y122.739 E6.95824
G1 X77.210 Y122.663 E6.97623
G1 X76.876 Y122.514 E6.99422
G1 X76.580 Y122.299 E7.01221
G1 X76.336 Y122.028 E7.03019
G1 X76.153 Y121.711 E7.04818
G1 X76.040 Y121.363 E7.06617
G1 X76.002 Y121.000 E7.08416
G1 X76.040 Y120.637 E7.10214
G1 X76.153 Y120.289 E7.12013
G1 X76.336 Y119.972 E7.13812
G1 X76.580 Y119.701 E7.15611
G1 X76.876 Y119.486 E7.17409
G1 X77.210 Y119.337 E7.19208
G1 X77.564 Y119.262 E7.20988
G1 X77.950 Y119.265 E7.22891
G1 X78.290 Y119.337 E7.24602 F600.000
G1 X78.624 Y119.486 E7.26401
G1 X78.920 Y119.701 E7.28200
G1 X79.164 Y119.972 E7.29998
G1 X79.347 Y120.289 E7.31797
G1 X79.460 Y120.637 E7.33596
G1 X79.498 Y121.000 E7.35395
G1 X79.460 Y121.363 E7.37193
G1 X79.347 Y121.711 E7.38992
G1 X79.164 Y122.028 E7.40791
G1 X78.920 Y122.299 E7.42590
G1 X78.559 Y122.543 E7.44735
G1 X78.661 Y122.920 F9000.000
G1 X78.410 Y123.031 E7.46085 F600.000
G1 X77.973 Y123.124 E7.48283
G1 X77.527 Y123.124 E7.50480
G1 X77.090 Y123.031 E7.52678
G1 X76.682 Y122.850 E7.54876
G1 X76.321 Y122.587 E7.57073
G1 X76.022 Y122.256 E7.59271
G1 X75.799 Y121.869 E7.61469
G1 X75.661 Y121.444 E7.63667
G1 X75.614 Y121.000 E7.65864
G1 X75.661 Y120.556 E7.68062
G1 X75.799 Y120.131 E7.70260
G1 X76.022 Y119.744 E7.72457
G1 X76.321 Y119.413 E7.74655
G1 X76.682 Y119.150 E7.76853
G1 X77.090 Y118.969 E7.79050
G1 X77.524 Y118.876 E7.81237
G1 X77.992 Y118.880 E7.83538
G1 X78.410 Y118.969 E7.85641 F600.000
G1 X78.818 Y119.150 E7.87839
G1 X79.179 Y119.413 E7.90037
G1 X79.478 Y119.744 E7.92234
G1 X79.701 Y120.131 E7.94432
G1 X79.839 Y120.556 E7.96630
G1 X79.886 Y121.000 E7.98827
G1 X79.839 Y121.444 E8.01025
G1 X79.701 Y121.869 E8.03223
G1 X79.478 Y122.256 E8.05421
G1 X79.179 Y122.587 E8.07618
G1 X78.818 Y122.850 E8.09816
G1 X78.716 Y122.895 E8.10368
G1 X78.818 Y123.272 F9000.000
G1 X78.530 Y123.400 E8.11918 F600.000
G1 X78.014 Y123.510 E8.14514
G1 X77.486 Y123.510 E8.17111
G1 X76.970 Y123.400 E8.19708
G1 X76.488 Y123.186 E8.22304
G1 X76.061 Y122.876 E8.24901
G1 X75.708 Y122.483 E8.27498
G1 X75.444 Y122.027 E8.30094
G1 X75.281 Y121.525 E8.32691
G1 X75.226 Y121.000 E8.35288
G1 X75.281 Y120.475 E8.37884
G1 X75.444 Y119.973 E8.40481
G1 X75.708 Y119.517 E8.43077
G1 X76.061 Y119.124 E8.45674
G1 X76.488 Y118.814 E8.48271
G1 X76.970 Y118.600 E8.50867
G1 X77.485 Y118.490 E8.53460
G1 X78.034 Y118.494 E8.56160
G1 X78.530 Y118.600 E8.58655 F600.000
G1 X79.012 Y118.814 E8.61252
G1 X79.439 Y119.124 E8.63848
G1 X79.792 Y119.517 E8.66445
G1 X80.056 Y119.973 E8.69042
G1 X80.219 Y120.475 E8.71638
G1 X80.274 Y121.000 E8.74235
G1 X80.219 Y121.525 E8.76832
G1 X80.056 Y122.027 E8.79428
G1 X79.792 Y122.483 E8.82025
G1 X79.439 Y122.876 E8.84621
G1 X79.012 Y123.186 E8.87218
G1 X78.872 Y123.248 E8.87969
G1 X78.563 Y123.087 F9000.000
G1 E2.87969 F1800.00000
G92 E0
G1 X77.947 Y110.369 F9000.000
G1 E6.00000 F1800.00000
G1 X77.553 Y110.369 E6.01939 F600.000
G1 X77.053 Y110.207 E6.04525
G1 X76.623 Y109.819 E6.07377
G1 X76.387 Y109.290 E6.10229
G1 X76.387 Y108.710 E6.13080
G1 X76.623 Y108.181 E6.15932
G1 X77.053 Y107.793 E6.18784
G1 X77.604 Y107.614 E6.21636 F600.000
G1 X78.181 Y107.675 E6.24487
G1 X78.682 Y107.964 E6.27339
G1 X79.023 Y108.433 E6.30191
G1 X79.143 Y109.000 E6.33043
G1 X79.034 Y109.514 E6.35629
G1 X78.837 Y109.855 E6.37568
G1 X78.447 Y110.207 E6.40154
G1 X78.004 Y110.351 E6.42445
G1 X77.886 Y109.984 F9000.000
G1 X77.614 Y109.984 E6.43783 F600.000
G1 X77.250 Y109.865 E6.45665
G1 X76.942 Y109.587 E6.47710
G1 X76.773 Y109.208 E6.49755
G1 X76.773 Y108.792 E6.51800
G1 X76.942 Y108.413 E6.53845
G1 X77.250 Y108.135 E6.55890
G1 X77.646 Y108.006 E6.57935 F600.000
G1 X78.059 Y108.050 E6.59980
G1 X78.419 Y108.257 E6.62024
G1 X78.663 Y108.594 E6.64069
G1 X78.749 Y109.000 E6.66114
G1 X78.670 Y109.374 E6.67997
G1 X78.534 Y109.609 E6.69334
G1 X78.250 Y109.865 E6.71216
G1 X77.943 Y109.965 E6.72803
G1 X78.053 Y109.524 F9000.000
G1 X77.825 Y109.598 E6.73982 F600.000
G1 X77.675 Y109.598 E6.74718
G1 X77.447 Y109.524 E6.75896
G1 X77.261 Y109.356 E6.77135
G1 X77.158 Y109.126 E6.78373
G1 X77.158 Y108.874 E6.79611
G1 X77.261 Y108.644 E6.80849
G1 X77.447 Y108.476 E6.82087
G1 X77.687 Y108.398 E6.83325
G1 X77.937 Y108.425 E6.84564
G1 X78.155 Y108.550 E6.85802
G1 X78.303 Y108.754 E6.87040
G1 X78.355 Y109.000 E6.88278
G1 X78.305 Y109.234 E6.89456
G1 X78.230 Y109.364 E6.90193
G1 X78.097 Y109.484 E6.91076
G1 X78.036 Y109.763 F9000.000
G1 X78.721 Y110.444 F9000.000
G1 X78.624 Y110.514 E6.91664 F600.000
G1 X78.290 Y110.663 E6.93463
G1 X77.933 Y110.739 E6.95261
G1 X77.567 Y110.739 E6.97060
G1 X77.210 Y110.663 E6.98859
G1 X76.876 Y110.514 E7.00658
G1 X76.580 Y110.299 E7.02456
G1 X76.336 Y110.028 E7.04255
G1 X76.153 Y109.711 E7.06054
G1 X76.040 Y109.363 E7.07853
G1 X76.002 Y109.000 E7.09652
G1 X76.040 Y108.637 E7.11450
G1 X76.153 Y108.289 E7.13249
G1 X76.336 Y107.972 E7.15048
G1 X76.580 Y107.701 E7.16847
G1 X76.876 Y107.486 E7.18645
G1 X77.210 Y107.337 E7.20444
G1 X77.564 Y107.262 E7.22224
G1 X77.950 Y107.265 E7.24127
G1 X78.290 Y107.337 E7.25838 F600.000
G1 X78.624 Y107.486 E7.27637
G1 X78.920 Y107.701 E7.29436
G1 X79.164 Y107.972 E7.31234
G1 X79.347 Y108.289 E7.33033
G1 X79.460 Y108.637 E7.34832
G1 X79.498 Y109.000 E7.36631
G1 X79.460 Y109.363 E7.38429
G1 X79.347 Y109.711 E7.40228
G1 X79.164 Y110.028 E7.42027
G1 X78.920 Y110.299 E7.43826
G1 X78.769 Y110.409 E7.44741
G1 X78.947 Y110.756 F9000.000
G1 X78.818 Y110.850 E7.45529 F600.000
G1 X78.410 Y111.031 E7.47726
G1 X77.973 Y111.124 E7.49924
G1 X77.527 Y111.124 E7.52122
G1 X77.090 Y111.031 E7.54319
G1 X76.682 Y110.850 E7.56517
G1 X76.321 Y110.587 E7.58715
G1 X76.022 Y110.256 E7.60912
G1 X75.799 Y109.869 E7.63110
G1 X75.661 Y109.444 E7.65308
G1 X75.614 Y109.000 E7.67506
G1 X75.661 Y108.556 E7.69703
G1 X75.799 Y108.131 E7.71901
G1 X76.022 Y107.744 E7.74099
G1 X76.321 Y107.413 E7.76296
G1 X76.682 Y107.150 E7.78494
G1 X77.090 Y106.969 E7.80692
G1 X77.524 Y106.876 E7.82878
G1 X77.992 Y106.880 E7.85180
G1 X78.410 Y106.969 E7.87283 F600.000
G1 X78.818 Y107.150 E7.89480
G1 X79.179 Y107.413 E7.91678
G1 X79.478 Y107.744 E7.93876
G1 X79.701 Y108.131 E7.96073
G1 X79.839 Y108.556 E7.98271
G1 X79.886 Y109.000 E8.00469
G1 X79.839 Y109.444 E8.02666
G1 X79.701 Y109.869 E8.04864
G1 X79.478 Y110.256 E8.07062
G1 X79.179 Y110.587 E8.09259
G1 X78.996 Y110.721 E8.10374
G1 X79.174 Y111.068 F9000.000
G1 X79.012 Y111.186 E8.11361 F600.000
G1 X78.530 Y111.400 E8.13958
G1 X78.014 Y111.510 E8.16555
G1 X77.486 Y111.510 E8.19151
G1 X76.970 Y111.400 E8.21748
G1 X76.488 Y111.186 E8.24345
G1 X76.061 Y110.876 E8.26941
G1 X75.708 Y110.483 E8.29538
G1 X75.444 Y110.027 E8.32134
G1 X75.281 Y109.525 E8.34731
G1 X75.226 Y109.000 E8.37328
G1 X75.281 Y108.475 E8.39924
G1 X75.444 Y107.973 E8.42521
G1 X75.708 Y107.517 E8.45118
G1 X76.061 Y107.124 E8.47714
G1 X76.488 Y106.814 E8.50311
G1 X76.970 Y106.600 E8.52908
G1 X77.485 Y106.490 E8.55500
G1 X78.034 Y106.494 E8.58200
G1 X78.530 Y106.600 E8.60695 F600.000
G1 X79.012 Y106.814 E8.63292
G1 X79.439 Y107.124 E8.65888
G1 X79.792 Y107.517 E8.68485
G1 X80.056 Y107.973 E8.71082
G1 X80.219 Y108.475 E8.73678
G1 X80.274 Y109.000 E8.76275
G1 X80.219 Y109.525 E8.78872
G1 X80.056 Y110.027 E8.81468
G1 X79.792 Y110.483 E8.84065
G1 X79.439 Y110.876 E8.86662
G1 X79.223 Y111.032 E8.87976
G1 X78.991 Y110.986 F9000.000
G1 E2.87976 F1800.00000
G92 E0
G1 X80.004 Y97.269 F9000.000
G1 E6.00000 F1800.00000
G1 X75.996 Y97.269 E6.19723 F600.000
G1 X75.996 Y87.261 E6.68975
G1 X80.004 Y87.261 E6.88698
G1 X80.004 Y97.209 E7.37655
G1 X80.389 Y97.654 F9000.000
G1 X75.611 Y97.654 E7.61174 F600.000
G1 X75.611 Y86.876 E8.14221
G1 X80.389 Y86.876 E8.37740
G1 X80.389 Y97.594 E8.90493
G1 X80.775 Y98.040 F9000.000
G1 X75.225 Y98.040 E9.17807 F600.000
G1 X75.225 Y86.490 E9.74650
G1 X80.775 Y86.490 E10.01965
G1 X80.775 Y97.980 E10.58513
G1 X80.429 Y97.840 F9000.000
G1 X76.280 Y96.781 F9000.000
G1 X76.484 Y96.985 E10.59986 F600.000
G1 X77.051 Y96.985 E10.62887
G1 X76.280 Y96.215 E10.68462
G1 X76.280 Y95.648 E10.71363
G1 X77.618 Y96.985 E10.81040
G1 X78.184 Y96.985 E10.83941
G1 X76.280 Y95.081 E10.97720
G1 X76.280 Y94.514 E11.00621
G1 X78.751 Y96.985 E11.18503
G1 X79.318 Y96.985 E11.21403
G1 X76.280 Y93.947 E11.43387
G1 X76.280 Y93.380 E11.46288
G1 X79.720 Y96.820 E11.71178
G1 X79.720 Y96.253 E11.74078
G1 X76.280 Y92.813 E11.98968
G1 X76.280 Y92.246 E12.01869
G1 X79.720 Y95.686 E12.26759
G1 X79.720 Y95.119 E12.29660
G1 X76.280 Y91.679 E12.54550
G1 X76.280 Y91.112 E12.57450
G1 X79.720 Y94.552 E12.82341
G1 X79.720 Y93.985 E12.85241
G1 X76.280 Y90.545 E13.10131
G1 X76.280 Y89.978 E13.13032
G1 X79.720 Y93.418 E13.37922
G1 X79.720 Y92.851 E13.40823
G1 X76.280 Y89.411 E13.65713
G1 X76.280 Y88.844 E13.68613
G1 X79.720 Y92.284 E13.93503
G1 X79.720 Y91.717 E13.96404
G1 X76.280 Y88.277 E14.21294
G1 X76.280 Y87.710 E14.24195
G1 X79.720 Y91.150 E14.49085
G1 X79.720 Y90.583 E14.51985
G1 X76.682 Y87.545 E14.73969
G1 X77.249 Y87.545 E14.76870
G1 X79.720 Y90.016 E14.94752
G1 X79.720 Y89.450 E14.97652
G1 X77.816 Y87.545 E15.11432
G1 X78.382 Y87.545 E15.14333
G1 X79.720 Y88.883 E15.24010
G1 X79.720 Y88.316 E15.26911
G1 X78.949 Y87.545 E15.32486
G1 X79.516 Y87.545 E15.35387
G1 X79.720 Y87.749 E15.36860
G1 E9.36860 F1800.00000
G92 E0
G1 X86.925 Y98.688 F9000.000
G1 E6.00000 F1800.00000
G1 X86.916 Y93.668 E6.24703 F600.000
G1 X86.885 Y93.418 E6.25944
G1 X86.768 Y93.007 E6.28047
G1 X86.667 Y92.808 E6.29146
G1 X86.543 Y92.634 E6.30198
G1 X86.260 Y92.384 E6.32055
G1 X86.080 Y92.288 E6.33062
G1 X85.886 Y92.220 E6.34072
G1 X85.485 Y92.171 E6.36059
G1 X85.103 Y92.217 E6.37952
G1 X84.767 Y92.355 E6.39740
G1 X84.600 Y92.470 E6.40735
G1 X84.344 Y92.733 E6.42544
G1 X84.229 Y92.907 E6.43569
G1 X84.068 Y93.265 E6.45502
G1 X84.018 Y93.476 E6.46568
G1 X83.455 Y93.382 E6.49374
G1 X83.550 Y93.031 E6.51165
G1 X83.772 Y92.589 E6.53599
G1 X84.081 Y92.229 E6.55934
G1 X84.458 Y91.984 E6.58143
G1 X84.921 Y91.834 E6.60542
G1 X85.484 Y91.782 E6.63322
G1 X85.791 Y91.798 E6.64836
G1 X86.076 Y91.847 E6.66257
G1 X86.333 Y91.926 E6.67585
G1 X86.566 Y92.036 E6.68852
G1 X86.776 Y92.177 E6.70095
G1 X86.964 Y92.349 E6.71351
G1 X87.128 Y92.549 E6.72623
G1 X87.262 Y92.774 E6.73909
G1 X87.367 Y93.024 E6.75245
G1 X87.443 Y93.302 E6.76663
G1 X87.490 Y93.608 E6.78189
G1 X87.506 Y93.949 E6.79867
G1 X87.506 Y99.084 E7.05140
G1 X85.455 Y99.084 E7.15233
G1 X85.455 Y98.688 E7.17184
G1 X86.865 Y98.688 E7.24126
G1 X87.325 Y98.687 F9000.000
G1 X87.216 Y98.891 F9000.000
G1 X87.211 Y93.956 E7.48415 F600.000
G1 X87.203 Y93.645 E7.49947
G1 X87.164 Y93.361 E7.51356
G1 X87.019 Y92.900 E7.53732
G1 X86.910 Y92.702 E7.54848
G1 X86.778 Y92.525 E7.55933
G1 X86.622 Y92.373 E7.57006
G1 X86.391 Y92.201 E7.58423
G1 X86.165 Y92.095 E7.59651
G1 X85.996 Y92.041 E7.60524
G1 X85.020 Y92.030 F9000.000
G1 X84.562 Y92.204 E7.62933 F600.000
G1 X84.260 Y92.434 E7.64800
G1 X84.005 Y92.744 E7.66781
G1 X83.778 Y93.241 E7.69465
G1 E1.69465 F1800.00000
G92 E0
G1 X90.118 Y97.263 F9000.000
G1 E6.00000 F1800.00000
G1 X89.968 Y96.878 E6.02032 F600.000
G1 X89.862 Y96.459 E6.04157
G1 X89.799 Y96.008 E6.06402
G1 X89.778 Y95.522 E6.08793
G1 X89.799 Y95.039 E6.11173
G1 X89.863 Y94.586 E6.13423
G1 X89.970 Y94.165 E6.15564
G1 X90.121 Y93.774 E6.17624
G1 X90.317 Y93.417 E6.19629
G1 X90.557 Y93.094 E6.21612
G1 X90.838 Y92.812 E6.23569
G1 X91.155 Y92.580 E6.25500
G1 X91.505 Y92.400 E6.27439
G1 X91.887 Y92.273 E6.29420
G1 X92.298 Y92.197 E6.31478
G1 X92.779 Y92.170 E6.33850 F600.000
G1 X93.189 Y92.196 E6.35870
G1 X93.606 Y92.269 E6.37953
G1 X93.992 Y92.392 E6.39949
G1 X94.345 Y92.566 E6.41885
G1 X94.661 Y92.791 E6.43796
G1 X94.940 Y93.066 E6.45719
G1 X95.176 Y93.384 E6.47671
G1 X95.372 Y93.751 E6.49720
G1 X95.516 Y94.133 E6.51726
G1 X95.620 Y94.561 E6.53895
G1 X95.682 Y95.024 E6.56195
G1 X95.703 Y95.522 E6.58650
G1 X95.682 Y96.001 E6.61008
G1 X95.619 Y96.449 E6.63232
G1 X95.514 Y96.864 E6.65343
G1 X95.365 Y97.248 E6.67367
G1 X95.171 Y97.597 E6.69333
G1 X94.933 Y97.912 E6.71274
G1 X94.655 Y98.185 E6.73193
G1 X94.339 Y98.409 E6.75099
G1 X93.988 Y98.582 E6.77023
G1 X93.605 Y98.705 E6.79002
G1 X93.192 Y98.778 E6.81068
G1 X92.749 Y98.802 E6.83253
G1 X92.303 Y98.778 E6.85453
G1 X91.887 Y98.706 E6.87529
G1 X91.502 Y98.585 E6.89515
G1 X91.149 Y98.414 E6.91443
G1 X90.832 Y98.193 E6.93346
G1 X90.551 Y97.924 E6.95260
G1 X90.312 Y97.612 E6.97196
G1 X90.147 Y97.315 E6.98868
G1 X89.720 Y97.220 F9000.000
G1 X89.630 Y97.560 F9000.000
G1 X89.415 Y97.081 E7.01454 F600.000
G1 X89.283 Y96.608 E7.03869
