; generated by Slic3r 1.2.9 on 2020-09-08 at 20:18:51

; external perimeters extrusion width = 0.40mm
; perimeters extrusion width = 0.62mm
; infill extrusion width = 0.33mm
; solid infill extrusion width = 0.62mm
; top infill extrusion width = 0.20mm
; support material extrusion width = 0.40mm

M106 S256; Turn on fan to 100% power
M104 S140; turn on extruder temperature at S value
M140 S60; turn on bed temperature at S value
G28; home all axes
M84; disable motors
G1 Z15 F15000; have Z move to 20mm at 15000 mm/min
M190 S55; turn on bed temperature at S value and wait
M140 S55; turn on bed temperature at S value (printing temperature)
M109 S200; turn on extruder temperature at S value and wait (printing temperature)
M104 S200; turn on extruder temperature at S value
G1 Z0 F12000; move Z back to home
G21 ; set units to millimeters
G90 ; use absolute coordinates
M82 ; use absolute distances for extrusion
G92 E0
M106 S255
;Layer change
G1 E-6.00000 F1800.00000
G92 E0
G1 Z0.300 F9000.000
G1 X66.095 Y28.455 F9000.000
G1 E6.00000 F1800.00000
G1 X66.563 Y27.451 E6.05447 F600.000
G1 X66.771 Y27.091 E6.07494
G1 X67.406 Y26.185 E6.12941
G1 X67.673 Y25.866 E6.14988
G1 X68.456 Y25.084 E6.20435
G1 X68.775 Y24.816 E6.22482
G1 X69.639 Y24.211 E6.27672
G1 X70.041 Y23.973 E6.29975
G1 X71.045 Y23.506 E6.35422
G1 X71.435 Y23.364 E6.37469
G1 X72.505 Y23.077 E6.42916
G1 X72.914 Y23.005 E6.44963
G1 X74.017 Y22.908 E6.50410
G1 X140.423 Y22.908 E9.77230
G1 X141.526 Y23.005 E9.82678 F600.000
G1 X141.935 Y23.077 E9.84724
G1 X143.005 Y23.364 E9.90172
G1 X143.395 Y23.506 E9.92218
G1 X144.351 Y23.951 E9.97408
G1 X144.759 Y24.181 E9.99711
G1 X145.665 Y24.816 E10.05158
G1 X145.984 Y25.083 E10.07205
G1 X146.730 Y25.829 E10.12395
G1 X147.034 Y26.185 E10.14698
G1 X147.669 Y27.091 E10.20146
G1 X147.877 Y27.451 E10.22192
G1 X148.345 Y28.455 E10.27639
G1 X148.487 Y28.845 E10.29686
G1 X148.773 Y29.914 E10.35133
G1 X148.846 Y30.324 E10.37180
G1 X148.942 Y31.427 E10.42627
G1 X148.942 Y31.842 E10.44674
G1 X148.846 Y32.945 E10.50121
G1 X148.774 Y33.355 E10.52168
G1 X148.487 Y34.424 E10.57615
G1 X148.345 Y34.814 E10.59661
G1 X147.781 Y36.002 E10.66133
G1 X114.673 Y93.329 E13.91936
G1 X114.038 Y94.235 E13.97384
G1 X113.771 Y94.554 E13.99430
G1 X112.988 Y95.336 E14.04877
G1 X112.670 Y95.604 E14.06924
G1 X111.763 Y96.239 E14.12371
G1 X111.403 Y96.446 E14.14418
G1 X110.447 Y96.892 E14.19608
G1 X110.009 Y97.056 E14.21910
G1 X108.940 Y97.343 E14.27358
G1 X108.531 Y97.415 E14.29404
G1 X107.428 Y97.512 E14.34851
G1 X107.012 Y97.512 E14.36898
G1 X105.961 Y97.420 E14.42088
G1 X105.500 Y97.343 E14.44391
G1 X104.431 Y97.056 E14.49839
G1 X104.040 Y96.914 E14.51885
G1 X103.037 Y96.446 E14.57332
G1 X102.677 Y96.239 E14.59378
G1 X101.813 Y95.634 E14.64568
G1 X101.452 Y95.336 E14.66871
G1 X100.669 Y94.554 E14.72319
G1 X100.402 Y94.235 E14.74365
G1 X99.655 Y93.153 E14.80836
G1 X66.563 Y35.818 E18.06640
G1 X66.095 Y34.814 E18.12087
G1 X65.953 Y34.424 E18.14134
G1 X65.666 Y33.355 E18.19581
G1 X65.594 Y32.945 E18.21628
G1 X65.498 Y31.842 E18.27075
G1 X65.498 Y31.427 E18.29121
G1 X65.594 Y30.324 E18.34569
G1 X65.667 Y29.914 E18.36615
G1 X65.953 Y28.845 E18.42063
G1 X66.075 Y28.511 E18.43814
G1 E12.43814 F1800.00000
G92 E0
G1 X111.880 Y89.762 F9000.000
G1 E6.00000 F1800.00000
G1 X111.059 Y91.285 E6.08514 F600.000
G1 X110.595 Y91.883 E6.12244
G1 X110.038 Y92.397 E6.15974
G1 X109.432 Y92.794 E6.19540
G1 X108.712 Y93.117 E6.23420
G1 X107.975 Y93.304 E6.27162
G1 X107.220 Y93.366 E6.30891
G1 X106.465 Y93.304 E6.34621
G1 X105.730 Y93.117 E6.38351
G1 X105.036 Y92.813 E6.42081
G1 X104.402 Y92.397 E6.45811
G1 X103.845 Y91.883 E6.49541
G1 X103.381 Y91.285 E6.53271
G1 X102.560 Y89.762 E6.61785
G1 X111.820 Y89.762 E7.07360
G1 X111.234 Y90.147 F9000.000
G1 X110.735 Y91.074 E7.12537 F600.000
G1 X110.310 Y91.622 E7.15952
G1 X109.800 Y92.092 E7.19367
G1 X109.246 Y92.455 E7.22625
G1 X108.585 Y92.751 E7.26191
G1 X107.911 Y92.922 E7.29610
G1 X107.220 Y92.980 E7.33025
G1 X106.529 Y92.922 E7.36440
G1 X105.856 Y92.752 E7.39854
G1 X105.221 Y92.472 E7.43269
G1 X104.640 Y92.092 E7.46684
G1 X104.130 Y91.622 E7.50099
G1 X103.705 Y91.074 E7.53514
G1 X103.206 Y90.147 E7.58692
G1 X111.174 Y90.147 E7.97909
G1 X111.613 Y90.277 F9000.000
G1 X112.402 Y90.038 F9000.000
G1 X112.247 Y90.615 E8.00851 F600.000
G1 X111.853 Y91.460 E8.05441
G1 X111.318 Y92.224 E8.10030
G1 X110.659 Y92.883 E8.14619
G1 X109.895 Y93.418 E8.19209
G1 X109.050 Y93.812 E8.23798
G1 X108.149 Y94.054 E8.28388
G1 X107.220 Y94.135 E8.32977
G1 X106.291 Y94.054 E8.37566
G1 X105.390 Y93.812 E8.42156
G1 X104.545 Y93.418 E8.46745
G1 X103.781 Y92.883 E8.51334
G1 X103.122 Y92.224 E8.55924
G1 X102.587 Y91.460 E8.60513
G1 X102.193 Y90.615 E8.65103
G1 X102.038 Y90.038 E8.68045
G1 X102.229 Y89.962 E8.69058
G1 X103.056 Y91.496 E8.77636
G1 X103.560 Y92.145 E8.81681
G1 X104.164 Y92.703 E8.85726
G1 X104.852 Y93.153 E8.89771
G1 X105.604 Y93.483 E8.93816
G1 X106.401 Y93.685 E8.97861
G1 X107.220 Y93.753 E9.01906
G1 X108.039 Y93.685 E9.05950
G1 X108.839 Y93.482 E9.10014
G1 X109.617 Y93.134 E9.14209
G1 X110.276 Y92.703 E9.18083
G1 X110.880 Y92.145 E9.22128
G1 X111.384 Y91.496 E9.26173
G1 X112.211 Y89.962 E9.34751
G1 X112.346 Y90.015 E9.35469
G1 X111.880 Y87.808 F9000.000
G1 X102.560 Y87.808 E9.81339 F600.000
G1 X103.381 Y86.285 E9.89853
G1 X103.845 Y85.687 E9.93583
G1 X104.402 Y85.173 E9.97313
G1 X105.036 Y84.757 E10.01043
G1 X105.730 Y84.453 E10.04773
G1 X106.465 Y84.266 E10.08503
G1 X107.187 Y84.206 E10.12069
G1 X107.973 Y84.266 E10.15949
G1 X108.710 Y84.453 E10.19690
G1 X109.404 Y84.757 E10.23420
G1 X110.038 Y85.173 E10.27150
G1 X110.595 Y85.687 E10.30880
G1 X111.059 Y86.285 E10.34610
G1 X111.852 Y87.755 E10.42829
G1 X111.234 Y87.422 F9000.000
G1 X103.206 Y87.422 E10.82341 F600.000
G1 X103.705 Y86.496 E10.87519
G1 X104.130 Y85.948 E10.90934
G1 X104.640 Y85.478 E10.94349
G1 X105.221 Y85.098 E10.97764
G1 X105.856 Y84.818 E11.01178
G1 X106.529 Y84.648 E11.04593
G1 X107.188 Y84.593 E11.07851
G1 X107.911 Y84.648 E11.11417
G1 X108.584 Y84.818 E11.14836
G1 X109.219 Y85.098 E11.18251
G1 X109.800 Y85.478 E11.21666
G1 X110.310 Y85.948 E11.25081
G1 X110.735 Y86.496 E11.28495
G1 X111.206 Y87.370 E11.33378
G1 X111.300 Y87.817 F9000.000
G1 X112.518 Y88.194 F9000.000
G1 X112.570 Y88.785 E11.36301 F600.000
G1 X112.518 Y89.376 E11.39220
G1 X101.922 Y89.376 E11.91370
G1 X101.870 Y88.785 E11.94289
G1 X101.922 Y88.194 E11.97212
G1 X112.458 Y88.194 E12.49068
G1 E6.49068 F1800.00000
G92 E0
G1 X142.353 Y36.519 F9000.000
G1 E6.00000 F1800.00000
G1 X137.057 Y27.347 E6.52124 F600.000
G1 X137.544 Y27.000 E6.55066
G1 X138.078 Y26.751 E6.57968
G1 X143.374 Y35.923 E7.10092
G1 X142.887 Y36.270 E7.13032
G1 X142.407 Y36.494 E7.15641
G1 X141.700 Y36.159 F9000.000
G1 X139.970 Y36.210 E7.24155 F600.000
G1 X139.220 Y36.107 E7.27885
G1 X138.496 Y35.882 E7.31615
G1 X137.819 Y35.540 E7.35345
G1 X137.209 Y35.092 E7.39074
G1 X136.680 Y34.548 E7.42804
G1 X136.248 Y33.926 E7.46534
G1 X135.925 Y33.240 E7.50264
G1 X135.728 Y32.543 E7.53830
G1 X135.636 Y31.760 E7.57711
G1 X135.678 Y31.001 E7.61452
G1 X135.845 Y30.262 E7.65182
G1 X136.131 Y29.560 E7.68912
G1 X137.039 Y28.088 E7.77426
G1 X141.670 Y36.107 E8.23001
G1 X141.043 Y35.793 F9000.000
G1 X139.991 Y35.824 E8.28178 F600.000
G1 X139.304 Y35.729 E8.31593
G1 X138.641 Y35.523 E8.35008
G1 X138.022 Y35.210 E8.38423
G1 X137.462 Y34.800 E8.41838
G1 X136.978 Y34.302 E8.45253
G1 X136.583 Y33.732 E8.48667
G1 X136.287 Y33.105 E8.52082
G1 X136.107 Y32.468 E8.55340
G1 X136.022 Y31.748 E8.58906
G1 X136.061 Y31.054 E8.62325
G1 X136.214 Y30.378 E8.65740
G1 X136.476 Y29.735 E8.69155
G1 X137.028 Y28.840 E8.74332
G1 X141.013 Y35.741 E9.13550
G1 X141.120 Y36.185 F9000.000
G1 X143.392 Y35.182 F9000.000
G1 X138.731 Y27.111 E9.59420 F600.000
G1 X140.427 Y27.061 E9.67770
G1 X141.209 Y27.162 E9.71651
G1 X141.935 Y27.388 E9.75392
G1 X142.612 Y27.730 E9.79122
G1 X143.223 Y28.178 E9.82851
G1 X143.751 Y28.722 E9.86581
G1 X144.183 Y29.344 E9.90311
G1 X144.507 Y30.030 E9.94041
G1 X144.703 Y30.727 E9.97607
G1 X144.796 Y31.510 E10.01488
G1 X144.753 Y32.269 E10.05229
G1 X144.586 Y33.008 E10.08959
G1 X144.300 Y33.710 E10.12689
G1 X143.423 Y35.131 E10.20907
G1 X143.403 Y34.430 F9000.000
G1 X139.388 Y27.477 E10.60420 F600.000
G1 X140.408 Y27.447 E10.65441
G1 X141.127 Y27.541 E10.69007
G1 X141.790 Y27.747 E10.72426
G1 X142.409 Y28.060 E10.75840
G1 X142.969 Y28.470 E10.79255
G1 X143.453 Y28.968 E10.82670
G1 X143.848 Y29.538 E10.86085
G1 X144.144 Y30.165 E10.89500
G1 X144.324 Y30.802 E10.92758
G1 X144.409 Y31.522 E10.96324
G1 X144.370 Y32.216 E10.99743
G1 X144.217 Y32.892 E11.03157
G1 X143.955 Y33.535 E11.06572
G1 X143.434 Y34.379 E11.11455
G1 X143.094 Y34.684 F9000.000
G1 X143.891 Y35.496 F9000.000
G1 X143.730 Y35.369 E11.12468 F600.000
G1 X144.645 Y33.885 E11.21046
G1 X144.955 Y33.124 E11.25091
G1 X145.136 Y32.323 E11.29135
G1 X145.182 Y31.498 E11.33199
G1 X145.083 Y30.652 E11.37394
G1 X144.869 Y29.894 E11.41268
G1 X144.518 Y29.151 E11.45313
G1 X144.050 Y28.475 E11.49358
G1 X143.477 Y27.887 E11.53403
G1 X142.814 Y27.400 E11.57448
G1 X142.080 Y27.030 E11.61493
G1 X141.292 Y26.784 E11.65556
G1 X140.447 Y26.675 E11.69752
G1 X138.739 Y26.725 E11.78158
G1 X138.709 Y26.521 E11.79172
G1 X139.286 Y26.366 E11.82112
G1 X140.215 Y26.285 E11.86701
G1 X141.144 Y26.366 E11.91291
G1 X142.045 Y26.608 E11.95880
G1 X142.890 Y27.002 E12.00470
G1 X143.654 Y27.537 E12.05059
G1 X144.314 Y28.196 E12.09649
G1 X144.849 Y28.960 E12.14238
G1 X145.243 Y29.805 E12.18828
G1 X145.472 Y30.659 E12.23179
G1 X145.565 Y31.639 E12.28023
G1 X145.484 Y32.564 E12.32593
G1 X145.243 Y33.464 E12.37182
G1 X144.849 Y34.310 E12.41772
G1 X144.314 Y35.074 E12.46361
G1 X143.934 Y35.454 E12.49008
G1 E6.49008 F1800.00000
G92 E0
G1 X118.101 Y68.739 F9000.000
G1 E6.00000 F1800.00000
G1 X114.125 Y75.626 E6.39138 F600.000
G1 X112.574 Y75.210 E6.47039
G1 X112.574 Y68.739 E6.78888
G1 X118.041 Y68.739 E7.05794
G1 X117.433 Y69.124 F9000.000
G1 X113.939 Y75.177 E7.40188 F600.000
G1 X112.959 Y74.914 E7.45177
G1 X112.959 Y69.124 E7.73672
G1 X117.373 Y69.124 E7.95393
G1 X116.765 Y69.510 F9000.000
G1 X113.752 Y74.728 E8.25043 F600.000
G1 X113.345 Y74.618 E8.27120
G1 X113.345 Y69.510 E8.52261
G1 X116.705 Y69.510 E8.68796
G1 X117.141 Y69.647 F9000.000
G1 X101.866 Y68.739 F9000.000
G1 X101.866 Y75.210 E9.00646 F600.000
G1 X100.315 Y75.626 E9.08547
G1 X96.339 Y68.739 E9.47685
G1 X101.806 Y68.739 E9.74590
G1 X101.481 Y69.124 F9000.000
G1 X101.481 Y74.914 E10.03085 F600.000
G1 X100.501 Y75.177 E10.08074
G1 X97.007 Y69.124 E10.42469
G1 X101.421 Y69.124 E10.64189
G1 X101.095 Y69.510 F9000.000
G1 X101.095 Y74.618 E10.89330 F600.000
G1 X100.688 Y74.728 E10.91407
G1 X97.675 Y69.510 E11.21057
G1 X101.035 Y69.510 E11.37593
G1 X101.495 Y69.510 F9000.000
G1 X118.783 Y67.556 F9000.000
G1 X95.657 Y67.556 E12.51412 F600.000
G1 X86.827 Y52.264 E13.38318
G1 X98.396 Y32.226 E14.52188
G1 X116.044 Y32.226 E15.39043
G1 X127.613 Y52.264 E16.52913
G1 X118.813 Y67.504 E17.39524
G1 X118.561 Y67.171 F9000.000
G1 X95.879 Y67.171 E18.51151 F600.000
G1 X87.273 Y52.264 E19.35866
G1 X98.619 Y32.612 E20.47544
G1 X115.821 Y32.612 E21.32208
G1 X127.167 Y52.264 E22.43886
G1 X118.591 Y67.119 E23.28305
G1 X118.338 Y66.785 F9000.000
G1 X96.102 Y66.785 E24.37742 F600.000
G1 X87.718 Y52.264 E25.20265
G1 X98.841 Y32.998 E26.29751
G1 X115.599 Y32.998 E27.12224
G1 X126.722 Y52.264 E28.21711
G1 X118.368 Y66.733 E29.03939
G1 X118.269 Y67.179 F9000.000
G1 E23.03939 F1800.00000
G92 E0
G1 X86.145 Y51.081 F9000.000
G1 E6.00000 F1800.00000
G1 X78.578 Y37.976 E6.74477 F600.000
G1 X81.899 Y32.226 E7.07153
G1 X97.030 Y32.226 E7.81623
G1 X86.175 Y51.029 E8.88477
G1 X86.145 Y50.310 F9000.000
G1 X79.023 Y37.976 E9.58572 F600.000
G1 X82.121 Y32.612 E9.89056
G1 X96.363 Y32.612 E10.59144
G1 X86.175 Y50.258 E11.59424
G1 X86.145 Y49.539 F9000.000
G1 X79.469 Y37.976 E12.25135 F600.000
G1 X82.344 Y32.998 E12.53427
G1 X95.695 Y32.998 E13.19133
G1 X86.175 Y49.487 E14.12838
G1 X85.838 Y49.796 F9000.000
G1 E8.12838 F1800.00000
G92 E0
G1 X117.410 Y32.226 F9000.000
G1 E6.00000 F1800.00000
G1 X132.541 Y32.226 E6.74470 F600.000
G1 X135.862 Y37.976 E7.07146
G1 X128.295 Y51.081 E7.81623
G1 X117.440 Y32.278 E8.88477
G1 X118.077 Y32.612 F9000.000
G1 X132.319 Y32.612 E9.58565 F600.000
G1 X135.417 Y37.976 E9.89050
G1 X128.295 Y50.310 E10.59144
G1 X118.107 Y32.664 E11.59424
G1 X118.745 Y32.998 F9000.000
G1 X132.096 Y32.998 E12.25129 F600.000
G1 X134.971 Y37.976 E12.53422
G1 X128.295 Y49.539 E13.19133
G1 X118.775 Y33.049 E14.12838
G1 X118.676 Y32.604 F9000.000
G1 E8.12838 F1800.00000
G92 E0
G1 X136.540 Y27.774 F9000.000
G1 E6.00000 F1800.00000
G1 X136.701 Y27.901 E6.01013 F600.000
G1 X135.786 Y29.385 E6.09591
G1 X135.476 Y30.146 E6.13636
G1 X135.295 Y30.947 E6.17681
G1 X135.249 Y31.772 E6.21744
G1 X135.348 Y32.618 E6.25940
G1 X135.562 Y33.376 E6.29814
G1 X135.913 Y34.119 E6.33859
G1 X136.381 Y34.795 E6.37904
G1 X136.955 Y35.383 E6.41949
G1 X137.617 Y35.870 E6.45993
G1 X138.351 Y36.240 E6.50038
G1 X139.135 Y36.485 E6.54083
G1 X139.950 Y36.596 E6.58128
G1 X141.692 Y36.545 E6.66706
G1 X141.722 Y36.749 E6.67719
G1 X140.549 Y37.063 E6.73694
G1 X139.986 Y37.326 E6.76750
G1 X139.467 Y37.696 E6.79888
G1 X139.048 Y38.114 E6.82803
G1 X138.719 Y38.584 E6.85624
G1 X112.490 Y84.015 E9.43801
G1 X112.248 Y84.534 E9.46623
G1 X112.088 Y85.130 E9.49659
G1 X112.034 Y85.745 E9.52696
G1 X112.088 Y86.360 E9.55733
G1 X112.402 Y87.532 E9.61708
G1 X112.211 Y87.608 E9.62721
G1 X111.384 Y86.074 E9.71299
G1 X110.880 Y85.425 E9.75344
G1 X110.276 Y84.867 E9.79388
G1 X109.588 Y84.417 E9.83433
G1 X108.836 Y84.087 E9.87478
G1 X108.035 Y83.884 E9.91542
G1 X107.185 Y83.819 E9.95737
G1 X106.401 Y83.885 E9.99611
G1 X105.604 Y84.087 E10.03656
G1 X104.852 Y84.417 E10.07701
G1 X104.164 Y84.867 E10.11746
G1 X103.560 Y85.425 E10.15791
G1 X103.056 Y86.074 E10.19836
G1 X102.229 Y87.608 E10.28413
G1 X102.038 Y87.532 E10.29427
G1 X102.352 Y86.360 E10.35402
G1 X102.406 Y85.745 E10.38438
G1 X102.352 Y85.130 E10.41475
G1 X102.192 Y84.534 E10.44511
G1 X101.950 Y84.015 E10.47333
G1 X75.721 Y38.584 E13.05510
G1 X75.392 Y38.114 E13.08332
G1 X74.955 Y37.678 E13.11368
G1 X74.453 Y37.326 E13.14387
G1 X73.911 Y37.069 E13.17340
G1 X72.718 Y36.749 E13.23418
G1 X72.748 Y36.545 E13.24431
G1 X74.490 Y36.596 E13.33009
G1 X75.305 Y36.485 E13.37054
G1 X76.089 Y36.240 E13.41099
G1 X76.823 Y35.870 E13.45144
G1 X77.485 Y35.383 E13.49189
G1 X78.059 Y34.795 E13.53234
G1 X78.529 Y34.116 E13.57297
G1 X78.887 Y33.342 E13.61492
G1 X79.101 Y32.585 E13.65366
G1 X79.191 Y31.768 E13.69411
G1 X79.145 Y30.947 E13.73456
G1 X78.964 Y30.146 E13.77501
G1 X78.654 Y29.385 E13.81546
G1 X77.739 Y27.901 E13.90124
G1 X77.900 Y27.774 E13.91137
G1 X78.289 Y28.162 E13.93840
G1 X79.210 Y29.456 E14.01660
G1 X135.235 Y29.456 E16.77387
G1 X136.117 Y28.196 E16.84957
G1 X136.497 Y27.816 E16.87603
G1 E10.87603 F1800.00000
G92 E0
G1 X77.386 Y27.342 F9000.000
G1 E6.00000 F1800.00000
G1 X72.087 Y36.519 E6.52151 F600.000
G1 X71.549 Y36.268 E6.55074
G1 X71.063 Y35.928 E6.57993
G1 X76.361 Y26.751 E7.10143
G1 X76.899 Y27.002 E7.13064
G1 X77.336 Y27.308 E7.15690
G1 X75.674 Y26.717 F9000.000
G1 X73.924 Y26.678 E7.24303 F600.000
G1 X73.144 Y26.785 E7.28177
G1 X72.360 Y27.030 E7.32222
G1 X71.626 Y27.400 E7.36267
G1 X70.963 Y27.887 E7.40312
G1 X70.390 Y28.475 E7.44357
G1 X69.922 Y29.151 E7.48402
G1 X69.571 Y29.894 E7.52446
G1 X69.348 Y30.685 E7.56491
G1 X69.258 Y31.502 E7.60536
G1 X69.304 Y32.323 E7.64581
G1 X69.485 Y33.124 E7.68626
G1 X69.795 Y33.885 E7.72671
G1 X70.710 Y35.369 E7.81249
G1 X70.549 Y35.496 E7.82262
G1 X70.126 Y35.074 E7.85205
G1 X69.591 Y34.310 E7.89795
G1 X69.197 Y33.464 E7.94384
G1 X68.956 Y32.564 E7.98974
G1 X68.874 Y31.635 E8.03563
G1 X68.956 Y30.706 E8.08153
G1 X69.185 Y29.852 E8.12504
G1 X69.594 Y28.957 E8.17347
G1 X70.126 Y28.196 E8.21918
G1 X70.752 Y27.571 E8.26269
G1 X71.553 Y27.000 E8.31112
G1 X72.395 Y26.608 E8.35682
G1 X73.296 Y26.366 E8.40272
G1 X74.225 Y26.285 E8.44861
G1 X75.154 Y26.366 E8.49451
G1 X75.703 Y26.514 E8.52250
G1 X75.682 Y26.657 E8.52964
G1 X75.713 Y27.103 F9000.000
