; generated by Slic3r 1.2.9 on 2020-09-18 at 22:19:19

; external perimeters extrusion width = 0.40mm
; perimeters extrusion width = 0.62mm
; infill extrusion width = 0.33mm
; solid infill extrusion width = 0.62mm
; top infill extrusion width = 0.20mm

M106 S256; Turn on fan to 100% power
M104 S140; turn on extruder temperature at S value
M140 S60; turn on bed temperature at S value
G28; home all axes
M84; disable motors
G1 Z15 F15000; have Z move to 20mm at 15000 mm/min
M190 S55; turn on bed temperature at S value and wait
M140 S55; turn on bed temperature at S value (printing temperature)
M109 S200; turn on extruder temperature at S value and wait (printing temperature)
M104 S200; turn on extruder temperature at S value
G1 Z0 F12000; move Z back to home
G21 ; set units to millimeters
G90 ; use absolute coordinates
M82 ; use absolute distances for extrusion
G92 E0
M106 S255
;Layer change
G1 E-6.00000 F1800.00000
G92 E0
G1 Z0.300 F9000.000
G1 X81.663 Y30.775 F9000.000
G1 E6.00000 F1800.00000
G1 X81.865 Y30.319 E6.02454 F600.000
G1 X82.140 Y29.844 E6.05155
G1 X82.433 Y29.440 E6.07610
G1 X82.800 Y29.032 E6.10312
G1 X83.171 Y28.699 E6.12766
G1 X83.615 Y28.376 E6.15467
G1 X84.061 Y28.120 E6.17998
G1 X84.548 Y27.904 E6.20623
G1 X85.023 Y27.749 E6.23077
G1 X85.560 Y27.635 E6.25779
G1 X86.056 Y27.583 E6.28233
G1 X110.604 Y27.583 E7.49051
G1 X111.100 Y27.635 E7.51505
G1 X111.637 Y27.749 E7.54207 F600.000
G1 X112.112 Y27.903 E7.56661
G1 X112.613 Y28.127 E7.59363
G1 X113.045 Y28.376 E7.61817
G1 X113.489 Y28.699 E7.64520
G1 X113.860 Y29.032 E7.66972
G1 X114.227 Y29.440 E7.69675
G1 X114.520 Y29.844 E7.72129
G1 X114.795 Y30.319 E7.74831
G1 X114.997 Y30.775 E7.77285
G1 X115.167 Y31.297 E7.79986
G1 X115.271 Y31.785 E7.82441
G1 X115.341 Y32.580 E7.86370
G1 X115.341 Y44.580 E8.45428
G1 X115.271 Y45.375 E8.49358
G1 X115.167 Y45.863 E8.51812
G1 X114.997 Y46.385 E8.54515
G1 X114.795 Y46.841 E8.56968
G1 X114.520 Y47.316 E8.59669
G1 X114.227 Y47.720 E8.62124
G1 X113.860 Y48.128 E8.64826
G1 X113.489 Y48.461 E8.67280
G1 X113.045 Y48.784 E8.69981
G1 X112.710 Y48.988 E8.71913
G1 X88.710 Y60.988 E10.03970
G1 X88.112 Y61.256 E10.07197
G1 X87.637 Y61.411 E10.09652
G1 X87.100 Y61.525 E10.12353
G1 X86.604 Y61.577 E10.14808
G1 X86.056 Y61.577 E10.17509
G1 X85.560 Y61.525 E10.19964
G1 X85.023 Y61.411 E10.22665
G1 X84.548 Y61.256 E10.25120
G1 X84.047 Y61.033 E10.27822
G1 X83.615 Y60.784 E10.30276
G1 X83.171 Y60.461 E10.32977
G1 X82.800 Y60.128 E10.35431
G1 X82.433 Y59.720 E10.38133
G1 X82.140 Y59.316 E10.40588
G1 X81.865 Y58.841 E10.43289
G1 X81.663 Y58.385 E10.45743
G1 X81.493 Y57.863 E10.48445
G1 X81.389 Y57.375 E10.50899
G1 X81.319 Y56.580 E10.54829
G1 X81.319 Y32.580 E11.72945
G1 X81.389 Y31.785 E11.76874
G1 X81.493 Y31.297 E11.79329
G1 X81.644 Y30.832 E11.81735
G1 E5.81735 F1800.00000
G92 E0
G1 X87.718 Y56.580 F9000.000
G1 E6.00000 F1800.00000
G1 X87.688 Y56.869 E6.01428 F600.000
G1 X87.597 Y57.149 E6.02877
G1 X87.443 Y57.407 E6.04358
G1 X87.259 Y57.612 E6.05713
G1 X87.024 Y57.782 E6.07141
G1 X86.759 Y57.900 E6.08570
G1 X86.475 Y57.961 E6.09998
G1 X86.185 Y57.961 E6.11426
G1 X85.897 Y57.900 E6.12875
G1 X85.624 Y57.774 E6.14356
G1 X85.401 Y57.612 E6.15711
G1 X85.207 Y57.396 E6.17139
G1 X85.062 Y57.145 E6.18568
G1 X84.972 Y56.869 E6.19996
G1 X84.942 Y56.580 E6.21425
G1 X84.972 Y56.291 E6.22853
G1 X85.062 Y56.015 E6.24281
G1 X85.207 Y55.764 E6.25710
G1 X85.401 Y55.548 E6.27138
G1 X85.636 Y55.378 E6.28567
G1 X85.901 Y55.260 E6.29995
G1 X86.185 Y55.199 E6.31424
G1 X86.475 Y55.199 E6.32852 F600.000
G1 X86.759 Y55.260 E6.34281
G1 X87.024 Y55.378 E6.35709
G1 X87.259 Y55.548 E6.37137
G1 X87.453 Y55.764 E6.38566
G1 X87.598 Y56.015 E6.39994
G1 X87.688 Y56.291 E6.41423
G1 X87.712 Y56.520 E6.42556
G1 X87.331 Y56.580 F9000.000
G1 X87.309 Y56.788 E6.43585 F600.000
G1 X87.244 Y56.988 E6.44622
G1 X87.131 Y57.177 E6.45705
G1 X87.000 Y57.324 E6.46673
G1 X86.830 Y57.447 E6.47702
G1 X86.639 Y57.532 E6.48732
G1 X86.435 Y57.575 E6.49761
G1 X86.225 Y57.575 E6.50791
G1 X86.019 Y57.531 E6.51828
G1 X85.820 Y57.439 E6.52910
G1 X85.660 Y57.324 E6.53878
G1 X85.520 Y57.168 E6.54908
G1 X85.416 Y56.987 E6.55937
G1 X85.351 Y56.788 E6.56967
G1 X85.329 Y56.580 E6.57996
G1 X85.351 Y56.372 E6.59026
G1 X85.416 Y56.173 E6.60055
G1 X85.520 Y55.992 E6.61085
G1 X85.660 Y55.836 E6.62114
G1 X85.830 Y55.713 E6.63144
G1 X86.021 Y55.628 E6.64173
G1 X86.225 Y55.585 E6.65203
G1 X86.435 Y55.585 E6.66232 F600.000
G1 X86.639 Y55.628 E6.67262
G1 X86.830 Y55.713 E6.68291
G1 X87.000 Y55.836 E6.69321
G1 X87.140 Y55.992 E6.70351
G1 X87.244 Y56.173 E6.71380
G1 X87.309 Y56.372 E6.72410
G1 X87.324 Y56.520 E6.73144
G1 X87.508 Y56.691 F9000.000
G1 X88.331 Y56.475 F9000.000
G1 X88.342 Y56.580 E6.73664 F600.000
G1 X88.298 Y56.998 E6.75734
G1 X88.168 Y57.398 E6.77803
G1 X87.957 Y57.762 E6.79873
G1 X87.676 Y58.075 E6.81943
G1 X87.336 Y58.322 E6.84012
G1 X86.952 Y58.493 E6.86082
G1 X86.554 Y58.578 E6.88084
G1 X86.118 Y58.580 E6.90229
G1 X85.708 Y58.493 E6.92290
G1 X85.324 Y58.322 E6.94359
G1 X84.984 Y58.075 E6.96429
G1 X84.703 Y57.762 E6.98499
G1 X84.492 Y57.398 E7.00569
G1 X84.362 Y56.998 E7.02638
G1 X84.318 Y56.580 E7.04708
G1 X84.362 Y56.162 E7.06778
G1 X84.492 Y55.762 E7.08848
G1 X84.703 Y55.398 E7.10917
G1 X84.984 Y55.085 E7.12987
G1 X85.324 Y54.838 E7.15057
G1 X85.708 Y54.667 E7.17126
G1 X86.118 Y54.580 E7.19187
G1 X86.554 Y54.582 E7.21333
G1 X86.952 Y54.667 E7.23334 F600.000
G1 X87.336 Y54.838 E7.25404
G1 X87.676 Y55.085 E7.27473
G1 X87.957 Y55.398 E7.29543
G1 X88.168 Y55.762 E7.31613
G1 X88.298 Y56.162 E7.33683
G1 X88.324 Y56.415 E7.34937
G1 X88.714 Y56.435 F9000.000
G1 X88.729 Y56.580 E7.35657 F600.000
G1 X88.677 Y57.079 E7.38125
G1 X88.522 Y57.556 E7.40594
G1 X88.271 Y57.990 E7.43063
G1 X87.936 Y58.363 E7.45531
G1 X87.530 Y58.658 E7.48000
G1 X87.071 Y58.862 E7.50469
G1 X86.595 Y58.963 E7.52863
G1 X86.079 Y58.966 E7.55407
G1 X85.589 Y58.862 E7.57873
G1 X85.130 Y58.658 E7.60342
G1 X84.724 Y58.363 E7.62810
G1 X84.389 Y57.990 E7.65279
G1 X84.138 Y57.556 E7.67748
G1 X83.983 Y57.079 E7.70216
G1 X83.931 Y56.580 E7.72685
G1 X83.983 Y56.081 E7.75154
G1 X84.138 Y55.604 E7.77622
G1 X84.389 Y55.170 E7.80091
G1 X84.724 Y54.797 E7.82559
G1 X85.130 Y54.502 E7.85028
G1 X85.589 Y54.298 E7.87497
G1 X86.079 Y54.194 E7.89962
G1 X86.595 Y54.197 E7.92506
G1 X87.071 Y54.298 E7.94901 F600.000
G1 X87.530 Y54.502 E7.97370
G1 X87.936 Y54.797 E7.99839
G1 X88.271 Y55.170 E8.02307
G1 X88.522 Y55.604 E8.04776
G1 X88.677 Y56.081 E8.07245
G1 X88.708 Y56.375 E8.08698
G1 X88.596 Y56.521 F9000.000
G1 X88.022 Y56.507 F9000.000
G1 X88.030 Y56.580 E8.09058 F600.000
G1 X87.989 Y56.945 E8.10866
G1 X87.883 Y57.271 E8.12555
G1 X87.686 Y57.601 E8.14442
G1 X87.467 Y57.843 E8.16050
G1 X87.180 Y58.052 E8.17798
G1 X86.855 Y58.196 E8.19547
G1 X86.495 Y58.269 E8.21354
G1 X86.150 Y58.270 E8.23056
G1 X85.805 Y58.197 E8.24791
G1 X85.481 Y58.051 E8.26539
G1 X85.193 Y57.843 E8.28288
G1 X84.955 Y57.579 E8.30036
G1 X84.777 Y57.271 E8.31785
G1 X84.667 Y56.933 E8.33534
G1 X84.631 Y56.568 E8.35342
G1 X84.667 Y56.227 E8.37030 F600.000
G1 X84.777 Y55.889 E8.38779
G1 X84.955 Y55.581 E8.40528
G1 X85.184 Y55.326 E8.42216
G1 X85.491 Y55.103 E8.44084
G1 X85.805 Y54.964 E8.45772
G1 X86.150 Y54.890 E8.47508
G1 X86.520 Y54.892 E8.49329
G1 X86.855 Y54.964 E8.51017
G1 X87.180 Y55.108 E8.52766
G1 X87.467 Y55.317 E8.54515
G1 X87.705 Y55.581 E8.56263
G1 X87.883 Y55.889 E8.58012
G1 X87.993 Y56.227 E8.59761
G1 X88.016 Y56.448 E8.60855
G1 E2.60855 F1800.00000
G92 E0
G1 X86.475 Y45.961 F9000.000
G1 E6.00000 F1800.00000
G1 X86.185 Y45.961 E6.01428 F600.000
G1 X85.901 Y45.900 E6.02857
G1 X85.636 Y45.782 E6.04285
G1 X85.401 Y45.612 E6.05714
G1 X85.207 Y45.396 E6.07142
G1 X85.062 Y45.145 E6.08571
G1 X84.972 Y44.869 E6.09999
G1 X84.942 Y44.580 E6.11428
G1 X84.972 Y44.291 E6.12856
G1 X85.062 Y44.015 E6.14285
G1 X85.207 Y43.764 E6.15713
G1 X85.401 Y43.548 E6.17141
G1 X85.636 Y43.378 E6.18570
G1 X85.901 Y43.260 E6.19998
G1 X86.185 Y43.199 E6.21427
G1 X86.475 Y43.199 E6.22855 F600.000
G1 X86.759 Y43.260 E6.24284
G1 X87.024 Y43.378 E6.25712
G1 X87.259 Y43.548 E6.27140
G1 X87.453 Y43.764 E6.28569
G1 X87.598 Y44.015 E6.29997
G1 X87.688 Y44.291 E6.31426
G1 X87.718 Y44.580 E6.32854
G1 X87.688 Y44.869 E6.34283
G1 X87.598 Y45.145 E6.35711
G1 X87.453 Y45.396 E6.37140
G1 X87.259 Y45.612 E6.38568
G1 X87.024 Y45.782 E6.39996
G1 X86.759 Y45.900 E6.41425
G1 X86.534 Y45.948 E6.42558
G1 X86.435 Y45.575 F9000.000
G1 X86.225 Y45.575 E6.43588 F600.000
G1 X86.021 Y45.532 E6.44617
G1 X85.830 Y45.447 E6.45647
G1 X85.660 Y45.324 E6.46676
G1 X85.520 Y45.168 E6.47706
G1 X85.416 Y44.987 E6.48735
G1 X85.351 Y44.788 E6.49765
G1 X85.329 Y44.580 E6.50794
G1 X85.351 Y44.372 E6.51824
G1 X85.416 Y44.173 E6.52853
G1 X85.520 Y43.992 E6.53883
G1 X85.660 Y43.836 E6.54912
G1 X85.830 Y43.713 E6.55942
G1 X86.021 Y43.628 E6.56971
G1 X86.225 Y43.585 E6.58001
G1 X86.435 Y43.585 E6.59030 F600.000
G1 X86.639 Y43.628 E6.60060
G1 X86.830 Y43.713 E6.61089
G1 X87.000 Y43.836 E6.62119
G1 X87.140 Y43.992 E6.63148
G1 X87.244 Y44.173 E6.64178
G1 X87.309 Y44.372 E6.65207
G1 X87.331 Y44.580 E6.66237
G1 X87.309 Y44.788 E6.67266
G1 X87.244 Y44.987 E6.68296
G1 X87.140 Y45.168 E6.69325
G1 X87.000 Y45.324 E6.70355
G1 X86.830 Y45.447 E6.71384
G1 X86.639 Y45.532 E6.72414
G1 X86.493 Y45.563 E6.73148
G1 X86.343 Y45.763 F9000.000
G1 X86.435 Y46.581 F9000.000
G1 X86.120 Y46.581 E6.74698 F600.000
G1 X85.708 Y46.493 E6.76767
G1 X85.324 Y46.322 E6.78837
G1 X84.984 Y46.075 E6.80907
G1 X84.703 Y45.762 E6.82977
G1 X84.492 Y45.398 E6.85046
G1 X84.362 Y44.998 E6.87116
G1 X84.318 Y44.580 E6.89186
G1 X84.362 Y44.162 E6.91255
G1 X84.492 Y43.762 E6.93325
G1 X84.703 Y43.398 E6.95395
G1 X84.984 Y43.085 E6.97465
G1 X85.324 Y42.838 E6.99534
G1 X85.708 Y42.667 E7.01604
G1 X86.118 Y42.580 E7.03665
G1 X86.554 Y42.582 E7.05810
G1 X86.952 Y42.667 E7.07812 F600.000
G1 X87.336 Y42.838 E7.09881
G1 X87.676 Y43.085 E7.11951
G1 X87.957 Y43.398 E7.14021
G1 X88.168 Y43.762 E7.16091
G1 X88.298 Y44.162 E7.18160
G1 X88.342 Y44.580 E7.20230
G1 X88.298 Y44.998 E7.22300
G1 X88.168 Y45.398 E7.24369
G1 X87.957 Y45.762 E7.26439
G1 X87.676 Y46.075 E7.28509
G1 X87.336 Y46.322 E7.30579
G1 X86.952 Y46.493 E7.32648
G1 X86.495 Y46.581 E7.34938
G1 X86.435 Y46.966 F9000.000
G1 X86.079 Y46.966 E7.36688 F600.000
G1 X85.589 Y46.862 E7.39156
G1 X85.130 Y46.658 E7.41625
G1 X84.724 Y46.363 E7.44094
G1 X84.389 Y45.990 E7.46562
G1 X84.138 Y45.556 E7.49031
G1 X83.983 Y45.079 E7.51500
G1 X83.931 Y44.580 E7.53968
G1 X83.983 Y44.081 E7.56437
G1 X84.138 Y43.604 E7.58906
G1 X84.389 Y43.170 E7.61374
G1 X84.724 Y42.797 E7.63843
G1 X85.130 Y42.502 E7.66312
G1 X85.589 Y42.298 E7.68780
G1 X86.079 Y42.194 E7.71246
G1 X86.595 Y42.197 E7.73790
G1 X87.071 Y42.298 E7.76185 F600.000
G1 X87.530 Y42.502 E7.78653
G1 X87.936 Y42.797 E7.81122
G1 X88.271 Y43.170 E7.83591
G1 X88.522 Y43.604 E7.86059
G1 X88.677 Y44.081 E7.88528
G1 X88.729 Y44.580 E7.90997
G1 X88.677 Y45.079 E7.93465
G1 X88.522 Y45.556 E7.95934
G1 X88.271 Y45.990 E7.98403
G1 X87.936 Y46.363 E8.00871
G1 X87.530 Y46.658 E8.03340
G1 X87.071 Y46.862 E8.05809
G1 X86.581 Y46.966 E8.08277
G1 X86.495 Y46.966 E8.08702
G1 X86.257 Y46.658 F9000.000
G1 X86.435 Y46.271 F9000.000
G1 X86.152 Y46.270 E8.10091 F600.000
G1 X85.805 Y46.196 E8.11839
G1 X85.480 Y46.052 E8.13588
G1 X85.193 Y45.843 E8.15337
G1 X84.955 Y45.579 E8.17086
G1 X84.777 Y45.271 E8.18834
G1 X84.667 Y44.933 E8.20583
G1 X84.630 Y44.580 E8.22332
G1 X84.671 Y44.215 E8.24140 F600.000
G1 X84.777 Y43.889 E8.25829
G1 X84.949 Y43.591 E8.27517
G1 X85.193 Y43.317 E8.29325
G1 X85.491 Y43.103 E8.31133
G1 X85.805 Y42.964 E8.32822
G1 X86.140 Y42.892 E8.34510
G1 X86.520 Y42.892 E8.36377
G1 X86.855 Y42.964 E8.38066
G1 X87.169 Y43.103 E8.39754
G1 X87.467 Y43.317 E8.41562
G1 X87.711 Y43.591 E8.43371
G1 X87.883 Y43.889 E8.45059
G1 X87.993 Y44.227 E8.46808
G1 X88.029 Y44.592 E8.48616
G1 X87.993 Y44.933 E8.50304
G1 X87.887 Y45.260 E8.51993
G1 X87.697 Y45.588 E8.53860
G1 X87.467 Y45.843 E8.55549
G1 X87.190 Y46.045 E8.57237
G1 X86.855 Y46.196 E8.59045
G1 X86.495 Y46.271 E8.60857
G1 E2.60857 F1800.00000
G92 E0
G1 X86.435 Y33.961 F9000.000
G1 E6.00000 F1800.00000
G1 X86.185 Y33.961 E6.01229 F600.000
G1 X85.897 Y33.900 E6.02677
G1 X85.624 Y33.774 E6.04159
G1 X85.401 Y33.612 E6.05513
G1 X85.207 Y33.396 E6.06942
G1 X85.062 Y33.145 E6.08370
G1 X84.972 Y32.869 E6.09799
G1 X84.942 Y32.580 E6.11227
G1 X84.972 Y32.291 E6.12656
G1 X85.062 Y32.015 E6.14084
G1 X85.207 Y31.764 E6.15512
G1 X85.401 Y31.548 E6.16941
G1 X85.636 Y31.378 E6.18369
G1 X85.901 Y31.260 E6.19798
G1 X86.185 Y31.199 E6.21226
G1 X86.475 Y31.199 E6.22655 F600.000
G1 X86.759 Y31.260 E6.24083
G1 X87.024 Y31.378 E6.25512
G1 X87.259 Y31.548 E6.26940
G1 X87.453 Y31.764 E6.28368
G1 X87.598 Y32.015 E6.29797
G1 X87.688 Y32.291 E6.31225
G1 X87.718 Y32.580 E6.32654
G1 X87.688 Y32.869 E6.34082
G1 X87.598 Y33.145 E6.35511
G1 X87.453 Y33.396 E6.36939
G1 X87.259 Y33.612 E6.38368
G1 X87.024 Y33.782 E6.39796
G1 X86.759 Y33.900 E6.41224
G1 X86.494 Y33.957 E6.42557
G1 X86.435 Y33.575 F9000.000
G1 X86.225 Y33.575 E6.43587 F600.000
G1 X86.019 Y33.531 E6.44623
G1 X85.820 Y33.439 E6.45706
G1 X85.660 Y33.324 E6.46674
G1 X85.520 Y33.168 E6.47704
G1 X85.416 Y32.987 E6.48733
G1 X85.351 Y32.788 E6.49763
G1 X85.329 Y32.580 E6.50792
G1 X85.351 Y32.372 E6.51822
G1 X85.416 Y32.173 E6.52851
G1 X85.520 Y31.992 E6.53881
G1 X85.660 Y31.836 E6.54910
G1 X85.830 Y31.713 E6.55940
G1 X86.021 Y31.628 E6.56969
G1 X86.225 Y31.585 E6.57999
G1 X86.435 Y31.585 E6.59028 F600.000
G1 X86.639 Y31.628 E6.60058
G1 X86.830 Y31.713 E6.61087
G1 X87.000 Y31.836 E6.62117
G1 X87.140 Y31.992 E6.63146
G1 X87.244 Y32.173 E6.64176
G1 X87.309 Y32.372 E6.65205
G1 X87.331 Y32.580 E6.66235
G1 X87.309 Y32.788 E6.67264
G1 X87.244 Y32.987 E6.68294
G1 X87.140 Y33.168 E6.69323
G1 X87.000 Y33.324 E6.70353
G1 X86.830 Y33.447 E6.71382
G1 X86.639 Y33.532 E6.72412
G1 X86.493 Y33.563 E6.73146
G1 X86.343 Y33.763 F9000.000
G1 X86.435 Y34.581 F9000.000
G1 X86.120 Y34.581 E6.74696 F600.000
G1 X85.708 Y34.493 E6.76765
G1 X85.324 Y34.322 E6.78835
G1 X84.984 Y34.075 E6.80905
G1 X84.703 Y33.762 E6.82974
G1 X84.492 Y33.398 E6.85044
G1 X84.362 Y32.998 E6.87114
G1 X84.318 Y32.580 E6.89184
G1 X84.362 Y32.162 E6.91253
G1 X84.492 Y31.762 E6.93323
G1 X84.703 Y31.398 E6.95393
G1 X84.984 Y31.085 E6.97463
G1 X85.324 Y30.838 E6.99532
G1 X85.708 Y30.667 E7.01602
G1 X86.118 Y30.580 E7.03663
G1 X86.554 Y30.582 E7.05808
G1 X86.952 Y30.667 E7.07810 F600.000
G1 X87.336 Y30.838 E7.09879
G1 X87.676 Y31.085 E7.11949
G1 X87.957 Y31.398 E7.14019
G1 X88.168 Y31.762 E7.16088
G1 X88.298 Y32.162 E7.18158
G1 X88.342 Y32.580 E7.20228
G1 X88.298 Y32.998 E7.22298
G1 X88.168 Y33.398 E7.24367
G1 X87.957 Y33.762 E7.26437
G1 X87.676 Y34.075 E7.28507
G1 X87.336 Y34.322 E7.30577
G1 X86.952 Y34.493 E7.32646
G1 X86.495 Y34.581 E7.34936
G1 X86.435 Y34.966 F9000.000
G1 X86.079 Y34.966 E7.36685 F600.000
G1 X85.589 Y34.862 E7.39154
G1 X85.130 Y34.658 E7.41623
G1 X84.724 Y34.363 E7.44091
G1 X84.389 Y33.990 E7.46560
G1 X84.138 Y33.556 E7.49029
G1 X83.983 Y33.079 E7.51497
G1 X83.931 Y32.580 E7.53966
G1 X83.983 Y32.081 E7.56435
G1 X84.138 Y31.604 E7.58903
G1 X84.389 Y31.170 E7.61372
G1 X84.724 Y30.797 E7.63841
G1 X85.130 Y30.502 E7.66309
G1 X85.589 Y30.298 E7.68778
G1 X86.079 Y30.194 E7.71244
G1 X86.595 Y30.197 E7.73788
G1 X87.071 Y30.298 E7.76182 F600.000
G1 X87.530 Y30.502 E7.78651
G1 X87.936 Y30.797 E7.81120
G1 X88.271 Y31.170 E7.83588
G1 X88.522 Y31.604 E7.86057
G1 X88.677 Y32.081 E7.88526
G1 X88.729 Y32.580 E7.90994
G1 X88.677 Y33.079 E7.93463
G1 X88.522 Y33.556 E7.95932
G1 X88.271 Y33.990 E7.98400
G1 X87.936 Y34.363 E8.00869
G1 X87.530 Y34.658 E8.03338
G1 X87.071 Y34.862 E8.05806
G1 X86.581 Y34.966 E8.08275
G1 X86.495 Y34.966 E8.08699
G1 X86.257 Y34.658 F9000.000
G1 X86.435 Y34.271 F9000.000
G1 X86.152 Y34.270 E8.10089 F600.000
G1 X85.805 Y34.197 E8.11837
G1 X85.481 Y34.051 E8.13586
G1 X85.193 Y33.843 E8.15334
G1 X84.955 Y33.579 E8.17082
G1 X84.777 Y33.271 E8.18831
G1 X84.667 Y32.933 E8.20580
G1 X84.630 Y32.580 E8.22329
G1 X84.671 Y32.215 E8.24137 F600.000
