; generated by Slic3r 1.2.9 on 2017-05-09 at 23:44:10

; external perimeters extrusion width = 0.40mm
; perimeters extrusion width = 0.56mm
; infill extrusion width = 0.38mm
; solid infill extrusion width = 0.56mm
; top infill extrusion width = 0.22mm
; support material extrusion width = 0.40mm

M106 S256; Turn on fan to 100% power
M104 S140; turn on extruder temperature at S value
M140 S60; turn on bed temperature at S value
G28; home all axes
M84; disable motors
G1 Z15 F15000; have Z move to 20mm at 15000 mm/min
M190 S55; turn on bed temperature at S value and wait
M140 S55; turn on bed temperature at S value (printing temperature)
M109 S200; turn on extruder temperature at S value and wait (printing temperature)
M104 S200; turn on extruder temperature at S value
G1 Z0 F12000; move Z back to home
G21 ; set units to millimeters
G90 ; use absolute coordinates
M82 ; use absolute distances for extrusion
G92 E0
M106 S255
;Layer change
G1 E-6.00000 F1800.00000
G92 E0
G1 Z0.300 F9000.000
G1 X67.934 Y19.430 F9000.000
G1 E6.00000 F1800.00000
G1 X68.326 Y18.120 E6.06967 F600.000
G1 X69.372 Y17.241 E6.13934
G1 X70.320 Y17.044 E6.18867
G1 X110.320 Y17.044 E8.22736
G1 X111.630 Y17.436 E8.29703
G1 X112.509 Y18.482 E8.36670 F600.000
G1 X112.706 Y19.430 E8.41603
G1 X112.706 Y59.430 E10.45472
G1 X112.314 Y60.740 E10.52439
G1 X111.268 Y61.619 E10.59406
G1 X110.320 Y61.816 E10.64339
G1 X70.320 Y61.816 E12.68209
G1 X69.010 Y61.424 E12.75176
G1 X68.131 Y60.378 E12.82142
G1 X67.934 Y59.430 E12.87075
G1 X67.934 Y19.490 E14.90639
G1 E8.90639 F1800.00000
G92 E0
G1 X108.710 Y54.288 F9000.000
G1 E6.00000 F1800.00000
G1 X108.839 Y54.612 E6.01774 F600.000
G1 X108.925 Y54.949 E6.03549
G1 X108.971 Y55.430 E6.06012
G1 X108.925 Y55.911 E6.08475
G1 X108.839 Y56.248 E6.10250
G1 X108.710 Y56.572 E6.12024
G1 X108.464 Y56.988 E6.14487
G1 X108.134 Y57.362 E6.17030
G1 X107.740 Y57.668 E6.19573
G1 X107.296 Y57.894 E6.22115
G1 X106.817 Y58.034 E6.24658
G1 X106.320 Y58.081 E6.27201
G1 X105.839 Y58.035 E6.29664
G1 X105.502 Y57.949 E6.31439
G1 X105.178 Y57.820 E6.33213
G1 X104.762 Y57.574 E6.35676
G1 X104.388 Y57.244 E6.38219
G1 X104.082 Y56.850 E6.40762
G1 X103.856 Y56.406 E6.43304
G1 X103.716 Y55.927 E6.45847
G1 X103.669 Y55.430 E6.48390
G1 X103.716 Y54.933 E6.50933
G1 X103.856 Y54.454 E6.53476
G1 X104.082 Y54.010 E6.56018
G1 X104.388 Y53.616 E6.58561
G1 X104.762 Y53.286 E6.61104
G1 X105.191 Y53.032 E6.63647
G1 X105.646 Y52.868 E6.66109
G1 X105.988 Y52.803 E6.67882
G1 X106.329 Y52.781 E6.69626 F600.000
G1 X106.816 Y52.826 E6.72117
G1 X107.296 Y52.966 E6.74665
G1 X107.740 Y53.192 E6.77207
G1 X108.134 Y53.498 E6.79750
G1 X108.464 Y53.872 E6.82293
G1 X108.680 Y54.236 E6.84450
G1 X108.363 Y54.458 F9000.000
G1 X108.471 Y54.731 E6.85946 F600.000
G1 X108.544 Y55.015 E6.87443
G1 X108.583 Y55.430 E6.89565
G1 X108.544 Y55.845 E6.91687
G1 X108.471 Y56.129 E6.93184
G1 X108.363 Y56.402 E6.94680
G1 X108.151 Y56.760 E6.96802
G1 X107.869 Y57.080 E6.98974
G1 X107.533 Y57.341 E7.01145
G1 X107.153 Y57.534 E7.03316
G1 X106.744 Y57.653 E7.05487
G1 X106.320 Y57.693 E7.07659
G1 X105.905 Y57.654 E7.09781
G1 X105.621 Y57.581 E7.11278
G1 X105.348 Y57.473 E7.12774
G1 X104.990 Y57.261 E7.14896
G1 X104.670 Y56.979 E7.17067
G1 X104.409 Y56.643 E7.19239
G1 X104.216 Y56.263 E7.21409
G1 X104.097 Y55.854 E7.23581
G1 X104.057 Y55.430 E7.25752
G1 X104.097 Y55.006 E7.27924
G1 X104.216 Y54.597 E7.30095
G1 X104.409 Y54.217 E7.32266
G1 X104.670 Y53.881 E7.34437
G1 X104.990 Y53.599 E7.36608
G1 X105.356 Y53.382 E7.38779
G1 X105.748 Y53.241 E7.40902
G1 X106.036 Y53.186 E7.42397
G1 X106.324 Y53.168 E7.43864 F600.000
G1 X106.744 Y53.207 E7.46014
G1 X107.153 Y53.326 E7.48188
G1 X107.533 Y53.519 E7.50359
G1 X107.869 Y53.780 E7.52530
G1 X108.151 Y54.100 E7.54702
G1 X108.333 Y54.406 E7.56518
G1 X108.016 Y54.628 F9000.000
G1 X108.104 Y54.850 E7.57736 F600.000
G1 X108.163 Y55.082 E7.58955
G1 X108.196 Y55.430 E7.60736
G1 X108.163 Y55.778 E7.62518
G1 X108.104 Y56.010 E7.63736
G1 X108.016 Y56.232 E7.64954
G1 X107.838 Y56.533 E7.66736
G1 X107.604 Y56.798 E7.68536
G1 X107.325 Y57.014 E7.70335
G1 X107.011 Y57.174 E7.72135
G1 X106.672 Y57.273 E7.73935
G1 X106.320 Y57.306 E7.75734
G1 X105.972 Y57.273 E7.77516
G1 X105.740 Y57.214 E7.78735
G1 X105.518 Y57.126 E7.79952
G1 X105.217 Y56.948 E7.81734
G1 X104.952 Y56.714 E7.83534
G1 X104.736 Y56.435 E7.85334
G1 X104.576 Y56.121 E7.87133
G1 X104.477 Y55.782 E7.88933
G1 X104.444 Y55.430 E7.90732
G1 X104.477 Y55.078 E7.92532
G1 X104.576 Y54.739 E7.94332
G1 X104.736 Y54.425 E7.96131
G1 X104.952 Y54.146 E7.97931
G1 X105.217 Y53.912 E7.99731
G1 X105.521 Y53.733 E8.01530
G1 X105.850 Y53.614 E8.03312
G1 X106.085 Y53.569 E8.04530
G1 X106.318 Y53.555 E8.05721 F600.000
G1 X106.671 Y53.587 E8.07529
G1 X107.011 Y53.686 E8.09330
G1 X107.325 Y53.846 E8.11129
G1 X107.604 Y54.062 E8.12929
G1 X107.838 Y54.327 E8.14729
G1 X107.985 Y54.577 E8.16204
G1 X108.254 Y54.651 F9000.000
G1 X106.486 Y26.075 F9000.000
G1 X105.988 Y26.060 E8.18747 F600.000
G1 X105.501 Y25.951 E8.21290
G1 X105.043 Y25.753 E8.23833
G1 X104.643 Y25.481 E8.26296
G1 X104.389 Y25.243 E8.28071
G1 X104.168 Y24.975 E8.29845
G1 X103.922 Y24.559 E8.32308
G1 X103.753 Y24.089 E8.34852
G1 X103.677 Y23.612 E8.37314
G1 X103.677 Y23.264 E8.39088
G1 X103.721 Y22.918 E8.40863
G1 X103.856 Y22.454 E8.43327
G1 X104.082 Y22.010 E8.45869
G1 X104.388 Y21.615 E8.48411
G1 X104.762 Y21.286 E8.50955
G1 X105.191 Y21.032 E8.53497
G1 X105.661 Y20.863 E8.56040
G1 X106.154 Y20.785 E8.58583 F600.000
G1 X106.652 Y20.800 E8.61125
G1 X107.139 Y20.909 E8.63668
G1 X107.597 Y21.107 E8.66211
G1 X107.997 Y21.379 E8.68674
G1 X108.250 Y21.617 E8.70449
G1 X108.472 Y21.885 E8.72223
G1 X108.718 Y22.301 E8.74686
G1 X108.887 Y22.771 E8.77230
G1 X108.963 Y23.248 E8.79692
G1 X108.963 Y23.596 E8.81466
G1 X108.919 Y23.942 E8.83241
G1 X108.784 Y24.406 E8.85705
G1 X108.558 Y24.850 E8.88247
G1 X108.252 Y25.245 E8.90789
G1 X107.878 Y25.574 E8.93333
G1 X107.449 Y25.828 E8.95875
G1 X106.979 Y25.997 E8.98418
G1 X106.546 Y26.066 E9.00655
G1 X106.462 Y25.689 F9000.000
G1 X106.036 Y25.675 E9.02826 F600.000
G1 X105.621 Y25.583 E9.04997
G1 X105.230 Y25.413 E9.07168
G1 X104.885 Y25.179 E9.09291
G1 X104.671 Y24.978 E9.10787
G1 X104.484 Y24.752 E9.12284
G1 X104.272 Y24.394 E9.14406
G1 X104.128 Y23.993 E9.16578
G1 X104.063 Y23.582 E9.18700
G1 X104.063 Y23.288 E9.20195
G1 X104.099 Y22.997 E9.21692
G1 X104.216 Y22.597 E9.23815
G1 X104.409 Y22.217 E9.25986
G1 X104.670 Y21.881 E9.28157
G1 X104.990 Y21.599 E9.30329
G1 X105.356 Y21.382 E9.32500
G1 X105.757 Y21.238 E9.34671
G1 X106.178 Y21.171 E9.36842 F600.000
G1 X106.604 Y21.185 E9.39013
G1 X107.019 Y21.277 E9.41184
G1 X107.410 Y21.447 E9.43355
G1 X107.755 Y21.681 E9.45478
G1 X107.969 Y21.882 E9.46974
G1 X108.156 Y22.108 E9.48471
G1 X108.368 Y22.466 E9.50593
G1 X108.512 Y22.867 E9.52765
G1 X108.577 Y23.278 E9.54887
G1 X108.577 Y23.572 E9.56382
G1 X108.541 Y23.863 E9.57880
G1 X108.424 Y24.263 E9.60002
G1 X108.231 Y24.643 E9.62173
G1 X107.970 Y24.979 E9.64344
G1 X107.650 Y25.261 E9.66516
G1 X107.284 Y25.478 E9.68687
G1 X106.883 Y25.622 E9.70858
G1 X106.521 Y25.679 E9.72723
G1 X106.438 Y25.302 F9000.000
G1 X106.085 Y25.291 E9.74523 F600.000
G1 X105.740 Y25.214 E9.76322
G1 X105.416 Y25.074 E9.78122
G1 X105.127 Y24.877 E9.79904
G1 X104.953 Y24.714 E9.81122
G1 X104.800 Y24.530 E9.82340
G1 X104.623 Y24.229 E9.84122
G1 X104.503 Y23.897 E9.85922
G1 X104.448 Y23.551 E9.87703
G1 X104.448 Y23.312 E9.88921
G1 X104.478 Y23.075 E9.90140
G1 X104.576 Y22.739 E9.91922
G1 X104.736 Y22.425 E9.93721
G1 X104.952 Y22.146 E9.95521
G1 X105.217 Y21.912 E9.97321
G1 X105.521 Y21.733 E9.99120
G1 X105.853 Y21.613 E10.00920
G1 X106.202 Y21.558 E10.02719 F600.000
G1 X106.555 Y21.569 E10.04519
G1 X106.900 Y21.646 E10.06319
G1 X107.224 Y21.786 E10.08118
G1 X107.513 Y21.983 E10.09900
G1 X107.687 Y22.146 E10.11118
G1 X107.840 Y22.330 E10.12337
G1 X108.017 Y22.631 E10.14118
G1 X108.137 Y22.963 E10.15918
G1 X108.192 Y23.309 E10.17699
G1 X108.192 Y23.548 E10.18918
G1 X108.162 Y23.785 E10.20136
G1 X108.064 Y24.121 E10.21918
G1 X107.904 Y24.435 E10.23717
G1 X107.688 Y24.714 E10.25517
G1 X107.423 Y24.948 E10.27317
G1 X107.119 Y25.127 E10.29116
G1 X106.787 Y25.247 E10.30916
G1 X106.497 Y25.293 E10.32410
G1 X106.271 Y25.613 F9000.000
G1 X76.950 Y23.762 F9000.000
G1 X76.841 Y24.249 E10.34952 F600.000
G1 X76.643 Y24.707 E10.37495
G1 X76.362 Y25.120 E10.40038
G1 X76.010 Y25.472 E10.42581
G1 X75.610 Y25.744 E10.45043
G1 X75.295 Y25.892 E10.46818
G1 X74.964 Y26.000 E10.48593
G1 X74.486 Y26.075 E10.51056
G1 X73.988 Y26.060 E10.53599
G1 X73.501 Y25.951 E10.56141
G1 X73.043 Y25.753 E10.58684
G1 X72.630 Y25.472 E10.61227
G1 X72.278 Y25.120 E10.63770
G1 X71.997 Y24.706 E10.66318
G1 X71.808 Y24.267 E10.68754
G1 X71.726 Y23.976 E10.70296
G1 X71.675 Y23.583 E10.72314
G1 X71.690 Y23.114 E10.74708
G1 X71.755 Y22.771 E10.76483
G1 X71.863 Y22.440 E10.78258
G1 X72.082 Y22.010 E10.80721
G1 X72.388 Y21.615 E10.83263
G1 X72.762 Y21.286 E10.85806
G1 X73.191 Y21.032 E10.88349
G1 X73.669 Y20.860 E10.90937
G1 X74.235 Y20.780 E10.93847 F600.000
G1 X74.808 Y20.824 E10.96777
G1 X75.296 Y20.965 E10.99367
G1 X75.740 Y21.192 E11.01910
G1 X76.135 Y21.498 E11.04453
G1 X76.464 Y21.872 E11.06995
G1 X76.718 Y22.301 E11.09538
G1 X76.887 Y22.771 E11.12081
G1 X76.965 Y23.264 E11.14624
G1 X76.952 Y23.702 E11.16861
G1 X76.565 Y23.714 F9000.000
G1 X76.473 Y24.129 E11.19032 F600.000
G1 X76.303 Y24.520 E11.21203
G1 X76.064 Y24.873 E11.23374
G1 X75.763 Y25.174 E11.25546
G1 X75.418 Y25.408 E11.27668
G1 X75.153 Y25.533 E11.29164
G1 X74.873 Y25.624 E11.30661
G1 X74.462 Y25.689 E11.32783
G1 X74.036 Y25.675 E11.34954
G1 X73.621 Y25.583 E11.37125
G1 X73.230 Y25.413 E11.39297
G1 X72.877 Y25.174 E11.41468
G1 X72.576 Y24.873 E11.43639
G1 X72.336 Y24.520 E11.45814
G1 X72.172 Y24.138 E11.47930
G1 X72.105 Y23.898 E11.49200
G1 X72.061 Y23.564 E11.50919
G1 X72.074 Y23.156 E11.52999
G1 X72.129 Y22.868 E11.54496
G1 X72.220 Y22.588 E11.55993
G1 X72.409 Y22.217 E11.58115
G1 X72.670 Y21.881 E11.60286
G1 X72.990 Y21.599 E11.62457
G1 X73.356 Y21.382 E11.64629
G1 X73.762 Y21.236 E11.66827
G1 X74.247 Y21.168 E11.69322 F600.000
G1 X74.739 Y21.205 E11.71835
G1 X75.153 Y21.326 E11.74036
G1 X75.533 Y21.519 E11.76207
G1 X75.869 Y21.780 E11.78378
G1 X76.151 Y22.100 E11.80549
G1 X76.368 Y22.466 E11.82720
G1 X76.512 Y22.867 E11.84892
G1 X76.579 Y23.288 E11.87063
G1 X76.567 Y23.654 E11.88928
G1 X76.181 Y23.665 F9000.000
G1 X76.104 Y24.010 E11.90728 F600.000
G1 X75.964 Y24.334 E11.92527
G1 X75.765 Y24.626 E11.94327
G1 X75.516 Y24.875 E11.96127
G1 X75.227 Y25.072 E11.97908
G1 X75.010 Y25.174 E11.99127
G1 X74.783 Y25.248 E12.00345
G1 X74.438 Y25.302 E12.02127
G1 X74.085 Y25.291 E12.03926
G1 X73.740 Y25.214 E12.05726
G1 X73.416 Y25.074 E12.07526
G1 X73.124 Y24.875 E12.09325
G1 X72.875 Y24.626 E12.11125
G1 X72.676 Y24.334 E12.12926
G1 X72.537 Y24.010 E12.14722
G1 X72.484 Y23.821 E12.15720
G1 X72.448 Y23.545 E12.17141
G1 X72.459 Y23.198 E12.18907
G1 X72.503 Y22.964 E12.20126
G1 X72.577 Y22.736 E12.21344
G1 X72.736 Y22.425 E12.23125
G1 X72.952 Y22.146 E12.24925
G1 X73.217 Y21.912 E12.26725
G1 X73.521 Y21.733 E12.28524
G1 X73.855 Y21.612 E12.30334
G1 X74.259 Y21.555 E12.32413 F600.000
G1 X74.670 Y21.587 E12.34510
G1 X75.011 Y21.686 E12.36320
G1 X75.325 Y21.846 E12.38120
G1 X75.604 Y22.062 E12.39920
G1 X75.838 Y22.327 E12.41719
G1 X76.017 Y22.631 E12.43519
G1 X76.137 Y22.963 E12.45319
G1 X76.192 Y23.312 E12.47118
G1 X76.183 Y23.605 E12.48612
G1 X76.456 Y23.887 F9000.000
G1 X74.329 Y52.781 F9000.000
G1 X74.816 Y52.826 E12.51103 F600.000
G1 X75.296 Y52.966 E12.53651
G1 X75.740 Y53.192 E12.56193
G1 X76.122 Y53.488 E12.58655
G1 X76.360 Y53.742 E12.60431
G1 X76.565 Y54.024 E12.62207
G1 X76.785 Y54.454 E12.64669
G1 X76.924 Y54.933 E12.67211
G1 X76.971 Y55.430 E12.69754
G1 X76.924 Y55.928 E12.72302
G1 X76.786 Y56.397 E12.74793
G1 X76.640 Y56.706 E12.76537
G1 X76.454 Y57.000 E12.78310
G1 X76.135 Y57.362 E12.80772
G1 X75.740 Y57.668 E12.83315
G1 X75.296 Y57.894 E12.85857
G1 X74.817 Y58.034 E12.88400
G1 X74.336 Y58.079 E12.90863
G1 X73.988 Y58.057 E12.92637
G1 X73.646 Y57.992 E12.94413
G1 X73.191 Y57.828 E12.96876
G1 X72.762 Y57.574 E12.99418
G1 X72.388 Y57.244 E13.01961
G1 X72.082 Y56.850 E13.04504
G1 X71.855 Y56.406 E13.07047
G1 X71.716 Y55.927 E13.09589
G1 X71.669 Y55.430 E13.12132
G1 X71.716 Y54.933 E13.14675
G1 X71.855 Y54.454 E13.17218
G1 X72.082 Y54.010 E13.19760
G1 X72.388 Y53.616 E13.22303
G1 X72.762 Y53.286 E13.24846
G1 X73.191 Y53.032 E13.27389
G1 X73.646 Y52.868 E13.29852
G1 X73.988 Y52.803 E13.31625
G1 X74.269 Y52.785 E13.33062 F600.000
G1 X74.324 Y53.168 F9000.000
G1 X74.744 Y53.207 E13.35212 F600.000
G1 X75.153 Y53.326 E13.37386
G1 X75.533 Y53.519 E13.39557
G1 X75.862 Y53.774 E13.41679
G1 X76.063 Y53.988 E13.43176
G1 X76.235 Y54.226 E13.44673
G1 X76.424 Y54.597 E13.46795
G1 X76.543 Y55.006 E13.48966
G1 X76.583 Y55.430 E13.51137
G1 X76.543 Y55.855 E13.53312
G1 X76.425 Y56.259 E13.55461
G1 X76.302 Y56.520 E13.56928
G1 X76.145 Y56.768 E13.58424
G1 X75.869 Y57.080 E13.60546
G1 X75.533 Y57.341 E13.62717
G1 X75.153 Y57.534 E13.64888
G1 X74.744 Y57.653 E13.67059
G1 X74.330 Y57.692 E13.69181
G1 X74.037 Y57.674 E13.70678
G1 X73.748 Y57.619 E13.72175
G1 X73.356 Y57.478 E13.74297
G1 X72.990 Y57.261 E13.76468
G1 X72.670 Y56.979 E13.78639
G1 X72.409 Y56.643 E13.80810
G1 X72.216 Y56.263 E13.82982
G1 X72.097 Y55.854 E13.85153
G1 X72.057 Y55.430 E13.87324
G1 X72.097 Y55.006 E13.89495
G1 X72.216 Y54.597 E13.91666
G1 X72.409 Y54.217 E13.93838
G1 X72.670 Y53.881 E13.96009
G1 X72.990 Y53.599 E13.98180
G1 X73.356 Y53.382 E14.00351
G1 X73.748 Y53.241 E14.02473
G1 X74.036 Y53.186 E14.03969
G1 X74.264 Y53.172 E14.05130 F600.000
G1 X74.318 Y53.555 F9000.000
G1 X74.671 Y53.587 E14.06938 F600.000
G1 X75.011 Y53.686 E14.08739
G1 X75.325 Y53.846 E14.10539
G1 X75.601 Y54.060 E14.12320
G1 X75.765 Y54.234 E14.13539
G1 X75.906 Y54.428 E14.14757
G1 X76.064 Y54.739 E14.16539
G1 X76.163 Y55.078 E14.18338
G1 X76.196 Y55.430 E14.20138
G1 X76.163 Y55.782 E14.21939
G1 X76.063 Y56.122 E14.23747
G1 X75.963 Y56.334 E14.24938
G1 X75.835 Y56.535 E14.26156
G1 X75.604 Y56.798 E14.27937
G1 X75.325 Y57.014 E14.29737
G1 X75.011 Y57.174 E14.31536
G1 X74.672 Y57.273 E14.33336
G1 X74.324 Y57.306 E14.35118
G1 X74.085 Y57.291 E14.36336
G1 X73.850 Y57.246 E14.37555
G1 X73.521 Y57.127 E14.39336
G1 X73.217 Y56.948 E14.41136
G1 X72.952 Y56.714 E14.42936
G1 X72.736 Y56.435 E14.44735
G1 X72.576 Y56.121 E14.46535
G1 X72.477 Y55.782 E14.48334
G1 X72.444 Y55.430 E14.50134
G1 X72.477 Y55.078 E14.51934
G1 X72.576 Y54.739 E14.53733
G1 X72.736 Y54.425 E14.55533
G1 X72.952 Y54.146 E14.57333
G1 X73.217 Y53.912 E14.59132
G1 X73.521 Y53.733 E14.60932
G1 X73.850 Y53.614 E14.62714
G1 X74.085 Y53.569 E14.63932
G1 X74.258 Y53.558 E14.64817 F600.000
G1 X74.508 Y53.255 F9000.000
G1 E8.64817 F1800.00000
G92 E0
G1 X71.316 Y58.434 F9000.000
G1 E6.00000 F1800.00000
G1 X71.316 Y20.426 E7.93714 F600.000
G1 X109.324 Y20.426 E9.87429
G1 X109.324 Y58.434 E11.81143
G1 X71.376 Y58.434 E13.74552
G1 X70.931 Y58.819 F9000.000
G1 X70.931 Y20.041 E15.72197 F600.000
G1 X109.709 Y20.041 E17.69843
G1 X109.709 Y58.819 E19.67488
G1 X70.991 Y58.819 E21.64827
G1 X70.545 Y59.205 F9000.000
G1 X70.545 Y19.655 E23.66403 F600.000
G1 X110.095 Y19.655 E25.67979
G1 X110.095 Y59.205 E27.69555
G1 X70.605 Y59.205 E29.70826
G1 X70.745 Y58.859 F9000.000
G1 X71.804 Y58.150 F9000.000
G1 X71.600 Y57.946 E29.72311 F600.000
G1 X71.600 Y57.395 E29.75156
G1 X72.355 Y58.150 E29.80665
G1 X72.667 Y57.909 E29.82694
G1 X72.887 Y58.130 E29.84302
G1 X71.721 Y57.034 F9000.000
G1 X71.597 Y56.517 E29.87013 F600.000
G1 X71.521 Y55.986 E29.89747
G1 X71.521 Y54.874 F9000.000
G1 X71.597 Y54.343 E29.92481 F600.000
G1 X71.721 Y53.826 E29.95192
G1 E23.95192 F1800.00000
G92 E0
G1 X74.876 Y58.229 F9000.000
G1 E6.00000 F1800.00000
G1 X75.407 Y58.153 E6.02734 F600.000
G1 X75.924 Y58.029 E6.05444
G1 X76.427 Y58.150 F9000.000
G1 X76.217 Y57.939 E6.06969 F600.000
G1 X76.336 Y57.512 E6.09242
G1 X76.975 Y58.150 E6.13863
G1 X77.522 Y58.150 E6.16666
G1 X76.593 Y57.220 E6.23394
