; generated by Slic3r 1.2.9 on 2017-05-10 at 13:24:33

; external perimeters extrusion width = 0.40mm
; perimeters extrusion width = 0.56mm
; infill extrusion width = 0.38mm
; solid infill extrusion width = 0.56mm
; top infill extrusion width = 0.22mm

M106 S256; Turn on fan to 100% power
M104 S140; turn on extruder temperature at S value
M140 S60; turn on bed temperature at S value
G28; home all axes
M84; disable motors
G1 Z15 F15000; have Z move to 20mm at 15000 mm/min
M190 S55; turn on bed temperature at S value and wait
M140 S55; turn on bed temperature at S value (printing temperature)
M109 S200; turn on extruder temperature at S value and wait (printing temperature)
M104 S200; turn on extruder temperature at S value
G1 Z0 F12000; move Z back to home
G21 ; set units to millimeters
G90 ; use absolute coordinates
M82 ; use absolute distances for extrusion
G92 E0
M106 S255
;Layer change
G1 E-6.00000 F1800.00000
G92 E0
G1 Z0.300 F9000.000
G1 X64.029 Y65.336 F9000.000
G1 E6.00000 F1800.00000
G1 X64.889 Y64.503 E6.06101 F600.000
G1 X65.828 Y63.646 E6.12581
G1 X66.853 Y62.772 E6.19446
G1 X67.787 Y62.023 E6.25546
G1 X68.803 Y61.259 E6.32029
G1 X69.905 Y60.484 E6.38893
G1 X70.905 Y59.827 E6.44993
G1 X71.989 Y59.162 E6.51475
G1 X73.159 Y58.494 E6.58340
G1 X74.283 Y57.900 E6.64821
G1 X75.426 Y57.342 E6.71304
G1 X76.517 Y56.849 E6.77404
G1 X77.691 Y56.362 E6.83886
G1 X78.951 Y55.885 E6.90750
G1 X80.155 Y55.475 E6.97233
G1 X81.299 Y55.123 E7.03333
G1 X82.525 Y54.786 E7.09815
G1 X83.762 Y54.488 E7.16297
G1 X85.081 Y54.215 E7.23161
G1 X86.260 Y54.009 E7.29261
G1 X87.519 Y53.829 E7.35743
G1 X88.857 Y53.681 E7.42608
G1 X90.125 Y53.582 E7.49089
G1 X91.321 Y53.526 E7.55190
G1 X92.757 Y53.506 E7.62511
G1 X93.939 Y53.526 E7.68536 F600.000
G1 X95.135 Y53.582 E7.74637
G1 X96.477 Y53.688 E7.81500
G1 X97.741 Y53.829 E7.87983
G1 X99.000 Y54.009 E7.94465
G1 X100.179 Y54.215 E8.00566
G1 X101.498 Y54.488 E8.07429
G1 X102.662 Y54.767 E8.13530
G1 X103.889 Y55.102 E8.20012
G1 X105.176 Y55.498 E8.26876
G1 X106.379 Y55.911 E8.33358
G1 X107.569 Y56.362 E8.39841
G1 X108.674 Y56.820 E8.45941
G1 X109.902 Y57.374 E8.52805
G1 X110.977 Y57.900 E8.58906
G1 X112.101 Y58.494 E8.65387
G1 X113.206 Y59.123 E8.71869
G1 X114.292 Y59.787 E8.78352
G1 X115.417 Y60.527 E8.85217
G1 X116.457 Y61.259 E8.91697
G1 X117.414 Y61.977 E8.97798
G1 X118.465 Y62.819 E9.04663
G1 X119.432 Y63.646 E9.11145
G1 X120.317 Y64.452 E9.17245
G1 X121.231 Y65.336 E9.23726
G1 X122.168 Y66.303 E9.30591
G1 X122.974 Y67.188 E9.36691
G1 X123.801 Y68.155 E9.43173
G1 X124.643 Y69.206 E9.50038
G1 X125.361 Y70.163 E9.56139
G1 X126.093 Y71.203 E9.62619
G1 X126.793 Y72.265 E9.69103
G1 X127.497 Y73.414 E9.75967
G1 X128.126 Y74.519 E9.82450
G1 X128.686 Y75.577 E9.88550
G1 X129.246 Y76.718 E9.95031
G1 X129.800 Y77.946 E10.01895
G1 X130.258 Y79.051 E10.07995
G1 X130.709 Y80.241 E10.14477
G1 X131.122 Y81.444 E10.20960
G1 X131.518 Y82.731 E10.27824
G1 X131.834 Y83.886 E10.33925
G1 X132.132 Y85.122 E10.40407
G1 X132.405 Y86.441 E10.47271
G1 X132.611 Y87.620 E10.53371
G1 X132.791 Y88.879 E10.59853
G1 X132.932 Y90.143 E10.66336
G1 X133.038 Y91.485 E10.73199
G1 X133.094 Y92.681 E10.79300
G1 X133.115 Y93.953 E10.85782
G1 X133.094 Y95.299 E10.92646
G1 X133.038 Y96.495 E10.98747
G1 X132.939 Y97.763 E11.05229
G1 X132.801 Y99.027 E11.11711
G1 X132.611 Y100.360 E11.18575
G1 X132.405 Y101.539 E11.24675
G1 X132.148 Y102.785 E11.31157
G1 X131.834 Y104.095 E11.38021
G1 X131.497 Y105.321 E11.44504
G1 X131.145 Y106.465 E11.50603
G1 X130.735 Y107.669 E11.57086
G1 X130.258 Y108.929 E11.63951
G1 X129.800 Y110.034 E11.70051
G1 X129.278 Y111.194 E11.76532
G1 X128.720 Y112.337 E11.83015
G1 X128.090 Y113.527 E11.89879
G1 X127.458 Y114.631 E11.96362
G1 X126.833 Y115.652 E12.02462
G1 X126.136 Y116.715 E12.08943
G1 X125.361 Y117.817 E12.15807
G1 X124.643 Y118.774 E12.21908
G1 X123.848 Y119.767 E12.28390
G1 X122.974 Y120.792 E12.35255
G1 X122.117 Y121.731 E12.41736
G1 X121.284 Y122.591 E12.47836
G1 X120.371 Y123.477 E12.54320
G1 X119.375 Y124.383 E12.61182
G1 X118.407 Y125.208 E12.67666
G1 X117.473 Y125.957 E12.73766
G1 X116.457 Y126.721 E12.80249
G1 X115.355 Y127.496 E12.87112
G1 X114.355 Y128.153 E12.93213
G1 X113.271 Y128.818 E12.99694
G1 X112.167 Y129.450 E13.06177
G1 X110.977 Y130.080 E13.13040
G1 X109.834 Y130.638 E13.19523
G1 X108.674 Y131.160 E13.26004
G1 X107.569 Y131.618 E13.32105
G1 X106.309 Y132.095 E13.38969
G1 X105.019 Y132.532 E13.45909
G1 X103.889 Y132.878 E13.51933
G1 X102.735 Y133.194 E13.58034
G1 X101.425 Y133.508 E13.64898
G1 X100.253 Y133.751 E13.70998
G1 X99.000 Y133.971 E13.77481
G1 X97.667 Y134.161 E13.84345
G1 X96.403 Y134.299 E13.90827
G1 X95.209 Y134.393 E13.96927
G1 X93.939 Y134.454 E14.03409
G1 X92.593 Y134.475 E14.10273
G1 X91.321 Y134.454 E14.16756
G1 X90.051 Y134.393 E14.23237
G1 X88.857 Y134.299 E14.29338
G1 X87.519 Y134.151 E14.36203
G1 X86.260 Y133.971 E14.42684
G1 X85.081 Y133.765 E14.48785
G1 X83.762 Y133.492 E14.55649
G1 X82.598 Y133.213 E14.61749
G1 X81.371 Y132.878 E14.68231
G1 X80.155 Y132.505 E14.74713
G1 X78.951 Y132.095 E14.81195
G1 X77.691 Y131.618 E14.88060
G1 X76.586 Y131.160 E14.94161
G1 X75.426 Y130.638 E15.00642
G1 X74.217 Y130.046 E15.07506
G1 X73.093 Y129.450 E15.13988
G1 X72.054 Y128.857 E15.20089
G1 X70.968 Y128.193 E15.26571
G1 X69.843 Y127.454 E15.33436
G1 X68.864 Y126.765 E15.39536
G1 X67.846 Y126.003 E15.46017
G1 X66.853 Y125.208 E15.52500
G1 X65.828 Y124.334 E15.59364
G1 X64.943 Y123.528 E15.65464
G1 X64.029 Y122.644 E15.71946
G1 X63.143 Y121.731 E15.78430
G1 X62.286 Y120.792 E15.84911
G1 X61.412 Y119.767 E15.91775
G1 X60.663 Y118.833 E15.97876
G1 X59.899 Y117.817 E16.04358
G1 X59.124 Y116.715 E16.11222
G1 X58.467 Y115.715 E16.17322
G1 X57.802 Y114.631 E16.23804
G1 X57.170 Y113.527 E16.30287
G1 X56.540 Y112.337 E16.37150
G1 X56.014 Y111.262 E16.43250
G1 X55.489 Y110.103 E16.49734
G1 X55.002 Y108.929 E16.56215
G1 X54.525 Y107.669 E16.63079
G1 X54.138 Y106.536 E16.69180
G1 X53.763 Y105.321 E16.75662
G1 X53.407 Y104.022 E16.82526
G1 X53.128 Y102.858 E16.88626
G1 X52.869 Y101.613 E16.95109
G1 X52.637 Y100.286 E17.01972
G1 X52.459 Y99.027 E17.08455
G1 X52.328 Y97.837 E17.14555
G1 X52.227 Y96.569 E17.21037
G1 X52.166 Y95.299 E17.27519
G1 X52.145 Y93.953 E17.34383
G1 X52.166 Y92.681 E17.40866
G1 X52.222 Y91.485 E17.46966
G1 X52.328 Y90.143 E17.53830
G1 X52.469 Y88.879 E17.60313
G1 X52.637 Y87.694 E17.66413
G1 X52.855 Y86.441 E17.72895
G1 X53.128 Y85.122 E17.79759
G1 X53.407 Y83.958 E17.85859
G1 X53.742 Y82.731 E17.92341
G1 X54.115 Y81.515 E17.98823
G1 X54.551 Y80.241 E18.05688
G1 X55.002 Y79.051 E18.12170
G1 X55.460 Y77.946 E18.18271
G1 X56.014 Y76.718 E18.25135
G1 X56.574 Y75.577 E18.31616
G1 X57.134 Y74.519 E18.37716
G1 X57.763 Y73.414 E18.44198
G1 X58.467 Y72.265 E18.51063
G1 X59.124 Y71.265 E18.57163
G1 X59.855 Y70.224 E18.63646
G1 X60.663 Y69.147 E18.70509
G1 X61.459 Y68.155 E18.76992
G1 X62.286 Y67.188 E18.83474
G1 X63.092 Y66.303 E18.89574
G1 X63.987 Y65.378 E18.96133
G1 E12.96133 F1800.00000
G92 E0
G1 X93.934 Y95.304 F9000.000
G1 E6.00000 F1800.00000
G1 X93.631 Y95.547 E6.01978 F600.000
G1 X93.312 Y95.711 E6.03806
G1 X92.977 Y95.808 E6.05585
G1 X92.630 Y95.841 E6.07360
G1 X92.283 Y95.808 E6.09135
G1 X91.949 Y95.711 E6.10911
G1 X91.631 Y95.549 E6.12727
G1 X91.326 Y95.305 E6.14718
G1 X91.099 Y95.030 E6.16537
G1 X90.926 Y94.715 E6.18365
G1 X90.813 Y94.344 E6.20343
G1 X90.779 Y93.990 E6.22156
G1 X90.813 Y93.635 E6.23972
G1 X90.928 Y93.262 E6.25963
G1 X91.099 Y92.950 E6.27778
G1 X91.321 Y92.681 E6.29554
G1 X91.590 Y92.459 E6.31329
G1 X91.895 Y92.292 E6.33104
G1 X92.233 Y92.182 E6.34917
G1 X92.619 Y92.139 E6.36895 F600.000
G1 X92.976 Y92.172 E6.38723
G1 X93.319 Y92.271 E6.40542
G1 X93.664 Y92.454 E6.42534
G1 X93.939 Y92.681 E6.44349
G1 X94.161 Y92.950 E6.46128
G1 X94.333 Y93.265 E6.47956
G1 X94.447 Y93.636 E6.49934
G1 X94.481 Y93.990 E6.51747
G1 X94.447 Y94.345 E6.53563
G1 X94.332 Y94.718 E6.55554
G1 X94.161 Y95.030 E6.57370
G1 X93.972 Y95.258 E6.58877
G1 X93.662 Y95.028 F9000.000
G1 X93.421 Y95.222 E6.60453 F600.000
G1 X93.169 Y95.350 E6.61893
G1 X92.904 Y95.427 E6.63299
G1 X92.630 Y95.453 E6.64703
G1 X92.356 Y95.427 E6.66106
G1 X92.091 Y95.351 E6.67510
G1 X91.842 Y95.223 E6.68939
G1 X91.598 Y95.028 E6.70527
G1 X91.419 Y94.812 E6.71958
G1 X91.284 Y94.564 E6.73398
G1 X91.193 Y94.269 E6.74974
G1 X91.167 Y93.990 E6.76401
G1 X91.193 Y93.711 E6.77830
G1 X91.285 Y93.413 E6.79418
G1 X91.420 Y93.167 E6.80847
G1 X91.595 Y92.955 E6.82250
G1 X91.807 Y92.780 E6.83654
G1 X92.049 Y92.647 E6.85058
G1 X92.315 Y92.560 E6.86485
G1 X92.622 Y92.526 E6.88061 F600.000
G1 X92.904 Y92.552 E6.89501
G1 X93.173 Y92.631 E6.90932
G1 X93.449 Y92.777 E6.92520
G1 X93.665 Y92.955 E6.93949
G1 X93.841 Y93.168 E6.95355
G1 X93.976 Y93.416 E6.96795
G1 X94.067 Y93.711 E6.98371
G1 X94.093 Y93.990 E6.99798
G1 X94.067 Y94.269 E7.01226
G1 X93.975 Y94.567 E7.02815
G1 X93.840 Y94.813 E7.04243
G1 X93.700 Y94.982 E7.05364
G1 X93.390 Y94.752 F9000.000
G1 X93.210 Y94.896 E7.06539 F600.000
G1 X93.026 Y94.990 E7.07591
G1 X92.832 Y95.047 E7.08624
G1 X92.630 Y95.066 E7.09656
G1 X92.428 Y95.047 E7.10689
G1 X92.234 Y94.990 E7.11721
G1 X92.052 Y94.898 E7.12762
G1 X91.870 Y94.752 E7.13948
G1 X91.740 Y94.595 E7.14990
G1 X91.641 Y94.414 E7.16042
G1 X91.573 Y94.193 E7.17217
G1 X91.554 Y93.990 E7.18258
G1 X91.573 Y93.787 E7.19299
G1 X91.642 Y93.564 E7.20485
G1 X91.740 Y93.385 E7.21526
G1 X91.869 Y93.229 E7.22558
G1 X92.025 Y93.100 E7.23590
G1 X92.203 Y93.002 E7.24623
G1 X92.397 Y92.939 E7.25663
G1 X92.626 Y92.914 E7.26838 F600.000
G1 X92.831 Y92.933 E7.27890
G1 X93.028 Y92.990 E7.28932
G1 X93.233 Y93.099 E7.30118
G1 X93.391 Y93.229 E7.31159
G1 X93.520 Y93.385 E7.32192
G1 X93.619 Y93.566 E7.33244
G1 X93.687 Y93.787 E7.34419
G1 X93.706 Y93.990 E7.35460
G1 X93.687 Y94.193 E7.36501
G1 X93.618 Y94.416 E7.37687
G1 X93.520 Y94.595 E7.38728
G1 X93.428 Y94.706 E7.39463
G1 X93.440 Y94.977 F9000.000
G1 X118.457 Y120.623 F9000.000
G1 X117.167 Y121.822 E7.48438 F600.000
G1 X116.281 Y122.579 E7.54379
G1 X115.371 Y123.308 E7.60319
G1 X114.439 Y124.007 E7.66260
G1 X113.485 Y124.678 E7.72201
G1 X112.511 Y125.318 E7.78142
G1 X111.517 Y125.927 E7.84083
G1 X110.505 Y126.504 E7.90023
G1 X109.475 Y127.050 E7.95964
G1 X108.428 Y127.562 E8.01905
G1 X107.366 Y128.042 E8.07846
G1 X106.290 Y128.488 E8.13781
G1 X105.114 Y128.929 E8.20179
G1 X104.096 Y129.278 E8.25668
G1 X102.982 Y129.620 E8.31608
G1 X101.857 Y129.928 E8.37549
G1 X100.724 Y130.200 E8.43490
G1 X99.583 Y130.436 E8.49431
G1 X98.434 Y130.637 E8.55372
G1 X97.280 Y130.801 E8.61312
G1 X96.122 Y130.929 E8.67253
G1 X94.960 Y131.020 E8.73194
G1 X93.795 Y131.075 E8.79134
G1 X92.630 Y131.094 E8.85075
G1 X91.465 Y131.075 E8.91016
G1 X90.300 Y131.020 E8.96957
G1 X89.138 Y130.929 E9.02897
G1 X87.980 Y130.801 E9.08838
G1 X86.826 Y130.637 E9.14779
G1 X85.677 Y130.436 E9.20720
G1 X84.536 Y130.200 E9.26660
G1 X83.403 Y129.928 E9.32601
G1 X82.278 Y129.620 E9.38542
G1 X81.164 Y129.278 E9.44482
G1 X80.062 Y128.900 E9.50423
G1 X78.971 Y128.488 E9.56364
G1 X77.894 Y128.042 E9.62305
G1 X76.832 Y127.562 E9.68246
G1 X75.785 Y127.050 E9.74186
G1 X74.755 Y126.504 E9.80127
G1 X73.743 Y125.927 E9.86068
G1 X72.749 Y125.318 E9.92009
G1 X71.775 Y124.678 E9.97949
G1 X70.821 Y124.007 E10.03890
G1 X69.889 Y123.308 E10.09831
G1 X68.979 Y122.579 E10.15771
G1 X68.093 Y121.822 E10.21712
G1 X67.231 Y121.037 E10.27653
G1 X66.394 Y120.226 E10.33594
G1 X65.583 Y119.389 E10.39535
G1 X64.858 Y118.593 E10.45023
G1 X64.040 Y117.640 E10.51421
G1 X63.312 Y116.731 E10.57356
G1 X62.613 Y115.799 E10.63297
G1 X61.942 Y114.845 E10.69238
G1 X61.302 Y113.871 E10.75179
G1 X60.693 Y112.877 E10.81120
G1 X60.116 Y111.865 E10.87060
G1 X59.570 Y110.835 E10.93001
G1 X59.058 Y109.788 E10.98942
G1 X58.578 Y108.726 E11.04883
G1 X58.132 Y107.649 E11.10824
G1 X57.720 Y106.558 E11.16764
G1 X57.342 Y105.456 E11.22705
G1 X57.000 Y104.342 E11.28645
G1 X56.692 Y103.217 E11.34586
G1 X56.420 Y102.084 E11.40527
G1 X56.184 Y100.943 E11.46468
G1 X55.983 Y99.794 E11.52409
G1 X55.819 Y98.640 E11.58349
G1 X55.691 Y97.482 E11.64290
G1 X55.600 Y96.320 E11.70231
G1 X55.545 Y95.155 E11.76171
G1 X55.526 Y93.990 E11.82112
G1 X55.545 Y92.825 E11.88053
G1 X55.600 Y91.660 E11.93994
G1 X55.691 Y90.498 E11.99935
G1 X55.819 Y89.340 E12.05875
G1 X55.983 Y88.186 E12.11816
G1 X56.184 Y87.037 E12.17757
G1 X56.420 Y85.896 E12.23697
G1 X56.692 Y84.763 E12.29638
G1 X57.000 Y83.638 E12.35579
G1 X57.342 Y82.524 E12.41519
G1 X57.720 Y81.422 E12.47460
G1 X58.132 Y80.331 E12.53401
G1 X58.578 Y79.254 E12.59342
G1 X59.058 Y78.192 E12.65283
G1 X59.570 Y77.145 E12.71223
G1 X60.116 Y76.115 E12.77164
G1 X60.693 Y75.103 E12.83105
G1 X61.302 Y74.109 E12.89046
G1 X61.942 Y73.135 E12.94986
G1 X62.613 Y72.181 E13.00927
G1 X63.312 Y71.249 E13.06868
G1 X64.041 Y70.339 E13.12809
G1 X64.798 Y69.453 E13.18749
G1 X65.583 Y68.591 E13.24690
G1 X66.394 Y67.754 E13.30631
G1 X67.231 Y66.943 E13.36572
G1 X68.093 Y66.158 E13.42512
G1 X68.979 Y65.401 E13.48453
G1 X69.889 Y64.672 E13.54393
G1 X70.821 Y63.973 E13.60335
G1 X71.775 Y63.302 E13.66275
G1 X72.749 Y62.662 E13.72216
G1 X73.743 Y62.053 E13.78157
G1 X74.755 Y61.476 E13.84097
G1 X75.785 Y60.930 E13.90038
G1 X76.832 Y60.418 E13.95979
G1 X77.894 Y59.938 E14.01920
G1 X78.971 Y59.492 E14.07861
G1 X80.062 Y59.080 E14.13802
G1 X81.164 Y58.702 E14.19742
G1 X82.278 Y58.360 E14.25683
G1 X83.403 Y58.052 E14.31623
G1 X84.536 Y57.780 E14.37564
G1 X85.677 Y57.544 E14.43505
G1 X86.826 Y57.343 E14.49446
G1 X87.980 Y57.179 E14.55387
G1 X89.138 Y57.051 E14.61327
G1 X90.300 Y56.960 E14.67268
G1 X91.463 Y56.905 E14.73203
G1 X92.719 Y56.888 E14.79601
G1 X93.795 Y56.905 E14.85090
G1 X94.960 Y56.960 E14.91031 F600.000
G1 X96.122 Y57.051 E14.96972
G1 X97.280 Y57.179 E15.02912
G1 X98.434 Y57.343 E15.08853
G1 X99.583 Y57.544 E15.14794
G1 X100.724 Y57.780 E15.20735
G1 X101.857 Y58.052 E15.26675
G1 X102.982 Y58.360 E15.32616
G1 X104.096 Y58.702 E15.38556
G1 X105.198 Y59.080 E15.44497
G1 X106.289 Y59.492 E15.50438
G1 X107.366 Y59.938 E15.56379
G1 X108.428 Y60.418 E15.62320
G1 X109.475 Y60.930 E15.68260
G1 X110.505 Y61.476 E15.74201
G1 X111.517 Y62.053 E15.80142
G1 X112.511 Y62.662 E15.86083
G1 X113.485 Y63.302 E15.92023
G1 X114.439 Y63.973 E15.97964
G1 X115.371 Y64.672 E16.03905
G1 X116.281 Y65.401 E16.09846
G1 X117.167 Y66.158 E16.15786
G1 X118.029 Y66.943 E16.21727
G1 X118.866 Y67.754 E16.27668
G1 X119.677 Y68.591 E16.33609
G1 X120.462 Y69.453 E16.39549
G1 X121.219 Y70.339 E16.45490
G1 X121.948 Y71.249 E16.51431
G1 X122.647 Y72.181 E16.57372
G1 X123.318 Y73.135 E16.63313
G1 X123.958 Y74.109 E16.69253
G1 X124.567 Y75.103 E16.75194
G1 X125.144 Y76.115 E16.81135
G1 X125.690 Y77.145 E16.87075
G1 X126.202 Y78.192 E16.93016
G1 X126.682 Y79.254 E16.98957
G1 X127.128 Y80.331 E17.04898
G1 X127.540 Y81.422 E17.10839
G1 X127.918 Y82.524 E17.16779
G1 X128.260 Y83.638 E17.22720
G1 X128.568 Y84.763 E17.28661
G1 X128.819 Y85.810 E17.34149
G1 X129.077 Y87.039 E17.40547
G1 X129.277 Y88.186 E17.46483
G1 X129.441 Y89.340 E17.52423
G1 X129.569 Y90.498 E17.58364
G1 X129.660 Y91.660 E17.64305
G1 X129.715 Y92.825 E17.70246
G1 X129.734 Y93.990 E17.76186
G1 X129.715 Y95.155 E17.82127
G1 X129.660 Y96.320 E17.88068
G1 X129.569 Y97.482 E17.94009
G1 X129.441 Y98.640 E17.99949
G1 X129.277 Y99.794 E18.05890
G1 X129.076 Y100.943 E18.11831
G1 X128.840 Y102.084 E18.17772
G1 X128.568 Y103.217 E18.23712
G1 X128.260 Y104.342 E18.29653
G1 X127.918 Y105.456 E18.35594
G1 X127.569 Y106.474 E18.41082
G1 X127.128 Y107.650 E18.47480
G1 X126.682 Y108.726 E18.53416
G1 X126.202 Y109.788 E18.59357
G1 X125.690 Y110.835 E18.65297
G1 X125.147 Y111.859 E18.71204
G1 X124.567 Y112.877 E18.77179
G1 X123.958 Y113.871 E18.83120
G1 X123.318 Y114.845 E18.89060
G1 X122.647 Y115.799 E18.95001
G1 X121.948 Y116.731 E19.00942
G1 X121.219 Y117.641 E19.06883
G1 X120.462 Y118.527 E19.12823
G1 X119.677 Y119.389 E19.18764
G1 X118.500 Y120.581 E19.27303
G1 X118.725 Y120.900 F9000.000
G1 X117.422 Y122.111 E19.36371 F600.000
G1 X116.527 Y122.876 E19.42374
G1 X115.608 Y123.612 E19.48376
G1 X114.666 Y124.319 E19.54379
