; generated by Slic3r 1.2.9 on 2017-05-12 at 12:30:16

; external perimeters extrusion width = 0.40mm
; perimeters extrusion width = 0.56mm
; infill extrusion width = 0.38mm
; solid infill extrusion width = 0.56mm
; top infill extrusion width = 0.22mm

M106 S256; Turn on fan to 100% power
M104 S140; turn on extruder temperature at S value
M140 S60; turn on bed temperature at S value
G28; home all axes
M84; disable motors
G1 Z15 F15000; have Z move to 20mm at 15000 mm/min
M190 S55; turn on bed temperature at S value and wait
M140 S55; turn on bed temperature at S value (printing temperature)
M109 S200; turn on extruder temperature at S value and wait (printing temperature)
M104 S200; turn on extruder temperature at S value
G1 Z0 F12000; move Z back to home
G21 ; set units to millimeters
G90 ; use absolute coordinates
M82 ; use absolute distances for extrusion
G92 E0
M106 S255
;Layer change
G1 E-6.00000 F1800.00000
G92 E0
G1 Z0.300 F9000.000
G1 X60.657 Y76.778 F9000.000
G1 E6.00000 F1800.00000
G1 X84.767 Y60.364 E7.48657 F600.000
G1 X85.304 Y60.052 E7.51821
G1 X85.859 Y59.774 E7.54986
G1 X86.431 Y59.532 E7.58150
G1 X86.874 Y59.373 E7.60552
G1 X87.469 Y59.195 E7.63716
G1 X88.221 Y59.027 E7.67645
G1 X88.835 Y58.934 E7.70810
G1 X89.454 Y58.880 E7.73974
G1 X90.093 Y58.866 E7.77230
G1 X90.695 Y58.890 E7.80303 F600.000
G1 X91.164 Y58.934 E7.82705
G1 X91.779 Y59.027 E7.85871
G1 X92.386 Y59.157 E7.89037
G1 X92.983 Y59.326 E7.92203
G1 X93.569 Y59.532 E7.95366
G1 X94.141 Y59.774 E7.98531
G1 X94.696 Y60.052 E8.01696
G1 X95.233 Y60.364 E8.04860
G1 X119.343 Y76.778 E9.53517
G1 X120.072 Y77.568 E9.58998
G1 X136.545 Y106.455 E11.28481
G1 X136.876 Y107.109 E11.32218
G1 X137.063 Y107.542 E11.34620
G1 X137.277 Y108.124 E11.37784
G1 X137.455 Y108.719 E11.40950
G1 X137.623 Y109.471 E11.44877
G1 X137.716 Y110.086 E11.48043
G1 X137.770 Y110.704 E11.51207
G1 X137.784 Y111.175 E11.53610
G1 X137.760 Y111.945 E11.57535
G1 X137.697 Y112.563 E11.60701
G1 X137.595 Y113.176 E11.63867
G1 X137.493 Y113.636 E11.66269
G1 X137.324 Y114.233 E11.69435
G1 X137.063 Y114.958 E11.73361
G1 X136.812 Y115.526 E11.76525
G1 X136.598 Y115.946 E11.78928
G1 X136.286 Y116.483 E11.82092
G1 X135.941 Y117.000 E11.85259
G1 X135.468 Y117.608 E11.89185
G1 X135.157 Y117.962 E11.91586
G1 X134.721 Y118.404 E11.94752
G1 X134.258 Y118.818 E11.97918
G1 X133.650 Y119.291 E12.01844
G1 X133.133 Y119.636 E12.05011
G1 X132.596 Y119.948 E12.08176
G1 X132.176 Y120.162 E12.10578
G1 X131.608 Y120.413 E12.13742
G1 X130.883 Y120.674 E12.17668
G1 X130.286 Y120.842 E12.20833
G1 X129.826 Y120.945 E12.23235
G1 X129.213 Y121.047 E12.26402
G1 X128.595 Y121.110 E12.29567
G1 X127.900 Y121.136 E12.33113
G1 X52.100 Y121.136 E16.19446
G1 X51.405 Y121.110 E16.22991
G1 X50.787 Y121.047 E16.26157
G1 X50.174 Y120.945 E16.29324
G1 X49.569 Y120.805 E16.32489
G1 X48.974 Y120.627 E16.35652
G1 X48.392 Y120.413 E16.38816
G1 X47.824 Y120.162 E16.41981
G1 X47.272 Y119.876 E16.45147
G1 X46.740 Y119.556 E16.48312
G1 X46.350 Y119.291 E16.50715
G1 X45.742 Y118.819 E16.54640
G1 X45.279 Y118.404 E16.57807
G1 X44.946 Y118.071 E16.60209
G1 X44.532 Y117.608 E16.63374
G1 X44.059 Y117.000 E16.67300
G1 X43.714 Y116.483 E16.70467
G1 X43.474 Y116.077 E16.72869
G1 X43.188 Y115.526 E16.76035
G1 X42.882 Y114.819 E16.79961
G1 X42.723 Y114.376 E16.82363
G1 X42.545 Y113.781 E16.85526
G1 X42.405 Y113.176 E16.88692
G1 X42.284 Y112.414 E16.92622
G1 X42.240 Y111.945 E16.95024
G1 X42.216 Y111.343 E16.98097
G1 X42.230 Y110.704 E17.01352
G1 X42.303 Y109.937 E17.05280
G1 X42.405 Y109.324 E17.08446
G1 X42.507 Y108.864 E17.10847
G1 X42.676 Y108.266 E17.14013
G1 X42.937 Y107.542 E17.17939
G1 X43.188 Y106.974 E17.21103
G1 X43.455 Y106.455 E17.24078
G1 X59.928 Y77.568 E18.93561
G1 X60.616 Y76.822 E18.98736
G1 E12.98736 F1800.00000
G92 E0
G1 X54.564 Y112.226 F9000.000
G1 E6.00000 F1800.00000
G1 X54.338 Y112.671 E6.02546 F600.000
G1 X54.038 Y113.056 E6.05030
G1 X53.788 Y113.291 E6.06782
G1 X53.506 Y113.495 E6.08554
G1 X53.076 Y113.714 E6.11016
G1 X52.597 Y113.854 E6.13559
G1 X52.100 Y113.901 E6.16103
G1 X51.619 Y113.855 E6.18566
G1 X51.282 Y113.769 E6.20341
G1 X50.958 Y113.640 E6.22115
G1 X50.542 Y113.394 E6.24578
G1 X50.168 Y113.064 E6.27121
G1 X49.862 Y112.670 E6.29663
G1 X49.636 Y112.226 E6.32205
G1 X49.496 Y111.747 E6.34748
G1 X49.449 Y111.250 E6.37292
G1 X49.496 Y110.753 E6.39835
G1 X49.636 Y110.274 E6.42378
G1 X49.862 Y109.830 E6.44920
G1 X50.168 Y109.436 E6.47462
G1 X50.542 Y109.106 E6.50006
G1 X50.971 Y108.852 E6.52548
G1 X51.426 Y108.688 E6.55011
G1 X51.768 Y108.623 E6.56785
G1 X52.111 Y108.601 E6.58536 F600.000
G1 X52.596 Y108.646 E6.61020
G1 X53.076 Y108.786 E6.63567
G1 X53.520 Y109.012 E6.66109
G1 X53.914 Y109.318 E6.68651
G1 X54.244 Y109.692 E6.71194
G1 X54.490 Y110.108 E6.73657
G1 X54.619 Y110.432 E6.75431
G1 X54.705 Y110.769 E6.77206
G1 X54.751 Y111.250 E6.79669
G1 X54.704 Y111.747 E6.82213
G1 X54.581 Y112.168 E6.84450
G1 X54.204 Y112.083 F9000.000
G1 X54.011 Y112.463 E6.86623 F600.000
G1 X53.753 Y112.795 E6.88766
G1 X53.541 Y112.993 E6.90240
G1 X53.304 Y113.165 E6.91736
G1 X52.933 Y113.354 E6.93857
G1 X52.524 Y113.473 E6.96029
G1 X52.100 Y113.513 E6.98200
G1 X51.685 Y113.474 E7.00323
G1 X51.401 Y113.401 E7.01819
G1 X51.128 Y113.293 E7.03315
G1 X50.770 Y113.081 E7.05438
G1 X50.450 Y112.799 E7.07609
G1 X50.189 Y112.463 E7.09780
G1 X49.996 Y112.083 E7.11951
G1 X49.877 Y111.674 E7.14122
G1 X49.837 Y111.250 E7.16294
G1 X49.877 Y110.826 E7.18465
G1 X49.996 Y110.417 E7.20637
G1 X50.189 Y110.037 E7.22807
G1 X50.450 Y109.701 E7.24978
G1 X50.770 Y109.419 E7.27150
G1 X51.136 Y109.202 E7.29321
G1 X51.528 Y109.061 E7.31443
G1 X51.816 Y109.006 E7.32939
G1 X52.105 Y108.988 E7.34413 F600.000
G1 X52.524 Y109.027 E7.36556
G1 X52.933 Y109.146 E7.38730
G1 X53.313 Y109.339 E7.40901
G1 X53.649 Y109.600 E7.43072
G1 X53.931 Y109.920 E7.45243
G1 X54.143 Y110.278 E7.47366
G1 X54.251 Y110.551 E7.48862
G1 X54.324 Y110.835 E7.50358
G1 X54.363 Y111.250 E7.52481
G1 X54.323 Y111.674 E7.54652
G1 X54.221 Y112.026 E7.56518
G1 X53.844 Y111.941 F9000.000
G1 X53.684 Y112.255 E7.58318 F600.000
G1 X53.467 Y112.534 E7.60120
G1 X53.295 Y112.695 E7.61318
G1 X53.102 Y112.836 E7.62535
G1 X52.791 Y112.994 E7.64317
G1 X52.452 Y113.093 E7.66116
G1 X52.100 Y113.126 E7.67916
G1 X51.752 Y113.093 E7.69698
G1 X51.520 Y113.034 E7.70916
G1 X51.298 Y112.946 E7.72134
G1 X50.997 Y112.768 E7.73916
G1 X50.732 Y112.534 E7.75716
G1 X50.516 Y112.255 E7.77515
G1 X50.356 Y111.941 E7.79315
G1 X50.257 Y111.602 E7.81114
G1 X50.224 Y111.250 E7.82914
G1 X50.257 Y110.898 E7.84714
G1 X50.356 Y110.559 E7.86514
G1 X50.516 Y110.245 E7.88313
G1 X50.732 Y109.966 E7.90113
G1 X50.997 Y109.732 E7.91913
G1 X51.301 Y109.553 E7.93712
G1 X51.630 Y109.434 E7.95494
G1 X51.865 Y109.389 E7.96712
G1 X52.099 Y109.374 E7.97909 F600.000
G1 X52.451 Y109.407 E7.99711
G1 X52.791 Y109.506 E8.01512
G1 X53.105 Y109.666 E8.03311
G1 X53.384 Y109.882 E8.05111
G1 X53.618 Y110.147 E8.06911
G1 X53.796 Y110.448 E8.08692
G1 X53.884 Y110.670 E8.09910
G1 X53.943 Y110.902 E8.11129
G1 X53.976 Y111.250 E8.12910
G1 X53.943 Y111.602 E8.14710
G1 X53.861 Y111.883 E8.16204
G1 X54.055 Y112.224 F9000.000
G1 E2.16204 F1800.00000
G92 E0
G1 X88.430 Y70.884 F9000.000
G1 E6.00000 F1800.00000
G1 X88.068 Y70.565 E6.02462 F600.000
G1 X87.762 Y70.170 E6.05005
G1 X87.535 Y69.726 E6.07548
G1 X87.396 Y69.247 E6.10091
G1 X87.349 Y68.750 E6.12633
G1 X87.396 Y68.253 E6.15176
G1 X87.535 Y67.774 E6.17719
G1 X87.762 Y67.330 E6.20262
G1 X88.068 Y66.936 E6.22804
G1 X88.442 Y66.606 E6.25347
G1 X88.871 Y66.352 E6.27890
G1 X89.326 Y66.188 E6.30353
G1 X89.668 Y66.123 E6.32127
G1 X90.011 Y66.101 E6.33878 F600.000
G1 X90.496 Y66.146 E6.36361
G1 X90.976 Y66.286 E6.38909
G1 X91.420 Y66.512 E6.41451
G1 X91.802 Y66.808 E6.43913
G1 X92.040 Y67.062 E6.45689
G1 X92.245 Y67.344 E6.47463
G1 X92.465 Y67.774 E6.49926
G1 X92.604 Y68.253 E6.52468
G1 X92.651 Y68.750 E6.55011
G1 X92.604 Y69.247 E6.57558
G1 X92.467 Y69.715 E6.60042
G1 X92.320 Y70.026 E6.61793
G1 X92.134 Y70.320 E6.63567
G1 X91.815 Y70.682 E6.66029
G1 X91.420 Y70.988 E6.68572
G1 X90.976 Y71.215 E6.71115
G1 X90.497 Y71.354 E6.73657
G1 X90.000 Y71.401 E6.76200
G1 X89.503 Y71.354 E6.78743
G1 X89.039 Y71.219 E6.81205
G1 X88.724 Y71.071 E6.82980
G1 X88.481 Y70.916 E6.84450
G1 X88.662 Y70.575 F9000.000
G1 X88.350 Y70.299 E6.86572 F600.000
G1 X88.089 Y69.963 E6.88743
G1 X87.896 Y69.583 E6.90914
G1 X87.777 Y69.174 E6.93085
G1 X87.737 Y68.750 E6.95257
G1 X87.777 Y68.326 E6.97428
G1 X87.896 Y67.917 E6.99599
G1 X88.089 Y67.537 E7.01770
G1 X88.350 Y67.201 E7.03941
G1 X88.670 Y66.919 E7.06113
G1 X89.036 Y66.702 E7.08284
G1 X89.428 Y66.561 E7.10406
G1 X89.716 Y66.506 E7.11902
G1 X90.005 Y66.488 E7.13376 F600.000
G1 X90.424 Y66.527 E7.15519
G1 X90.833 Y66.646 E7.17693
G1 X91.213 Y66.839 E7.19864
G1 X91.542 Y67.094 E7.21986
G1 X91.743 Y67.308 E7.23483
G1 X91.915 Y67.546 E7.24979
G1 X92.104 Y67.917 E7.27101
G1 X92.223 Y68.326 E7.29272
G1 X92.263 Y68.750 E7.31444
G1 X92.223 Y69.175 E7.33617
G1 X92.105 Y69.578 E7.35760
G1 X91.982 Y69.840 E7.37234
G1 X91.825 Y70.088 E7.38730
G1 X91.549 Y70.400 E7.40852
G1 X91.213 Y70.661 E7.43024
G1 X90.833 Y70.854 E7.45195
G1 X90.424 Y70.973 E7.47366
G1 X90.000 Y71.013 E7.49537
G1 X89.576 Y70.973 E7.51708
G1 X89.176 Y70.857 E7.53830
G1 X88.910 Y70.732 E7.55327
G1 X88.713 Y70.607 E7.56518
G1 X88.895 Y70.265 F9000.000
G1 X88.632 Y70.034 E7.58300 F600.000
G1 X88.416 Y69.755 E7.60099
G1 X88.256 Y69.441 E7.61899
G1 X88.157 Y69.102 E7.63698
G1 X88.124 Y68.750 E7.65498
G1 X88.157 Y68.398 E7.67298
G1 X88.256 Y68.059 E7.69097
G1 X88.416 Y67.745 E7.70897
G1 X88.632 Y67.466 E7.72697
G1 X88.897 Y67.232 E7.74496
G1 X89.201 Y67.053 E7.76296
G1 X89.530 Y66.934 E7.78078
G1 X89.765 Y66.889 E7.79296
G1 X89.999 Y66.874 E7.80493 F600.000
G1 X90.351 Y66.907 E7.82295
G1 X90.691 Y67.006 E7.84096
G1 X91.005 Y67.166 E7.85895
G1 X91.281 Y67.380 E7.87677
G1 X91.445 Y67.555 E7.88895
G1 X91.586 Y67.748 E7.90113
G1 X91.744 Y68.059 E7.91895
G1 X91.843 Y68.398 E7.93694
G1 X91.876 Y68.750 E7.95494
G1 X91.843 Y69.102 E7.97295
G1 X91.744 Y69.441 E7.99096
G1 X91.643 Y69.654 E8.00294
G1 X91.515 Y69.855 E8.01512
G1 X91.284 Y70.118 E8.03294
G1 X91.005 Y70.334 E8.05093
G1 X90.691 Y70.494 E8.06893
G1 X90.352 Y70.593 E8.08693
G1 X90.000 Y70.626 E8.10492
G1 X89.648 Y70.593 E8.12292
G1 X89.313 Y70.495 E8.14073
G1 X89.097 Y70.393 E8.15292
G1 X88.945 Y70.298 E8.16205
G1 X88.570 Y70.394 F9000.000
G1 E2.16205 F1800.00000
G92 E0
G1 X125.968 Y109.436 F9000.000
G1 E6.00000 F1800.00000
G1 X126.342 Y109.106 E6.02543 F600.000
G1 X126.771 Y108.852 E6.05086
G1 X127.226 Y108.688 E6.07549
G1 X127.568 Y108.623 E6.09322
G1 X127.911 Y108.601 E6.11073 F600.000
G1 X128.396 Y108.646 E6.13557
G1 X128.876 Y108.786 E6.16104
G1 X129.320 Y109.012 E6.18646
G1 X129.714 Y109.318 E6.21189
G1 X130.045 Y109.693 E6.23736
G1 X130.292 Y110.113 E6.26220
G1 X130.419 Y110.432 E6.27971
G1 X130.505 Y110.769 E6.29744
G1 X130.551 Y111.250 E6.32207
G1 X130.504 Y111.747 E6.34750
G1 X130.364 Y112.226 E6.37293
G1 X130.138 Y112.670 E6.39835
G1 X129.832 Y113.064 E6.42378
G1 X129.458 Y113.394 E6.44921
G1 X129.042 Y113.640 E6.47384
G1 X128.718 Y113.769 E6.49158
G1 X128.381 Y113.855 E6.50933
G1 X127.900 Y113.901 E6.53396
G1 X127.419 Y113.855 E6.55859
G1 X127.082 Y113.769 E6.57634
G1 X126.758 Y113.640 E6.59408
G1 X126.342 Y113.394 E6.61871
G1 X125.968 Y113.064 E6.64414
G1 X125.662 Y112.670 E6.66957
G1 X125.436 Y112.226 E6.69499
G1 X125.296 Y111.747 E6.72042
G1 X125.249 Y111.250 E6.74585
G1 X125.296 Y110.753 E6.77128
G1 X125.436 Y110.274 E6.79671
G1 X125.662 Y109.830 E6.82213
G1 X125.931 Y109.483 E6.84450
G1 X126.250 Y109.701 F9000.000
G1 X126.570 Y109.419 E6.86621 F600.000
G1 X126.936 Y109.202 E6.88793
G1 X127.328 Y109.061 E6.90915
G1 X127.616 Y109.006 E6.92410
G1 X127.905 Y108.988 E6.93885 F600.000
G1 X128.324 Y109.027 E6.96028
G1 X128.733 Y109.146 E6.98201
G1 X129.113 Y109.339 E7.00372
G1 X129.449 Y109.600 E7.02543
G1 X129.731 Y109.920 E7.04717
G1 X129.945 Y110.282 E7.06860
G1 X130.051 Y110.551 E7.08334
G1 X130.124 Y110.835 E7.09830
G1 X130.163 Y111.250 E7.11952
G1 X130.123 Y111.674 E7.14124
G1 X130.004 Y112.083 E7.16295
G1 X129.811 Y112.463 E7.18466
G1 X129.550 Y112.799 E7.20637
G1 X129.230 Y113.081 E7.22808
G1 X128.872 Y113.293 E7.24931
G1 X128.599 Y113.401 E7.26427
G1 X128.315 Y113.474 E7.27923
G1 X127.900 Y113.513 E7.30046
G1 X127.485 Y113.474 E7.32168
G1 X127.201 Y113.401 E7.33665
G1 X126.928 Y113.293 E7.35161
G1 X126.570 Y113.081 E7.37283
G1 X126.250 Y112.799 E7.39455
G1 X125.989 Y112.463 E7.41626
G1 X125.796 Y112.083 E7.43796
G1 X125.677 Y111.674 E7.45968
G1 X125.637 Y111.250 E7.48139
G1 X125.677 Y110.826 E7.50311
G1 X125.796 Y110.417 E7.52482
G1 X125.989 Y110.037 E7.54653
G1 X126.213 Y109.748 E7.56518
G1 X126.532 Y109.966 F9000.000
G1 X126.797 Y109.732 E7.58318 F600.000
G1 X127.101 Y109.553 E7.60118
G1 X127.430 Y109.434 E7.61899
G1 X127.665 Y109.389 E7.63117
G1 X127.899 Y109.374 E7.64315 F600.000
G1 X128.251 Y109.407 E7.66116
G1 X128.591 Y109.506 E7.67917
G1 X128.905 Y109.666 E7.69716
G1 X129.184 Y109.882 E7.71516
G1 X129.418 Y110.147 E7.73317
G1 X129.597 Y110.452 E7.75118
G1 X129.684 Y110.670 E7.76316
G1 X129.743 Y110.902 E7.77534
G1 X129.776 Y111.250 E7.79315
G1 X129.743 Y111.602 E7.81115
G1 X129.644 Y111.941 E7.82915
G1 X129.484 Y112.255 E7.84714
G1 X129.268 Y112.534 E7.86514
G1 X129.003 Y112.768 E7.88314
G1 X128.702 Y112.946 E7.90095
G1 X128.480 Y113.034 E7.91313
G1 X128.248 Y113.093 E7.92532
G1 X127.900 Y113.126 E7.94314
G1 X127.552 Y113.093 E7.96095
G1 X127.320 Y113.034 E7.97314
G1 X127.098 Y112.946 E7.98532
G1 X126.797 Y112.768 E8.00313
G1 X126.532 Y112.534 E8.02113
G1 X126.316 Y112.255 E8.03913
G1 X126.156 Y111.941 E8.05712
G1 X126.057 Y111.602 E8.07512
G1 X126.024 Y111.250 E8.09312
G1 X126.057 Y110.898 E8.11111
G1 X126.156 Y110.559 E8.12911
G1 X126.316 Y110.245 E8.14710
G1 X126.496 Y110.013 E8.16204
G1 X126.441 Y109.625 F9000.000
G1 X117.004 Y104.746 F9000.000
G1 X127.884 Y104.746 E8.71660 F600.000
G1 X128.308 Y104.760 E8.73822
G1 X128.715 Y104.798 E8.75904
G1 X129.119 Y104.862 E8.77986
G1 X129.517 Y104.951 E8.80068
G1 X129.910 Y105.065 E8.82150
G1 X130.294 Y105.203 E8.84233
G1 X130.669 Y105.366 E8.86316
G1 X131.033 Y105.551 E8.88398
G1 X131.385 Y105.759 E8.90479
G1 X131.722 Y105.989 E8.92562
G1 X132.045 Y106.239 E8.94645
G1 X132.352 Y106.509 E8.96727
G1 X132.641 Y106.798 E8.98809
G1 X132.911 Y107.105 E9.00891
G1 X133.161 Y107.428 E9.02973
G1 X133.391 Y107.765 E9.05056
G1 X133.599 Y108.117 E9.07137
G1 X133.784 Y108.481 E9.09220
G1 X133.947 Y108.856 E9.11302
G1 X134.085 Y109.240 E9.13385
G1 X134.194 Y109.617 E9.15383
G1 X134.288 Y110.032 E9.17555
G1 X134.352 Y110.435 E9.19631
G1 X134.390 Y110.842 E9.21713
G1 X134.403 Y111.250 E9.23796
G1 X134.390 Y111.658 E9.25878
G1 X134.354 Y112.049 E9.27876
G1 X134.288 Y112.470 E9.30048
G1 X134.199 Y112.867 E9.32124
G1 X134.085 Y113.260 E9.34206
G1 X133.947 Y113.644 E9.36289
G1 X133.784 Y114.019 E9.38371
G1 X133.599 Y114.383 E9.40454
G1 X133.391 Y114.735 E9.42535
G1 X133.161 Y115.073 E9.44618
G1 X132.911 Y115.395 E9.46701
G1 X132.641 Y115.702 E9.48783
G1 X132.352 Y115.991 E9.50865
G1 X132.045 Y116.261 E9.52947
G1 X131.722 Y116.511 E9.55029
G1 X131.385 Y116.741 E9.57112
G1 X131.033 Y116.949 E9.59193
G1 X130.669 Y117.134 E9.61276
G1 X130.294 Y117.297 E9.63358
G1 X129.910 Y117.435 E9.65441
G1 X129.517 Y117.549 E9.67523
G1 X129.119 Y117.638 E9.69605
G1 X128.715 Y117.702 E9.71687
G1 X128.308 Y117.740 E9.73769
G1 X127.884 Y117.754 E9.75932
G1 X52.116 Y117.754 E13.62105
G1 X51.692 Y117.740 E13.64267
G1 X51.285 Y117.702 E13.66350
G1 X50.881 Y117.638 E13.68432
G1 X50.483 Y117.549 E13.70513
G1 X50.090 Y117.435 E13.72596
G1 X49.706 Y117.297 E13.74678
G1 X49.331 Y117.134 E13.76761
G1 X48.967 Y116.949 E13.78843
G1 X48.615 Y116.741 E13.80925
G1 X48.278 Y116.511 E13.83007
G1 X47.955 Y116.261 E13.85090
G1 X47.648 Y115.991 E13.87172
G1 X47.359 Y115.702 E13.89254
G1 X47.089 Y115.395 E13.91336
G1 X46.839 Y115.072 E13.93419
G1 X46.609 Y114.735 E13.95501
G1 X46.401 Y114.383 E13.97583
G1 X46.216 Y114.019 E13.99665
