; generated by Slic3r 1.2.9 on 2017-12-13 at 20:37:21

; external perimeters extrusion width = 0.40mm
; perimeters extrusion width = 0.62mm
; infill extrusion width = 0.33mm
; solid infill extrusion width = 0.62mm
; top infill extrusion width = 0.20mm

M106 S256; Turn on fan to 100% power
M104 S140; turn on extruder temperature at S value
M140 S60; turn on bed temperature at S value
G28; home all axes
M84; disable motors
G1 Z15 F15000; have Z move to 20mm at 15000 mm/min
M190 S55; turn on bed temperature at S value and wait
M140 S55; turn on bed temperature at S value (printing temperature)
M109 S200; turn on extruder temperature at S value and wait (printing temperature)
M104 S200; turn on extruder temperature at S value
G1 Z0 F12000; move Z back to home
G21 ; set units to millimeters
G90 ; use absolute coordinates
M82 ; use absolute distances for extrusion
G92 E0
M106 S255
;Layer change
G1 E-6.00000 F1800.00000
G92 E0
G1 Z0.300 F9000.000
G1 X87.954 Y10.960 F9000.000
G1 E6.00000 F1800.00000
G1 X88.346 Y9.650 E6.06806 F600.000
G1 X89.392 Y8.771 E6.13612
G1 X90.340 Y8.574 E6.18430
G1 X92.340 Y8.574 E6.28388
G1 X93.650 Y8.966 E6.35194
G1 X94.529 Y10.012 E6.42000 F600.000
G1 X94.726 Y10.960 E6.46819
G1 X94.726 Y110.960 E11.44709
G1 X94.334 Y112.270 E11.51514
G1 X93.288 Y113.149 E11.58320
G1 X92.340 Y113.346 E11.63139
G1 X90.340 Y113.346 E11.73097
G1 X89.030 Y112.954 E11.79903
G1 X88.151 Y111.908 E11.86709
G1 X87.954 Y110.960 E11.91527
G1 X87.954 Y11.020 E16.89119
G1 E10.89119 F1800.00000
G92 E0
G1 X91.729 Y11.571 F9000.000
G1 E6.00000 F1800.00000
G1 X91.729 Y110.349 E10.91810 F600.000
G1 X90.951 Y110.349 E10.95687
G1 X90.951 Y11.571 E15.87497
G1 X91.669 Y11.571 E15.91075
G1 X92.115 Y11.185 F9000.000
G1 X92.115 Y110.735 E20.86725 F600.000
G1 X90.565 Y110.735 E20.94442
G1 X90.565 Y11.185 E25.90092
G1 X92.055 Y11.185 E25.97510
G1 X91.915 Y11.531 F9000.000
G1 X91.340 Y11.763 F9000.000
G1 X91.340 Y110.157 E36.59078 F600.000
M104 S199 ; set temperature
M140 S55 ; wait for bed temperature to be reached
;Layer change
G1 E30.59078 F1800.00000
G92 E0
G1 Z0.520 F9000.000
G1 X91.678 Y11.622 F9000.000
G1 E6.00000 F1800.00000
G1 X91.678 Y110.298 E11.33672 F3000.000
G1 X91.002 Y110.298 E11.37328
G1 X91.002 Y11.622 E16.71001
G1 X91.618 Y11.622 E16.74332
G1 X92.140 Y11.160 F9000.000
G1 X92.140 Y110.760 E20.07029 F1800.000
G1 X90.540 Y110.760 E20.12374
G1 X90.540 Y11.160 E23.45071
G1 X92.080 Y11.160 E23.50215
G1 X91.940 Y11.506 F9000.000
G1 X91.340 Y11.908 F9000.000
G1 X91.340 Y110.012 E28.80798 F1800.000
;Layer change
G1 E22.80798 F1800.00000
G92 E0
G1 Z0.740 F9000.000
G1 X91.678 Y11.622 F9000.000
G1 E6.00000 F1800.00000
G1 X91.678 Y110.298 E11.33672 F3000.000
G1 X91.002 Y110.298 E11.37328
G1 X91.002 Y11.622 E16.71001
G1 X91.618 Y11.622 E16.74332
G1 X92.140 Y11.160 F9000.000
G1 X92.140 Y110.760 E20.07029 F1800.000
G1 X90.540 Y110.760 E20.12374
G1 X90.540 Y11.160 E23.45071
G1 X92.080 Y11.160 E23.50215
G1 X91.940 Y11.506 F9000.000
G1 X91.340 Y11.908 F9000.000
G1 X91.340 Y110.012 E28.80798 F1800.000
;Layer change
G1 E22.80798 F1800.00000
G92 E0
G1 Z0.960 F9000.000
G1 X91.678 Y11.622 F9000.000
G1 E6.00000 F1800.00000
G1 X91.678 Y110.298 E11.33672 F3000.000
G1 X91.002 Y110.298 E11.37328
G1 X91.002 Y11.622 E16.71001
G1 X91.618 Y11.622 E16.74332
G1 X92.140 Y11.160 F9000.000
G1 X92.140 Y110.760 E20.07029 F1800.000
G1 X90.540 Y110.760 E20.12374
G1 X90.540 Y11.160 E23.45071
G1 X92.080 Y11.160 E23.50215
G1 X91.940 Y11.506 F9000.000
G1 X91.340 Y11.908 F9000.000
G1 X91.340 Y110.012 E28.80798 F1800.000
;Layer change
G1 E22.80798 F1800.00000
G92 E0
G1 Z1.180 F9000.000
G1 X91.678 Y11.622 F9000.000
G1 E6.00000 F1800.00000
G1 X91.678 Y110.298 E11.33672 F3000.000
G1 X91.002 Y110.298 E11.37328
G1 X91.002 Y11.622 E16.71001
G1 X91.618 Y11.622 E16.74332
G1 X92.140 Y11.160 F9000.000
G1 X92.140 Y110.760 E20.07029 F1800.000
G1 X90.540 Y110.760 E20.12374
G1 X90.540 Y11.160 E23.45071
G1 X92.080 Y11.160 E23.50215
G1 X91.940 Y11.506 F9000.000
G1 X91.340 Y11.908 F9000.000
G1 X91.340 Y110.012 E28.80798 F1800.000
;Layer change
G1 E22.80798 F1800.00000
G92 E0
G1 Z1.400 F9000.000
G1 X91.678 Y11.622 F9000.000
G1 E6.00000 F1800.00000
G1 X91.678 Y110.298 E11.33672 F3000.000
G1 X91.002 Y110.298 E11.37328
G1 X91.002 Y11.622 E16.71001
G1 X91.618 Y11.622 E16.74332
G1 X92.140 Y11.160 F9000.000
G1 X92.140 Y110.760 E20.07029 F1800.000
G1 X90.540 Y110.760 E20.12374
G1 X90.540 Y11.160 E23.45071
G1 X92.080 Y11.160 E23.50215
G1 X91.940 Y11.506 F9000.000
G1 X91.340 Y11.908 F9000.000
G1 X91.340 Y110.012 E28.80798 F1800.000
;Layer change
G1 E22.80798 F1800.00000
G92 E0
G1 Z1.620 F9000.000
G1 X91.678 Y11.622 F9000.000
G1 E6.00000 F1800.00000
G1 X91.678 Y110.298 E11.33672 F3000.000
G1 X91.002 Y110.298 E11.37328
G1 X91.002 Y11.622 E16.71001
G1 X91.618 Y11.622 E16.74332
G1 X92.140 Y11.160 F9000.000
G1 X92.140 Y110.760 E20.07029 F1800.000
G1 X90.540 Y110.760 E20.12374
G1 X90.540 Y11.160 E23.45071
G1 X92.080 Y11.160 E23.50215
G1 X91.940 Y11.506 F9000.000
G1 X91.340 Y11.908 F9000.000
G1 X91.340 Y110.012 E28.80798 F1800.000
;Layer change
G1 E22.80798 F1800.00000
G92 E0
G1 Z1.840 F9000.000
G1 X91.678 Y11.622 F9000.000
G1 E6.00000 F1800.00000
G1 X91.678 Y110.298 E11.33672 F3000.000
G1 X91.002 Y110.298 E11.37328
G1 X91.002 Y11.622 E16.71001
G1 X91.618 Y11.622 E16.74332
G1 X92.140 Y11.160 F9000.000
G1 X92.140 Y110.760 E20.07029 F1800.000
G1 X90.540 Y110.760 E20.12374
G1 X90.540 Y11.160 E23.45071
G1 X92.080 Y11.160 E23.50215
G1 X91.940 Y11.506 F9000.000
G1 X91.340 Y11.908 F9000.000
G1 X91.340 Y110.012 E28.80798 F1800.000
;Layer change
G1 E22.80798 F1800.00000
G92 E0
G1 Z2.060 F9000.000
G1 X91.678 Y11.622 F9000.000
G1 E6.00000 F1800.00000
G1 X91.678 Y110.298 E11.33672 F3000.000
G1 X91.002 Y110.298 E11.37328
G1 X91.002 Y11.622 E16.71001
G1 X91.618 Y11.622 E16.74332
G1 X92.140 Y11.160 F9000.000
G1 X92.140 Y110.760 E20.07029 F1800.000
G1 X90.540 Y110.760 E20.12374
G1 X90.540 Y11.160 E23.45071
G1 X92.080 Y11.160 E23.50215
G1 X91.940 Y11.506 F9000.000
G1 X91.340 Y11.908 F9000.000
G1 X91.340 Y110.012 E28.80798 F1800.000
;Layer change
G1 E22.80798 F1800.00000
G92 E0
G1 Z2.280 F9000.000
G1 X91.678 Y11.622 F9000.000
G1 E6.00000 F1800.00000
G1 X91.678 Y110.298 E11.33672 F3000.000
G1 X91.002 Y110.298 E11.37328
G1 X91.002 Y11.622 E16.71001
G1 X91.618 Y11.622 E16.74332
G1 X92.140 Y11.160 F9000.000
G1 X92.140 Y110.760 E20.07029 F1800.000
G1 X90.540 Y110.760 E20.12374
G1 X90.540 Y11.160 E23.45071
G1 X92.080 Y11.160 E23.50215
G1 X91.940 Y11.506 F9000.000
G1 X91.340 Y11.908 F9000.000
G1 X91.340 Y110.012 E28.80798 F1800.000
;Layer change
G1 E22.80798 F1800.00000
G92 E0
G1 Z2.500 F9000.000
G1 X91.678 Y11.622 F9000.000
G1 E6.00000 F1800.00000
G1 X91.678 Y110.298 E11.33672 F3000.000
G1 X91.002 Y110.298 E11.37328
G1 X91.002 Y11.622 E16.71001
G1 X91.618 Y11.622 E16.74332
G1 X92.140 Y11.160 F9000.000
G1 X92.140 Y110.760 E20.07029 F1800.000
G1 X90.540 Y110.760 E20.12374
G1 X90.540 Y11.160 E23.45071
G1 X92.080 Y11.160 E23.50215
G1 X91.940 Y11.506 F9000.000
G1 X91.340 Y11.908 F9000.000
G1 X91.340 Y110.012 E28.80798 F1800.000
;Layer change
G1 E22.80798 F1800.00000
G92 E0
G1 Z2.720 F9000.000
G1 X91.678 Y11.622 F9000.000
G1 E6.00000 F1800.00000
G1 X91.678 Y110.298 E11.33672 F3000.000
G1 X91.002 Y110.298 E11.37328
G1 X91.002 Y11.622 E16.71001
G1 X91.618 Y11.622 E16.74332
G1 X92.140 Y11.160 F9000.000
G1 X92.140 Y110.760 E20.07029 F1800.000
G1 X90.540 Y110.760 E20.12374
G1 X90.540 Y11.160 E23.45071
G1 X92.080 Y11.160 E23.50215
G1 X91.940 Y11.506 F9000.000
G1 X91.340 Y11.908 F9000.000
G1 X91.340 Y110.012 E28.80798 F1800.000
;Layer change
G1 E22.80798 F1800.00000
G92 E0
G1 Z2.940 F9000.000
G1 X91.678 Y11.622 F9000.000
G1 E6.00000 F1800.00000
G1 X91.678 Y110.298 E11.33672 F3000.000
G1 X91.002 Y110.298 E11.37328
G1 X91.002 Y11.622 E16.71001
G1 X91.618 Y11.622 E16.74332
G1 X92.140 Y11.160 F9000.000
G1 X92.140 Y110.760 E20.07029 F1800.000
G1 X90.540 Y110.760 E20.12374
G1 X90.540 Y11.160 E23.45071
G1 X92.080 Y11.160 E23.50215
G1 X91.940 Y11.506 F9000.000
G1 E17.50215 F1800.00000
G92 E0
G1 X91.340 Y11.908 F9000.000
G1 E6.00000 F1800.00000
G1 X91.340 Y110.012 E11.30583 F1800.000
G1 E5.30583 F1800.00000
G92 E0
M107
M106 S256; Turn on fan to 100% power
M140 S0; turn off bed temperature
M104 S0; turn off extruder temperature
G1 X0; home X axis
M84; disable motors
M109 S160; turn down extruder, wait for S value to be reached
M106 S128; Turn fan to 50% power
M109 S130; turn down extruder, wait for S value to be reached
M104 S0; turn off extruder temperature
M106 S0; Turn off fan
; filament used = 315.2mm (0.7cm3)

; avoid_crossing_perimeters = 0
; bed_shape = 0x0,200x0,200x200,0x200
; bed_temperature = 55
; before_layer_gcode = ;Layer change
; bridge_acceleration = 0
; bridge_fan_speed = 100
; brim_width = 0
; complete_objects = 0
; cooling = 1
; default_acceleration = 0
; disable_fan_first_layers = 0
; duplicate_distance = 6
; end_gcode = M106 S256; Turn on fan to 100% power\nM140 S0; turn off bed temperature\nM104 S0; turn off extruder temperature\nG1 X0; home X axis\nM84; disable motors\nM109 S160; turn down extruder, wait for S value to be reached\nM106 S128; Turn fan to 50% power\nM109 S130; turn down extruder, wait for S value to be reached\nM104 S0; turn off extruder temperature\nM106 S0; Turn off fan
; extruder_clearance_height = 20
; extruder_clearance_radius = 20
; extruder_offset = 0x0
; extrusion_axis = E
; extrusion_multiplier = 1
; fan_always_on = 1
; fan_below_layer_time = 60
; filament_colour = #FFFFFF
; filament_diameter = 1.72
; first_layer_acceleration = 0
; first_layer_bed_temperature = 56
; first_layer_extrusion_width = 150%
; first_layer_speed = 10
; first_layer_temperature = 200
; gcode_arcs = 0
; gcode_comments = 0
; gcode_flavor = reprap
; infill_acceleration = 0
; infill_first = 0
; layer_gcode = 
; max_fan_speed = 100
; max_print_speed = 80
; max_volumetric_speed = 0
; min_fan_speed = 100
; min_print_speed = 5
; min_skirt_length = 0
; notes = 
; nozzle_diameter = 0.4
; only_retract_when_crossing_perimeters = 1
; ooze_prevention = 0
; output_filename_format = [input_filename_base].gcode
; perimeter_acceleration = 0
; post_process = 
; pressure_advance = 0
; resolution = 0
; retract_before_travel = 1
; retract_layer_change = 1
; retract_length = 6
; retract_length_toolchange = 3
; retract_lift = 0
; retract_restart_extra = 0
; retract_restart_extra_toolchange = 0
; retract_speed = 30
; skirt_distance = 2
; skirt_height = 1
; skirts = 1
; slowdown_below_layer_time = 8
; spiral_vase = 0
; standby_temperature_delta = -5
; start_gcode = M106 S256; Turn on fan to 100% power\nM104 S140; turn on extruder temperature at S value\nM140 S60; turn on bed temperature at S value\nG28; home all axes\nM84; disable motors\nG1 Z15 F15000; have Z move to 20mm at 15000 mm/min\nM190 S55; turn on bed temperature at S value and wait\nM140 S55; turn on bed temperature at S value (printing temperature)\nM109 S200; turn on extruder temperature at S value and wait (printing temperature)\nM104 S200; turn on extruder temperature at S value\nG1 Z0 F12000; move Z back to home
; temperature = 199
; threads = 3
; toolchange_gcode = 
; travel_speed = 150
; use_firmware_retraction = 0
; use_relative_e_distances = 0
; use_volumetric_e = 0
; vibration_limit = 0
; wipe = 0
; z_offset = 0
; dont_support_bridges = 0
; extrusion_width = 0
; first_layer_height = 0.3
; infill_only_where_needed = 0
; interface_shells = 0
; layer_height = 0.22
; raft_layers = 0
; seam_position = aligned
; support_material = 0
; support_material_angle = 0
; support_material_contact_distance = 0.2
; support_material_enforce_layers = 0
; support_material_extruder = 1
; support_material_extrusion_width = 0
; support_material_interface_extruder = 1
; support_material_interface_layers = 2
; support_material_interface_spacing = 0
; support_material_interface_speed = 100%
; support_material_pattern = pillars
; support_material_spacing = 2.5
; support_material_speed = 50
; support_material_threshold = 86
; xy_size_compensation = 0
; bottom_solid_layers = 2
; bridge_flow_ratio = 0.8
; bridge_speed = 50
; external_fill_pattern = rectilinear
; external_perimeter_extrusion_width = 0
; external_perimeter_speed = 30
; external_perimeters_first = 0
; extra_perimeters = 1
; fill_angle = 45
; fill_density = 15%
; fill_pattern = 3dhoneycomb
; gap_fill_speed = 30
; infill_every_layers = 1
; infill_extruder = 1
; infill_extrusion_width = 150%
; infill_overlap = 0%
; infill_speed = 100
; overhangs = 1
; perimeter_extruder = 1
; perimeter_extrusion_width = 0
; perimeter_speed = 50
; perimeters = 2
; small_perimeter_speed = 15
; solid_infill_below_area = 30
; solid_infill_every_layers = 0
; solid_infill_extruder = 1
; solid_infill_extrusion_width = 0
; solid_infill_speed = 30
; thin_walls = 1
; top_infill_extrusion_width = 90%
; top_solid_infill_speed = 12
; top_solid_layers = 2

