; generated by Slic3r 1.2.9 on 2018-07-20 at 20:47:58

; external perimeters extrusion width = 0.40mm
; perimeters extrusion width = 0.62mm
; infill extrusion width = 0.33mm
; solid infill extrusion width = 0.62mm
; top infill extrusion width = 0.20mm

M106 S256; Turn on fan to 100% power
M104 S140; turn on extruder temperature at S value
M140 S60; turn on bed temperature at S value
G28; home all axes
M84; disable motors
G1 Z15 F15000; have Z move to 20mm at 15000 mm/min
M190 S55; turn on bed temperature at S value and wait
M140 S55; turn on bed temperature at S value (printing temperature)
M109 S200; turn on extruder temperature at S value and wait (printing temperature)
M104 S200; turn on extruder temperature at S value
G1 Z0 F12000; move Z back to home
G21 ; set units to millimeters
G90 ; use absolute coordinates
M82 ; use absolute distances for extrusion
G92 E0
M106 S255
;Layer change
G1 E-6.00000 F1800.00000
G92 E0
G1 Z0.300 F9000.000
G1 X18.262 Y10.040 F9000.000
G1 E6.00000 F1800.00000
G1 X18.464 Y9.672 E6.02067 F600.000
G1 X18.816 Y9.188 E6.05009
G1 X19.674 Y8.274 E6.11178
G1 X20.135 Y7.893 E6.14121
G1 X21.193 Y7.222 E6.20289
G1 X21.734 Y6.967 E6.23232
G1 X22.926 Y6.580 E6.29400
G1 X23.438 Y6.474 E6.31977
G1 X24.600 Y6.374 E6.37714
G1 X159.750 Y6.379 E13.02854
G1 X160.376 Y6.418 E13.05944 F600.000
G1 X160.820 Y6.489 E13.08154
G1 X162.034 Y6.800 E13.14323
G1 X162.590 Y7.021 E13.17265
G1 X163.688 Y7.624 E13.23434
G1 X164.172 Y7.976 E13.26375
G1 X165.086 Y8.834 E13.32546
G1 X165.467 Y9.295 E13.35489
G1 X166.138 Y10.353 E13.41657
G1 X166.393 Y10.894 E13.44600
G1 X166.780 Y12.086 E13.50768
G1 X166.886 Y12.598 E13.53344
G1 X166.986 Y13.760 E13.59082
G1 X166.986 Y53.760 E15.55942
G1 X166.942 Y54.536 E15.59769
G1 X166.871 Y54.980 E15.61980
G1 X166.560 Y56.194 E15.68148
G1 X166.339 Y56.750 E15.71090
G1 X165.736 Y57.848 E15.77259
G1 X165.384 Y58.332 E15.80201
G1 X164.526 Y59.246 E15.86370
G1 X164.065 Y59.627 E15.89314
G1 X163.007 Y60.298 E15.95482
G1 X162.466 Y60.553 E15.98424
G1 X161.274 Y60.940 E16.04593
G1 X160.761 Y61.046 E16.07169
G1 X159.600 Y61.146 E16.12906
G1 X24.600 Y61.146 E22.77310
G1 X23.824 Y61.102 E22.81137
G1 X23.380 Y61.031 E22.83346
G1 X22.166 Y60.720 E22.89515
G1 X21.590 Y60.488 E22.92570
G1 X20.512 Y59.896 E22.98626
G1 X20.028 Y59.544 E23.01568
G1 X19.114 Y58.686 E23.07737
G1 X18.733 Y58.225 E23.10681
G1 X18.062 Y57.167 E23.16849
G1 X17.807 Y56.626 E23.19791
G1 X17.420 Y55.434 E23.25960
G1 X17.314 Y54.921 E23.28536
G1 X17.225 Y53.985 E23.33167
G1 X17.214 Y13.760 E25.31133
G1 X17.258 Y12.984 E25.34960
G1 X17.329 Y12.540 E25.37171
G1 X17.640 Y11.326 E25.43339
G1 X17.861 Y10.770 E25.46282
G1 X18.233 Y10.092 E25.50088
G1 E19.50088 F1800.00000
G92 E0
G1 X28.194 Y47.740 F9000.000
G1 E6.00000 F1800.00000
G1 X29.033 Y48.135 E6.04566 F600.000
G1 X29.748 Y48.726 E6.09133
G1 X30.294 Y49.477 E6.13700
G1 X30.635 Y50.339 E6.18266
G1 X30.752 Y51.260 E6.22833
G1 X30.635 Y52.181 E6.27399
G1 X30.294 Y53.043 E6.31966
G1 X29.748 Y53.794 E6.36532
G1 X29.033 Y54.385 E6.41099
G1 X28.194 Y54.780 E6.45665
G1 X27.282 Y54.954 E6.50232
G1 X26.356 Y54.896 E6.54799
G1 X25.474 Y54.609 E6.59365
G1 X24.687 Y54.110 E6.63951
G1 X24.043 Y53.414 E6.68619
G1 X23.608 Y52.623 E6.73062
G1 X23.378 Y51.724 E6.77628
G1 X23.378 Y50.796 E6.82195
G1 X23.608 Y49.897 E6.86761
G1 X24.055 Y49.084 E6.91328
G1 X24.690 Y48.408 E6.95895
G1 X25.477 Y47.909 E7.00480
G1 X26.381 Y47.622 E7.05148
G1 X27.282 Y47.566 E7.09591 F600.000
G1 X28.135 Y47.728 E7.13863
G1 X28.074 Y48.109 F9000.000
G1 X28.825 Y48.463 E7.17949 F600.000
G1 X29.465 Y48.992 E7.22037
G1 X29.953 Y49.664 E7.26124
G1 X30.259 Y50.436 E7.30211
G1 X30.363 Y51.260 E7.34298
G1 X30.259 Y52.084 E7.38385
G1 X29.953 Y52.856 E7.42472
G1 X29.465 Y53.528 E7.46559
G1 X28.825 Y54.057 E7.50646
G1 X28.074 Y54.411 E7.54733
G1 X27.258 Y54.566 E7.58820
G1 X26.429 Y54.514 E7.62907
G1 X25.639 Y54.258 E7.66994
G1 X24.936 Y53.811 E7.71093
G1 X24.358 Y53.187 E7.75282
G1 X23.970 Y52.480 E7.79253
G1 X23.763 Y51.675 E7.83339
G1 X23.763 Y50.845 E7.87427
G1 X23.970 Y50.040 E7.91513
G1 X24.370 Y49.313 E7.95601
G1 X24.938 Y48.707 E7.99688
G1 X25.641 Y48.261 E8.03786
G1 X26.453 Y48.004 E8.07975
G1 X27.258 Y47.954 E8.11946 F600.000
G1 X28.015 Y48.098 E8.15738
G1 X27.954 Y48.479 F9000.000
G1 X28.617 Y48.791 E8.19345 F600.000
G1 X29.182 Y49.258 E8.22953
G1 X29.613 Y49.851 E8.26560
G1 X29.882 Y50.533 E8.30168
G1 X29.974 Y51.260 E8.33775
G1 X29.882 Y51.987 E8.37383
G1 X29.613 Y52.669 E8.40991
G1 X29.182 Y53.262 E8.44598
G1 X28.617 Y53.729 E8.48206
G1 X27.954 Y54.041 E8.51813
G1 X27.234 Y54.179 E8.55421
G1 X26.502 Y54.132 E8.59028
G1 X25.805 Y53.906 E8.62636
G1 X25.185 Y53.513 E8.66248
G1 X24.674 Y52.959 E8.69957
G1 X24.331 Y52.336 E8.73456
G1 X24.149 Y51.627 E8.77063
G1 X24.149 Y50.893 E8.80671
G1 X24.331 Y50.184 E8.84278
G1 X24.684 Y49.541 E8.87886
G1 X25.186 Y49.007 E8.91493
G1 X25.806 Y48.614 E8.95105
G1 X26.524 Y48.386 E8.98814
G1 X27.234 Y48.341 E9.02313 F600.000
G1 X27.895 Y48.468 E9.05625
G1 X28.262 Y48.224 F9000.000
G1 X29.876 Y47.259 F9000.000
G1 X29.235 Y46.248 E9.11514 F600.000
G1 X28.775 Y44.832 E9.18843
G1 X28.672 Y43.739 E9.24247
G1 X28.672 Y23.797 E10.22393
G1 X28.719 Y23.045 E10.26101
G1 X29.085 Y21.618 E10.33353
G1 X29.810 Y20.299 E10.40759
G1 X30.841 Y19.202 E10.48167
G1 X32.112 Y18.395 E10.55574
G1 X33.528 Y17.935 E10.62903
G1 X34.621 Y17.832 E10.68307
G1 X149.563 Y17.832 E16.33997 F600.000
G1 X150.315 Y17.879 E16.37704
G1 X151.742 Y18.245 E16.44955
G1 X153.061 Y18.970 E16.52363
G1 X154.158 Y20.001 E16.59770
G1 X154.965 Y21.272 E16.67177
G1 X155.425 Y22.688 E16.74506
G1 X155.528 Y23.781 E16.79910
G1 X155.528 Y43.723 E17.78056
G1 X155.481 Y44.475 E17.81764
G1 X155.115 Y45.902 E17.89015
G1 X154.390 Y47.221 E17.96422
G1 X153.359 Y48.318 E18.03830
G1 X152.088 Y49.125 E18.11237
G1 X150.672 Y49.585 E18.18566
G1 X149.579 Y49.688 E18.23970
G1 X34.637 Y49.688 E23.89659
G1 X33.885 Y49.641 E23.93367
G1 X32.458 Y49.275 E24.00618
G1 X31.139 Y48.550 E24.08025
G1 X30.042 Y47.519 E24.15433
G1 X29.908 Y47.309 E24.16656
G1 X30.202 Y47.052 F9000.000
G1 X29.587 Y46.083 E24.22305 F600.000
G1 X29.155 Y44.754 E24.29184
G1 X29.057 Y43.721 E24.34289
G1 X29.057 Y23.809 E25.32287
G1 X29.102 Y23.105 E25.35756
G1 X29.447 Y21.761 E25.42588
G1 X30.125 Y20.527 E25.49515
G1 X31.089 Y19.501 E25.56443
G1 X32.277 Y18.747 E25.63370
G1 X33.606 Y18.315 E25.70250
G1 X34.639 Y18.217 E25.75355
G1 X149.551 Y18.217 E31.40896 F600.000
G1 X150.255 Y18.262 E31.44365
G1 X151.599 Y18.607 E31.51196
G1 X152.833 Y19.285 E31.58124
G1 X153.859 Y20.249 E31.65052
G1 X154.613 Y21.437 E31.71979
G1 X155.045 Y22.766 E31.78859
G1 X155.143 Y23.799 E31.83964
G1 X155.143 Y43.711 E32.81961
G1 X155.098 Y44.415 E32.85430
G1 X154.753 Y45.759 E32.92262
G1 X154.075 Y46.993 E32.99190
G1 X153.111 Y48.019 E33.06118
G1 X151.923 Y48.773 E33.13045
G1 X150.594 Y49.205 E33.19925
G1 X149.561 Y49.303 E33.25030
G1 X34.649 Y49.303 E38.90570
G1 X33.945 Y49.258 E38.94039
G1 X32.601 Y48.913 E39.00871
G1 X31.367 Y48.235 E39.07799
G1 X30.341 Y47.271 E39.14727
G1 X30.234 Y47.103 E39.15710
G1 X30.528 Y46.846 F9000.000
G1 X29.939 Y45.918 E39.21119 F600.000
G1 X29.535 Y44.675 E39.27549
G1 X29.443 Y43.703 E39.32355
G1 X29.443 Y23.821 E40.30204
G1 X29.484 Y23.166 E40.33434
G1 X29.808 Y21.904 E40.39846
G1 X30.439 Y20.756 E40.46294
G1 X31.336 Y19.801 E40.52743
G1 X32.442 Y19.099 E40.59190
G1 X33.685 Y18.695 E40.65621
G1 X34.657 Y18.603 E40.70427
G1 X149.539 Y18.603 E46.35818 F600.000
G1 X150.194 Y18.644 E46.39048
G1 X151.456 Y18.968 E46.45461
G1 X152.604 Y19.599 E46.51909
G1 X153.559 Y20.496 E46.58357
G1 X154.261 Y21.602 E46.64805
G1 X154.665 Y22.845 E46.71236
G1 X154.757 Y23.817 E46.76042
G1 X154.757 Y43.699 E47.73890
G1 X154.716 Y44.354 E47.77120
G1 X154.392 Y45.616 E47.83532
G1 X153.761 Y46.764 E47.89981
G1 X152.864 Y47.719 E47.96429
G1 X151.757 Y48.421 E48.02877
G1 X150.515 Y48.825 E48.09307
G1 X149.543 Y48.917 E48.14113
G1 X34.661 Y48.917 E53.79505
G1 X34.006 Y48.876 E53.82735
G1 X32.744 Y48.552 E53.89147
G1 X31.596 Y47.921 E53.95595
G1 X30.641 Y47.024 E54.02044
G1 X30.560 Y46.896 E54.02787
G1 X30.128 Y46.862 F9000.000
G1 E48.02787 F1800.00000
G92 E0
G1 X27.286 Y19.955 F9000.000
G1 E6.00000 F1800.00000
G1 X26.356 Y19.896 E6.04586 F600.000
G1 X25.474 Y19.609 E6.09152
G1 X24.687 Y19.110 E6.13738
G1 X24.043 Y18.414 E6.18406
G1 X23.608 Y17.623 E6.22849
G1 X23.378 Y16.724 E6.27415
G1 X23.378 Y15.796 E6.31982
G1 X23.608 Y14.897 E6.36548
G1 X24.055 Y14.084 E6.41115
G1 X24.690 Y13.408 E6.45682
G1 X25.477 Y12.909 E6.50267
G1 X26.381 Y12.622 E6.54935
G1 X27.282 Y12.566 E6.59378 F600.000
G1 X28.194 Y12.740 E6.63945
G1 X29.033 Y13.135 E6.68511
G1 X29.748 Y13.726 E6.73078
G1 X30.294 Y14.477 E6.77645
G1 X30.635 Y15.339 E6.82211
G1 X30.752 Y16.260 E6.86778
G1 X30.635 Y17.181 E6.91344
G1 X30.294 Y18.043 E6.95911
G1 X29.748 Y18.794 E7.00477
G1 X29.033 Y19.385 E7.05044
G1 X28.217 Y19.770 E7.09487
G1 X27.345 Y19.943 E7.13860
G1 X27.260 Y19.567 F9000.000
G1 X26.429 Y19.514 E7.17958 F600.000
G1 X25.639 Y19.258 E7.22046
G1 X24.936 Y18.811 E7.26144
G1 X24.358 Y18.187 E7.30333
G1 X23.970 Y17.480 E7.34304
G1 X23.763 Y16.675 E7.38390
G1 X23.763 Y15.845 E7.42478
G1 X23.970 Y15.040 E7.46564
G1 X24.370 Y14.313 E7.50652
G1 X24.938 Y13.707 E7.54739
G1 X25.641 Y13.261 E7.58837
G1 X26.453 Y13.004 E7.63026
G1 X27.258 Y12.954 E7.66997 F600.000
G1 X28.074 Y13.109 E7.71084
G1 X28.825 Y13.463 E7.75171
G1 X29.465 Y13.992 E7.79258
G1 X29.953 Y14.664 E7.83345
G1 X30.259 Y15.436 E7.87432
G1 X30.363 Y16.260 E7.91519
G1 X30.259 Y17.084 E7.95606
G1 X29.953 Y17.856 E7.99693
G1 X29.465 Y18.528 E8.03780
G1 X28.825 Y19.057 E8.07868
G1 X28.095 Y19.401 E8.11838
G1 X27.319 Y19.555 E8.15731
G1 X27.235 Y19.179 F9000.000
G1 X26.502 Y19.132 E8.19343 F600.000
G1 X25.805 Y18.906 E8.22951
G1 X25.185 Y18.513 E8.26563
G1 X24.674 Y17.959 E8.30272
G1 X24.331 Y17.336 E8.33771
G1 X24.149 Y16.627 E8.37378
G1 X24.149 Y15.893 E8.40986
G1 X24.331 Y15.184 E8.44593
G1 X24.684 Y14.541 E8.48201
G1 X25.186 Y14.007 E8.51808
G1 X25.806 Y13.614 E8.55420
G1 X26.524 Y13.386 E8.59129
G1 X27.234 Y13.341 E8.62628 F600.000
G1 X27.954 Y13.479 E8.66236
G1 X28.617 Y13.791 E8.69843
G1 X29.182 Y14.258 E8.73451
G1 X29.613 Y14.851 E8.77058
G1 X29.882 Y15.533 E8.80666
G1 X29.974 Y16.260 E8.84273
G1 X29.882 Y16.987 E8.87881
G1 X29.613 Y17.669 E8.91488
G1 X29.182 Y18.262 E8.95096
G1 X28.617 Y18.729 E8.98704
G1 X27.974 Y19.032 E9.02202
G1 X27.293 Y19.167 E9.05616
G1 X27.043 Y19.530 F9000.000
G1 E3.05616 F1800.00000
G92 E0
G1 X153.378 Y16.724 F9000.000
G1 E6.00000 F1800.00000
G1 X153.378 Y15.796 E6.04567 F600.000
G1 X153.608 Y14.897 E6.09133
G1 X154.055 Y14.084 E6.13700
G1 X154.690 Y13.408 E6.18266
G1 X155.477 Y12.909 E6.22852
G1 X156.381 Y12.622 E6.27520
G1 X157.282 Y12.566 E6.31963 F600.000
G1 X158.194 Y12.740 E6.36530
G1 X159.033 Y13.135 E6.41096
G1 X159.748 Y13.726 E6.45663
G1 X160.294 Y14.477 E6.50229
G1 X160.626 Y15.316 E6.54672
G1 X160.753 Y16.260 E6.59359
G1 X160.626 Y17.204 E6.64047
G1 X160.294 Y18.043 E6.68489
G1 X159.748 Y18.794 E6.73056
G1 X159.033 Y19.385 E6.77623
G1 X158.217 Y19.770 E6.82065
G1 X157.286 Y19.955 E6.86733
G1 X156.356 Y19.896 E6.91319
G1 X155.474 Y19.609 E6.95886
G1 X154.687 Y19.110 E7.00471
G1 X154.043 Y18.414 E7.05139
G1 X153.608 Y17.623 E7.09582
G1 X153.392 Y16.782 E7.13853
G1 X153.763 Y16.675 F9000.000
G1 X153.763 Y15.845 E7.17941 F600.000
G1 X153.970 Y15.040 E7.22027
G1 X154.370 Y14.313 E7.26115
G1 X154.938 Y13.707 E7.30202
G1 X155.641 Y13.261 E7.34300
G1 X156.453 Y13.004 E7.38489
G1 X157.258 Y12.954 E7.42460 F600.000
G1 X158.074 Y13.109 E7.46547
G1 X158.825 Y13.463 E7.50634
G1 X159.465 Y13.992 E7.54721
G1 X159.953 Y14.664 E7.58808
G1 X160.250 Y15.414 E7.62779
G1 X160.364 Y16.260 E7.66979
G1 X160.250 Y17.106 E7.71180
G1 X159.953 Y17.856 E7.75150
G1 X159.465 Y18.528 E7.79237
G1 X158.825 Y19.057 E7.83324
G1 X158.095 Y19.401 E7.87295
G1 X157.260 Y19.567 E7.91483
G1 X156.429 Y19.514 E7.95582
G1 X155.639 Y19.258 E7.99669
G1 X154.936 Y18.811 E8.03768
G1 X154.358 Y18.187 E8.07957
G1 X153.970 Y17.480 E8.11928
G1 X153.778 Y16.733 E8.15719
G1 X154.149 Y16.627 F9000.000
G1 X154.149 Y15.893 E8.19327 F600.000
G1 X154.331 Y15.184 E8.22934
G1 X154.684 Y14.541 E8.26542
G1 X155.186 Y14.007 E8.30149
G1 X155.806 Y13.614 E8.33761
G1 X156.524 Y13.386 E8.37470
G1 X157.234 Y13.341 E8.40969 F600.000
G1 X157.954 Y13.479 E8.44577
G1 X158.617 Y13.791 E8.48184
G1 X159.182 Y14.258 E8.51792
G1 X159.613 Y14.851 E8.55399
G1 X159.874 Y15.512 E8.58898
G1 X159.975 Y16.260 E8.62611
G1 X159.874 Y17.008 E8.66325
G1 X159.613 Y17.669 E8.69823
G1 X159.182 Y18.262 E8.73430
G1 X158.617 Y18.729 E8.77038
G1 X157.974 Y19.032 E8.80537
G1 X157.234 Y19.179 E8.84246
G1 X156.502 Y19.133 E8.87858
G1 X155.805 Y18.906 E8.91465
G1 X155.185 Y18.513 E8.95077
G1 X154.674 Y17.959 E8.98786
G1 X154.331 Y17.336 E9.02285
G1 X154.164 Y16.685 E9.05597
G1 X153.787 Y16.456 F9000.000
G1 X156.381 Y47.622 F9000.000
G1 X157.282 Y47.566 E9.10040 F600.000
G1 X158.194 Y47.740 E9.14607
G1 X159.033 Y48.135 E9.19173
G1 X159.748 Y48.726 E9.23740
G1 X160.294 Y49.477 E9.28306
G1 X160.626 Y50.316 E9.32749
G1 X160.753 Y51.260 E9.37436
G1 X160.626 Y52.204 E9.42123
G1 X160.294 Y53.043 E9.46566
G1 X159.748 Y53.794 E9.51132
G1 X159.033 Y54.385 E9.55699
G1 X158.194 Y54.780 E9.60266
G1 X157.282 Y54.954 E9.64832
G1 X156.356 Y54.896 E9.69399
G1 X155.474 Y54.609 E9.73966
G1 X154.687 Y54.110 E9.78551
G1 X154.043 Y53.414 E9.83219
G1 X153.608 Y52.623 E9.87662
G1 X153.378 Y51.724 E9.92228
G1 X153.378 Y50.796 E9.96795
G1 X153.608 Y49.897 E10.01362
G1 X154.055 Y49.084 E10.05928
G1 X154.690 Y48.408 E10.10495
G1 X155.477 Y47.909 E10.15080
G1 X156.324 Y47.640 E10.19453
G1 X156.453 Y48.004 F9000.000
G1 X157.258 Y47.954 E10.23424 F600.000
G1 X158.074 Y48.109 E10.27511
G1 X158.825 Y48.463 E10.31598
G1 X159.465 Y48.992 E10.35685
G1 X159.953 Y49.664 E10.39772
G1 X160.250 Y50.414 E10.43743
G1 X160.364 Y51.260 E10.47943
G1 X160.250 Y52.106 E10.52144
G1 X159.953 Y52.856 E10.56114
G1 X159.465 Y53.528 E10.60201
G1 X158.825 Y54.057 E10.64289
G1 X158.074 Y54.411 E10.68375
G1 X157.258 Y54.566 E10.72462
G1 X156.429 Y54.514 E10.76550
G1 X155.639 Y54.258 E10.80637
G1 X154.936 Y53.811 E10.84735
G1 X154.358 Y53.187 E10.88924
G1 X153.970 Y52.480 E10.92895
G1 X153.763 Y51.675 E10.96982
G1 X153.763 Y50.845 E11.01069
G1 X153.970 Y50.040 E11.05156
G1 X154.370 Y49.313 E11.09243
G1 X154.938 Y48.707 E11.13330
G1 X155.641 Y48.261 E11.17429
G1 X156.396 Y48.022 E11.21322
G1 X156.524 Y48.386 F9000.000
G1 X157.234 Y48.341 E11.24821 F600.000
G1 X157.954 Y48.479 E11.28428
G1 X158.617 Y48.791 E11.32036
G1 X159.182 Y49.258 E11.35644
G1 X159.613 Y49.851 E11.39251
G1 X159.874 Y50.512 E11.42749
G1 X159.975 Y51.260 E11.46463
G1 X159.874 Y52.008 E11.50176
G1 X159.613 Y52.669 E11.53675
G1 X159.182 Y53.262 E11.57282
G1 X158.617 Y53.729 E11.60890
G1 X157.954 Y54.041 E11.64497
G1 X157.234 Y54.179 E11.68105
G1 X156.502 Y54.132 E11.71713
G1 X155.805 Y53.906 E11.75320
G1 X155.185 Y53.513 E11.78932
G1 X154.674 Y52.959 E11.82641
G1 X154.331 Y52.336 E11.86140
G1 X154.149 Y51.627 E11.89747
G1 X154.149 Y50.893 E11.93355
G1 X154.331 Y50.184 E11.96962
G1 X154.684 Y49.541 E12.00570
G1 X155.186 Y49.007 E12.04178
G1 X155.806 Y48.614 E12.07789
G1 X156.467 Y48.404 E12.11203
G1 X156.672 Y48.015 F9000.000
G1 X163.604 Y48.386 F9000.000
G1 X163.604 Y52.764 E12.32748 F600.000
G1 X163.564 Y52.764 E12.32942
G1 X163.564 Y54.261 E12.40310
G1 X163.315 Y55.231 E12.45239
G1 X162.833 Y56.109 E12.50169
G1 X162.147 Y56.839 E12.55098
G1 X161.301 Y57.376 E12.60027
G1 X160.349 Y57.685 E12.64957
G1 X159.099 Y57.764 E12.71122
G1 X25.596 Y57.764 E19.28155
G1 X25.596 Y57.724 E19.28349
G1 X24.099 Y57.724 E19.35716
G1 X23.129 Y57.475 E19.40646
G1 X22.251 Y56.993 E19.45575
G1 X21.521 Y56.307 E19.50505
G1 X20.984 Y55.461 E19.55434
G1 X20.675 Y54.509 E19.60364
G1 X20.596 Y53.259 E19.66528
G1 X20.596 Y14.756 E21.56018
G1 X20.636 Y14.756 E21.56212
G1 X20.636 Y13.259 E21.63580
G1 X20.885 Y12.289 E21.68509
G1 X21.367 Y11.411 E21.73439
G1 X22.053 Y10.681 E21.78369
G1 X22.899 Y10.144 E21.83298
G1 X23.851 Y9.835 E21.88228
