; generated by Slic3r 1.2.9 on 2018-05-30 at 20:41:08

; external perimeters extrusion width = 0.40mm
; perimeters extrusion width = 0.62mm
; infill extrusion width = 0.33mm
; solid infill extrusion width = 0.62mm
; top infill extrusion width = 0.20mm

M106 S256; Turn on fan to 100% power
M104 S140; turn on extruder temperature at S value
M140 S60; turn on bed temperature at S value
G28; home all axes
M84; disable motors
G1 Z15 F15000; have Z move to 20mm at 15000 mm/min
M190 S55; turn on bed temperature at S value and wait
M140 S55; turn on bed temperature at S value (printing temperature)
M109 S200; turn on extruder temperature at S value and wait (printing temperature)
M104 S200; turn on extruder temperature at S value
G1 Z0 F12000; move Z back to home
G21 ; set units to millimeters
G90 ; use absolute coordinates
M82 ; use absolute distances for extrusion
G92 E0
M106 S255
;Layer change
G1 E-6.00000 F1800.00000
G92 E0
G1 Z0.300 F9000.000
G1 X103.014 Y6.790 F9000.000
G1 E6.00000 F1800.00000
G1 X103.406 Y5.480 E6.06650 F600.000
G1 X104.452 Y4.601 E6.13300
G1 X105.400 Y4.404 E6.18009
G1 X155.400 Y4.404 E8.61264
G1 X156.710 Y4.796 E8.67914
G1 X157.589 Y5.842 E8.74565 F600.000
G1 X157.786 Y6.790 E8.79273
G1 X157.786 Y29.790 E9.91171
G1 X157.394 Y31.100 E9.97821
G1 X156.348 Y31.979 E10.04471
G1 X155.400 Y32.176 E10.09180
G1 X135.400 Y32.176 E11.06482
G1 X135.008 Y32.143 E11.08396
G1 X105.008 Y27.143 E12.56363
G1 X103.780 Y26.542 E12.63013
G1 X103.014 Y24.790 E12.72314
G1 X103.014 Y6.850 E13.59594
G1 E7.59594 F1800.00000
G92 E0
G1 X147.113 Y27.074 F9000.000
G1 E6.00000 F1800.00000
G1 X147.113 Y27.506 E6.02106 F600.000
G1 X147.007 Y27.919 E6.04177
G1 X146.909 Y28.128 E6.05300
G1 X146.663 Y28.466 E6.07336
G1 X146.495 Y28.624 E6.08460
G1 X146.141 Y28.849 E6.10496
G1 X145.927 Y28.934 E6.11620
G1 X145.515 Y29.012 E6.13656
G1 X145.285 Y29.012 E6.14779
G1 X144.867 Y28.932 E6.16849
G1 X144.490 Y28.756 E6.18871
G1 X144.300 Y28.620 E6.20009
G1 X144.130 Y28.458 E6.21148
G1 X143.891 Y28.127 E6.23136
G1 X143.793 Y27.919 E6.24258
G1 X143.687 Y27.506 E6.26329
G1 X143.687 Y27.074 E6.28435
G1 X143.793 Y26.661 E6.30506
G1 X143.891 Y26.452 E6.31629
G1 X144.137 Y26.114 E6.33665
G1 X144.305 Y25.956 E6.34789
G1 X144.659 Y25.731 E6.36825
G1 X144.873 Y25.646 E6.37949
G1 X145.285 Y25.568 E6.39985
G1 X145.515 Y25.568 E6.41108 F600.000
G1 X145.933 Y25.648 E6.43178
G1 X146.310 Y25.824 E6.45200
G1 X146.499 Y25.960 E6.46335
G1 X146.663 Y26.114 E6.47428
G1 X146.909 Y26.452 E6.49464
G1 X147.007 Y26.661 E6.50587
G1 X147.098 Y27.015 E6.52366
G1 X147.475 Y27.244 F9000.000
G1 E0.52366 F1800.00000
G92 E0
G1 X140.113 Y27.074 F9000.000
G1 E6.00000 F1800.00000
G1 X140.113 Y27.506 E6.02106 F600.000
G1 X140.007 Y27.919 E6.04177
G1 X139.909 Y28.128 E6.05300
G1 X139.663 Y28.466 E6.07336
G1 X139.495 Y28.624 E6.08460
G1 X139.141 Y28.849 E6.10496
G1 X138.927 Y28.934 E6.11620
G1 X138.515 Y29.012 E6.13656
G1 X138.285 Y29.012 E6.14779
G1 X137.866 Y28.932 E6.16850
G1 X137.481 Y28.751 E6.18921
G1 X137.300 Y28.620 E6.20010
G1 X137.137 Y28.466 E6.21099
G1 X136.891 Y28.128 E6.23135
G1 X136.793 Y27.919 E6.24258
G1 X136.687 Y27.506 E6.26330
G1 X136.687 Y27.074 E6.28435
G1 X136.793 Y26.661 E6.30507
G1 X136.891 Y26.452 E6.31630
G1 X137.137 Y26.114 E6.33666
G1 X137.305 Y25.956 E6.34790
G1 X137.659 Y25.731 E6.36826
G1 X137.873 Y25.646 E6.37949
G1 X138.285 Y25.568 E6.39985
G1 X138.515 Y25.568 E6.41109 F600.000
G1 X138.933 Y25.648 E6.43179
G1 X139.310 Y25.824 E6.45201
G1 X139.499 Y25.960 E6.46336
G1 X139.663 Y26.114 E6.47428
G1 X139.909 Y26.452 E6.49465
G1 X140.007 Y26.661 E6.50588
G1 X140.098 Y27.015 E6.52367
G1 X140.475 Y27.244 F9000.000
G1 E0.52367 F1800.00000
G92 E0
G1 X150.687 Y27.074 F9000.000
G1 E6.00000 F1800.00000
G1 X150.793 Y26.661 E6.02071 F600.000
G1 X150.891 Y26.452 E6.03194
G1 X151.137 Y26.114 E6.05231
G1 X151.305 Y25.956 E6.06355
G1 X151.659 Y25.731 E6.08390
G1 X151.873 Y25.646 E6.09514
G1 X152.285 Y25.568 E6.11550
G1 X152.515 Y25.568 E6.12673 F600.000
G1 X152.933 Y25.648 E6.14743
G1 X153.310 Y25.824 E6.16765
G1 X153.499 Y25.960 E6.17900
G1 X153.663 Y26.114 E6.18993
G1 X153.909 Y26.452 E6.21029
G1 X154.007 Y26.661 E6.22152
G1 X154.113 Y27.074 E6.24223
G1 X154.113 Y27.506 E6.26329
G1 X154.007 Y27.919 E6.28400
G1 X153.909 Y28.128 E6.29524
G1 X153.663 Y28.466 E6.31560
G1 X153.495 Y28.624 E6.32684
G1 X153.141 Y28.849 E6.34719
G1 X152.927 Y28.934 E6.35843
G1 X152.515 Y29.012 E6.37879
G1 X152.285 Y29.012 E6.39003
G1 X151.867 Y28.932 E6.41073
G1 X151.490 Y28.756 E6.43095
G1 X151.301 Y28.620 E6.44230
G1 X151.137 Y28.466 E6.45322
G1 X150.891 Y28.128 E6.47358
G1 X150.793 Y27.919 E6.48482
G1 X150.687 Y27.506 E6.50553
G1 X150.687 Y27.134 E6.52367
G1 X150.379 Y26.819 F9000.000
G1 X111.809 Y16.441 F9000.000
G1 X111.591 Y16.990 E6.55241 F600.000
G1 X111.275 Y17.432 E6.57886
G1 X110.976 Y17.727 E6.59929
G1 X110.491 Y18.034 E6.62722
G1 X110.141 Y18.173 E6.64552
G1 X109.588 Y18.278 E6.67292
G1 X109.212 Y18.278 E6.69121
G1 X108.628 Y18.167 E6.72015
G1 X108.090 Y17.914 E6.74908
G1 X107.785 Y17.693 E6.76738
G1 X107.378 Y17.259 E6.79632
G1 X107.086 Y16.728 E6.82580
G1 X106.965 Y16.326 E6.84623
G1 X106.902 Y15.790 E6.87248
G1 X106.965 Y15.254 E6.89873
G1 X107.086 Y14.852 E6.91916
G1 X107.363 Y14.349 E6.94710
G1 X107.583 Y14.083 E6.96386
G1 X107.834 Y13.847 E6.98063
G1 X108.335 Y13.529 E7.00952
G1 X108.897 Y13.346 E7.03828
G1 X109.243 Y13.302 E7.05527
G1 X109.588 Y13.302 E7.07203 F600.000
G1 X110.172 Y13.413 E7.10097
G1 X110.710 Y13.666 E7.12990
G1 X111.015 Y13.887 E7.14820
G1 X111.400 Y14.298 E7.17560
G1 X111.591 Y14.598 E7.19291
G1 X111.748 Y14.953 E7.21179
G1 X111.879 Y15.481 E7.23824
G1 X111.879 Y16.072 E7.26699
G1 X111.820 Y16.382 E7.28236
G1 X111.437 Y16.333 F9000.000
G1 X111.250 Y16.804 E7.30704 F600.000
G1 X110.981 Y17.181 E7.32955
G1 X110.735 Y17.423 E7.34636
G1 X110.315 Y17.689 E7.37054
G1 X110.033 Y17.801 E7.38529
G1 X109.552 Y17.893 E7.40914
G1 X109.248 Y17.893 E7.42389
G1 X108.748 Y17.797 E7.44868
G1 X108.287 Y17.580 E7.47347
G1 X108.041 Y17.402 E7.48822
G1 X107.693 Y17.031 E7.51302
G1 X107.444 Y16.578 E7.53814
G1 X107.344 Y16.247 E7.55495
G1 X107.290 Y15.790 E7.57734
G1 X107.344 Y15.333 E7.59974
G1 X107.444 Y15.002 E7.61655
G1 X107.683 Y14.566 E7.64073
G1 X107.864 Y14.348 E7.65454
G1 X108.071 Y14.153 E7.66835
G1 X108.501 Y13.881 E7.69312
G1 X108.982 Y13.723 E7.71773
G1 X109.268 Y13.687 E7.73175
G1 X109.552 Y13.687 E7.74556 F600.000
G1 X110.052 Y13.783 E7.77035
G1 X110.513 Y14.000 E7.79514
G1 X110.759 Y14.178 E7.80989
G1 X111.094 Y14.535 E7.83375
G1 X111.250 Y14.781 E7.84789
G1 X111.382 Y15.079 E7.86375
G1 X111.494 Y15.528 E7.88626
G1 X111.494 Y16.035 E7.91094
G1 X111.448 Y16.274 E7.92277
G1 X111.065 Y16.225 F9000.000
G1 X110.909 Y16.619 E7.94338 F600.000
G1 X110.687 Y16.929 E7.96195
G1 X110.494 Y17.119 E7.97514
G1 X110.139 Y17.344 E7.99556
G1 X109.925 Y17.429 E8.00677
G1 X109.515 Y17.507 E8.02707
G1 X109.285 Y17.507 E8.03827
G1 X108.868 Y17.428 E8.05892
G1 X108.484 Y17.247 E8.07957
G1 X108.298 Y17.111 E8.09078
G1 X108.007 Y16.802 E8.11142
G1 X107.801 Y16.428 E8.13220
G1 X107.723 Y16.168 E8.14539
G1 X107.678 Y15.790 E8.16392
G1 X107.723 Y15.412 E8.18245
G1 X107.801 Y15.152 E8.19564
G1 X108.004 Y14.784 E8.21607
G1 X108.146 Y14.612 E8.22692
G1 X108.309 Y14.459 E8.23778
G1 X108.667 Y14.232 E8.25842
G1 X109.067 Y14.101 E8.27889
G1 X109.292 Y14.073 E8.28994
G1 X109.515 Y14.073 E8.30079 F600.000
G1 X109.932 Y14.152 E8.32144
G1 X110.316 Y14.333 E8.34209
G1 X110.502 Y14.469 E8.35330
G1 X110.788 Y14.773 E8.37360
G1 X110.909 Y14.963 E8.38458
G1 X111.016 Y15.205 E8.39742
G1 X111.108 Y15.575 E8.41600
G1 X111.108 Y15.999 E8.43660
G1 X111.076 Y16.166 E8.44489
G1 X111.333 Y16.522 F9000.000
G1 E2.44489 F1800.00000
G92 E0
G1 X122.515 Y15.790 F9000.000
G1 E6.00000 F1800.00000
G1 X122.554 Y15.178 E6.02985 F600.000
G1 X122.669 Y14.575 E6.05969
G1 X122.858 Y13.992 E6.08952
G1 X123.120 Y13.437 E6.11937
G1 X123.448 Y12.919 E6.14921
G1 X123.839 Y12.446 E6.17906
G1 X124.286 Y12.026 E6.20890
G1 X124.783 Y11.666 E6.23874
G1 X125.320 Y11.370 E6.26858
G1 X125.891 Y11.144 E6.29843
G1 X126.485 Y10.992 E6.32828
G1 X127.093 Y10.915 E6.35811
G1 X127.707 Y10.915 E6.38796 F600.000
G1 X128.315 Y10.992 E6.41780
G1 X128.909 Y11.144 E6.44765
G1 X129.480 Y11.370 E6.47749
G1 X130.017 Y11.666 E6.50733
G1 X130.513 Y12.026 E6.53716
G1 X130.960 Y12.445 E6.56693
G1 X131.352 Y12.919 E6.59687
G1 X131.680 Y13.437 E6.62671
G1 X131.942 Y13.992 E6.65655
G1 X132.132 Y14.579 E6.68659
G1 X132.248 Y15.204 E6.71749
G1 X132.285 Y15.790 E6.74607
G1 X132.246 Y16.402 E6.77592
G1 X132.131 Y17.005 E6.80576
G1 X131.942 Y17.588 E6.83559
G1 X131.680 Y18.143 E6.86543
G1 X131.352 Y18.661 E6.89528
G1 X130.961 Y19.134 E6.92513
G1 X130.514 Y19.554 E6.95497
G1 X130.017 Y19.914 E6.98481
G1 X129.480 Y20.210 E7.01465
G1 X128.909 Y20.436 E7.04450
G1 X128.315 Y20.588 E7.07434
G1 X127.707 Y20.665 E7.10418
G1 X127.093 Y20.665 E7.13403
G1 X126.485 Y20.588 E7.16387
G1 X125.891 Y20.436 E7.19372
G1 X125.320 Y20.210 E7.22356
G1 X124.783 Y19.914 E7.25340
G1 X124.286 Y19.554 E7.28324
G1 X123.839 Y19.134 E7.31309
G1 X123.448 Y18.661 E7.34293
G1 X123.120 Y18.143 E7.37278
G1 X122.858 Y17.588 E7.40262
G1 X122.668 Y17.001 E7.43266
G1 X122.552 Y16.376 E7.46356
G1 X122.519 Y15.850 E7.48922
G1 X122.902 Y15.790 F9000.000
G1 X122.937 Y15.226 E7.51671 F600.000
G1 X123.043 Y14.671 E7.54419
G1 X123.218 Y14.134 E7.57166
G1 X123.458 Y13.623 E7.59914
G1 X123.761 Y13.146 E7.62663
G1 X124.121 Y12.711 E7.65411
G1 X124.533 Y12.324 E7.68160
G1 X124.990 Y11.992 E7.70908
G1 X125.485 Y11.720 E7.73656
G1 X126.010 Y11.512 E7.76404
G1 X126.557 Y11.371 E7.79153
G1 X127.117 Y11.301 E7.81900
G1 X127.682 Y11.301 E7.84649 F600.000
G1 X128.243 Y11.371 E7.87397
G1 X128.790 Y11.512 E7.90146
G1 X129.315 Y11.720 E7.92894
G1 X129.810 Y11.992 E7.95642
G1 X130.267 Y12.324 E7.98389
G1 X130.678 Y12.709 E8.01130
G1 X131.039 Y13.146 E8.03887
G1 X131.342 Y13.623 E8.06636
G1 X131.582 Y14.134 E8.09384
G1 X131.758 Y14.674 E8.12146
G1 X131.864 Y15.251 E8.15000
G1 X131.898 Y15.790 E8.17627
G1 X131.863 Y16.354 E8.20376
G1 X131.757 Y16.909 E8.23124
G1 X131.582 Y17.446 E8.25871
G1 X131.342 Y17.957 E8.28620
G1 X131.039 Y18.434 E8.31368
G1 X130.679 Y18.869 E8.34116
G1 X130.267 Y19.256 E8.36865
G1 X129.810 Y19.588 E8.39613
G1 X129.315 Y19.860 E8.42361
G1 X128.790 Y20.068 E8.45109
G1 X128.243 Y20.209 E8.47858
G1 X127.683 Y20.279 E8.50606
G1 X127.117 Y20.279 E8.53355
G1 X126.557 Y20.209 E8.56102
G1 X126.010 Y20.068 E8.58851
G1 X125.485 Y19.860 E8.61599
G1 X124.990 Y19.588 E8.64347
G1 X124.533 Y19.256 E8.67095
G1 X124.121 Y18.869 E8.69844
G1 X123.761 Y18.434 E8.72592
G1 X123.458 Y17.957 E8.75341
G1 X123.218 Y17.446 E8.78089
G1 X123.042 Y16.906 E8.80851
G1 X122.936 Y16.329 E8.83705
G1 X122.906 Y15.850 E8.86041
G1 X123.288 Y15.790 F9000.000
G1 X123.321 Y15.275 E8.88553 F600.000
G1 X123.417 Y14.767 E8.91065
G1 X123.577 Y14.276 E8.93577
G1 X123.797 Y13.809 E8.96089
G1 X124.073 Y13.373 E8.98601
G1 X124.403 Y12.975 E9.01113
G1 X124.779 Y12.622 E9.03626
G1 X125.197 Y12.318 E9.06138
G1 X125.649 Y12.070 E9.08650
G1 X126.129 Y11.879 E9.11162
G1 X126.630 Y11.751 E9.13675
G1 X127.142 Y11.686 E9.16186
G1 X127.658 Y11.686 E9.18699 F600.000
G1 X128.170 Y11.751 E9.21211
G1 X128.671 Y11.879 E9.23723
G1 X129.151 Y12.070 E9.26235
G1 X129.603 Y12.318 E9.28748
G1 X130.021 Y12.622 E9.31259
G1 X130.396 Y12.974 E9.33764
G1 X130.727 Y13.373 E9.36284
G1 X131.003 Y13.809 E9.38797
G1 X131.223 Y14.276 E9.41309
G1 X131.383 Y14.769 E9.43829
G1 X131.481 Y15.298 E9.46447
G1 X131.512 Y15.790 E9.48844
G1 X131.479 Y16.305 E9.51357
G1 X131.383 Y16.813 E9.53869
G1 X131.223 Y17.304 E9.56380
G1 X131.003 Y17.771 E9.58892
G1 X130.727 Y18.207 E9.61405
G1 X130.397 Y18.605 E9.63917
G1 X130.021 Y18.958 E9.66429
G1 X129.603 Y19.262 E9.68941
G1 X129.151 Y19.510 E9.71454
G1 X128.671 Y19.701 E9.73966
G1 X128.170 Y19.829 E9.76478
G1 X127.658 Y19.894 E9.78990
G1 X127.142 Y19.894 E9.81503
G1 X126.630 Y19.829 E9.84014
G1 X126.129 Y19.701 E9.86527
G1 X125.649 Y19.510 E9.89039
G1 X125.197 Y19.262 E9.91551
G1 X124.779 Y18.958 E9.94063
G1 X124.403 Y18.605 E9.96576
G1 X124.073 Y18.207 E9.99088
G1 X123.797 Y17.771 E10.01600
G1 X123.577 Y17.304 E10.04112
G1 X123.417 Y16.811 E10.06633
G1 X123.319 Y16.282 E10.09251
G1 X123.292 Y15.850 E10.11356
G1 X123.675 Y15.790 F9000.000
G1 X123.704 Y15.323 E10.13632 F600.000
G1 X123.792 Y14.864 E10.15908
G1 X123.936 Y14.419 E10.18184
G1 X124.135 Y13.995 E10.20460
G1 X124.386 Y13.600 E10.22736
G1 X124.684 Y13.240 E10.25012
G1 X125.025 Y12.919 E10.27289
G1 X125.404 Y12.645 E10.29565
G1 X125.814 Y12.419 E10.31841
G1 X126.249 Y12.247 E10.34117
G1 X126.702 Y12.131 E10.36393
G1 X127.166 Y12.072 E10.38669
G1 X127.634 Y12.072 E10.40945 F600.000
G1 X128.098 Y12.131 E10.43221
G1 X128.551 Y12.247 E10.45498
G1 X128.986 Y12.419 E10.47774
G1 X129.396 Y12.645 E10.50050
G1 X129.775 Y12.919 E10.52326
G1 X130.115 Y13.239 E10.54595
G1 X130.414 Y13.600 E10.56878
G1 X130.665 Y13.995 E10.59155
G1 X130.864 Y14.419 E10.61431
G1 X131.009 Y14.864 E10.63710
G1 X131.097 Y15.346 E10.66092
G1 X131.125 Y15.790 E10.68258
G1 X131.096 Y16.257 E10.70534
G1 X131.008 Y16.716 E10.72810
G1 X130.864 Y17.161 E10.75086
G1 X130.665 Y17.585 E10.77362
G1 X130.414 Y17.980 E10.79638
G1 X130.116 Y18.340 E10.81914
G1 X129.775 Y18.661 E10.84191
G1 X129.396 Y18.935 E10.86467
G1 X128.986 Y19.161 E10.88743
G1 X128.551 Y19.333 E10.91019
G1 X128.098 Y19.449 E10.93295
G1 X127.634 Y19.508 E10.95571
G1 X127.166 Y19.508 E10.97848
G1 X126.702 Y19.449 E11.00123
G1 X126.249 Y19.333 E11.02400
G1 X125.814 Y19.161 E11.04676
G1 X125.404 Y18.935 E11.06952
G1 X125.025 Y18.661 E11.09228
G1 X124.684 Y18.340 E11.11504
G1 X124.386 Y17.980 E11.13780
G1 X124.135 Y17.585 E11.16057
G1 X123.936 Y17.161 E11.18333
G1 X123.791 Y16.716 E11.20612
G1 X123.703 Y16.234 E11.22994
G1 X123.678 Y15.850 E11.24868
G1 X123.332 Y15.583 F9000.000
G1 E5.24868 F1800.00000
G92 E0
G1 X132.518 Y18.422 F9000.000
G1 E6.00000 F1800.00000
G1 X132.518 Y13.158 E6.25609 F600.000
G1 X137.282 Y13.158 E6.48784
G1 X137.282 Y18.422 E6.74393
G1 X132.578 Y18.422 E6.97277
G1 X132.904 Y18.036 F9000.000
G1 X132.904 Y13.544 E7.19133 F600.000
G1 X136.896 Y13.544 E7.38557
G1 X136.896 Y18.036 E7.60414
G1 X132.964 Y18.036 E7.79545
G1 X133.289 Y17.651 F9000.000
G1 X133.289 Y13.929 E7.97650 F600.000
G1 X136.511 Y13.929 E8.13321
G1 X136.511 Y17.651 E8.31426
G1 X133.349 Y17.651 E8.46805
G1 X133.675 Y17.265 F9000.000
G1 X133.675 Y14.315 E8.61157 F600.000
G1 X136.125 Y14.315 E8.73077
G1 X136.125 Y17.265 E8.87429
G1 X133.735 Y17.265 E8.99056
G1 X133.275 Y17.265 F9000.000
G1 E2.99056 F1800.00000
G92 E0
G1 X142.535 Y16.147 F9000.000
G1 E6.00000 F1800.00000
G1 X142.535 Y15.472 E6.03282 F600.000
G1 X142.619 Y15.031 E6.05466
G1 X142.867 Y14.404 E6.08748
G1 X143.231 Y13.896 E6.11786
G1 X143.583 Y13.549 E6.14192
G1 X144.133 Y13.201 E6.17360
G1 X144.551 Y13.035 E6.19544
G1 X145.176 Y12.916 E6.22639
G1 X145.624 Y12.916 E6.24823 F600.000
G1 X146.287 Y13.042 E6.28105
G1 X146.854 Y13.304 E6.31142
G1 X147.237 Y13.569 E6.33408
G1 X147.569 Y13.896 E6.35675
G1 X147.916 Y14.381 E6.38575
G1 X148.114 Y14.827 E6.40954
G1 X148.265 Y15.433 E6.43991
G1 X148.265 Y16.108 E6.47274
G1 X148.181 Y16.549 E6.49458
G1 X147.933 Y17.176 E6.52740
G1 X147.569 Y17.684 E6.55778
G1 X147.217 Y18.031 E6.58183
G1 X146.667 Y18.379 E6.61351
G1 X146.249 Y18.545 E6.63536
G1 X145.624 Y18.664 E6.66630
G1 X145.176 Y18.664 E6.68814
G1 X144.513 Y18.538 E6.72096
G1 X143.946 Y18.276 E6.75134
G1 X143.563 Y18.011 E6.77399
G1 X143.231 Y17.684 E6.79667
G1 X142.884 Y17.199 E6.82566
G1 X142.686 Y16.753 E6.84945
G1 X142.549 Y16.205 E6.87691
G1 X142.921 Y16.099 F9000.000
G1 X142.921 Y15.508 E6.90566 F600.000
G1 X142.991 Y15.139 E6.92395
G1 X143.208 Y14.590 E6.95270
G1 X143.525 Y14.147 E6.97915
G1 X143.824 Y13.853 E6.99958
G1 X144.309 Y13.546 E7.02751
G1 X144.659 Y13.407 E7.04581
G1 X145.212 Y13.302 E7.07320
G1 X145.588 Y13.302 E7.09150 F600.000
G1 X146.168 Y13.412 E7.12025
G1 X146.662 Y13.640 E7.14669
G1 X146.990 Y13.868 E7.16611
G1 X147.275 Y14.147 E7.18555
G1 X147.580 Y14.573 E7.21100
