; generated by Slic3r 1.2.9 on 2017-12-16 at 11:42:16

; external perimeters extrusion width = 0.40mm
; perimeters extrusion width = 0.62mm
; infill extrusion width = 0.33mm
; solid infill extrusion width = 0.62mm
; top infill extrusion width = 0.20mm

M106 S256; Turn on fan to 100% power
M104 S140; turn on extruder temperature at S value
M140 S60; turn on bed temperature at S value
G28; home all axes
M84; disable motors
G1 Z15 F15000; have Z move to 20mm at 15000 mm/min
M190 S55; turn on bed temperature at S value and wait
M140 S55; turn on bed temperature at S value (printing temperature)
M109 S200; turn on extruder temperature at S value and wait (printing temperature)
M104 S200; turn on extruder temperature at S value
G1 Z0 F12000; move Z back to home
G21 ; set units to millimeters
G90 ; use absolute coordinates
M82 ; use absolute distances for extrusion
G92 E0
M106 S255
;Layer change
G1 E-6.00000 F1800.00000
G92 E0
G1 Z0.300 F9000.000
G1 X7.451 Y22.618 F9000.000
G1 E6.00000 F1800.00000
G1 X7.735 Y22.525 E6.01489 F600.000
G1 X8.296 Y22.382 E6.04372
G1 X106.253 Y0.561 E11.04042
G1 X106.772 Y0.504 E11.06640
G1 X132.858 Y0.504 E12.36524
G1 X134.545 Y1.203 E12.45615
G1 X168.502 Y35.160 E14.84711 F600.000
G1 X169.201 Y36.847 E14.93802
G1 X169.201 Y62.933 E16.23685
G1 X168.502 Y64.620 E16.32776
G1 X134.545 Y98.577 E18.71872
G1 X132.858 Y99.276 E18.80963
G1 X106.772 Y99.276 E20.10847
G1 X106.253 Y99.219 E20.13445
G1 X8.051 Y77.343 E25.14366
G1 X7.355 Y77.128 E25.17995
G1 X7.078 Y77.018 E25.19477
G1 X6.360 Y76.659 E25.23475
G1 X5.693 Y76.214 E25.27465
G1 X5.088 Y75.689 E25.31453
G1 X4.552 Y75.091 E25.35452
G1 X4.097 Y74.433 E25.39437
G1 X3.728 Y73.722 E25.43425
G1 X3.450 Y72.970 E25.47417
G1 X3.269 Y72.189 E25.51408
G1 X3.189 Y71.467 E25.55023
G1 X3.179 Y28.640 E27.68255
G1 X3.216 Y27.987 E27.71513
G1 X3.254 Y27.692 E27.72991
G1 X3.422 Y26.909 E27.76980
G1 X3.688 Y26.151 E27.80978
G1 X3.902 Y25.697 E27.83479
G1 X4.314 Y25.011 E27.87464
G1 X4.810 Y24.382 E27.91453
G1 X5.015 Y24.163 E27.92945
G1 X5.614 Y23.627 E27.96948
G1 X6.272 Y23.172 E28.00930
G1 X6.712 Y22.930 E28.03430
G1 X7.395 Y22.640 E28.07124
G1 E22.07124 F1800.00000
G92 E0
G1 X117.673 Y87.531 F9000.000
G1 E6.00000 F1800.00000
G1 X117.861 Y87.272 E6.01595 F600.000
G1 X118.089 Y87.032 E6.03241
G1 X118.324 Y86.838 E6.04758
G1 X118.593 Y86.667 E6.06345
G1 X118.881 Y86.531 E6.07930
G1 X119.186 Y86.432 E6.09525
G1 X119.511 Y86.372 E6.11171
G1 X119.815 Y86.353 E6.12688 F600.000
G1 X120.133 Y86.373 E6.14275
G1 X120.446 Y86.433 E6.15861
G1 X120.749 Y86.531 E6.17447
G1 X121.037 Y86.667 E6.19033
G1 X121.306 Y86.838 E6.20619
G1 X121.552 Y87.041 E6.22205
G1 X121.770 Y87.273 E6.23792
G1 X121.957 Y87.531 E6.25377
G1 X122.110 Y87.810 E6.26964
G1 X122.228 Y88.106 E6.28550
G1 X122.307 Y88.415 E6.30136
G1 X122.347 Y88.731 E6.31722
G1 X122.347 Y89.049 E6.33309
G1 X122.307 Y89.365 E6.34894
G1 X122.228 Y89.674 E6.36481
G1 X122.110 Y89.970 E6.38067
G1 X121.957 Y90.249 E6.39653
G1 X121.769 Y90.508 E6.41248
G1 X121.541 Y90.748 E6.42894
G1 X121.306 Y90.942 E6.44411
G1 X121.037 Y91.113 E6.45998
G1 X120.749 Y91.249 E6.47584
G1 X120.446 Y91.347 E6.49170
G1 X120.133 Y91.407 E6.50756
G1 X119.815 Y91.427 E6.52342
G1 X119.497 Y91.407 E6.53928
G1 X119.184 Y91.347 E6.55514
G1 X118.881 Y91.249 E6.57100
G1 X118.593 Y91.113 E6.58686
G1 X118.324 Y90.942 E6.60273
G1 X118.078 Y90.739 E6.61859
G1 X117.860 Y90.507 E6.63445
G1 X117.673 Y90.249 E6.65031
G1 X117.520 Y89.970 E6.66618
G1 X117.402 Y89.674 E6.68203
G1 X117.323 Y89.365 E6.69790
G1 X117.283 Y89.049 E6.71376
G1 X117.283 Y88.731 E6.72962
G1 X117.323 Y88.415 E6.74548
G1 X117.402 Y88.106 E6.76135
G1 X117.520 Y87.810 E6.77720
G1 X117.644 Y87.583 E6.79008
G1 X117.999 Y87.738 F9000.000
G1 X118.158 Y87.519 E6.80356 F600.000
G1 X118.353 Y87.314 E6.81760
G1 X118.551 Y87.150 E6.83041
G1 X118.779 Y87.006 E6.84386
G1 X119.023 Y86.891 E6.85731
G1 X119.281 Y86.807 E6.87078
G1 X119.558 Y86.756 E6.88483
G1 X119.815 Y86.740 E6.89764 F600.000
G1 X120.085 Y86.757 E6.91108
G1 X120.350 Y86.807 E6.92453
G1 X120.607 Y86.891 E6.93797
G1 X120.851 Y87.006 E6.95142
G1 X121.079 Y87.150 E6.96486
G1 X121.287 Y87.322 E6.97831
G1 X121.472 Y87.519 E6.99176
G1 X121.631 Y87.738 E7.00520
G1 X121.761 Y87.974 E7.01865
G1 X121.860 Y88.225 E7.03209
G1 X121.927 Y88.487 E7.04554
G1 X121.961 Y88.755 E7.05899
G1 X121.961 Y89.025 E7.07243
G1 X121.927 Y89.293 E7.08588
G1 X121.860 Y89.555 E7.09933
G1 X121.761 Y89.806 E7.11277
G1 X121.631 Y90.042 E7.12622
G1 X121.472 Y90.261 E7.13969
G1 X121.277 Y90.466 E7.15374
G1 X121.079 Y90.630 E7.16655
G1 X120.851 Y90.774 E7.18000
G1 X120.607 Y90.889 E7.19344
G1 X120.350 Y90.973 E7.20689
G1 X120.085 Y91.023 E7.22033
G1 X119.815 Y91.040 E7.23378
G1 X119.545 Y91.023 E7.24722
G1 X119.280 Y90.973 E7.26067
G1 X119.023 Y90.889 E7.27411
G1 X118.779 Y90.774 E7.28756
G1 X118.551 Y90.630 E7.30100
G1 X118.343 Y90.458 E7.31445
G1 X118.158 Y90.261 E7.32790
G1 X117.999 Y90.042 E7.34134
G1 X117.869 Y89.806 E7.35479
G1 X117.770 Y89.555 E7.36823
G1 X117.703 Y89.293 E7.38168
G1 X117.669 Y89.025 E7.39512
G1 X117.669 Y88.755 E7.40857
G1 X117.703 Y88.487 E7.42202
G1 X117.770 Y88.225 E7.43547
G1 X117.869 Y87.974 E7.44891
G1 X117.970 Y87.790 E7.45937
G1 X117.879 Y87.495 F9000.000
G1 X119.497 Y79.657 F9000.000
G1 X119.184 Y79.597 E7.47523 F600.000
G1 X118.881 Y79.499 E7.49109
G1 X118.593 Y79.363 E7.50695
G1 X118.324 Y79.192 E7.52281
G1 X118.078 Y78.989 E7.53868
G1 X117.860 Y78.757 E7.55454
G1 X117.673 Y78.499 E7.57040
G1 X117.520 Y78.220 E7.58626
G1 X117.402 Y77.924 E7.60212
G1 X117.323 Y77.615 E7.61799
G1 X117.283 Y77.299 E7.63384
G1 X117.283 Y76.981 E7.64971
G1 X117.323 Y76.665 E7.66557
G1 X117.402 Y76.356 E7.68143
G1 X117.520 Y76.060 E7.69729
G1 X117.673 Y75.781 E7.71316
G1 X117.861 Y75.522 E7.72911
G1 X118.089 Y75.282 E7.74556
G1 X118.324 Y75.088 E7.76074
G1 X118.593 Y74.917 E7.77660
G1 X118.881 Y74.781 E7.79246
G1 X119.186 Y74.682 E7.80841
G1 X119.511 Y74.622 E7.82487
G1 X119.815 Y74.603 E7.84004 F600.000
G1 X120.133 Y74.623 E7.85590
G1 X120.446 Y74.683 E7.87176
G1 X120.749 Y74.781 E7.88762
G1 X121.037 Y74.917 E7.90348
G1 X121.306 Y75.088 E7.91934
G1 X121.552 Y75.291 E7.93521
G1 X121.770 Y75.523 E7.95107
G1 X121.957 Y75.781 E7.96693
G1 X122.110 Y76.060 E7.98279
G1 X122.228 Y76.356 E7.99865
G1 X122.307 Y76.665 E8.01452
G1 X122.347 Y76.981 E8.03038
G1 X122.347 Y77.299 E8.04624
G1 X122.307 Y77.615 E8.06210
G1 X122.228 Y77.924 E8.07797
G1 X122.110 Y78.220 E8.09382
G1 X121.957 Y78.499 E8.10969
G1 X121.769 Y78.758 E8.12564
G1 X121.541 Y78.998 E8.14210
G1 X121.306 Y79.192 E8.15727
G1 X121.037 Y79.363 E8.17313
G1 X120.749 Y79.499 E8.18899
G1 X120.446 Y79.597 E8.20485
G1 X120.133 Y79.657 E8.22071
G1 X119.815 Y79.677 E8.23658
G1 X119.557 Y79.661 E8.24945
G1 X119.545 Y79.273 F9000.000
G1 X119.280 Y79.223 E8.26290 F600.000
G1 X119.023 Y79.139 E8.27634
G1 X118.779 Y79.024 E8.28979
G1 X118.551 Y78.880 E8.30323
G1 X118.343 Y78.708 E8.31668
G1 X118.158 Y78.511 E8.33013
G1 X117.999 Y78.292 E8.34357
G1 X117.869 Y78.056 E8.35702
G1 X117.770 Y77.805 E8.37046
G1 X117.703 Y77.543 E8.38391
G1 X117.669 Y77.275 E8.39735
G1 X117.669 Y77.005 E8.41080
G1 X117.703 Y76.737 E8.42424
G1 X117.770 Y76.475 E8.43769
G1 X117.869 Y76.224 E8.45114
G1 X117.999 Y75.988 E8.46458
G1 X118.158 Y75.769 E8.47806
G1 X118.353 Y75.564 E8.49210
G1 X118.551 Y75.400 E8.50492
G1 X118.779 Y75.256 E8.51836
G1 X119.023 Y75.141 E8.53181
G1 X119.281 Y75.057 E8.54529
G1 X119.558 Y75.006 E8.55933
G1 X119.815 Y74.990 E8.57214 F600.000
G1 X120.085 Y75.007 E8.58559
G1 X120.350 Y75.057 E8.59903
G1 X120.607 Y75.141 E8.61248
G1 X120.851 Y75.256 E8.62592
G1 X121.079 Y75.400 E8.63937
G1 X121.287 Y75.572 E8.65281
G1 X121.472 Y75.769 E8.66626
G1 X121.631 Y75.988 E8.67970
G1 X121.761 Y76.224 E8.69315
G1 X121.860 Y76.475 E8.70660
G1 X121.927 Y76.737 E8.72004
G1 X121.961 Y77.005 E8.73349
G1 X121.961 Y77.275 E8.74694
G1 X121.927 Y77.543 E8.76038
G1 X121.860 Y77.805 E8.77383
G1 X121.761 Y78.056 E8.78727
G1 X121.631 Y78.292 E8.80072
G1 X121.472 Y78.511 E8.81420
G1 X121.277 Y78.716 E8.82824
G1 X121.079 Y78.880 E8.84105
G1 X120.851 Y79.024 E8.85450
G1 X120.607 Y79.139 E8.86794
G1 X120.350 Y79.223 E8.88139
G1 X120.085 Y79.273 E8.89483
G1 X119.815 Y79.290 E8.90828
G1 X119.605 Y79.277 E8.91874
G1 X119.378 Y79.485 F9000.000
G1 E2.91874 F1800.00000
G92 E0
G1 X94.182 Y51.845 F9000.000
G1 E6.00000 F1800.00000
G1 X93.924 Y52.032 E6.01586 F600.000
G1 X93.643 Y52.186 E6.03181
G1 X93.335 Y52.306 E6.04827
G1 X93.040 Y52.382 E6.06344
G1 X92.724 Y52.422 E6.07930
G1 X92.406 Y52.422 E6.09517
G1 X92.090 Y52.382 E6.11102
G1 X91.781 Y52.303 E6.12689
G1 X91.485 Y52.185 E6.14275
G1 X91.206 Y52.032 E6.15861
G1 X90.948 Y51.845 E6.17447
G1 X90.716 Y51.627 E6.19033
G1 X90.513 Y51.381 E6.20620
G1 X90.342 Y51.112 E6.22206
G1 X90.206 Y50.824 E6.23792
G1 X90.108 Y50.521 E6.25378
G1 X90.048 Y50.208 E6.26964
G1 X90.028 Y49.890 E6.28550
G1 X90.048 Y49.572 E6.30137
G1 X90.108 Y49.259 E6.31723
G1 X90.206 Y48.956 E6.33309
G1 X90.342 Y48.668 E6.34895
G1 X90.513 Y48.399 E6.36481
G1 X90.716 Y48.153 E6.38068
G1 X90.948 Y47.935 E6.39654
G1 X91.206 Y47.748 E6.41239
G1 X91.487 Y47.594 E6.42835
G1 X91.795 Y47.474 E6.44481
G1 X92.090 Y47.398 E6.45998
G1 X92.406 Y47.358 E6.47584
G1 X92.724 Y47.358 E6.49170 F600.000
G1 X93.040 Y47.398 E6.50756
G1 X93.349 Y47.477 E6.52343
G1 X93.645 Y47.595 E6.53928
G1 X93.924 Y47.748 E6.55515
G1 X94.182 Y47.935 E6.57101
G1 X94.414 Y48.153 E6.58687
G1 X94.617 Y48.399 E6.60273
G1 X94.788 Y48.668 E6.61860
G1 X94.924 Y48.956 E6.63446
G1 X95.022 Y49.259 E6.65032
G1 X95.082 Y49.572 E6.66618
G1 X95.102 Y49.890 E6.68204
G1 X95.082 Y50.208 E6.69790
G1 X95.022 Y50.521 E6.71376
G1 X94.924 Y50.824 E6.72962
G1 X94.788 Y51.112 E6.74548
G1 X94.617 Y51.381 E6.76135
G1 X94.414 Y51.627 E6.77721
G1 X94.226 Y51.804 E6.79009
G1 X93.936 Y51.547 F9000.000
G1 X93.717 Y51.706 E6.80353 F600.000
G1 X93.480 Y51.836 E6.81701
G1 X93.217 Y51.938 E6.83105
G1 X92.968 Y52.002 E6.84386
G1 X92.700 Y52.036 E6.85731
G1 X92.430 Y52.036 E6.87076
G1 X92.162 Y52.002 E6.88420
G1 X91.900 Y51.935 E6.89765
G1 X91.649 Y51.836 E6.91109
G1 X91.413 Y51.706 E6.92454
G1 X91.194 Y51.547 E6.93798
G1 X90.997 Y51.362 E6.95143
G1 X90.825 Y51.154 E6.96488
G1 X90.681 Y50.926 E6.97832
G1 X90.566 Y50.682 E6.99177
G1 X90.482 Y50.425 E7.00521
G1 X90.432 Y50.160 E7.01866
G1 X90.415 Y49.890 E7.03210
G1 X90.432 Y49.620 E7.04555
G1 X90.482 Y49.355 E7.05900
G1 X90.566 Y49.098 E7.07244
G1 X90.681 Y48.854 E7.08588
G1 X90.825 Y48.626 E7.09933
G1 X90.997 Y48.418 E7.11278
G1 X91.194 Y48.233 E7.12623
G1 X91.413 Y48.074 E7.13967
G1 X91.650 Y47.944 E7.15315
G1 X91.913 Y47.842 E7.16719
G1 X92.162 Y47.778 E7.18000
G1 X92.430 Y47.744 E7.19345
G1 X92.700 Y47.744 E7.20690 F600.000
G1 X92.968 Y47.778 E7.22034
G1 X93.230 Y47.845 E7.23379
G1 X93.481 Y47.944 E7.24723
G1 X93.717 Y48.074 E7.26068
G1 X93.936 Y48.233 E7.27412
G1 X94.133 Y48.418 E7.28757
G1 X94.305 Y48.626 E7.30102
G1 X94.449 Y48.854 E7.31446
G1 X94.564 Y49.098 E7.32791
G1 X94.648 Y49.355 E7.34135
G1 X94.698 Y49.620 E7.35480
G1 X94.715 Y49.890 E7.36824
G1 X94.698 Y50.160 E7.38169
G1 X94.648 Y50.425 E7.39514
G1 X94.564 Y50.682 E7.40858
G1 X94.449 Y50.926 E7.42202
G1 X94.305 Y51.154 E7.43547
G1 X94.133 Y51.362 E7.44892
G1 X93.979 Y51.506 E7.45938
G1 X93.975 Y51.814 F9000.000
G1 E1.45938 F1800.00000
G92 E0
G1 X83.332 Y50.208 F9000.000
G1 E6.00000 F1800.00000
G1 X83.272 Y50.521 E6.01586 F600.000
G1 X83.174 Y50.824 E6.03172
G1 X83.038 Y51.112 E6.04758
G1 X82.867 Y51.381 E6.06344
G1 X82.664 Y51.627 E6.07931
G1 X82.432 Y51.845 E6.09517
G1 X82.174 Y52.032 E6.11103
G1 X81.893 Y52.186 E6.12698
G1 X81.585 Y52.306 E6.14344
G1 X81.290 Y52.382 E6.15861
G1 X80.974 Y52.422 E6.17447
G1 X80.656 Y52.422 E6.19034
G1 X80.340 Y52.382 E6.20619
G1 X80.031 Y52.303 E6.22206
G1 X79.735 Y52.185 E6.23792
G1 X79.456 Y52.032 E6.25378
G1 X79.198 Y51.845 E6.26964
G1 X78.966 Y51.627 E6.28550
G1 X78.763 Y51.381 E6.30137
G1 X78.592 Y51.112 E6.31723
G1 X78.456 Y50.824 E6.33309
G1 X78.358 Y50.521 E6.34895
G1 X78.298 Y50.208 E6.36481
G1 X78.278 Y49.890 E6.38067
G1 X78.298 Y49.572 E6.39654
G1 X78.358 Y49.259 E6.41240
G1 X78.456 Y48.956 E6.42826
G1 X78.592 Y48.668 E6.44412
G1 X78.763 Y48.399 E6.45998
G1 X78.966 Y48.153 E6.47585
G1 X79.198 Y47.935 E6.49171
G1 X79.456 Y47.748 E6.50756
G1 X79.737 Y47.594 E6.52352
G1 X80.045 Y47.474 E6.53998
G1 X80.340 Y47.398 E6.55515
G1 X80.656 Y47.358 E6.57101
G1 X80.974 Y47.358 E6.58687 F600.000
G1 X81.290 Y47.398 E6.60273
G1 X81.599 Y47.477 E6.61860
G1 X81.895 Y47.595 E6.63445
G1 X82.174 Y47.748 E6.65032
G1 X82.432 Y47.935 E6.66618
G1 X82.664 Y48.153 E6.68204
G1 X82.867 Y48.399 E6.69790
G1 X83.038 Y48.668 E6.71377
G1 X83.174 Y48.956 E6.72963
G1 X83.272 Y49.259 E6.74549
G1 X83.332 Y49.572 E6.76135
G1 X83.352 Y49.890 E6.77721
G1 X83.336 Y50.148 E6.79009
G1 X82.948 Y50.160 F9000.000
G1 X82.898 Y50.425 E6.80353 F600.000
G1 X82.814 Y50.682 E6.81698
G1 X82.699 Y50.926 E6.83042
G1 X82.555 Y51.154 E6.84387
G1 X82.383 Y51.362 E6.85731
G1 X82.186 Y51.547 E6.87076
G1 X81.967 Y51.706 E6.88420
G1 X81.730 Y51.836 E6.89769
G1 X81.467 Y51.938 E6.91173
G1 X81.218 Y52.002 E6.92454
G1 X80.950 Y52.036 E6.93798
G1 X80.680 Y52.036 E6.95143
G1 X80.412 Y52.002 E6.96488
G1 X80.150 Y51.935 E6.97832
G1 X79.899 Y51.836 E6.99177
G1 X79.663 Y51.706 E7.00521
G1 X79.444 Y51.547 E7.01866
G1 X79.247 Y51.362 E7.03210
G1 X79.075 Y51.154 E7.04555
G1 X78.931 Y50.926 E7.05900
G1 X78.816 Y50.682 E7.07244
G1 X78.732 Y50.425 E7.08589
G1 X78.682 Y50.160 E7.09933
G1 X78.665 Y49.890 E7.11278
G1 X78.682 Y49.620 E7.12623
G1 X78.732 Y49.355 E7.13967
G1 X78.816 Y49.098 E7.15312
G1 X78.931 Y48.854 E7.16656
G1 X79.075 Y48.626 E7.18001
G1 X79.247 Y48.418 E7.19345
G1 X79.444 Y48.233 E7.20690
G1 X79.663 Y48.074 E7.22034
G1 X79.900 Y47.944 E7.23383
G1 X80.163 Y47.842 E7.24787
G1 X80.412 Y47.778 E7.26068
G1 X80.680 Y47.744 E7.27412
G1 X80.950 Y47.744 E7.28757 F600.000
G1 X81.218 Y47.778 E7.30102
G1 X81.480 Y47.845 E7.31446
G1 X81.731 Y47.944 E7.32791
G1 X81.967 Y48.074 E7.34135
G1 X82.186 Y48.233 E7.35480
G1 X82.383 Y48.418 E7.36824
G1 X82.555 Y48.626 E7.38169
G1 X82.699 Y48.854 E7.39514
G1 X82.814 Y49.098 E7.40858
G1 X82.898 Y49.355 E7.42203
G1 X82.948 Y49.620 E7.43547
G1 X82.965 Y49.890 E7.44892
G1 X82.952 Y50.100 E7.45938
G1 X83.160 Y50.327 F9000.000
G1 E1.45938 F1800.00000
G92 E0
G1 X100.940 Y50.160 F9000.000
G1 E6.00000 F1800.00000
G1 X100.940 Y48.703 E6.07254 F600.000
G1 X101.238 Y46.346 E6.19079
G1 X101.829 Y44.046 E6.30904
G1 X102.703 Y41.838 E6.42729
G1 X103.847 Y39.757 E6.54553
G1 X105.243 Y37.835 E6.66378
G1 X106.869 Y36.104 E6.78203
G1 X108.699 Y34.590 E6.90027
G1 X110.704 Y33.317 E7.01852
G1 X112.853 Y32.306 E7.13677
G1 X115.112 Y31.572 E7.25502
G1 X117.445 Y31.127 E7.37326
G1 X117.598 Y31.118 E7.38090
G1 X119.815 Y30.978 E7.49151 F600.000
G1 X122.185 Y31.127 E7.60976
G1 X124.518 Y31.572 E7.72800
G1 X126.777 Y32.306 E7.84625
G1 X128.926 Y33.317 E7.96450
G1 X130.931 Y34.590 E8.08275
G1 X132.761 Y36.104 E8.20099
G1 X134.387 Y37.835 E8.31924
G1 X135.783 Y39.757 E8.43749
G1 X136.927 Y41.838 E8.55573
G1 X137.801 Y44.046 E8.67398
G1 X138.392 Y46.346 E8.79223
G1 X138.690 Y48.703 E8.91048
G1 X138.690 Y51.077 E9.02872
G1 X138.392 Y53.434 E9.14697
G1 X137.801 Y55.734 E9.26522
G1 X136.927 Y57.942 E9.38347
G1 X135.783 Y60.023 E9.50171
G1 X134.387 Y61.945 E9.61996
G1 X132.761 Y63.676 E9.73821
G1 X130.931 Y65.190 E9.85645
G1 X128.926 Y66.463 E9.97470
G1 X126.777 Y67.474 E10.09295
G1 X124.518 Y68.208 E10.21120
G1 X122.185 Y68.653 E10.32944
G1 X119.815 Y68.802 E10.44769
G1 X117.445 Y68.653 E10.56594
G1 X115.112 Y68.208 E10.68419
G1 X112.853 Y67.474 E10.80243
G1 X110.704 Y66.463 E10.92068
G1 X108.699 Y65.190 E11.03893
G1 X106.869 Y63.676 E11.15717
G1 X105.243 Y61.945 E11.27542
G1 X103.847 Y60.023 E11.39367
G1 X102.703 Y57.942 E11.51192
G1 X101.829 Y55.734 E11.63016
G1 X101.238 Y53.434 E11.74841
G1 X100.940 Y51.077 E11.86666
G1 X100.940 Y50.220 E11.90937
G1 X101.326 Y50.160 F9000.000
G1 X101.326 Y48.727 E11.98071 F600.000
G1 X101.618 Y46.419 E12.09654
G1 X102.196 Y44.165 E12.21237
G1 X103.053 Y42.002 E12.32820
