; generated by Slic3r 1.2.9 on 2017-12-09 at 21:46:11

; external perimeters extrusion width = 0.40mm
; perimeters extrusion width = 0.62mm
; infill extrusion width = 0.33mm
; solid infill extrusion width = 0.62mm
; top infill extrusion width = 0.20mm

M106 S256; Turn on fan to 100% power
M104 S140; turn on extruder temperature at S value
M140 S60; turn on bed temperature at S value
G28; home all axes
M84; disable motors
G1 Z15 F15000; have Z move to 20mm at 15000 mm/min
M190 S55; turn on bed temperature at S value and wait
M140 S55; turn on bed temperature at S value (printing temperature)
M109 S200; turn on extruder temperature at S value and wait (printing temperature)
M104 S200; turn on extruder temperature at S value
G1 Z0 F12000; move Z back to home
G21 ; set units to millimeters
G90 ; use absolute coordinates
M82 ; use absolute distances for extrusion
G92 E0
M106 S255
;Layer change
G1 E-6.00000 F1800.00000
G92 E0
G1 Z0.300 F9000.000
G1 X41.393 Y40.090 F9000.000
G1 E6.00000 F1800.00000
G1 X75.350 Y6.133 E8.39096 F600.000
G1 X77.037 Y5.434 E8.48187
G1 X103.123 Y5.434 E9.78071
G1 X104.810 Y6.133 E9.87161
G1 X138.767 Y40.090 E12.26258 F600.000
G1 X139.466 Y41.777 E12.35348
G1 X139.466 Y67.863 E13.65232
G1 X138.767 Y69.550 E13.74323
G1 X104.810 Y103.507 E16.13419
G1 X103.123 Y104.206 E16.22510
G1 X77.037 Y104.206 E17.52393
G1 X75.350 Y103.507 E17.61484
G1 X41.393 Y69.550 E20.00580
G1 X40.694 Y67.863 E20.09671
G1 X40.694 Y41.777 E21.39555
G1 X41.370 Y40.145 E21.48347
G1 E15.48347 F1800.00000
G92 E0
G1 X89.762 Y91.303 F9000.000
G1 E6.00000 F1800.00000
G1 X90.073 Y91.284 E6.01552 F600.000
G1 X90.397 Y91.303 E6.03168
G1 X90.711 Y91.363 E6.04758
G1 X91.014 Y91.461 E6.06344
G1 X91.302 Y91.597 E6.07930
G1 X91.565 Y91.764 E6.09482
G1 X91.816 Y91.970 E6.11098
G1 X92.035 Y92.203 E6.12689
G1 X92.222 Y92.461 E6.14275
G1 X92.376 Y92.741 E6.15866
G1 X92.494 Y93.043 E6.17482
G1 X92.572 Y93.345 E6.19033
G1 X92.612 Y93.661 E6.20619
G1 X92.612 Y93.979 E6.22206
G1 X92.572 Y94.296 E6.23797
G1 X92.490 Y94.610 E6.25413
G1 X92.375 Y94.900 E6.26964
G1 X92.222 Y95.179 E6.28550
G1 X92.035 Y95.437 E6.30136
G1 X91.817 Y95.669 E6.31722
G1 X91.571 Y95.872 E6.33309
G1 X91.302 Y96.043 E6.34895
G1 X91.014 Y96.179 E6.36481
G1 X90.711 Y96.277 E6.38067
G1 X90.398 Y96.337 E6.39653
G1 X90.080 Y96.357 E6.41239
G1 X89.762 Y96.337 E6.42826
G1 X89.456 Y96.278 E6.44377
G1 X89.147 Y96.179 E6.45993
G1 X88.858 Y96.043 E6.47584
G1 X88.595 Y95.876 E6.49135
G1 X88.344 Y95.670 E6.50752
G1 X88.125 Y95.437 E6.52342
G1 X87.938 Y95.179 E6.53928
G1 X87.784 Y94.899 E6.55519
G1 X87.666 Y94.597 E6.57135
G1 X87.588 Y94.295 E6.58687
G1 X87.548 Y93.978 E6.60277
G1 X87.549 Y93.654 E6.61894
G1 X87.588 Y93.345 E6.63445
G1 X87.667 Y93.036 E6.65031
G1 X87.785 Y92.740 E6.66617
G1 X87.938 Y92.461 E6.68204
G1 X88.125 Y92.203 E6.69789
G1 X88.343 Y91.971 E6.71376
G1 X88.589 Y91.768 E6.72962
G1 X88.858 Y91.597 E6.74548
G1 X89.146 Y91.461 E6.76134
G1 X89.449 Y91.363 E6.77720
G1 X89.703 Y91.314 E6.79008
G1 X89.810 Y91.687 F9000.000
G1 X90.074 Y91.670 E6.80320 F600.000
G1 X90.349 Y91.686 E6.81695
G1 X90.615 Y91.737 E6.83041
G1 X90.872 Y91.821 E6.84386
G1 X91.116 Y91.936 E6.85730
G1 X91.339 Y92.077 E6.87043
G1 X91.552 Y92.252 E6.88417
G1 X91.737 Y92.449 E6.89764
G1 X91.896 Y92.668 E6.91108
G1 X92.026 Y92.905 E6.92455
G1 X92.127 Y93.162 E6.93829
G1 X92.192 Y93.417 E6.95142
G1 X92.226 Y93.685 E6.96486
G1 X92.226 Y93.955 E6.97831
G1 X92.192 Y94.223 E6.99177
G1 X92.123 Y94.491 E7.00552
G1 X92.026 Y94.736 E7.01864
G1 X91.896 Y94.972 E7.03209
G1 X91.737 Y95.191 E7.04554
G1 X91.552 Y95.388 E7.05898
G1 X91.344 Y95.560 E7.07243
G1 X91.116 Y95.704 E7.08588
G1 X90.872 Y95.819 E7.09932
G1 X90.615 Y95.903 E7.11277
G1 X90.350 Y95.953 E7.12621
G1 X90.080 Y95.970 E7.13966
G1 X89.810 Y95.953 E7.15310
G1 X89.551 Y95.904 E7.16623
G1 X89.289 Y95.820 E7.17997
G1 X89.044 Y95.704 E7.19344
G1 X88.821 Y95.563 E7.20656
G1 X88.608 Y95.388 E7.22031
G1 X88.423 Y95.191 E7.23377
G1 X88.264 Y94.972 E7.24722
G1 X88.134 Y94.735 E7.26068
G1 X88.033 Y94.478 E7.27442
G1 X87.968 Y94.223 E7.28755
G1 X87.934 Y93.955 E7.30102
G1 X87.935 Y93.679 E7.31476
G1 X87.968 Y93.417 E7.32789
G1 X88.035 Y93.155 E7.34134
G1 X88.134 Y92.904 E7.35478
G1 X88.264 Y92.668 E7.36823
G1 X88.423 Y92.449 E7.38167
G1 X88.608 Y92.252 E7.39512
G1 X88.816 Y92.080 E7.40857
G1 X89.044 Y91.936 E7.42201
G1 X89.288 Y91.821 E7.43546
G1 X89.545 Y91.737 E7.44890
G1 X89.752 Y91.698 E7.45936
G1 X89.918 Y91.446 F9000.000
G1 X90.080 Y84.607 F9000.000
G1 X89.762 Y84.587 E7.47522 F600.000
G1 X89.449 Y84.527 E7.49108
G1 X89.146 Y84.429 E7.50694
G1 X88.858 Y84.293 E7.52280
G1 X88.589 Y84.122 E7.53866
G1 X88.343 Y83.919 E7.55453
G1 X88.125 Y83.687 E7.57039
G1 X87.938 Y83.429 E7.58625
G1 X87.785 Y83.150 E7.60212
G1 X87.667 Y82.854 E7.61797
G1 X87.588 Y82.545 E7.63384
G1 X87.548 Y82.229 E7.64970
G1 X87.548 Y81.911 E7.66556
G1 X87.588 Y81.595 E7.68142
G1 X87.667 Y81.286 E7.69729
G1 X87.785 Y80.990 E7.71314
G1 X87.938 Y80.711 E7.72901
G1 X88.125 Y80.453 E7.74487
G1 X88.343 Y80.221 E7.76073
G1 X88.589 Y80.018 E7.77659
G1 X88.858 Y79.847 E7.79246
G1 X89.146 Y79.711 E7.80832
G1 X89.464 Y79.608 E7.82497
G1 X89.976 Y79.538 E7.85069 F600.000
G1 X90.389 Y79.552 E7.87127
G1 X90.711 Y79.613 E7.88758
G1 X91.014 Y79.711 E7.90344
G1 X91.302 Y79.847 E7.91930
G1 X91.571 Y80.018 E7.93516
G1 X91.817 Y80.221 E7.95103
G1 X92.035 Y80.453 E7.96689
G1 X92.222 Y80.711 E7.98275
G1 X92.375 Y80.990 E7.99861
G1 X92.493 Y81.286 E8.01447
G1 X92.572 Y81.595 E8.03033
G1 X92.612 Y81.911 E8.04619
G1 X92.612 Y82.229 E8.06206
G1 X92.572 Y82.545 E8.07792
G1 X92.493 Y82.854 E8.09378
G1 X92.375 Y83.150 E8.10964
G1 X92.222 Y83.429 E8.12550
G1 X92.035 Y83.687 E8.14136
G1 X91.817 Y83.919 E8.15722
G1 X91.571 Y84.122 E8.17309
G1 X91.302 Y84.293 E8.18895
G1 X91.014 Y84.429 E8.20481
G1 X90.711 Y84.527 E8.22067
G1 X90.398 Y84.587 E8.23653
G1 X90.140 Y84.603 E8.24941
G1 X90.080 Y84.220 F9000.000
G1 X89.810 Y84.203 E8.26285 F600.000
G1 X89.545 Y84.153 E8.27630
G1 X89.288 Y84.069 E8.28975
G1 X89.044 Y83.954 E8.30319
G1 X88.816 Y83.810 E8.31664
G1 X88.608 Y83.638 E8.33008
G1 X88.423 Y83.441 E8.34353
G1 X88.264 Y83.222 E8.35697
G1 X88.134 Y82.986 E8.37042
G1 X88.035 Y82.735 E8.38386
G1 X87.968 Y82.473 E8.39731
G1 X87.934 Y82.205 E8.41076
G1 X87.934 Y81.935 E8.42420
G1 X87.968 Y81.667 E8.43765
G1 X88.035 Y81.405 E8.45110
G1 X88.134 Y81.154 E8.46454
G1 X88.264 Y80.918 E8.47799
G1 X88.423 Y80.699 E8.49143
G1 X88.608 Y80.502 E8.50488
G1 X88.816 Y80.330 E8.51833
G1 X89.044 Y80.186 E8.53177
G1 X89.288 Y80.071 E8.54522
G1 X89.551 Y79.985 E8.55895
G1 X89.996 Y79.924 E8.58133 F600.000
G1 X90.346 Y79.936 E8.59878
G1 X90.615 Y79.987 E8.61239
G1 X90.872 Y80.071 E8.62583
G1 X91.116 Y80.186 E8.63928
G1 X91.344 Y80.330 E8.65272
G1 X91.552 Y80.502 E8.66617
G1 X91.737 Y80.699 E8.67962
G1 X91.896 Y80.918 E8.69306
G1 X92.026 Y81.154 E8.70651
G1 X92.125 Y81.405 E8.71995
G1 X92.192 Y81.667 E8.73340
G1 X92.226 Y81.935 E8.74685
G1 X92.226 Y82.205 E8.76029
G1 X92.192 Y82.473 E8.77374
G1 X92.125 Y82.735 E8.78719
G1 X92.026 Y82.986 E8.80063
G1 X91.896 Y83.222 E8.81408
G1 X91.737 Y83.441 E8.82752
G1 X91.552 Y83.638 E8.84097
G1 X91.344 Y83.810 E8.85441
G1 X91.116 Y83.954 E8.86786
G1 X90.872 Y84.069 E8.88130
G1 X90.615 Y84.153 E8.89475
G1 X90.350 Y84.203 E8.90820
G1 X90.140 Y84.217 E8.91865
G1 X89.940 Y84.451 F9000.000
G1 E2.91865 F1800.00000
G92 E0
G1 X64.447 Y56.775 F9000.000
G1 E6.00000 F1800.00000
G1 X64.189 Y56.962 E6.01586 F600.000
G1 X63.910 Y57.115 E6.03172
G1 X63.614 Y57.233 E6.04758
G1 X63.305 Y57.312 E6.06345
G1 X62.989 Y57.352 E6.07930
G1 X62.671 Y57.352 E6.09517
G1 X62.355 Y57.312 E6.11103
G1 X62.046 Y57.233 E6.12689
G1 X61.750 Y57.115 E6.14275
G1 X61.471 Y56.962 E6.15862
G1 X61.213 Y56.775 E6.17447
G1 X60.981 Y56.557 E6.19034
G1 X60.778 Y56.311 E6.20620
G1 X60.607 Y56.042 E6.22207
G1 X60.468 Y55.746 E6.23837
G1 X60.351 Y55.349 E6.25894
G1 X60.292 Y54.836 E6.28467
G1 X60.313 Y54.502 E6.30133
G1 X60.373 Y54.189 E6.31719
G1 X60.471 Y53.886 E6.33305
G1 X60.607 Y53.598 E6.34890
G1 X60.778 Y53.329 E6.36477
G1 X60.981 Y53.083 E6.38063
G1 X61.213 Y52.865 E6.39650
G1 X61.471 Y52.678 E6.41235
G1 X61.750 Y52.525 E6.42822
G1 X62.046 Y52.407 E6.44408
G1 X62.355 Y52.328 E6.45994
G1 X62.671 Y52.288 E6.47580
G1 X62.989 Y52.288 E6.49167 F600.000
G1 X63.305 Y52.328 E6.50752
G1 X63.614 Y52.407 E6.52339
G1 X63.910 Y52.525 E6.53925
G1 X64.189 Y52.678 E6.55511
G1 X64.447 Y52.865 E6.57097
G1 X64.679 Y53.083 E6.58683
G1 X64.882 Y53.329 E6.60270
G1 X65.053 Y53.598 E6.61856
G1 X65.192 Y53.894 E6.63486
G1 X65.309 Y54.291 E6.65544
G1 X65.368 Y54.804 E6.68117
G1 X65.347 Y55.138 E6.69782
G1 X65.287 Y55.451 E6.71368
G1 X65.189 Y55.754 E6.72954
G1 X65.053 Y56.042 E6.74540
G1 X64.882 Y56.311 E6.76126
G1 X64.679 Y56.557 E6.77713
G1 X64.491 Y56.734 E6.79001
G1 X64.201 Y56.477 F9000.000
G1 X63.982 Y56.636 E6.80345 F600.000
G1 X63.746 Y56.766 E6.81690
G1 X63.495 Y56.865 E6.83034
G1 X63.233 Y56.932 E6.84379
G1 X62.965 Y56.966 E6.85723
G1 X62.695 Y56.966 E6.87068
G1 X62.427 Y56.932 E6.88412
G1 X62.165 Y56.865 E6.89757
G1 X61.914 Y56.766 E6.91101
G1 X61.678 Y56.636 E6.92446
G1 X61.459 Y56.477 E6.93791
G1 X61.262 Y56.292 E6.95135
G1 X61.090 Y56.084 E6.96480
G1 X60.946 Y55.856 E6.97825
G1 X60.829 Y55.609 E6.99185
G1 X60.731 Y55.272 E7.00930
G1 X60.679 Y54.826 E7.03168
G1 X60.697 Y54.550 E7.04542
G1 X60.747 Y54.285 E7.05886
G1 X60.831 Y54.028 E7.07231
G1 X60.946 Y53.784 E7.08575
G1 X61.090 Y53.556 E7.09920
G1 X61.262 Y53.348 E7.11265
G1 X61.459 Y53.163 E7.12609
G1 X61.678 Y53.004 E7.13954
G1 X61.914 Y52.874 E7.15299
G1 X62.165 Y52.775 E7.16643
G1 X62.427 Y52.708 E7.17988
G1 X62.695 Y52.674 E7.19332
G1 X62.965 Y52.674 E7.20677 F600.000
G1 X63.233 Y52.708 E7.22021
G1 X63.495 Y52.775 E7.23366
G1 X63.746 Y52.874 E7.24710
G1 X63.982 Y53.004 E7.26055
G1 X64.201 Y53.163 E7.27399
G1 X64.398 Y53.348 E7.28744
G1 X64.570 Y53.556 E7.30089
G1 X64.714 Y53.784 E7.31434
G1 X64.831 Y54.031 E7.32794
G1 X64.929 Y54.368 E7.34539
G1 X64.981 Y54.814 E7.36777
G1 X64.963 Y55.090 E7.38151
G1 X64.913 Y55.355 E7.39495
G1 X64.829 Y55.612 E7.40840
G1 X64.714 Y55.856 E7.42184
G1 X64.570 Y56.084 E7.43529
G1 X64.398 Y56.292 E7.44874
G1 X64.244 Y56.436 E7.45920
G1 X64.240 Y56.744 F9000.000
G1 E1.45920 F1800.00000
G92 E0
G1 X53.597 Y55.138 F9000.000
G1 E6.00000 F1800.00000
G1 X53.537 Y55.451 E6.01586 F600.000
G1 X53.439 Y55.754 E6.03172
G1 X53.303 Y56.042 E6.04758
G1 X53.132 Y56.311 E6.06344
G1 X52.929 Y56.557 E6.07931
G1 X52.697 Y56.775 E6.09517
G1 X52.439 Y56.962 E6.11103
G1 X52.160 Y57.115 E6.12689
G1 X51.864 Y57.233 E6.14275
G1 X51.555 Y57.312 E6.15862
G1 X51.239 Y57.352 E6.17447
G1 X50.921 Y57.352 E6.19034
G1 X50.605 Y57.312 E6.20620
G1 X50.296 Y57.233 E6.22206
G1 X50.000 Y57.115 E6.23792
G1 X49.721 Y56.962 E6.25379
G1 X49.463 Y56.775 E6.26964
G1 X49.231 Y56.557 E6.28551
G1 X49.028 Y56.311 E6.30137
G1 X48.857 Y56.042 E6.31724
G1 X48.721 Y55.753 E6.33314
G1 X48.622 Y55.444 E6.34930
G1 X48.563 Y55.138 E6.36481
G1 X48.543 Y54.820 E6.38068
G1 X48.563 Y54.502 E6.39654
G1 X48.623 Y54.189 E6.41240
G1 X48.721 Y53.886 E6.42826
G1 X48.857 Y53.598 E6.44412
G1 X49.028 Y53.329 E6.45998
G1 X49.231 Y53.083 E6.47585
G1 X49.463 Y52.865 E6.49171
G1 X49.721 Y52.678 E6.50757
G1 X50.000 Y52.525 E6.52343
G1 X50.296 Y52.407 E6.53929
G1 X50.605 Y52.328 E6.55515
G1 X50.921 Y52.288 E6.57101
G1 X51.239 Y52.288 E6.58688 F600.000
G1 X51.555 Y52.328 E6.60274
G1 X51.864 Y52.407 E6.61860
G1 X52.160 Y52.525 E6.63446
G1 X52.439 Y52.678 E6.65033
G1 X52.697 Y52.865 E6.66618
G1 X52.929 Y53.083 E6.68204
G1 X53.132 Y53.329 E6.69791
G1 X53.303 Y53.598 E6.71377
G1 X53.439 Y53.887 E6.72968
G1 X53.538 Y54.196 E6.74584
G1 X53.597 Y54.502 E6.76135
G1 X53.617 Y54.820 E6.77721
G1 X53.601 Y55.078 E6.79009
G1 X53.213 Y55.090 F9000.000
G1 X53.163 Y55.355 E6.80354 F600.000
G1 X53.079 Y55.612 E6.81698
G1 X52.964 Y55.856 E6.83043
G1 X52.820 Y56.084 E6.84387
G1 X52.648 Y56.292 E6.85732
G1 X52.451 Y56.477 E6.87077
G1 X52.232 Y56.636 E6.88421
G1 X51.996 Y56.766 E6.89766
G1 X51.745 Y56.865 E6.91110
G1 X51.483 Y56.932 E6.92455
G1 X51.215 Y56.966 E6.93799
G1 X50.945 Y56.966 E6.95144
G1 X50.677 Y56.932 E6.96488
G1 X50.415 Y56.865 E6.97833
G1 X50.164 Y56.766 E6.99178
G1 X49.928 Y56.636 E7.00522
G1 X49.709 Y56.477 E7.01867
G1 X49.512 Y56.292 E7.03211
G1 X49.340 Y56.084 E7.04556
G1 X49.196 Y55.856 E7.05901
G1 X49.080 Y55.611 E7.07247
G1 X48.996 Y55.349 E7.08621
G1 X48.947 Y55.090 E7.09934
G1 X48.930 Y54.820 E7.11279
G1 X48.947 Y54.550 E7.12623
G1 X48.997 Y54.285 E7.13968
G1 X49.081 Y54.028 E7.15312
G1 X49.196 Y53.784 E7.16657
G1 X49.340 Y53.556 E7.18001
G1 X49.512 Y53.348 E7.19346
G1 X49.709 Y53.163 E7.20691
G1 X49.928 Y53.004 E7.22035
G1 X50.164 Y52.874 E7.23380
G1 X50.415 Y52.775 E7.24724
G1 X50.677 Y52.708 E7.26069
G1 X50.945 Y52.674 E7.27413
G1 X51.215 Y52.674 E7.28758 F600.000
G1 X51.483 Y52.708 E7.30103
G1 X51.745 Y52.775 E7.31447
G1 X51.996 Y52.874 E7.32792
G1 X52.232 Y53.004 E7.34137
G1 X52.451 Y53.163 E7.35481
G1 X52.648 Y53.348 E7.36826
G1 X52.820 Y53.556 E7.38170
G1 X52.964 Y53.784 E7.39515
G1 X53.080 Y54.029 E7.40861
G1 X53.164 Y54.291 E7.42235
G1 X53.213 Y54.550 E7.43548
G1 X53.230 Y54.820 E7.44893
G1 X53.217 Y55.030 E7.45939
G1 X53.425 Y55.257 F9000.000
G1 E1.45939 F1800.00000
G92 E0
G1 X71.172 Y54.762 F9000.000
G1 E6.00000 F1800.00000
G1 X71.317 Y52.450 E6.11534 F600.000
G1 X71.762 Y50.117 E6.23359
G1 X72.496 Y47.858 E6.35184
G1 X73.507 Y45.709 E6.47008
G1 X74.780 Y43.704 E6.58833
G1 X76.294 Y41.874 E6.70658
G1 X78.025 Y40.248 E6.82482
G1 X79.947 Y38.852 E6.94307
G1 X82.028 Y37.708 E7.06132
G1 X84.236 Y36.834 E7.17956
G1 X86.536 Y36.243 E7.29781
G1 X88.893 Y35.945 E7.41606
G1 X91.267 Y35.945 E7.53431 F600.000
G1 X93.624 Y36.243 E7.65255
G1 X95.924 Y36.834 E7.77080
G1 X98.132 Y37.708 E7.88905
G1 X100.213 Y38.852 E8.00730
G1 X102.135 Y40.248 E8.12554
G1 X103.866 Y41.874 E8.24379
G1 X105.380 Y43.704 E8.36204
G1 X106.653 Y45.709 E8.48028
G1 X107.664 Y47.858 E8.59853
G1 X108.398 Y50.117 E8.71678
G1 X108.843 Y52.450 E8.83503
G1 X108.992 Y54.820 E8.95327
G1 X108.843 Y57.190 E9.07152
G1 X108.398 Y59.523 E9.18977
G1 X107.664 Y61.782 E9.30802
G1 X106.653 Y63.931 E9.42626
G1 X105.380 Y65.936 E9.54451
G1 X103.866 Y67.766 E9.66276
G1 X102.135 Y69.392 E9.78100
G1 X100.213 Y70.788 E9.89925
G1 X98.132 Y71.932 E10.01750
G1 X95.924 Y72.806 E10.13574
G1 X93.624 Y73.397 E10.25399
G1 X91.267 Y73.695 E10.37224
G1 X88.893 Y73.695 E10.49049
G1 X86.536 Y73.397 E10.60874
G1 X84.236 Y72.806 E10.72698
G1 X82.028 Y71.932 E10.84523
G1 X79.947 Y70.788 E10.96348
G1 X78.025 Y69.392 E11.08173
G1 X76.294 Y67.766 E11.19997
G1 X74.780 Y65.936 E11.31822
G1 X73.507 Y63.931 E11.43647
G1 X72.496 Y61.782 E11.55471
G1 X71.762 Y59.523 E11.67296
G1 X71.317 Y57.189 E11.79125
G1 X71.175 Y54.822 E11.90935
G1 X71.558 Y54.762 F9000.000
G1 X71.701 Y52.498 E12.02231 F600.000
G1 X72.137 Y50.213 E12.13814
G1 X72.855 Y48.000 E12.25397
G1 X73.846 Y45.895 E12.36980
G1 X75.093 Y43.931 E12.48563
G1 X76.576 Y42.138 E12.60146
G1 X78.271 Y40.546 E12.71729
G1 X80.154 Y39.178 E12.83313
G1 X82.192 Y38.058 E12.94896
G1 X84.355 Y37.201 E13.06479
G1 X86.609 Y36.623 E13.18062
G1 X88.917 Y36.331 E13.29645
G1 X91.243 Y36.331 E13.41228 F600.000
G1 X93.551 Y36.623 E13.52811
G1 X95.805 Y37.201 E13.64395
G1 X97.968 Y38.058 E13.75978
G1 X100.006 Y39.178 E13.87561
G1 X101.889 Y40.546 E13.99144
G1 X103.584 Y42.138 E14.10727
G1 X105.067 Y43.931 E14.22310
G1 X106.314 Y45.895 E14.33893
G1 X107.305 Y48.000 E14.45476
G1 X108.023 Y50.213 E14.57060
G1 X108.459 Y52.498 E14.68643
G1 X108.605 Y54.820 E14.80226
G1 X108.459 Y57.142 E14.91809
G1 X108.023 Y59.427 E15.03392
G1 X107.305 Y61.640 E15.14975
G1 X106.314 Y63.745 E15.26558
G1 X105.067 Y65.709 E15.38142
G1 X103.584 Y67.502 E15.49725
G1 X101.889 Y69.094 E15.61308
G1 X100.006 Y70.462 E15.72891
G1 X97.968 Y71.582 E15.84474
G1 X95.805 Y72.439 E15.96057
G1 X93.551 Y73.017 E16.07640
G1 X91.243 Y73.309 E16.19224
G1 X88.917 Y73.309 E16.30807
G1 X86.609 Y73.017 E16.42390
G1 X84.355 Y72.439 E16.53973
G1 X82.192 Y71.582 E16.65556
G1 X80.154 Y70.462 E16.77139
