; generated by Slic3r 1.2.9 on 2020-04-27 at 17:52:58

; external perimeters extrusion width = 0.40mm
; perimeters extrusion width = 0.62mm
; infill extrusion width = 0.33mm
; solid infill extrusion width = 0.62mm
; top infill extrusion width = 0.20mm

M106 S256; Turn on fan to 100% power
M104 S140; turn on extruder temperature at S value
M140 S60; turn on bed temperature at S value
G28; home all axes
M84; disable motors
G1 Z15 F15000; have Z move to 20mm at 15000 mm/min
M190 S55; turn on bed temperature at S value and wait
M140 S55; turn on bed temperature at S value (printing temperature)
M109 S200; turn on extruder temperature at S value and wait (printing temperature)
M104 S200; turn on extruder temperature at S value
G1 Z0 F12000; move Z back to home
G21 ; set units to millimeters
G90 ; use absolute coordinates
M82 ; use absolute distances for extrusion
G92 E0
M106 S255
;Layer change
G1 E-6.00000 F1800.00000
G92 E0
G1 Z0.300 F9000.000
G1 X38.442 Y21.748 F9000.000
G1 E6.00000 F1800.00000
G1 X38.770 Y21.212 E6.03089 F600.000
G1 X38.990 Y20.909 E6.04932
G1 X39.398 Y20.432 E6.08022
G1 X39.662 Y20.168 E6.09862
G1 X40.139 Y19.760 E6.12952
G1 X40.442 Y19.540 E6.14795
G1 X40.978 Y19.212 E6.17883
G1 X41.311 Y19.042 E6.19726
G1 X41.891 Y18.802 E6.22815
G1 X42.247 Y18.686 E6.24655
G1 X42.857 Y18.540 E6.27746
G1 X43.227 Y18.481 E6.29590
G1 X44.040 Y18.424 E6.33599
G1 X159.227 Y18.432 E12.00492
G1 X159.853 Y18.481 E12.03582 F600.000
G1 X160.223 Y18.540 E12.05426
G1 X160.833 Y18.686 E12.08515
G1 X161.204 Y18.808 E12.10434
G1 X161.769 Y19.042 E12.13446
G1 X162.102 Y19.212 E12.15288
G1 X162.638 Y19.540 E12.18376
G1 X162.940 Y19.760 E12.20218
G1 X163.418 Y20.168 E12.23309
G1 X163.682 Y20.432 E12.25150
G1 X164.090 Y20.910 E12.28240
G1 X164.310 Y21.212 E12.30082
G1 X164.638 Y21.748 E12.33171
G1 X164.808 Y22.081 E12.35013
G1 X165.048 Y22.661 E12.38102
G1 X165.164 Y23.017 E12.39944
G1 X165.310 Y23.627 E12.43033
G1 X165.369 Y23.997 E12.44877
G1 X165.426 Y24.810 E12.48887
G1 X165.426 Y82.810 E15.34334
G1 X165.369 Y83.623 E15.38344
G1 X165.310 Y83.993 E15.40188
G1 X165.164 Y84.603 E15.43277
G1 X165.048 Y84.959 E15.45119
G1 X164.808 Y85.539 E15.48210
G1 X164.638 Y85.872 E15.50049
G1 X164.318 Y86.394 E15.53061
G1 X164.090 Y86.711 E15.54982
G1 X163.682 Y87.188 E15.58071
G1 X163.418 Y87.452 E15.59913
G1 X162.940 Y87.860 E15.63002
G1 X162.638 Y88.080 E15.64843
G1 X162.103 Y88.408 E15.67932
G1 X161.769 Y88.578 E15.69775
G1 X161.189 Y88.818 E15.72865
G1 X160.833 Y88.934 E15.74705
G1 X160.223 Y89.080 E15.77797
G1 X159.853 Y89.139 E15.79638
G1 X159.040 Y89.196 E15.83649
G1 X44.040 Y89.196 E21.49622
G1 X43.227 Y89.139 E21.53632
G1 X42.857 Y89.080 E21.55474
G1 X42.247 Y88.934 E21.58564
G1 X41.891 Y88.818 E21.60406
G1 X41.311 Y88.578 E21.63496
G1 X40.977 Y88.408 E21.65339
G1 X40.442 Y88.080 E21.68428
G1 X40.140 Y87.860 E21.70269
G1 X39.662 Y87.453 E21.73358
G1 X39.398 Y87.188 E21.75200
G1 X38.990 Y86.711 E21.78289
G1 X38.770 Y86.407 E21.80133
G1 X38.442 Y85.872 E21.83222
G1 X38.272 Y85.539 E21.85064
G1 X38.032 Y84.959 E21.88153
G1 X37.916 Y84.603 E21.89994
G1 X37.770 Y83.993 E21.93084
G1 X37.711 Y83.623 E21.94927
G1 X37.654 Y82.810 E21.98937
G1 X37.654 Y24.810 E24.84384
G1 X37.711 Y23.997 E24.88395
G1 X37.770 Y23.627 E24.90238
G1 X37.916 Y23.017 E24.93327
G1 X38.032 Y22.661 E24.95169
G1 X38.272 Y22.081 E24.98259
G1 X38.415 Y21.801 E24.99805
G1 E18.99805 F1800.00000
G92 E0
G1 X156.935 Y81.737 F9000.000
G1 E6.00000 F1800.00000
G1 X157.129 Y81.421 E6.01825 F600.000
G1 X157.370 Y81.139 E6.03649
G1 X157.651 Y80.899 E6.05473
G1 X157.967 Y80.705 E6.07298
G1 X158.310 Y80.563 E6.09122
G1 X158.670 Y80.477 E6.10947
G1 X159.032 Y80.448 E6.12732 F600.000
G1 X159.408 Y80.476 E6.14590
G1 X159.770 Y80.563 E6.16420
G1 X160.113 Y80.705 E6.18245
G1 X160.429 Y80.899 E6.20069
G1 X160.710 Y81.139 E6.21893
G1 X160.951 Y81.421 E6.23718
G1 X161.145 Y81.737 E6.25542
G1 X161.287 Y82.080 E6.27367
G1 X161.373 Y82.440 E6.29192
G1 X161.402 Y82.810 E6.31016
G1 X161.373 Y83.181 E6.32846
G1 X161.284 Y83.547 E6.34704
G1 X161.145 Y83.883 E6.36489
G1 X160.951 Y84.199 E6.38314
G1 X160.710 Y84.481 E6.40139
G1 X160.429 Y84.721 E6.41963
G1 X160.119 Y84.911 E6.43748
G1 X159.771 Y85.057 E6.45606
G1 X159.410 Y85.143 E6.47436
G1 X159.040 Y85.173 E6.49260
G1 X158.670 Y85.143 E6.51085
G1 X158.310 Y85.057 E6.52910
G1 X157.967 Y84.915 E6.54734
G1 X157.651 Y84.721 E6.56559
G1 X157.370 Y84.481 E6.58383
G1 X157.129 Y84.199 E6.60207
G1 X156.935 Y83.883 E6.62032
G1 X156.793 Y83.540 E6.63857
G1 X156.707 Y83.180 E6.65681
G1 X156.677 Y82.810 E6.67506
G1 X156.707 Y82.439 E6.69336
G1 X156.796 Y82.073 E6.71194
G1 X156.912 Y81.793 E6.72684
G1 X157.280 Y81.913 F9000.000
G1 X157.442 Y81.649 E6.74209 F600.000
G1 X157.643 Y81.413 E6.75735
G1 X157.879 Y81.212 E6.77261
G1 X158.143 Y81.050 E6.78787
G1 X158.429 Y80.931 E6.80312
G1 X158.731 Y80.859 E6.81838
G1 X159.033 Y80.835 E6.83328 F600.000
G1 X159.349 Y80.859 E6.84888
G1 X159.651 Y80.931 E6.86415
G1 X159.937 Y81.050 E6.87941
G1 X160.201 Y81.212 E6.89467
G1 X160.437 Y81.413 E6.90992
G1 X160.638 Y81.649 E6.92518
G1 X160.800 Y81.913 E6.94044
G1 X160.919 Y82.199 E6.95570
G1 X160.991 Y82.501 E6.97096
G1 X161.016 Y82.810 E6.98622
G1 X160.991 Y83.119 E7.00149
G1 X160.916 Y83.427 E7.01709
G1 X160.800 Y83.707 E7.03199
G1 X160.638 Y83.971 E7.04724
G1 X160.437 Y84.207 E7.06250
G1 X160.201 Y84.408 E7.07776
G1 X159.943 Y84.567 E7.09266
G1 X159.651 Y84.689 E7.10825
G1 X159.349 Y84.761 E7.12353
G1 X159.040 Y84.786 E7.13879
G1 X158.731 Y84.761 E7.15405
G1 X158.429 Y84.689 E7.16930
G1 X158.143 Y84.570 E7.18456
G1 X157.879 Y84.408 E7.19982
G1 X157.643 Y84.207 E7.21507
G1 X157.442 Y83.971 E7.23033
G1 X157.280 Y83.707 E7.24559
G1 X157.161 Y83.421 E7.26085
G1 X157.089 Y83.119 E7.27611
G1 X157.064 Y82.810 E7.29136
G1 X157.089 Y82.501 E7.30664
G1 X157.164 Y82.193 E7.32224
G1 X157.257 Y81.968 E7.33418
G1 X157.118 Y81.649 F9000.000
G1 E1.33418 F1800.00000
G92 E0
G1 X159.040 Y27.172 F9000.000
G1 E6.00000 F1800.00000
G1 X158.670 Y27.143 E6.01825 F600.000
G1 X158.310 Y27.057 E6.03649
G1 X157.967 Y26.915 E6.05473
G1 X157.651 Y26.721 E6.07298
G1 X157.369 Y26.481 E6.09122
G1 X157.129 Y26.199 E6.10947
G1 X156.935 Y25.883 E6.12771
G1 X156.793 Y25.540 E6.14596
G1 X156.707 Y25.180 E6.16421
G1 X156.677 Y24.810 E6.18245
G1 X156.707 Y24.439 E6.20075
G1 X156.796 Y24.072 E6.21933
G1 X156.935 Y23.737 E6.23719
G1 X157.129 Y23.421 E6.25543
G1 X157.369 Y23.139 E6.27367
G1 X157.651 Y22.899 E6.29192
G1 X157.967 Y22.705 E6.31017
G1 X158.310 Y22.563 E6.32841
G1 X158.670 Y22.477 E6.34665
G1 X159.032 Y22.448 E6.36450 F600.000
G1 X159.409 Y22.476 E6.38309
G1 X159.770 Y22.563 E6.40139
G1 X160.113 Y22.705 E6.41963
G1 X160.429 Y22.899 E6.43788
G1 X160.710 Y23.139 E6.45612
G1 X160.951 Y23.421 E6.47436
G1 X161.145 Y23.737 E6.49261
G1 X161.287 Y24.080 E6.51085
G1 X161.373 Y24.440 E6.52910
G1 X161.402 Y24.810 E6.54735
G1 X161.373 Y25.181 E6.56565
G1 X161.284 Y25.548 E6.58423
G1 X161.145 Y25.883 E6.60208
G1 X160.951 Y26.199 E6.62033
G1 X160.710 Y26.481 E6.63857
G1 X160.429 Y26.721 E6.65681
G1 X160.113 Y26.915 E6.67506
G1 X159.770 Y27.057 E6.69330
G1 X159.410 Y27.143 E6.71154
G1 X159.100 Y27.168 E6.72684
G1 X159.040 Y26.786 F9000.000
G1 X158.731 Y26.761 E6.74210 F600.000
G1 X158.429 Y26.689 E6.75736
G1 X158.143 Y26.570 E6.77261
G1 X157.879 Y26.408 E6.78787
G1 X157.643 Y26.207 E6.80313
G1 X157.442 Y25.971 E6.81839
G1 X157.280 Y25.707 E6.83364
G1 X157.161 Y25.421 E6.84890
G1 X157.089 Y25.119 E6.86416
G1 X157.064 Y24.810 E6.87942
G1 X157.089 Y24.500 E6.89470
G1 X157.164 Y24.193 E6.91029
G1 X157.280 Y23.913 E6.92519
G1 X157.442 Y23.649 E6.94045
G1 X157.643 Y23.413 E6.95571
G1 X157.879 Y23.212 E6.97096
G1 X158.143 Y23.050 E6.98622
G1 X158.429 Y22.931 E7.00148
G1 X158.731 Y22.859 E7.01673
G1 X159.033 Y22.835 E7.03164 F600.000
G1 X159.349 Y22.858 E7.04723
G1 X159.651 Y22.931 E7.06251
G1 X159.937 Y23.050 E7.07776
G1 X160.201 Y23.212 E7.09302
G1 X160.437 Y23.413 E7.10828
G1 X160.638 Y23.649 E7.12354
G1 X160.800 Y23.913 E7.13879
G1 X160.919 Y24.199 E7.15405
G1 X160.991 Y24.501 E7.16931
G1 X161.016 Y24.810 E7.18457
G1 X160.991 Y25.120 E7.19985
G1 X160.916 Y25.427 E7.21544
G1 X160.800 Y25.707 E7.23034
G1 X160.638 Y25.971 E7.24560
G1 X160.437 Y26.207 E7.26086
G1 X160.201 Y26.408 E7.27611
G1 X159.937 Y26.570 E7.29137
G1 X159.651 Y26.689 E7.30663
G1 X159.349 Y26.761 E7.32188
G1 X159.100 Y26.781 E7.33419
G1 X158.878 Y27.050 F9000.000
G1 X146.251 Y31.999 F9000.000
G1 X146.251 Y75.421 E9.47117 F600.000
G1 X69.029 Y75.421 E13.27162
G1 X69.029 Y31.999 E15.40860
G1 X146.191 Y31.999 E19.20609
G1 X145.865 Y32.385 F9000.000
G1 X145.865 Y75.035 E21.30512 F600.000
G1 X69.415 Y75.035 E25.06761
G1 X69.415 Y32.385 E27.16663
G1 X145.805 Y32.385 E30.92617
G1 X146.265 Y32.385 F9000.000
G1 X46.402 Y24.810 F9000.000
G1 X46.373 Y25.180 E30.94442 F600.000
G1 X46.287 Y25.540 E30.96266
G1 X46.145 Y25.883 E30.98090
G1 X45.951 Y26.199 E30.99916
G1 X45.710 Y26.481 E31.01740
G1 X45.429 Y26.721 E31.03564
G1 X45.113 Y26.915 E31.05389
G1 X44.770 Y27.057 E31.07213
G1 X44.410 Y27.143 E31.09037
G1 X44.040 Y27.172 E31.10862
G1 X43.670 Y27.143 E31.12687
G1 X43.272 Y27.048 E31.14703
G1 X42.962 Y26.912 E31.16369
G1 X42.651 Y26.721 E31.18163
G1 X42.355 Y26.468 E31.20081
G1 X42.127 Y26.196 E31.21827
G1 X41.935 Y25.883 E31.23637
G1 X41.793 Y25.540 E31.25461
G1 X41.707 Y25.180 E31.27286
G1 X41.677 Y24.810 E31.29111
G1 X41.707 Y24.440 E31.30936
G1 X41.793 Y24.080 E31.32760
G1 X41.935 Y23.737 E31.34584
G1 X42.129 Y23.421 E31.36409
G1 X42.369 Y23.139 E31.38233
G1 X42.651 Y22.899 E31.40057
G1 X42.967 Y22.705 E31.41882
G1 X43.310 Y22.563 E31.43706
G1 X43.670 Y22.477 E31.45531
G1 X44.032 Y22.448 E31.47316 F600.000
G1 X44.409 Y22.476 E31.49174
G1 X44.770 Y22.563 E31.51005
G1 X45.113 Y22.705 E31.52829
G1 X45.429 Y22.899 E31.54654
G1 X45.710 Y23.139 E31.56478
G1 X45.951 Y23.421 E31.58302
G1 X46.145 Y23.737 E31.60127
G1 X46.287 Y24.080 E31.61951
G1 X46.373 Y24.440 E31.63775
G1 X46.398 Y24.750 E31.65305
G1 X46.016 Y24.810 F9000.000
G1 X45.991 Y25.119 E31.66831 F600.000
G1 X45.919 Y25.421 E31.68357
G1 X45.800 Y25.707 E31.69882
G1 X45.638 Y25.971 E31.71408
G1 X45.437 Y26.207 E31.72934
G1 X45.201 Y26.408 E31.74460
G1 X44.937 Y26.570 E31.75986
G1 X44.651 Y26.689 E31.77511
G1 X44.349 Y26.761 E31.79037
G1 X44.040 Y26.786 E31.80563
G1 X43.731 Y26.761 E31.82089
G1 X43.396 Y26.681 E31.83786
G1 X43.141 Y26.569 E31.85154
G1 X42.879 Y26.408 E31.86668
G1 X42.630 Y26.196 E31.88279
G1 X42.441 Y25.970 E31.89726
G1 X42.280 Y25.707 E31.91247
G1 X42.161 Y25.421 E31.92772
G1 X42.089 Y25.119 E31.94298
G1 X42.064 Y24.810 E31.95824
G1 X42.089 Y24.501 E31.97350
G1 X42.161 Y24.199 E31.98876
G1 X42.280 Y23.913 E32.00401
G1 X42.442 Y23.649 E32.01927
G1 X42.643 Y23.413 E32.03453
G1 X42.879 Y23.212 E32.04979
G1 X43.143 Y23.050 E32.06505
G1 X43.429 Y22.931 E32.08030
G1 X43.731 Y22.859 E32.09556
G1 X44.033 Y22.835 E32.11046 F600.000
G1 X44.349 Y22.858 E32.12605
G1 X44.651 Y22.931 E32.14133
G1 X44.937 Y23.050 E32.15659
G1 X45.201 Y23.212 E32.17185
G1 X45.437 Y23.413 E32.18710
G1 X45.638 Y23.649 E32.20236
G1 X45.800 Y23.913 E32.21762
G1 X45.919 Y24.199 E32.23288
G1 X45.991 Y24.501 E32.24813
G1 X46.011 Y24.750 E32.26044
G1 X46.280 Y24.972 F9000.000
G1 E26.26044 F1800.00000
G92 E0
G1 X44.032 Y80.448 F9000.000
G1 E6.00000 F1800.00000
G1 X44.408 Y80.476 E6.01858 F600.000
G1 X44.770 Y80.563 E6.03688
G1 X45.113 Y80.705 E6.05513
G1 X45.429 Y80.899 E6.07337
G1 X45.710 Y81.139 E6.09161
G1 X45.951 Y81.421 E6.10986
G1 X46.145 Y81.738 E6.12811
G1 X46.287 Y82.080 E6.14635
G1 X46.373 Y82.440 E6.16460
G1 X46.402 Y82.810 E6.18284
G1 X46.373 Y83.180 E6.20109
G1 X46.287 Y83.540 E6.21933
G1 X46.145 Y83.882 E6.23757
G1 X45.951 Y84.199 E6.25583
G1 X45.710 Y84.481 E6.27407
G1 X45.429 Y84.721 E6.29231
G1 X45.113 Y84.915 E6.31056
G1 X44.770 Y85.057 E6.32880
G1 X44.410 Y85.143 E6.34705
G1 X44.040 Y85.173 E6.36529
G1 X43.670 Y85.143 E6.38354
G1 X43.310 Y85.057 E6.40178
G1 X42.967 Y84.915 E6.42003
G1 X42.651 Y84.721 E6.43827
G1 X42.370 Y84.481 E6.45651
G1 X42.129 Y84.199 E6.47476
G1 X41.935 Y83.882 E6.49301
G1 X41.793 Y83.540 E6.51125
G1 X41.707 Y83.180 E6.52950
G1 X41.677 Y82.810 E6.54774
G1 X41.707 Y82.440 E6.56599
G1 X41.793 Y82.080 E6.58423
G1 X41.935 Y81.738 E6.60247
G1 X42.129 Y81.421 E6.62073
G1 X42.370 Y81.139 E6.63897
G1 X42.651 Y80.899 E6.65721
G1 X42.967 Y80.705 E6.67546
G1 X43.310 Y80.563 E6.69370
G1 X43.670 Y80.477 E6.71195
G1 X43.972 Y80.453 E6.72685 F600.000
G1 X44.033 Y80.835 F9000.000
G1 X44.349 Y80.859 E6.74244 F600.000
G1 X44.651 Y80.931 E6.75772
G1 X44.937 Y81.050 E6.77298
G1 X45.201 Y81.212 E6.78823
G1 X45.437 Y81.413 E6.80349
G1 X45.638 Y81.649 E6.81875
G1 X45.800 Y81.913 E6.83401
G1 X45.919 Y82.199 E6.84926
G1 X45.991 Y82.501 E6.86452
G1 X46.016 Y82.810 E6.87978
G1 X45.991 Y83.119 E6.89504
G1 X45.919 Y83.421 E6.91029
G1 X45.800 Y83.707 E6.92555
G1 X45.638 Y83.971 E6.94081
G1 X45.437 Y84.207 E6.95607
G1 X45.201 Y84.408 E6.97133
G1 X44.937 Y84.570 E6.98658
G1 X44.651 Y84.689 E7.00184
G1 X44.349 Y84.761 E7.01710
G1 X44.040 Y84.786 E7.03236
G1 X43.731 Y84.761 E7.04762
G1 X43.429 Y84.689 E7.06287
G1 X43.143 Y84.570 E7.07813
G1 X42.879 Y84.408 E7.09339
G1 X42.643 Y84.207 E7.10864
G1 X42.442 Y83.971 E7.12390
G1 X42.280 Y83.707 E7.13916
G1 X42.161 Y83.421 E7.15442
G1 X42.089 Y83.119 E7.16968
G1 X42.064 Y82.810 E7.18493
G1 X42.089 Y82.501 E7.20019
G1 X42.161 Y82.199 E7.21545
G1 X42.280 Y81.913 E7.23071
G1 X42.442 Y81.649 E7.24597
G1 X42.643 Y81.413 E7.26123
G1 X42.879 Y81.212 E7.27648
G1 X43.143 Y81.050 E7.29174
G1 X43.429 Y80.931 E7.30700
G1 X43.731 Y80.859 E7.32225
G1 X43.973 Y80.840 E7.33420 F600.000
G1 X44.198 Y80.564 F9000.000
G1 X43.922 Y79.432 F9000.000
G1 X44.762 Y79.366 E7.37563 F600.000
G1 X45.465 Y79.197 E7.41126
G1 X46.134 Y78.920 E7.44688
G1 X46.751 Y78.542 E7.48250
G1 X47.301 Y78.072 E7.51812
G1 X47.651 Y77.663 E7.54457
G1 X47.651 Y29.957 E9.89241
G1 X47.302 Y29.548 E9.91886
G1 X46.751 Y29.078 E9.95448
G1 X46.134 Y28.700 E9.99010
G1 X45.465 Y28.423 E10.02572
G1 X44.762 Y28.254 E10.06135
G1 X43.510 Y28.156 E10.12312
G1 X42.993 Y28.032 E10.14929
G1 X42.502 Y27.828 E10.17545
G1 X42.049 Y27.551 E10.20161
G1 X41.645 Y27.205 E10.22777
G1 X41.299 Y26.801 E10.25393
G1 X41.022 Y26.348 E10.28009
G1 X40.818 Y25.857 E10.30625
G1 X40.694 Y25.340 E10.33241
G1 X40.653 Y24.810 E10.35857
G1 X40.694 Y24.280 E10.38473
G1 X40.818 Y23.763 E10.41090
G1 X41.022 Y23.272 E10.43706
G1 X41.299 Y22.819 E10.46321
G1 X41.645 Y22.415 E10.48938
G1 X42.049 Y22.069 E10.51554
G1 X42.502 Y21.792 E10.54170
G1 X42.993 Y21.588 E10.56786
G1 X43.510 Y21.464 E10.59402
G1 X44.064 Y21.421 E10.62136
G1 X159.032 Y21.422 E16.27951
G1 X159.570 Y21.464 E16.30608 F600.000
G1 X160.087 Y21.588 E16.33224
G1 X160.578 Y21.792 E16.35840
G1 X161.031 Y22.069 E16.38456
G1 X161.435 Y22.415 E16.41072
G1 X161.781 Y22.819 E16.43689
G1 X162.058 Y23.272 E16.46304
G1 X162.262 Y23.763 E16.48920
G1 X162.386 Y24.280 E16.51537
G1 X162.427 Y24.810 E16.54153
G1 X162.386 Y25.340 E16.56768
G1 X162.262 Y25.857 E16.59385
G1 X162.058 Y26.348 E16.62001
G1 X161.781 Y26.801 E16.64617
G1 X161.435 Y27.205 E16.67233
G1 X161.031 Y27.551 E16.69849
G1 X160.578 Y27.828 E16.72465
G1 X160.087 Y28.032 E16.75081
G1 X159.570 Y28.156 E16.77697
G1 X158.318 Y28.254 E16.83875
G1 X157.615 Y28.423 E16.87438
G1 X156.946 Y28.700 E16.91000
G1 X156.329 Y29.078 E16.94562
G1 X155.778 Y29.548 E16.98124
G1 X155.429 Y29.957 E17.00769
G1 X155.429 Y77.663 E19.35553
G1 X155.779 Y78.072 E19.38198
G1 X156.329 Y78.542 E19.41760
G1 X156.946 Y78.920 E19.45322
G1 X157.615 Y79.197 E19.48884
G1 X158.318 Y79.366 E19.52447
G1 X159.570 Y79.464 E19.58625
G1 X160.087 Y79.588 E19.61241
G1 X160.578 Y79.792 E19.63857
G1 X161.031 Y80.069 E19.66473
G1 X161.435 Y80.415 E19.69089
G1 X161.781 Y80.819 E19.71705
G1 X162.058 Y81.272 E19.74321
G1 X162.262 Y81.763 E19.76937
G1 X162.386 Y82.280 E19.79553
G1 X162.427 Y82.810 E19.82169
G1 X162.386 Y83.340 E19.84785
G1 X162.262 Y83.857 E19.87401
G1 X162.058 Y84.348 E19.90018
G1 X161.781 Y84.801 E19.92634
G1 X161.435 Y85.205 E19.95250
G1 X161.031 Y85.551 E19.97866
