; generated by Slic3r 1.2.9 on 2020-04-26 at 12:52:19

; external perimeters extrusion width = 0.40mm
; perimeters extrusion width = 0.62mm
; infill extrusion width = 0.33mm
; solid infill extrusion width = 0.62mm
; top infill extrusion width = 0.20mm

M106 S256; Turn on fan to 100% power
M104 S140; turn on extruder temperature at S value
M140 S60; turn on bed temperature at S value
G28; home all axes
M84; disable motors
G1 Z15 F15000; have Z move to 20mm at 15000 mm/min
M190 S55; turn on bed temperature at S value and wait
M140 S55; turn on bed temperature at S value (printing temperature)
M109 S200; turn on extruder temperature at S value and wait (printing temperature)
M104 S200; turn on extruder temperature at S value
G1 Z0 F12000; move Z back to home
G21 ; set units to millimeters
G90 ; use absolute coordinates
M82 ; use absolute distances for extrusion
G92 E0
M106 S255
;Layer change
G1 E-6.00000 F1800.00000
G92 E0
G1 Z0.300 F9000.000
G1 X45.461 Y30.261 F9000.000
G1 E6.00000 F1800.00000
G1 X45.717 Y29.909 E6.02141 F600.000
G1 X46.124 Y29.432 E6.05230
G1 X46.432 Y29.124 E6.07370
G1 X46.909 Y28.717 E6.10459
G1 X47.261 Y28.461 E6.12596
G1 X47.796 Y28.133 E6.15686
G1 X48.183 Y27.936 E6.17828
G1 X48.763 Y27.695 E6.20917
G1 X49.177 Y27.561 E6.23055
G1 X49.787 Y27.415 E6.26147
G1 X50.216 Y27.347 E6.28284
G1 X51.060 Y27.289 E6.32446
G1 X159.677 Y27.297 E11.67004
G1 X160.303 Y27.347 E11.70096 F600.000
G1 X160.733 Y27.415 E11.72236
G1 X161.343 Y27.561 E11.75325
G1 X161.756 Y27.695 E11.77464
G1 X162.337 Y27.936 E11.80555
G1 X162.723 Y28.133 E11.82691
G1 X163.259 Y28.461 E11.85785
G1 X163.611 Y28.717 E11.87924
G1 X164.088 Y29.124 E11.91013
G1 X164.396 Y29.432 E11.93152
G1 X164.803 Y29.909 E11.96242
G1 X165.059 Y30.261 E11.98384
G1 X165.387 Y30.797 E12.01475
G1 X165.584 Y31.184 E12.03612
G1 X165.824 Y31.763 E12.06701
G1 X165.959 Y32.177 E12.08840
G1 X166.106 Y32.788 E12.11934
G1 X166.173 Y33.217 E12.14071
G1 X166.228 Y33.922 E12.17549
G1 X167.228 Y53.922 E13.16102
G1 X167.224 Y54.257 E13.17755
G1 X166.173 Y68.903 E13.90019
G1 X166.105 Y69.333 E13.92160
G1 X165.959 Y69.943 E13.95250
G1 X165.824 Y70.357 E13.97389
G1 X165.584 Y70.938 E14.00484
G1 X165.387 Y71.324 E14.02618
G1 X165.059 Y71.859 E14.05707
G1 X164.803 Y72.211 E14.07848
G1 X164.395 Y72.689 E14.10940
G1 X164.089 Y72.995 E14.13073
G1 X163.611 Y73.403 E14.16165
G1 X163.259 Y73.659 E14.18306
G1 X162.724 Y73.987 E14.21395
G1 X162.336 Y74.184 E14.23535
G1 X161.757 Y74.424 E14.26624
G1 X161.344 Y74.559 E14.28757
G1 X160.733 Y74.705 E14.31853
G1 X160.303 Y74.773 E14.33993
G1 X159.460 Y74.831 E14.38153
G1 X51.060 Y74.831 E19.71644
G1 X50.217 Y74.774 E19.75803
G1 X49.787 Y74.705 E19.77945
G1 X49.177 Y74.559 E19.81035
G1 X48.764 Y74.425 E19.83171
G1 X48.184 Y74.184 E19.86263
G1 X47.796 Y73.987 E19.88400
G1 X47.261 Y73.659 E19.91491
G1 X46.909 Y73.403 E19.93632
G1 X46.432 Y72.996 E19.96722
G1 X46.124 Y72.688 E19.98860
G1 X45.717 Y72.211 E20.01950
G1 X45.461 Y71.859 E20.04091
G1 X45.133 Y71.324 E20.07179
G1 X44.936 Y70.936 E20.09319
G1 X44.695 Y70.356 E20.12410
G1 X44.561 Y69.943 E20.14547
G1 X44.414 Y69.332 E20.17640
G1 X44.346 Y68.903 E20.19779
G1 X44.297 Y68.277 E20.22869
G1 X43.296 Y54.257 E20.92042
G1 X43.292 Y53.922 E20.93695
G1 X44.292 Y33.922 E21.92248
G1 X44.346 Y33.217 E21.95726
G1 X44.415 Y32.787 E21.97869
G1 X44.561 Y32.177 E22.00958
G1 X44.696 Y31.763 E22.03097
G1 X44.936 Y31.183 E22.06187
G1 X45.133 Y30.796 E22.08325
G1 X45.430 Y30.312 E22.11120
G1 X45.790 Y30.462 F9000.000
G1 X46.010 Y30.159 E22.12963 F600.000
G1 X46.418 Y29.682 E22.16052
G1 X46.682 Y29.418 E22.17894
G1 X47.160 Y29.010 E22.20983
G1 X47.462 Y28.790 E22.22823
G1 X47.997 Y28.462 E22.25913
G1 X48.331 Y28.292 E22.27756
G1 X48.911 Y28.052 E22.30846
G1 X49.267 Y27.936 E22.32687
G1 X49.877 Y27.790 E22.35778
G1 X50.247 Y27.731 E22.37617
G1 X51.060 Y27.674 E22.41630
G1 X159.647 Y27.682 E27.76040
G1 X160.273 Y27.731 E27.79132 F600.000
G1 X160.643 Y27.790 E27.80973
G1 X161.253 Y27.936 E27.84063
G1 X161.609 Y28.052 E27.85904
G1 X162.189 Y28.292 E27.88995
G1 X162.522 Y28.462 E27.90834
G1 X163.058 Y28.790 E27.93926
G1 X163.360 Y29.010 E27.95768
G1 X163.838 Y29.418 E27.98857
G1 X164.102 Y29.682 E28.00699
G1 X164.510 Y30.159 E28.03788
G1 X164.730 Y30.463 E28.05632
G1 X165.058 Y30.998 E28.08723
G1 X165.228 Y31.331 E28.10563
G1 X165.468 Y31.911 E28.13652
G1 X165.584 Y32.267 E28.15493
G1 X165.731 Y32.878 E28.18586
G1 X165.789 Y33.247 E28.20426
G1 X165.843 Y33.941 E28.23850
G1 X166.843 Y53.941 E29.22403
G1 X166.840 Y54.230 E29.23826
G1 X165.789 Y68.873 E29.96076
G1 X165.730 Y69.243 E29.97920
G1 X165.584 Y69.853 E30.01009
G1 X165.468 Y70.209 E30.02851
G1 X165.228 Y70.790 E30.05945
G1 X165.058 Y71.122 E30.07782
G1 X164.730 Y71.658 E30.10871
G1 X164.510 Y71.961 E30.12714
G1 X164.102 Y72.438 E30.15805
G1 X163.838 Y72.702 E30.17642
G1 X163.361 Y73.110 E30.20733
G1 X163.058 Y73.330 E30.22577
G1 X162.522 Y73.658 E30.25665
G1 X162.189 Y73.828 E30.27508
G1 X161.609 Y74.068 E30.30597
G1 X161.254 Y74.184 E30.32433
G1 X160.643 Y74.330 E30.35527
G1 X160.273 Y74.389 E30.37370
G1 X159.460 Y74.446 E30.41381
G1 X51.060 Y74.446 E35.74872
G1 X50.247 Y74.389 E35.78882
G1 X49.877 Y74.330 E35.80726
G1 X49.267 Y74.184 E35.83816
G1 X48.911 Y74.068 E35.85655
G1 X48.331 Y73.828 E35.88746
G1 X47.998 Y73.658 E35.90586
G1 X47.462 Y73.330 E35.93677
G1 X47.160 Y73.110 E35.95520
G1 X46.682 Y72.702 E35.98609
G1 X46.418 Y72.438 E36.00450
G1 X46.010 Y71.961 E36.03540
G1 X45.790 Y71.658 E36.05383
G1 X45.462 Y71.122 E36.08472
G1 X45.292 Y70.789 E36.10314
G1 X45.052 Y70.209 E36.13404
G1 X44.936 Y69.853 E36.15244
G1 X44.789 Y69.242 E36.18336
G1 X44.731 Y68.873 E36.20178
G1 X44.680 Y68.230 E36.23351
G1 X43.680 Y54.230 E36.92428
G1 X43.677 Y53.941 E36.93850
G1 X44.677 Y33.941 E37.92404
G1 X44.731 Y33.247 E37.95827
G1 X44.790 Y32.877 E37.97672
G1 X44.936 Y32.267 E38.00761
G1 X45.052 Y31.911 E38.02602
G1 X45.292 Y31.331 E38.05692
G1 X45.462 Y30.998 E38.07533
G1 X45.759 Y30.513 E38.10327
G1 E32.10327 F1800.00000
G92 E0
G1 X157.472 Y67.745 F9000.000
G1 E6.00000 F1800.00000
G1 X157.546 Y67.438 E6.01554 F600.000
G1 X157.667 Y67.146 E6.03109
G1 X157.832 Y66.877 E6.04663
G1 X158.037 Y66.637 E6.06217
G1 X158.277 Y66.432 E6.07771
G1 X158.546 Y66.267 E6.09325
G1 X158.838 Y66.146 E6.10880
G1 X159.145 Y66.072 E6.12434
G1 X159.460 Y66.048 E6.13988 F600.000
G1 X159.775 Y66.072 E6.15542
G1 X160.082 Y66.146 E6.17097
G1 X160.374 Y66.267 E6.18651
G1 X160.643 Y66.432 E6.20205
G1 X160.883 Y66.637 E6.21759
G1 X161.088 Y66.877 E6.23313
G1 X161.253 Y67.146 E6.24867
G1 X161.374 Y67.438 E6.26422
G1 X161.448 Y67.745 E6.27976
G1 X161.472 Y68.060 E6.29530
G1 X161.448 Y68.375 E6.31084
G1 X161.374 Y68.682 E6.32639
G1 X161.253 Y68.974 E6.34193
G1 X161.088 Y69.243 E6.35747
G1 X160.883 Y69.483 E6.37301
G1 X160.643 Y69.688 E6.38855
G1 X160.374 Y69.853 E6.40409
G1 X160.082 Y69.974 E6.41964
G1 X159.775 Y70.048 E6.43518
G1 X159.460 Y70.072 E6.45072
G1 X159.145 Y70.048 E6.46626
G1 X158.838 Y69.974 E6.48181
G1 X158.546 Y69.853 E6.49735
G1 X158.277 Y69.688 E6.51289
G1 X158.037 Y69.483 E6.52844
G1 X157.832 Y69.243 E6.54397
G1 X157.667 Y68.974 E6.55951
G1 X157.546 Y68.682 E6.57506
G1 X157.472 Y68.375 E6.59060
G1 X157.447 Y68.060 E6.60614
G1 X157.468 Y67.805 E6.61873
G1 X157.854 Y67.806 F9000.000
G1 X157.914 Y67.558 E6.63129 F600.000
G1 X158.011 Y67.322 E6.64384
G1 X158.145 Y67.104 E6.65640
G1 X158.310 Y66.911 E6.66895
G1 X158.504 Y66.745 E6.68150
G1 X158.722 Y66.612 E6.69406
G1 X158.958 Y66.514 E6.70662
G1 X159.206 Y66.454 E6.71917
G1 X159.460 Y66.434 E6.73173 F600.000
G1 X159.714 Y66.454 E6.74428
G1 X159.962 Y66.514 E6.75684
G1 X160.198 Y66.612 E6.76939
G1 X160.416 Y66.745 E6.78195
G1 X160.610 Y66.911 E6.79450
G1 X160.775 Y67.104 E6.80705
G1 X160.908 Y67.322 E6.81961
G1 X161.006 Y67.558 E6.83217
G1 X161.066 Y67.806 E6.84472
G1 X161.086 Y68.060 E6.85727
G1 X161.066 Y68.314 E6.86983
G1 X161.006 Y68.562 E6.88238
G1 X160.908 Y68.798 E6.89494
G1 X160.775 Y69.016 E6.90750
G1 X160.609 Y69.209 E6.92005
G1 X160.416 Y69.375 E6.93260
G1 X160.198 Y69.508 E6.94516
G1 X159.962 Y69.606 E6.95771
G1 X159.714 Y69.666 E6.97027
G1 X159.460 Y69.686 E6.98282
G1 X159.206 Y69.666 E6.99538
G1 X158.958 Y69.606 E7.00793
G1 X158.722 Y69.508 E7.02049
G1 X158.504 Y69.375 E7.03304
G1 X158.310 Y69.209 E7.04560
G1 X158.145 Y69.016 E7.05815
G1 X158.011 Y68.798 E7.07071
G1 X157.914 Y68.562 E7.08326
G1 X157.854 Y68.314 E7.09582
G1 X157.834 Y68.060 E7.10837
G1 X157.850 Y67.866 E7.11797
G1 X157.660 Y67.640 F9000.000
G1 E1.11797 F1800.00000
G92 E0
G1 X160.090 Y56.393 F9000.000
G1 E6.00000 F1800.00000
G1 X159.730 Y56.307 E6.01824 F600.000
G1 X159.387 Y56.165 E6.03648
G1 X159.071 Y55.971 E6.05474
G1 X158.788 Y55.729 E6.07306
G1 X158.542 Y55.438 E6.09180
G1 X158.355 Y55.133 E6.10946
G1 X158.213 Y54.790 E6.12770
G1 X158.127 Y54.430 E6.14595
G1 X158.097 Y54.060 E6.16420
G1 X158.127 Y53.690 E6.18244
G1 X158.213 Y53.330 E6.20069
G1 X158.355 Y52.987 E6.21893
G1 X158.549 Y52.671 E6.23718
G1 X158.790 Y52.390 E6.25542
G1 X159.071 Y52.149 E6.27366
G1 X159.387 Y51.955 E6.29191
G1 X159.730 Y51.813 E6.31015
G1 X160.090 Y51.727 E6.32840
G1 X160.448 Y51.698 E6.34606 F600.000
G1 X160.828 Y51.726 E6.36481
G1 X161.190 Y51.813 E6.38313
G1 X161.533 Y51.955 E6.40137
G1 X161.849 Y52.149 E6.41963
G1 X162.130 Y52.389 E6.43787
G1 X162.371 Y52.671 E6.45611
G1 X162.565 Y52.987 E6.47436
G1 X162.707 Y53.330 E6.49260
G1 X162.793 Y53.690 E6.51084
G1 X162.822 Y54.060 E6.52909
G1 X162.793 Y54.430 E6.54734
G1 X162.707 Y54.790 E6.56559
G1 X162.565 Y55.133 E6.58383
G1 X162.371 Y55.449 E6.60208
G1 X162.130 Y55.731 E6.62032
G1 X161.849 Y55.971 E6.63856
G1 X161.533 Y56.165 E6.65681
G1 X161.190 Y56.307 E6.67505
G1 X160.830 Y56.393 E6.69329
G1 X160.460 Y56.422 E6.71154
G1 X160.150 Y56.398 E6.72684
G1 X160.151 Y56.011 F9000.000
G1 X159.849 Y55.939 E6.74210 F600.000
G1 X159.563 Y55.820 E6.75735
G1 X159.299 Y55.658 E6.77261
G1 X159.063 Y55.457 E6.78790
G1 X158.856 Y55.212 E6.80366
G1 X158.700 Y54.957 E6.81838
G1 X158.581 Y54.671 E6.83364
G1 X158.509 Y54.369 E6.84889
G1 X158.484 Y54.060 E6.86415
G1 X158.509 Y53.751 E6.87941
G1 X158.581 Y53.449 E6.89467
G1 X158.700 Y53.163 E6.90993
G1 X158.862 Y52.899 E6.92518
G1 X159.063 Y52.663 E6.94044
G1 X159.299 Y52.462 E6.95570
G1 X159.563 Y52.300 E6.97096
G1 X159.849 Y52.181 E6.98621
G1 X160.151 Y52.109 E7.00147
G1 X160.449 Y52.085 E7.01619 F600.000
G1 X160.769 Y52.108 E7.03195
G1 X161.071 Y52.181 E7.04724
G1 X161.357 Y52.300 E7.06250
G1 X161.621 Y52.462 E7.07776
G1 X161.857 Y52.663 E7.09301
G1 X162.058 Y52.899 E7.10827
G1 X162.220 Y53.163 E7.12353
G1 X162.339 Y53.449 E7.13879
G1 X162.411 Y53.751 E7.15404
G1 X162.436 Y54.060 E7.16930
G1 X162.411 Y54.369 E7.18456
G1 X162.339 Y54.671 E7.19982
G1 X162.220 Y54.957 E7.21508
G1 X162.058 Y55.221 E7.23034
G1 X161.857 Y55.457 E7.24559
G1 X161.621 Y55.658 E7.26085
G1 X161.357 Y55.820 E7.27611
G1 X161.071 Y55.939 E7.29136
G1 X160.769 Y56.011 E7.30662
G1 X160.460 Y56.036 E7.32188
G1 X160.211 Y56.016 E7.33419
G1 X159.949 Y56.247 F9000.000
G1 E1.33419 F1800.00000
G92 E0
G1 X159.460 Y36.073 F9000.000
G1 E6.00000 F1800.00000
G1 X159.145 Y36.048 E6.01554 F600.000
G1 X158.838 Y35.974 E6.03108
G1 X158.546 Y35.853 E6.04663
G1 X158.277 Y35.688 E6.06217
G1 X158.037 Y35.483 E6.07771
G1 X157.832 Y35.243 E6.09326
G1 X157.667 Y34.974 E6.10879
G1 X157.546 Y34.682 E6.12434
G1 X157.472 Y34.375 E6.13988
G1 X157.447 Y34.060 E6.15542
G1 X157.472 Y33.745 E6.17096
G1 X157.546 Y33.438 E6.18651
G1 X157.667 Y33.146 E6.20205
G1 X157.832 Y32.877 E6.21759
G1 X158.037 Y32.637 E6.23313
G1 X158.277 Y32.432 E6.24868
G1 X158.546 Y32.267 E6.26422
G1 X158.838 Y32.146 E6.27976
G1 X159.145 Y32.072 E6.29530
G1 X159.460 Y32.047 E6.31084 F600.000
G1 X159.775 Y32.072 E6.32638
G1 X160.082 Y32.146 E6.34192
G1 X160.374 Y32.267 E6.35747
G1 X160.643 Y32.432 E6.37301
G1 X160.883 Y32.637 E6.38855
G1 X161.088 Y32.877 E6.40409
G1 X161.253 Y33.146 E6.41964
G1 X161.374 Y33.438 E6.43518
G1 X161.448 Y33.745 E6.45072
G1 X161.472 Y34.060 E6.46626
G1 X161.448 Y34.375 E6.48180
G1 X161.374 Y34.682 E6.49735
G1 X161.253 Y34.974 E6.51289
G1 X161.088 Y35.243 E6.52843
G1 X160.883 Y35.483 E6.54397
G1 X160.643 Y35.688 E6.55951
G1 X160.374 Y35.853 E6.57506
G1 X160.082 Y35.974 E6.59060
G1 X159.775 Y36.048 E6.60614
G1 X159.520 Y36.068 E6.61873
G1 X159.460 Y35.686 F9000.000
G1 X159.206 Y35.666 E6.63129 F600.000
G1 X158.958 Y35.606 E6.64384
G1 X158.722 Y35.509 E6.65640
G1 X158.504 Y35.375 E6.66895
G1 X158.310 Y35.210 E6.68151
G1 X158.145 Y35.016 E6.69406
G1 X158.011 Y34.798 E6.70661
G1 X157.914 Y34.562 E6.71917
G1 X157.854 Y34.314 E6.73172
G1 X157.834 Y34.060 E6.74428
G1 X157.854 Y33.806 E6.75683
G1 X157.914 Y33.558 E6.76939
G1 X158.011 Y33.322 E6.78194
G1 X158.145 Y33.104 E6.79450
G1 X158.310 Y32.910 E6.80705
G1 X158.504 Y32.745 E6.81961
G1 X158.722 Y32.611 E6.83216
G1 X158.958 Y32.514 E6.84472
G1 X159.206 Y32.454 E6.85727
G1 X159.460 Y32.434 E6.86983 F600.000
G1 X159.714 Y32.454 E6.88238
G1 X159.962 Y32.514 E6.89494
G1 X160.198 Y32.611 E6.90749
G1 X160.416 Y32.745 E6.92005
G1 X160.610 Y32.910 E6.93260
G1 X160.775 Y33.104 E6.94516
G1 X160.908 Y33.322 E6.95771
G1 X161.006 Y33.558 E6.97027
G1 X161.066 Y33.806 E6.98282
G1 X161.086 Y34.060 E6.99538
G1 X161.066 Y34.314 E7.00793
G1 X161.006 Y34.562 E7.02049
G1 X160.908 Y34.798 E7.03304
G1 X160.775 Y35.016 E7.04560
G1 X160.609 Y35.210 E7.05815
G1 X160.416 Y35.375 E7.07070
G1 X160.198 Y35.509 E7.08326
G1 X159.962 Y35.606 E7.09582
G1 X159.714 Y35.666 E7.10837
G1 X159.520 Y35.681 E7.11797
G1 X159.327 Y35.903 F9000.000
G1 X110.671 Y51.449 F9000.000
G1 X110.671 Y67.671 E7.91630 F600.000
G1 X94.449 Y67.671 E8.71463
G1 X94.449 Y51.449 E9.51296
G1 X110.611 Y51.449 E10.30834
G1 X110.285 Y51.835 F9000.000
G1 X110.285 Y67.285 E11.06871 F600.000
G1 X94.835 Y67.285 E11.82908
G1 X94.835 Y51.835 E12.58945
G1 X110.225 Y51.835 E13.34687
G1 X110.685 Y51.835 F9000.000
G1 E7.34687 F1800.00000
G92 E0
G1 X62.671 Y54.449 F9000.000
G1 E6.00000 F1800.00000
G1 X62.671 Y67.671 E6.65068 F600.000
G1 X57.449 Y67.671 E6.90765
G1 X57.449 Y54.449 E7.55833
G1 X62.611 Y54.449 E7.81234
G1 X62.285 Y54.835 F9000.000
G1 X62.285 Y67.285 E8.42507 F600.000
G1 X57.835 Y67.285 E8.64408
G1 X57.835 Y54.835 E9.25681
G1 X62.225 Y54.835 E9.47286
G1 X62.685 Y54.835 F9000.000
G1 X52.422 Y54.061 F9000.000
G1 X52.393 Y54.430 E9.49108 F600.000
G1 X52.307 Y54.790 E9.50932
G1 X52.165 Y55.133 E9.52756
G1 X51.971 Y55.449 E9.54582
G1 X51.731 Y55.731 E9.56406
G1 X51.449 Y55.971 E9.58230
G1 X51.133 Y56.165 E9.60055
G1 X50.790 Y56.307 E9.61879
G1 X50.430 Y56.393 E9.63703
G1 X50.060 Y56.423 E9.65528
G1 X49.690 Y56.393 E9.67353
G1 X49.330 Y56.307 E9.69178
G1 X48.987 Y56.165 E9.71002
G1 X48.671 Y55.971 E9.72827
G1 X48.389 Y55.731 E9.74651
G1 X48.149 Y55.449 E9.76475
G1 X47.955 Y55.133 E9.78300
G1 X47.813 Y54.790 E9.80124
G1 X47.727 Y54.430 E9.81948
G1 X47.697 Y54.060 E9.83773
G1 X47.727 Y53.690 E9.85598
G1 X47.813 Y53.330 E9.87423
G1 X47.955 Y52.987 E9.89247
G1 X48.149 Y52.671 E9.91072
G1 X48.389 Y52.390 E9.92896
G1 X48.671 Y52.149 E9.94720
G1 X48.987 Y51.955 E9.96545
G1 X49.330 Y51.813 E9.98369
G1 X49.690 Y51.727 E10.00193
G1 X50.048 Y51.698 E10.01959 F600.000
G1 X50.428 Y51.726 E10.03834
G1 X50.790 Y51.813 E10.05667
G1 X51.133 Y51.955 E10.07491
G1 X51.449 Y52.149 E10.09316
G1 X51.730 Y52.390 E10.11140
G1 X51.971 Y52.671 E10.12964
G1 X52.165 Y52.987 E10.14790
G1 X52.307 Y53.330 E10.16614
G1 X52.393 Y53.690 E10.18438
G1 X52.418 Y54.001 E10.19970
G1 X52.036 Y54.060 F9000.000
G1 X52.011 Y54.369 E10.21496 F600.000
G1 X51.939 Y54.671 E10.23022
G1 X51.820 Y54.957 E10.24548
G1 X51.658 Y55.221 E10.26074
G1 X51.457 Y55.457 E10.27599
G1 X51.221 Y55.658 E10.29125
G1 X50.957 Y55.820 E10.30651
G1 X50.671 Y55.939 E10.32176
G1 X50.369 Y56.011 E10.33702
G1 X50.060 Y56.036 E10.35228
G1 X49.751 Y56.011 E10.36754
G1 X49.449 Y55.939 E10.38280
G1 X49.163 Y55.820 E10.39805
G1 X48.899 Y55.658 E10.41331
G1 X48.663 Y55.457 E10.42857
G1 X48.462 Y55.221 E10.44383
G1 X48.300 Y54.957 E10.45909
G1 X48.181 Y54.671 E10.47434
G1 X48.109 Y54.369 E10.48960
G1 X48.084 Y54.060 E10.50486
