; generated by Slic3r 1.2.9 on 2020-04-24 at 21:30:10

; external perimeters extrusion width = 0.40mm
; perimeters extrusion width = 0.62mm
; infill extrusion width = 0.33mm
; solid infill extrusion width = 0.62mm
; top infill extrusion width = 0.20mm

M106 S256; Turn on fan to 100% power
M104 S140; turn on extruder temperature at S value
M140 S60; turn on bed temperature at S value
G28; home all axes
M84; disable motors
G1 Z15 F15000; have Z move to 20mm at 15000 mm/min
M190 S55; turn on bed temperature at S value and wait
M140 S55; turn on bed temperature at S value (printing temperature)
M109 S200; turn on extruder temperature at S value and wait (printing temperature)
M104 S200; turn on extruder temperature at S value
G1 Z0 F12000; move Z back to home
G21 ; set units to millimeters
G90 ; use absolute coordinates
M82 ; use absolute distances for extrusion
G92 E0
M106 S255
;Layer change
G1 E-6.00000 F1800.00000
G92 E0
G1 Z0.300 F9000.000
G1 X37.811 Y57.711 F9000.000
G1 E6.00000 F1800.00000
G1 X38.346 Y57.383 E6.03089 F600.000
G1 X38.734 Y57.186 E6.05229
G1 X39.313 Y56.946 E6.08318
G1 X39.727 Y56.811 E6.10457
G1 X40.337 Y56.665 E6.13546
G1 X40.767 Y56.596 E6.15688
G1 X41.610 Y56.539 E6.19847
G1 X168.027 Y56.547 E12.42008
G1 X168.653 Y56.596 E12.45100 F600.000
G1 X169.084 Y56.665 E12.47245
G1 X169.694 Y56.811 E12.50332
G1 X170.106 Y56.945 E12.52467
G1 X170.686 Y57.186 E12.55558
G1 X171.074 Y57.383 E12.57700
G1 X171.609 Y57.711 E12.60788
G1 X171.961 Y57.967 E12.62931
G1 X172.439 Y58.375 E12.66021
G1 X172.744 Y58.681 E12.68150
G1 X173.153 Y59.158 E12.71240
G1 X173.409 Y59.511 E12.73385
G1 X173.737 Y60.046 E12.76474
G1 X173.935 Y60.434 E12.78619
G1 X174.175 Y61.014 E12.81708
G1 X174.308 Y61.425 E12.83834
G1 X174.455 Y62.036 E12.86927
G1 X174.524 Y62.468 E12.89080
G1 X174.581 Y63.310 E12.93233
G1 X174.581 Y121.310 E15.78681
G1 X174.524 Y122.152 E15.82835
G1 X174.455 Y122.585 E15.84990
G1 X174.308 Y123.195 E15.88080
G1 X174.175 Y123.606 E15.90206
G1 X173.935 Y124.186 E15.93295
G1 X173.737 Y124.574 E15.95439
G1 X173.417 Y125.096 E15.98451
G1 X173.152 Y125.462 E16.00674
G1 X172.744 Y125.939 E16.03764
G1 X172.438 Y126.245 E16.05895
G1 X171.961 Y126.653 E16.08983
G1 X171.609 Y126.909 E16.11124
G1 X171.074 Y127.237 E16.14213
G1 X170.686 Y127.434 E16.16356
G1 X170.106 Y127.675 E16.19445
G1 X169.693 Y127.809 E16.21583
G1 X169.083 Y127.955 E16.24671
G1 X168.653 Y128.023 E16.26813
G1 X167.810 Y128.081 E16.30973
G1 X41.610 Y128.081 E22.52067
G1 X40.767 Y128.023 E22.56227
G1 X40.337 Y127.955 E22.58366
G1 X39.727 Y127.809 E22.61456
G1 X39.314 Y127.675 E22.63596
G1 X38.733 Y127.434 E22.66685
G1 X38.346 Y127.237 E22.68826
G1 X37.811 Y126.909 E22.71915
G1 X37.459 Y126.653 E22.74055
G1 X36.982 Y126.246 E22.77144
G1 X36.674 Y125.938 E22.79283
G1 X36.267 Y125.461 E22.82372
G1 X36.011 Y125.109 E22.84514
G1 X35.683 Y124.574 E22.87603
G1 X35.486 Y124.186 E22.89742
G1 X35.246 Y123.607 E22.92832
G1 X35.111 Y123.193 E22.94970
G1 X34.965 Y122.583 E22.98060
G1 X34.896 Y122.153 E23.00202
G1 X34.839 Y121.310 E23.04360
G1 X34.847 Y63.093 E25.90877
G1 X34.897 Y62.467 E25.93967
G1 X34.965 Y62.037 E25.96108
G1 X35.111 Y61.427 E25.99198
G1 X35.246 Y61.013 E26.01336
G1 X35.486 Y60.434 E26.04426
G1 X35.683 Y60.046 E26.06566
G1 X36.011 Y59.511 E26.09654
G1 X36.267 Y59.159 E26.11795
G1 X36.675 Y58.682 E26.14886
G1 X36.982 Y58.375 E26.17022
G1 X37.459 Y57.967 E26.20113
G1 X37.762 Y57.746 E26.21958
G1 X38.012 Y58.040 F9000.000
G1 X38.548 Y57.712 E26.25047 F600.000
G1 X38.881 Y57.542 E26.26889
G1 X39.461 Y57.302 E26.29978
G1 X39.817 Y57.186 E26.31820
G1 X40.427 Y57.040 E26.34909
G1 X40.797 Y56.981 E26.36753
G1 X41.610 Y56.924 E26.40763
G1 X167.997 Y56.932 E32.62776
G1 X168.623 Y56.981 E32.65867 F600.000
G1 X168.993 Y57.040 E32.67714
G1 X169.603 Y57.186 E32.70801
G1 X169.959 Y57.302 E32.72639
G1 X170.539 Y57.542 E32.75730
G1 X170.873 Y57.712 E32.77573
G1 X171.408 Y58.040 E32.80662
G1 X171.711 Y58.260 E32.82506
G1 X172.188 Y58.668 E32.85596
G1 X172.451 Y58.931 E32.87429
G1 X172.859 Y59.409 E32.90519
G1 X173.080 Y59.712 E32.92365
G1 X173.408 Y60.247 E32.95454
G1 X173.578 Y60.582 E32.97301
G1 X173.818 Y61.162 E33.00390
G1 X173.933 Y61.515 E33.02221
G1 X174.080 Y62.126 E33.05313
G1 X174.139 Y62.498 E33.07166
G1 X174.196 Y63.310 E33.11171
G1 X174.196 Y121.310 E35.96619
G1 X174.139 Y122.122 E36.00625
G1 X174.080 Y122.494 E36.02480
G1 X173.933 Y123.105 E36.05570
G1 X173.818 Y123.458 E36.07400
G1 X173.578 Y124.038 E36.10489
G1 X173.408 Y124.373 E36.12335
G1 X173.080 Y124.908 E36.15424
G1 X172.859 Y125.211 E36.17271
G1 X172.451 Y125.689 E36.20361
G1 X172.188 Y125.952 E36.22195
G1 X171.711 Y126.360 E36.25283
G1 X171.408 Y126.580 E36.27127
G1 X170.873 Y126.908 E36.30216
G1 X170.539 Y127.078 E36.32060
G1 X169.959 Y127.318 E36.35150
G1 X169.603 Y127.434 E36.36990
G1 X168.993 Y127.580 E36.40078
G1 X168.623 Y127.639 E36.41922
G1 X167.810 Y127.696 E36.45933
G1 X41.610 Y127.696 E42.67028
G1 X40.797 Y127.639 E42.71038
G1 X40.427 Y127.580 E42.72880
G1 X39.817 Y127.434 E42.75969
G1 X39.461 Y127.318 E42.77811
G1 X38.881 Y127.078 E42.80901
G1 X38.547 Y126.908 E42.82744
G1 X38.012 Y126.580 E42.85833
G1 X37.710 Y126.360 E42.87674
G1 X37.232 Y125.952 E42.90764
G1 X36.968 Y125.688 E42.92605
G1 X36.560 Y125.211 E42.95694
G1 X36.340 Y124.907 E42.97539
G1 X36.012 Y124.372 E43.00628
G1 X35.842 Y124.039 E43.02469
G1 X35.602 Y123.459 E43.05558
G1 X35.486 Y123.103 E43.07399
G1 X35.340 Y122.493 E43.10489
G1 X35.281 Y122.123 E43.12333
G1 X35.224 Y121.310 E43.16342
G1 X35.232 Y63.123 E46.02710
G1 X35.281 Y62.497 E46.05800
G1 X35.340 Y62.127 E46.07643
G1 X35.486 Y61.517 E46.10733
G1 X35.602 Y61.161 E46.12574
G1 X35.842 Y60.581 E46.15663
G1 X36.012 Y60.248 E46.17505
G1 X36.340 Y59.712 E46.20594
G1 X36.560 Y59.409 E46.22437
G1 X36.968 Y58.932 E46.25528
G1 X37.232 Y58.668 E46.27366
G1 X37.709 Y58.260 E46.30457
G1 X37.964 Y58.075 E46.32005
G1 E40.32005 F1800.00000
G92 E0
G1 X43.943 Y120.940 F9000.000
G1 E6.00000 F1800.00000
G1 X43.972 Y121.310 E6.01825 F600.000
G1 X43.943 Y121.680 E6.03649
G1 X43.857 Y122.040 E6.05474
G1 X43.715 Y122.382 E6.07298
G1 X43.521 Y122.699 E6.09123
G1 X43.280 Y122.981 E6.10948
G1 X42.999 Y123.221 E6.12772
G1 X42.683 Y123.415 E6.14596
G1 X42.340 Y123.557 E6.16421
G1 X41.980 Y123.643 E6.18245
G1 X41.610 Y123.673 E6.20070
G1 X41.240 Y123.643 E6.21894
G1 X40.880 Y123.557 E6.23719
G1 X40.537 Y123.415 E6.25544
G1 X40.221 Y123.221 E6.27368
G1 X39.940 Y122.981 E6.29192
G1 X39.699 Y122.699 E6.31017
G1 X39.505 Y122.383 E6.32842
G1 X39.363 Y122.040 E6.34666
G1 X39.277 Y121.680 E6.36490
G1 X39.248 Y121.310 E6.38315
G1 X39.277 Y120.940 E6.40140
G1 X39.363 Y120.580 E6.41964
G1 X39.505 Y120.238 E6.43788
G1 X39.699 Y119.921 E6.45613
G1 X39.940 Y119.639 E6.47438
G1 X40.221 Y119.399 E6.49262
G1 X40.537 Y119.205 E6.51086
G1 X40.880 Y119.063 E6.52911
G1 X41.240 Y118.977 E6.54735
G1 X41.602 Y118.948 E6.56520 F600.000
G1 X41.978 Y118.976 E6.58378
G1 X42.340 Y119.063 E6.60209
G1 X42.683 Y119.205 E6.62033
G1 X42.999 Y119.399 E6.63858
G1 X43.280 Y119.639 E6.65682
G1 X43.521 Y119.921 E6.67506
G1 X43.715 Y120.238 E6.69331
G1 X43.857 Y120.580 E6.71155
G1 X43.929 Y120.882 E6.72685
G1 X43.561 Y121.001 F9000.000
G1 X43.586 Y121.310 E6.74210 F600.000
G1 X43.561 Y121.619 E6.75736
G1 X43.489 Y121.921 E6.77262
G1 X43.370 Y122.207 E6.78787
G1 X43.208 Y122.471 E6.80314
G1 X43.007 Y122.707 E6.81839
G1 X42.771 Y122.908 E6.83365
G1 X42.507 Y123.070 E6.84891
G1 X42.221 Y123.189 E6.86416
G1 X41.919 Y123.261 E6.87942
G1 X41.610 Y123.286 E6.89468
G1 X41.301 Y123.261 E6.90994
G1 X40.999 Y123.189 E6.92520
G1 X40.713 Y123.070 E6.94046
G1 X40.449 Y122.908 E6.95571
G1 X40.213 Y122.707 E6.97097
G1 X40.012 Y122.471 E6.98623
G1 X39.850 Y122.207 E7.00149
G1 X39.731 Y121.921 E7.01674
G1 X39.659 Y121.619 E7.03200
G1 X39.634 Y121.310 E7.04726
G1 X39.659 Y121.001 E7.06252
G1 X39.731 Y120.699 E7.07778
G1 X39.850 Y120.413 E7.09303
G1 X40.012 Y120.149 E7.10829
G1 X40.213 Y119.913 E7.12355
G1 X40.449 Y119.712 E7.13881
G1 X40.713 Y119.550 E7.15406
G1 X40.999 Y119.431 E7.16932
G1 X41.301 Y119.359 E7.18458
G1 X41.603 Y119.335 E7.19948 F600.000
G1 X41.919 Y119.359 E7.21507
G1 X42.221 Y119.431 E7.23035
G1 X42.507 Y119.550 E7.24561
G1 X42.771 Y119.712 E7.26086
G1 X43.007 Y119.913 E7.27612
G1 X43.208 Y120.149 E7.29138
G1 X43.370 Y120.413 E7.30664
G1 X43.489 Y120.699 E7.32189
G1 X43.547 Y120.943 E7.33420
G1 X43.848 Y121.120 F9000.000
G1 X59.999 Y112.521 F9000.000
G1 X59.999 Y71.599 E9.34814 F600.000
G1 X158.321 Y71.599 E14.18703
G1 X158.321 Y112.521 E16.20097
G1 X60.059 Y112.521 E21.03691
G1 X60.385 Y112.135 F9000.000
G1 X60.385 Y71.985 E23.01289 F600.000
G1 X157.935 Y71.985 E27.81382
G1 X157.935 Y112.135 E29.78981
G1 X60.445 Y112.135 E34.58779
G1 X59.985 Y112.135 F9000.000
G1 E28.58779 F1800.00000
G92 E0
G1 X42.340 Y65.557 F9000.000
G1 E6.00000 F1800.00000
G1 X41.980 Y65.643 E6.01824 F600.000
G1 X41.610 Y65.672 E6.03649
G1 X41.240 Y65.643 E6.05474
G1 X40.880 Y65.557 E6.07299
G1 X40.537 Y65.415 E6.09123
G1 X40.221 Y65.221 E6.10948
G1 X39.940 Y64.981 E6.12772
G1 X39.699 Y64.699 E6.14596
G1 X39.505 Y64.383 E6.16421
G1 X39.363 Y64.040 E6.18245
G1 X39.277 Y63.680 E6.20069
G1 X39.247 Y63.310 E6.21894
G1 X39.277 Y62.940 E6.23719
G1 X39.363 Y62.580 E6.25544
G1 X39.505 Y62.237 E6.27368
G1 X39.699 Y61.921 E6.29193
G1 X39.940 Y61.639 E6.31017
G1 X40.221 Y61.399 E6.32841
G1 X40.537 Y61.205 E6.34666
G1 X40.880 Y61.063 E6.36490
G1 X41.240 Y60.977 E6.38314
G1 X41.602 Y60.948 E6.40100 F600.000
G1 X41.979 Y60.976 E6.41958
G1 X42.340 Y61.063 E6.43788
G1 X42.683 Y61.205 E6.45612
G1 X42.999 Y61.399 E6.47437
G1 X43.281 Y61.639 E6.49262
G1 X43.521 Y61.921 E6.51086
G1 X43.715 Y62.237 E6.52911
G1 X43.857 Y62.580 E6.54735
G1 X43.943 Y62.940 E6.56559
G1 X43.972 Y63.310 E6.58384
G1 X43.943 Y63.680 E6.60209
G1 X43.857 Y64.040 E6.62033
G1 X43.715 Y64.383 E6.63857
G1 X43.521 Y64.699 E6.65682
G1 X43.281 Y64.981 E6.67507
G1 X42.999 Y65.221 E6.69331
G1 X42.683 Y65.415 E6.71156
G1 X42.396 Y65.534 E6.72685
G1 X42.221 Y65.189 F9000.000
G1 X41.919 Y65.261 E6.74210 F600.000
G1 X41.610 Y65.286 E6.75736
G1 X41.301 Y65.261 E6.77262
G1 X40.999 Y65.189 E6.78788
G1 X40.713 Y65.070 E6.80314
G1 X40.449 Y64.908 E6.81840
G1 X40.213 Y64.707 E6.83365
G1 X40.012 Y64.471 E6.84891
G1 X39.850 Y64.207 E6.86417
G1 X39.731 Y63.921 E6.87942
G1 X39.659 Y63.619 E6.89468
G1 X39.634 Y63.310 E6.90994
G1 X39.659 Y63.001 E6.92520
G1 X39.731 Y62.699 E6.94046
G1 X39.850 Y62.413 E6.95571
G1 X40.012 Y62.149 E6.97097
G1 X40.213 Y61.913 E6.98623
G1 X40.449 Y61.712 E7.00149
G1 X40.713 Y61.550 E7.01675
G1 X40.999 Y61.431 E7.03200
G1 X41.301 Y61.359 E7.04726
G1 X41.603 Y61.335 E7.06216 F600.000
G1 X41.919 Y61.358 E7.07776
G1 X42.221 Y61.431 E7.09303
G1 X42.507 Y61.550 E7.10829
G1 X42.771 Y61.712 E7.12355
G1 X43.007 Y61.913 E7.13881
G1 X43.208 Y62.149 E7.15406
G1 X43.370 Y62.413 E7.16932
G1 X43.489 Y62.699 E7.18458
G1 X43.561 Y63.001 E7.19983
G1 X43.586 Y63.310 E7.21509
G1 X43.561 Y63.619 E7.23036
G1 X43.489 Y63.921 E7.24561
G1 X43.370 Y64.207 E7.26087
G1 X43.208 Y64.471 E7.27613
G1 X43.007 Y64.707 E7.29138
G1 X42.771 Y64.908 E7.30664
G1 X42.507 Y65.070 E7.32190
G1 X42.276 Y65.166 E7.33420
G1 X42.148 Y65.490 F9000.000
G1 X165.447 Y63.310 F9000.000
G1 X165.477 Y62.940 E7.35247 F600.000
G1 X165.563 Y62.580 E7.37068
G1 X165.705 Y62.238 E7.38891
G1 X165.898 Y61.921 E7.40717
G1 X166.140 Y61.640 E7.42543
G1 X166.421 Y61.399 E7.44364
G1 X166.738 Y61.205 E7.46195
G1 X167.079 Y61.063 E7.48013
G1 X167.440 Y60.977 E7.49839
G1 X167.802 Y60.948 E7.51625 F600.000
G1 X168.179 Y60.976 E7.53484
G1 X168.541 Y61.063 E7.55316
G1 X168.882 Y61.205 E7.57134
G1 X169.199 Y61.399 E7.58964
G1 X169.480 Y61.640 E7.60786
G1 X169.722 Y61.921 E7.62611
G1 X169.915 Y62.238 E7.64437
G1 X170.057 Y62.580 E7.66260
G1 X170.143 Y62.940 E7.68082
G1 X170.173 Y63.310 E7.69908
G1 X170.143 Y63.680 E7.71735
G1 X170.057 Y64.040 E7.73557
G1 X169.915 Y64.382 E7.75379
G1 X169.722 Y64.699 E7.77206
G1 X169.480 Y64.980 E7.79031
G1 X169.199 Y65.221 E7.80852
G1 X168.882 Y65.415 E7.82683
G1 X168.541 Y65.557 E7.84501
G1 X168.180 Y65.643 E7.86327
G1 X167.810 Y65.672 E7.88153
G1 X167.440 Y65.643 E7.89978
G1 X167.079 Y65.557 E7.91804
G1 X166.738 Y65.415 E7.93623
G1 X166.421 Y65.221 E7.95453
G1 X166.140 Y64.980 E7.97274
G1 X165.898 Y64.699 E7.99100
G1 X165.705 Y64.382 E8.00926
G1 X165.563 Y64.040 E8.02749
G1 X165.477 Y63.680 E8.04570
G1 X165.452 Y63.370 E8.06102
G1 X165.834 Y63.310 F9000.000
G1 X165.859 Y63.001 E8.07628 F600.000
G1 X165.931 Y62.700 E8.09153
G1 X166.050 Y62.413 E8.10678
G1 X166.211 Y62.149 E8.12204
G1 X166.413 Y61.913 E8.13731
G1 X166.648 Y61.712 E8.15254
G1 X166.914 Y61.550 E8.16784
G1 X167.199 Y61.431 E8.18305
G1 X167.501 Y61.359 E8.19832
G1 X167.803 Y61.335 E8.21323 F600.000
G1 X168.119 Y61.358 E8.22883
G1 X168.421 Y61.431 E8.24412
G1 X168.706 Y61.550 E8.25933
G1 X168.972 Y61.712 E8.27463
G1 X169.207 Y61.913 E8.28986
G1 X169.409 Y62.149 E8.30513
G1 X169.570 Y62.413 E8.32039
G1 X169.689 Y62.700 E8.33564
G1 X169.761 Y63.001 E8.35088
G1 X169.786 Y63.310 E8.36615
G1 X169.761 Y63.619 E8.38142
G1 X169.689 Y63.920 E8.39667
G1 X169.570 Y64.207 E8.41192
G1 X169.409 Y64.471 E8.42717
G1 X169.207 Y64.707 E8.44245
G1 X168.972 Y64.908 E8.45767
G1 X168.706 Y65.070 E8.47298
G1 X168.421 Y65.189 E8.48819
G1 X168.119 Y65.261 E8.50345
G1 X167.810 Y65.286 E8.51872
G1 X167.501 Y65.261 E8.53399
G1 X167.199 Y65.189 E8.54926
G1 X166.914 Y65.070 E8.56447
G1 X166.648 Y64.908 E8.57977
G1 X166.413 Y64.707 E8.59500
G1 X166.211 Y64.471 E8.61027
G1 X166.050 Y64.207 E8.62553
G1 X165.931 Y63.920 E8.64078
G1 X165.859 Y63.619 E8.65602
G1 X165.839 Y63.370 E8.66834
G1 X165.570 Y63.148 F9000.000
G1 E2.66834 F1800.00000
G92 E0
G1 X167.802 Y118.948 F9000.000
G1 E6.00000 F1800.00000
G1 X168.179 Y118.976 E6.01859 F600.000
G1 X168.541 Y119.063 E6.03691
G1 X168.882 Y119.205 E6.05510
G1 X169.199 Y119.399 E6.07339
G1 X169.480 Y119.640 E6.09160
G1 X169.722 Y119.921 E6.10986
G1 X169.915 Y120.238 E6.12813
G1 X170.057 Y120.580 E6.14635
G1 X170.143 Y120.940 E6.16457
G1 X170.173 Y121.310 E6.18283
G1 X170.143 Y121.680 E6.20110
G1 X170.057 Y122.040 E6.21931
G1 X169.915 Y122.382 E6.23754
G1 X169.722 Y122.699 E6.25581
G1 X169.480 Y122.980 E6.27407
G1 X169.199 Y123.221 E6.29228
G1 X168.882 Y123.415 E6.31057
G1 X168.541 Y123.557 E6.32876
G1 X168.180 Y123.643 E6.34702
G1 X167.810 Y123.673 E6.36528
G1 X167.440 Y123.643 E6.38353
G1 X167.079 Y123.557 E6.40179
G1 X166.738 Y123.415 E6.41998
G1 X166.421 Y123.221 E6.43828
G1 X166.140 Y122.980 E6.45649
G1 X165.898 Y122.699 E6.47475
G1 X165.708 Y122.388 E6.49269
G1 X165.572 Y122.078 E6.50935
G1 X165.477 Y121.680 E6.52948
G1 X165.447 Y121.310 E6.54774
G1 X165.477 Y120.940 E6.56601
G1 X165.563 Y120.580 E6.58422
G1 X165.705 Y120.238 E6.60245
G1 X165.898 Y119.921 E6.62071
G1 X166.140 Y119.640 E6.63897
G1 X166.421 Y119.399 E6.65719
G1 X166.738 Y119.205 E6.67548
G1 X167.079 Y119.063 E6.69367
G1 X167.440 Y118.977 E6.71193
G1 X167.742 Y118.953 E6.72684 F600.000
G1 X167.803 Y119.335 F9000.000
G1 X168.119 Y119.359 E6.74244 F600.000
G1 X168.421 Y119.431 E6.75772
G1 X168.706 Y119.550 E6.77294
G1 X168.972 Y119.712 E6.78824
G1 X169.207 Y119.913 E6.80347
G1 X169.409 Y120.149 E6.81874
G1 X169.570 Y120.413 E6.83400
G1 X169.689 Y120.700 E6.84925
G1 X169.761 Y121.001 E6.86449
G1 X169.786 Y121.310 E6.87976
G1 X169.761 Y121.619 E6.89503
G1 X169.689 Y121.920 E6.91027
G1 X169.570 Y122.207 E6.92552
G1 X169.409 Y122.471 E6.94078
G1 X169.207 Y122.707 E6.95606
G1 X168.972 Y122.908 E6.97128
G1 X168.706 Y123.070 E6.98658
G1 X168.421 Y123.189 E7.00180
G1 X168.119 Y123.261 E7.01706
G1 X167.810 Y123.286 E7.03233
G1 X167.501 Y123.261 E7.04760
G1 X167.199 Y123.189 E7.06286
G1 X166.914 Y123.070 E7.07808
G1 X166.648 Y122.908 E7.09338
G1 X166.413 Y122.707 E7.10860
G1 X166.211 Y122.471 E7.12388
G1 X166.051 Y122.209 E7.13902
G1 X165.939 Y121.954 E7.15270
G1 X165.859 Y121.619 E7.16966
G1 X165.834 Y121.310 E7.18492
G1 X165.859 Y121.001 E7.20019
G1 X165.931 Y120.700 E7.21544
G1 X166.050 Y120.413 E7.23069
G1 X166.211 Y120.149 E7.24594
G1 X166.413 Y119.913 E7.26122
