; generated by Slic3r 1.2.9 on 2018-01-15 at 08:59:17

; external perimeters extrusion width = 0.40mm
; perimeters extrusion width = 0.62mm
; infill extrusion width = 0.33mm
; solid infill extrusion width = 0.62mm
; top infill extrusion width = 0.20mm

M106 S256; Turn on fan to 100% power
M104 S140; turn on extruder temperature at S value
M140 S60; turn on bed temperature at S value
G28; home all axes
M84; disable motors
G1 Z15 F15000; have Z move to 20mm at 15000 mm/min
M190 S55; turn on bed temperature at S value and wait
M140 S55; turn on bed temperature at S value (printing temperature)
M109 S200; turn on extruder temperature at S value and wait (printing temperature)
M104 S200; turn on extruder temperature at S value
G1 Z0 F12000; move Z back to home
G21 ; set units to millimeters
G90 ; use absolute coordinates
M82 ; use absolute distances for extrusion
G92 E0
M106 S255
;Layer change
G1 E-6.00000 F1800.00000
G92 E0
G1 Z0.300 F9000.000
G1 X97.014 Y10.150 F9000.000
G1 E6.00000 F1800.00000
G1 X97.406 Y8.840 E6.06886 F600.000
G1 X98.452 Y7.961 E6.13771
G1 X99.400 Y7.764 E6.18647
G1 X129.400 Y7.764 E7.69766
G1 X130.710 Y8.156 E7.76651
G1 X131.589 Y9.202 E7.83537 F600.000
G1 X131.786 Y10.150 E7.88412
G1 X131.786 Y40.150 E9.39531
G1 X131.394 Y41.460 E9.46417
G1 X130.348 Y42.339 E9.53303
G1 X129.400 Y42.536 E9.58178
G1 X99.400 Y42.536 E11.09297
G1 X98.090 Y42.144 E11.16183
G1 X97.211 Y41.098 E11.23068
G1 X97.014 Y40.150 E11.27944
G1 X97.014 Y10.210 E12.78761
G1 E6.78761 F1800.00000
G92 E0
G1 X128.214 Y25.150 F9000.000
G1 E6.00000 F1800.00000
G1 X127.868 Y28.224 E6.15583 F600.000
G1 X126.846 Y31.144 E6.31165
G1 X125.201 Y33.763 E6.46748
G1 X123.013 Y35.951 E6.62331
G1 X120.394 Y37.596 E6.77914
G1 X117.474 Y38.618 E6.93496
G1 X114.400 Y38.964 E7.09079
G1 X111.326 Y38.618 E7.24662
G1 X108.406 Y37.596 E7.40244
G1 X105.787 Y35.951 E7.55827
G1 X103.599 Y33.763 E7.71410
G1 X101.954 Y31.144 E7.86993
G1 X100.932 Y28.224 E8.02575
G1 X100.586 Y25.150 E8.18158
G1 X100.932 Y22.076 E8.33741
G1 X101.954 Y19.156 E8.49323
G1 X103.599 Y16.537 E8.64906
G1 X105.787 Y14.349 E8.80489
G1 X108.406 Y12.704 E8.96071
G1 X111.326 Y11.682 E9.11654
G1 X111.639 Y11.647 E9.13242
G1 X114.400 Y11.336 E9.27237 F600.000
G1 X117.474 Y11.682 E9.42820
G1 X120.394 Y12.704 E9.58402
G1 X123.013 Y14.349 E9.73985
G1 X125.201 Y16.537 E9.89568
G1 X126.846 Y19.156 E10.05150
G1 X127.868 Y22.076 E10.20733
G1 X128.208 Y25.090 E10.36014
G1 X127.826 Y25.150 F9000.000
G1 X127.490 Y28.138 E10.51159 F600.000
G1 X126.497 Y30.976 E10.66304
G1 X124.897 Y33.521 E10.81449
G1 X122.771 Y35.647 E10.96594
G1 X120.226 Y37.247 E11.11739
G1 X117.388 Y38.240 E11.26884
G1 X114.400 Y38.576 E11.42028
G1 X111.412 Y38.240 E11.57173
G1 X108.574 Y37.247 E11.72318
G1 X106.029 Y35.647 E11.87463
G1 X103.903 Y33.521 E12.02608
G1 X102.303 Y30.976 E12.17753
G1 X101.310 Y28.138 E12.32898
G1 X100.974 Y25.150 E12.48043
G1 X101.310 Y22.162 E12.63188
G1 X102.303 Y19.324 E12.78333
G1 X103.903 Y16.779 E12.93478
G1 X106.029 Y14.653 E13.08623
G1 X108.574 Y13.053 E13.23768
G1 X111.412 Y12.060 E13.38913
G1 X111.682 Y12.030 E13.40282
G1 X114.400 Y11.724 E13.54058 F600.000
G1 X117.388 Y12.060 E13.69203
G1 X120.226 Y13.053 E13.84348
G1 X122.771 Y14.653 E13.99493
G1 X124.897 Y16.779 E14.14638
G1 X126.497 Y19.324 E14.29783
G1 X127.490 Y22.162 E14.44928
G1 X127.820 Y25.090 E14.59771
G1 X128.165 Y25.363 F9000.000
G1 X128.789 Y10.761 F9000.000
G1 X128.789 Y39.539 E16.04738 F600.000
G1 X100.011 Y39.539 E17.49705
G1 X100.011 Y10.761 E18.94673
G1 X128.729 Y10.761 E20.39338
G1 X129.175 Y10.375 F9000.000
G1 X129.175 Y39.925 E21.88190 F600.000
G1 X99.625 Y39.925 E23.37042
G1 X99.625 Y10.375 E24.85895
G1 X129.115 Y10.375 E26.34445
G1 X128.975 Y10.721 F9000.000
G1 X128.506 Y11.248 F9000.000
G1 X128.302 Y11.044 E26.35957 F600.000
G1 X127.733 Y11.044 E26.38945
G1 X128.506 Y11.817 E26.44682
G1 X128.506 Y12.385 E26.47669
G1 X127.165 Y11.044 E26.57631
G1 X126.596 Y11.044 E26.60618
G1 X128.506 Y12.954 E26.74804
G1 X128.506 Y13.523 E26.77791
G1 X126.027 Y11.044 E26.96202
G1 X125.459 Y11.044 E26.99190
G1 X128.506 Y14.091 E27.21825
G1 X128.506 Y14.660 E27.24812
G1 X124.890 Y11.044 E27.51673
G1 X124.321 Y11.044 E27.54660
G1 X128.506 Y15.229 E27.85745
G1 X128.506 Y15.798 E27.88732
G1 X123.752 Y11.044 E28.24041
G1 X123.184 Y11.044 E28.27029
G1 X128.506 Y16.366 E28.66563
G1 X128.506 Y16.935 E28.69550
G1 X122.615 Y11.044 E29.13308
G1 X122.046 Y11.044 E29.16296
G1 X128.506 Y17.504 E29.64279
G1 X128.506 Y18.072 E29.67266
G1 X121.478 Y11.044 E30.19474
G1 X120.909 Y11.044 E30.22461
G1 X128.506 Y18.641 E30.78894
G1 X128.506 Y19.210 E30.81881
G1 X120.340 Y11.044 E31.42538
G1 X119.772 Y11.044 E31.45525
G1 X122.104 Y13.377 E31.62851
G1 X120.600 Y12.442 F9000.000
G1 X119.203 Y11.044 E31.73230 F600.000
G1 X118.634 Y11.044 E31.76218
G1 X119.725 Y12.136 E31.84323
G1 X118.851 Y11.829 F9000.000
G1 X118.066 Y11.044 E31.90154 F600.000
G1 X117.761 Y11.308 E31.92272
G1 X117.976 Y11.523 E31.93870
G1 E25.93870 F1800.00000
G92 E0
G1 X126.173 Y17.446 F9000.000
G1 E6.00000 F1800.00000
G1 X128.506 Y19.778 E6.17326 F600.000
G1 X128.506 Y20.347 E6.20313
G1 X127.108 Y18.950 E6.30693
G1 X127.414 Y19.825 F9000.000
G1 X128.506 Y20.916 E6.38798 F600.000
G1 X128.506 Y21.484 E6.41785
G1 X127.721 Y20.699 E6.47616
G1 X128.027 Y21.574 F9000.000
G1 X128.242 Y21.789 E6.49214 F600.000
G1 X128.330 Y22.064 F9000.000
G1 X128.469 Y24.550 E6.76390 F600.000
G1 X128.469 Y24.550 F9000.000
G1 X128.502 Y25.139 E6.79365 F600.000
G1 X128.469 Y25.750 E6.82445
G1 X128.469 Y25.750 F9000.000
G1 X128.330 Y28.236 E7.09621 F600.000
G1 X128.506 Y28.728 F9000.000
G1 X128.301 Y28.523 E7.11104 F600.000
G1 X127.964 Y28.741 E7.13155
G1 X128.506 Y29.282 E7.17073
G1 X128.506 Y29.836 E7.19909
G1 X127.821 Y29.151 E7.24867
G1 X127.677 Y29.562 E7.27092
G1 X128.506 Y30.390 E7.33090
G1 X128.506 Y30.944 E7.35925
G1 X127.533 Y29.972 E7.42962
G1 X127.390 Y30.383 E7.45188
G1 X128.506 Y31.498 E7.53264
G1 X128.506 Y32.053 E7.56100
G1 X127.246 Y30.793 E7.65216
G1 X127.102 Y31.203 E7.67442
G1 X128.506 Y32.607 E7.77598
G1 X128.506 Y33.161 E7.80433
G1 X126.892 Y31.547 E7.92114
G1 X126.678 Y31.887 E7.94171
G1 X128.506 Y33.715 E8.07399
G1 X128.506 Y34.269 E8.10235
G1 X126.464 Y32.227 E8.25010
G1 X126.250 Y32.568 E8.27067
G1 X128.506 Y34.823 E8.43390
G1 X128.506 Y35.377 E8.46226
G1 X126.037 Y32.908 E8.64097
G1 X125.823 Y33.248 E8.66154
G1 X128.506 Y35.931 E8.85572
G1 X128.506 Y36.485 E8.88408
G1 X125.609 Y33.589 E9.09374
G1 X125.392 Y33.925 E9.11425
G1 X128.506 Y37.039 E9.33963
G1 X128.506 Y37.593 E9.36799
G1 X125.115 Y34.202 E9.61341
G1 X124.838 Y34.480 E9.63347
G1 X128.506 Y38.147 E9.89895
G1 X128.506 Y38.702 E9.92730
G1 X124.561 Y34.757 E10.21284
G1 X124.284 Y35.034 E10.23289
G1 X128.486 Y39.236 E10.53702
G1 X127.951 Y39.256 E10.56438
G1 X124.007 Y35.311 E10.84991
G1 X123.730 Y35.588 E10.86996
G1 X127.397 Y39.256 E11.13544
G1 X126.843 Y39.256 E11.16380
G1 X123.452 Y35.865 E11.40923
G1 X123.175 Y36.142 E11.42928
G1 X126.289 Y39.256 E11.65465
G1 X125.735 Y39.256 E11.68301
G1 X122.838 Y36.359 E11.89267
G1 X122.498 Y36.573 E11.91324
G1 X125.181 Y39.256 E12.10742
G1 X124.627 Y39.256 E12.13578
G1 X122.158 Y36.787 E12.31448
G1 X121.818 Y37.000 E12.33505
G1 X124.073 Y39.256 E12.49828
G1 X123.519 Y39.256 E12.52664
G1 X121.477 Y37.214 E12.67439
G1 X121.137 Y37.428 E12.69496
G1 X122.965 Y39.256 E12.82724
G1 X122.411 Y39.256 E12.85560
G1 X120.797 Y37.642 E12.97241
G1 X120.453 Y37.852 E12.99302
G1 X121.857 Y39.256 E13.09458
G1 X121.302 Y39.256 E13.12294
G1 X120.043 Y37.996 E13.21410
G1 X119.633 Y38.140 E13.23635
G1 X120.748 Y39.256 E13.31712
G1 X120.194 Y39.256 E13.34548
G1 X119.222 Y38.283 E13.41585
G1 X118.812 Y38.427 E13.43810
G1 X119.640 Y39.256 E13.49808
G1 X119.086 Y39.256 E13.52643
G1 X118.401 Y38.571 E13.57601
G1 X117.991 Y38.714 E13.59827
G1 X118.532 Y39.256 E13.63745
G1 X117.978 Y39.256 E13.66581
G1 X117.773 Y39.051 E13.68063
G1 X117.486 Y39.080 F9000.000
G1 X115.000 Y39.219 E13.95239 F600.000
G1 X115.000 Y39.219 F9000.000
G1 X114.411 Y39.252 E13.98213 F600.000
G1 X113.800 Y39.219 E14.01294
G1 X111.314 Y39.080 E14.28470 F600.000
G1 X111.039 Y38.992 F9000.000
G1 X110.824 Y38.777 E14.30068 F600.000
G1 X109.949 Y38.471 F9000.000
G1 X110.734 Y39.256 E14.35900 F600.000
G1 X110.166 Y39.256 E14.38887
G1 X109.075 Y38.164 E14.46992
G1 X108.200 Y37.858 F9000.000
G1 X109.597 Y39.256 E14.57372 F600.000
G1 X109.028 Y39.256 E14.60359
G1 X106.696 Y36.923 E14.77685
G1 X102.627 Y32.854 F9000.000
G1 X100.294 Y30.522 E14.95011 F600.000
G1 X100.294 Y29.953 E14.97999
G1 X101.692 Y31.350 E15.08378
G1 X101.386 Y30.475 F9000.000
G1 X100.294 Y29.384 E15.16483 F600.000
G1 X101.079 Y29.601 E15.20761
G1 X100.294 Y28.816 E15.26592
G1 X100.558 Y28.511 E15.28710
G1 X100.773 Y28.726 E15.30308
G1 X100.294 Y31.090 F9000.000
G1 X108.460 Y39.256 E15.90965 F600.000
G1 X107.891 Y39.256 E15.93953
G1 X100.294 Y31.659 E16.50385
G1 X100.294 Y32.228 E16.53372
G1 X107.322 Y39.256 E17.05580
G1 X106.754 Y39.256 E17.08567
G1 X100.294 Y32.796 E17.56550
G1 X100.294 Y33.365 F9000.000
G1 X106.185 Y39.256 E18.00309 F600.000
G1 X105.616 Y39.256 E18.03296
G1 X100.294 Y33.934 E18.42830
G1 X100.294 Y34.502 E18.45817
G1 X105.048 Y39.256 E18.81127
G1 X104.479 Y39.256 E18.84114
G1 X100.294 Y35.071 E19.15199
G1 X100.294 Y35.640 E19.18186
G1 X103.910 Y39.256 E19.45046
G1 X103.341 Y39.256 E19.48033
G1 X100.294 Y36.209 E19.70669
G1 X100.294 Y36.777 E19.73656
G1 X102.773 Y39.256 E19.92067
G1 X102.204 Y39.256 E19.95054
G1 X100.294 Y37.346 E20.09240
G1 X100.294 Y37.915 E20.12228
G1 X101.635 Y39.256 E20.22189
G1 X101.067 Y39.256 E20.25176
G1 X100.294 Y38.483 E20.30913
G1 X100.294 Y39.052 E20.33901
G1 X100.498 Y39.256 E20.35413
G1 X100.470 Y28.236 F9000.000
G1 X100.331 Y25.750 E20.62589 F600.000
G1 X100.331 Y25.750 F9000.000
G1 X100.298 Y25.161 E20.65563 F600.000
G1 X100.331 Y24.550 E20.68644
G1 X100.331 Y24.550 F9000.000
G1 X100.470 Y22.064 E20.95820 F600.000
G1 X100.499 Y21.777 F9000.000
G1 X100.294 Y21.572 E20.97302 F600.000
G1 X100.294 Y21.018 E21.00138
G1 X100.836 Y21.559 E21.04056
G1 X100.979 Y21.149 E21.06282
G1 X100.294 Y20.464 E21.11239
G1 X100.294 Y19.910 E21.14075
G1 X101.123 Y20.738 E21.20072
G1 X101.267 Y20.328 E21.22298
G1 X100.294 Y19.356 E21.29335
G1 X100.294 Y18.802 E21.32171
G1 X101.410 Y19.917 E21.40247
G1 X101.554 Y19.507 E21.42473
G1 X100.294 Y18.248 E21.51589
G1 X100.294 Y17.693 E21.54425
G1 X101.698 Y19.097 E21.64580
G1 X101.908 Y18.753 E21.66642
G1 X100.294 Y17.139 E21.78323
G1 X100.294 Y16.585 E21.81158
G1 X102.122 Y18.413 E21.94387
G1 X102.336 Y18.073 E21.96443
G1 X100.294 Y16.031 E22.11219
G1 X100.294 Y15.477 E22.14055
G1 X102.550 Y17.732 E22.30378
G1 X102.763 Y17.392 E22.32435
G1 X100.294 Y14.923 E22.50305
G1 X100.294 Y14.369 E22.53141
G1 X102.977 Y17.052 E22.72559
G1 X103.191 Y16.711 E22.74616
G1 X100.294 Y13.815 E22.95582
G1 X100.294 Y13.261 E22.98418
G1 X103.408 Y16.375 E23.20955
G1 X103.685 Y16.098 E23.22960
G1 X100.294 Y12.707 E23.47503
G1 X100.294 Y12.153 E23.50339
G1 X103.962 Y15.820 E23.76887
G1 X104.239 Y15.543 E23.78892
G1 X100.294 Y11.599 E24.07445
G1 X100.314 Y11.064 E24.10181
G1 X104.516 Y15.266 E24.40594
G1 X104.793 Y14.989 E24.42599
G1 X100.848 Y11.044 E24.71153
G1 X101.403 Y11.044 E24.73989
G1 X105.070 Y14.712 E25.00537
G1 X105.348 Y14.435 E25.02542
G1 X101.957 Y11.044 E25.27085
G1 X102.511 Y11.044 E25.29920
G1 X105.625 Y14.158 E25.52458
G1 X105.961 Y13.941 E25.54509
G1 X103.065 Y11.044 E25.75475
G1 X103.619 Y11.044 E25.78311
G1 X106.302 Y13.727 E25.97729
G1 X106.642 Y13.513 E25.99786
G1 X104.173 Y11.044 E26.17657
G1 X104.727 Y11.044 E26.20493
G1 X106.982 Y13.300 E26.36816
G1 X107.323 Y13.086 E26.38873
G1 X105.281 Y11.044 E26.53648
G1 X105.835 Y11.044 E26.56484
G1 X107.663 Y12.872 E26.69712
G1 X108.003 Y12.658 E26.71769
G1 X106.389 Y11.044 E26.83450
G1 X106.943 Y11.044 E26.86286
G1 X108.347 Y12.448 E26.96441
G1 X108.757 Y12.304 E26.98667
G1 X107.498 Y11.044 E27.07783
G1 X108.052 Y11.044 E27.10619
G1 X109.167 Y12.160 E27.18695
G1 X109.578 Y12.017 E27.20921
G1 X108.606 Y11.044 E27.27958
G1 X109.160 Y11.044 E27.30793
G1 X109.988 Y11.873 E27.36791
G1 X110.399 Y11.729 E27.39016
G1 X109.714 Y11.044 E27.43974
G1 X110.268 Y11.044 E27.46810
G1 X110.809 Y11.586 E27.50728
G1 X110.822 Y11.044 E27.53500
G1 X111.027 Y11.249 E27.54982
G1 X111.314 Y11.220 F9000.000
G1 X113.800 Y11.081 E27.82158 F600.000
G1 X113.800 Y11.081 F9000.000
G1 X114.389 Y11.048 E27.85133 F600.000
G1 X115.000 Y11.081 E27.88213
G1 X115.000 Y11.081 F9000.000
G1 X117.486 Y11.220 E28.15389 F600.000
M104 S199 ; set temperature
M140 S55 ; wait for bed temperature to be reached
;Layer change
G1 E22.15389 F1800.00000
G92 E0
G1 Z0.520 F9000.000
G1 X124.143 Y15.407 F9000.000
G1 E6.00000 F1800.00000
G1 X125.241 Y16.505 E6.08495 F3000.000
G1 X126.893 Y19.134 E6.25485
G1 X127.919 Y22.064 E6.42475
G1 X128.266 Y25.150 E6.59465
G1 X127.919 Y28.236 E6.76455
G1 X126.893 Y31.166 E6.93445
G1 X125.241 Y33.795 E7.10435
G1 X123.045 Y35.991 E7.27425
G1 X120.416 Y37.643 E7.44416
G1 X117.486 Y38.669 E7.61406
G1 X114.400 Y39.016 E7.78396
G1 X111.314 Y38.669 E7.95386
G1 X108.384 Y37.643 E8.12376
G1 X105.755 Y35.991 E8.29366
G1 X103.559 Y33.795 E8.46356
G1 X101.907 Y31.166 E8.63346
G1 X100.881 Y28.236 E8.80336
G1 X100.534 Y25.150 E8.97326
G1 X100.881 Y22.064 E9.14316
G1 X101.907 Y19.134 E9.31306
G1 X103.559 Y16.505 E9.48296
G1 X105.755 Y14.309 E9.65286
G1 X108.384 Y12.657 E9.82276
G1 X111.314 Y11.631 E9.99266
G1 X112.058 Y11.548 E10.03359
G1 X114.400 Y11.284 E10.16257 F3000.000
G1 X117.486 Y11.631 E10.33247
G1 X120.416 Y12.657 E10.50237
G1 X123.045 Y14.309 E10.67227
G1 X124.101 Y15.364 E10.75393
G1 X123.817 Y15.733 F9000.000
G1 X124.878 Y16.794 E10.80464 F1800.000
G1 X126.474 Y19.335 E10.90606
G1 X127.465 Y22.168 E11.00748
G1 X127.801 Y25.150 E11.10889
G1 X127.465 Y28.132 E11.21031
G1 X126.474 Y30.965 E11.31173
G1 X124.878 Y33.506 E11.41314
G1 X122.756 Y35.628 E11.51456
G1 X120.215 Y37.224 E11.61598
G1 X117.382 Y38.215 E11.71739
G1 X114.400 Y38.551 E11.81881
G1 X111.418 Y38.215 E11.92023
G1 X108.585 Y37.224 E12.02164
G1 X106.044 Y35.628 E12.12306
G1 X103.922 Y33.506 E12.22448
G1 X102.326 Y30.965 E12.32589
G1 X101.335 Y28.132 E12.42731
G1 X100.999 Y25.150 E12.52873
G1 X101.335 Y22.168 E12.63014
G1 X102.326 Y19.335 E12.73156
G1 X103.922 Y16.794 E12.83298
G1 X106.044 Y14.672 E12.93440
G1 X108.585 Y13.076 E13.03581
G1 X111.418 Y12.085 E13.13723
G1 X112.109 Y12.007 E13.16074
G1 X114.400 Y11.749 E13.23865 F1800.000
G1 X117.382 Y12.085 E13.34006
G1 X120.215 Y13.076 E13.44148
G1 X122.756 Y14.672 E13.54290
G1 X123.774 Y15.691 E13.59158
G1 X124.203 Y15.630 F9000.000
G1 X128.738 Y10.812 F9000.000
G1 X128.738 Y39.488 E15.16066 F3000.000
G1 X100.062 Y39.488 E16.72975
G1 X100.062 Y10.812 E18.29883
G1 X128.678 Y10.812 E19.86463
G1 X129.200 Y10.350 F9000.000
G1 X129.200 Y39.950 E20.86497 F1800.000
G1 X99.600 Y39.950 E21.86530
G1 X99.600 Y10.350 E22.86564
G1 X129.140 Y10.350 E23.86395
G1 X129.000 Y10.696 F9000.000
G1 X125.485 Y16.145 F9000.000
G1 X127.339 Y16.145 E23.94511 F6000.000
G1 X128.018 Y15.466 E23.98712
G1 X128.311 Y15.466 E23.99994
G1 X128.311 Y13.317 E24.09403
G1 X128.018 Y13.317 E24.10685
G1 X127.339 Y12.639 E24.14886
G1 X125.190 Y12.639 E24.24295
G1 X124.512 Y13.317 E24.28495
G1 X122.362 Y13.317 E24.37904
G1 X121.684 Y12.639 E24.42104
G1 X121.190 Y12.639 E24.44267
G1 X126.870 Y18.294 F9000.000
G1 X127.339 Y18.294 E24.46323 F6000.000
G1 X128.018 Y18.973 E24.50524
G1 X128.311 Y18.973 E24.51806
G1 X128.072 Y20.487 F9000.000
G1 X128.298 Y21.816 E24.67179 F1800.000
G1 X128.298 Y21.816 F9000.000
G1 X128.325 Y21.986 E24.68120 F1800.000
G1 X128.435 Y23.940 E24.78828
G1 X128.435 Y26.360 F9000.000
G1 X128.325 Y28.314 E24.89535 F1800.000
G1 X128.298 Y28.484 E24.90477
G1 X128.298 Y28.484 F9000.000
G1 X128.072 Y29.813 E25.05849 F1800.000
G1 X127.961 Y30.228 F9000.000
G1 X128.018 Y30.284 E25.06200 F6000.000
G1 X128.295 Y30.284 E25.07411
G1 X128.311 Y32.434 E25.16820
G1 X128.018 Y32.434 E25.18103
G1 X127.339 Y33.112 E25.22303
G1 X126.175 Y33.112 E25.27403
G1 X123.700 Y35.940 F9000.000
