; generated by Slic3r 1.2.9 on 2020-12-18 at 12:57:41

; external perimeters extrusion width = 0.40mm
; perimeters extrusion width = 0.62mm
; infill extrusion width = 0.33mm
; solid infill extrusion width = 0.62mm
; top infill extrusion width = 0.20mm

M106 S256; Turn on fan to 100% power
M104 S140; turn on extruder temperature at S value
M140 S60; turn on bed temperature at S value
G28; home all axes
M84; disable motors
G1 Z15 F15000; have Z move to 20mm at 15000 mm/min
M190 S55; turn on bed temperature at S value and wait
M140 S55; turn on bed temperature at S value (printing temperature)
M109 S200; turn on extruder temperature at S value and wait (printing temperature)
M104 S200; turn on extruder temperature at S value
G1 Z0 F12000; move Z back to home
G21 ; set units to millimeters
G90 ; use absolute coordinates
M82 ; use absolute distances for extrusion
G92 E0
M106 S255
;Layer change
G1 E-6.00000 F1800.00000
G92 E0
G1 Z0.300 F9000.000
G1 X51.961 Y79.322 F9000.000
G1 E6.00000 F1800.00000
G1 X52.920 Y79.068 E6.04883 F600.000
G1 X61.000 Y78.667 E6.44698
G1 X66.129 Y78.497 E6.69956
G1 X126.707 Y78.726 E9.68091
G1 X127.636 Y78.918 E9.72759 F600.000
G1 X152.782 Y89.671 E11.07355
G1 X153.606 Y90.256 E11.12328
G1 X160.718 Y98.045 E11.64238
G1 X160.998 Y98.420 E11.66545
G1 X166.417 Y107.395 E12.18140
G1 X166.758 Y108.719 E12.24868
G1 X166.317 Y110.013 E12.31595
G1 X165.132 Y110.890 E12.38856
G1 X105.442 Y130.872 E15.48643
G1 X104.713 Y130.995 E15.52281
G1 X62.041 Y131.503 E17.62306
G1 X60.546 Y131.000 E17.70067
G1 X47.613 Y120.926 E18.50748
G1 X47.408 Y120.746 E18.52092
G1 X46.452 Y119.807 E18.58688
G1 X46.210 Y119.530 E18.60496
G1 X45.273 Y118.272 E18.68215
G1 X45.073 Y117.955 E18.70060
G1 X44.174 Y116.240 E18.79591
G1 X44.023 Y115.886 E18.81483
G1 X43.537 Y114.426 E18.89057
G1 X43.448 Y114.070 E18.90861
G1 X43.273 Y113.040 E18.96007
G1 X43.240 Y112.631 E18.98023
G1 X43.244 Y111.723 E19.02491
G1 X43.276 Y111.341 E19.04380
G1 X47.647 Y86.641 E20.27828
G1 X47.771 Y86.233 E20.29929
G1 X47.989 Y85.691 E20.32803
G1 X48.885 Y83.899 E20.42666
G1 X50.969 Y80.262 E20.63293
G1 X51.917 Y79.363 E20.69725
G1 E14.69725 F1800.00000
G92 E0
G1 X103.380 Y103.092 F9000.000
G1 E6.00000 F1800.00000
G1 X101.083 Y99.099 E6.22671 F600.000
G1 X119.314 Y98.669 E7.12418
G1 X119.367 Y98.609 E7.12810
G1 X119.652 Y98.537 E7.14258
G1 X120.407 Y98.422 E7.18016
G1 X120.790 Y98.386 E7.19910
G1 X120.884 Y98.363 E7.20385
G1 X121.064 Y98.268 E7.21387
G1 X121.926 Y97.440 E7.27270
G1 X122.127 Y97.183 E7.28879
G1 X122.264 Y96.922 E7.30327
G1 X122.401 Y96.537 E7.32337
G1 X122.471 Y96.174 E7.34156
G1 X122.490 Y95.650 E7.36739
G1 X122.345 Y94.562 E7.42138
G1 X122.255 Y94.088 E7.44513
G1 X122.196 Y94.032 E7.44916
G1 X121.711 Y93.056 E7.50281
G1 X120.100 Y90.023 E7.67182
G1 X123.431 Y90.023 E7.83575
G1 X131.127 Y104.003 E8.62113
G1 X127.581 Y104.003 E8.79566
G1 X125.633 Y100.455 E8.99486
G1 X124.862 Y101.265 E9.04986
G1 X124.163 Y101.796 E9.09308
G1 X123.156 Y102.347 E9.14960
G1 X122.286 Y102.647 E9.19487
G1 X121.352 Y102.812 E9.24153
G1 X120.863 Y102.842 E9.26564
G1 X110.204 Y102.921 E9.79025
G1 X103.406 Y102.927 E10.12483
G1 X103.389 Y103.033 E10.13014
G1 X103.106 Y103.384 F9000.000
G1 X93.576 Y99.809 F9000.000
G1 X87.641 Y99.809 E10.42224 F600.000
G1 X86.820 Y98.787 E10.48675
G1 X86.661 Y98.610 E10.49846
G1 X86.342 Y98.342 E10.51899
G1 X85.653 Y97.927 E10.55857
G1 X84.330 Y97.239 E10.63198
G1 X83.732 Y96.844 E10.66723
G1 X83.247 Y96.421 E10.69889
G1 X82.624 Y95.645 E10.74787
G1 X81.209 Y93.450 E10.87639
G1 X79.726 Y90.511 E11.03841
G1 X78.974 Y88.814 E11.12976
G1 X78.827 Y88.385 E11.15210
G1 X78.772 Y87.951 E11.17360
G1 X78.789 Y87.421 E11.19971
G1 X78.957 Y86.024 E11.26895
G1 X85.540 Y86.024 E11.59292
G1 X87.017 Y88.435 E11.73210
G1 X87.170 Y88.088 E11.75075
G1 X87.441 Y87.674 E11.77512
G1 X87.784 Y87.297 E11.80021
G1 X88.126 Y87.025 E11.82172
G1 X88.473 Y86.828 E11.84133
G1 X88.964 Y86.645 E11.86715
G1 X89.730 Y86.480 E11.90572
G1 X90.824 Y86.387 E11.95975
G1 X92.882 Y86.278 E12.06114
G1 X100.632 Y86.096 E12.44268
G1 X109.260 Y86.129 E12.86733
G1 X109.323 Y86.211 E12.87242
G1 X110.004 Y86.212 E12.90593
G1 X113.508 Y92.343 E13.25349
G1 X96.764 Y92.435 E14.07755
G1 X96.736 Y92.467 E14.07964
G1 X93.827 Y92.810 E14.22384
G1 X92.424 Y93.239 E14.29603
G1 X92.164 Y93.347 E14.30988
G1 X91.975 Y93.480 E14.32124
G1 X91.781 Y93.739 E14.33717
G1 X91.675 Y93.976 E14.34998
G1 X91.591 Y94.285 E14.36571
G1 X91.547 Y94.655 E14.38405
G1 X91.568 Y95.182 E14.41002
G1 X91.802 Y96.301 E14.46628
G1 X93.549 Y99.755 E14.65679
G1 X92.949 Y99.423 F9000.000
G1 X87.826 Y99.423 E14.90893 F600.000
G1 X87.114 Y98.537 E14.96489
G1 X86.930 Y98.332 E14.97845
G1 X86.567 Y98.027 E15.00177
G1 X85.842 Y97.590 E15.04345
G1 X84.525 Y96.906 E15.11647
G1 X83.966 Y96.537 E15.14944
G1 X83.527 Y96.153 E15.17815
G1 X82.937 Y95.419 E15.22447
G1 X81.544 Y93.258 E15.35100
G1 X80.075 Y90.346 E15.51155
G1 X79.333 Y88.674 E15.60158
G1 X79.205 Y88.297 E15.62116
G1 X79.158 Y87.933 E15.63923
G1 X79.173 Y87.450 E15.66299
G1 X79.299 Y86.410 E15.71457
G1 X85.324 Y86.410 E16.01108
G1 X87.135 Y89.365 E16.18166
G1 X87.270 Y88.818 E16.20937
G1 X87.510 Y88.273 E16.23869
G1 X87.747 Y87.911 E16.25997
G1 X88.048 Y87.580 E16.28203
G1 X88.343 Y87.346 E16.30052
G1 X88.636 Y87.179 E16.31714
G1 X89.073 Y87.016 E16.34007
G1 X89.787 Y86.863 E16.37605
G1 X90.851 Y86.772 E16.42858
G1 X92.896 Y86.663 E16.52939
G1 X100.636 Y86.481 E16.91039
G1 X109.069 Y86.514 E17.32545
G1 X109.133 Y86.597 E17.33058
G1 X109.780 Y86.597 E17.36245
G1 X112.845 Y91.961 E17.66650
G1 X96.585 Y92.050 E18.46675
G1 X96.541 Y92.102 E18.47010
G1 X93.636 Y92.445 E18.61409
G1 X93.603 Y92.482 E18.61651
G1 X92.294 Y92.876 E18.68381
G1 X91.989 Y93.003 E18.70006
G1 X91.823 Y93.103 E18.70961
G1 X91.705 Y93.203 E18.71723
G1 X91.571 Y93.354 E18.72714
G1 X91.441 Y93.554 E18.73886
G1 X91.310 Y93.847 E18.75466
G1 X91.212 Y94.211 E18.77325
G1 X91.161 Y94.640 E18.79448
G1 X91.184 Y95.230 E18.82354
G1 X91.444 Y96.471 E18.88594
G1 X92.922 Y99.370 E19.04610
G1 X92.322 Y99.038 F9000.000
G1 X88.011 Y99.038 E19.25828 F600.000
G1 X87.408 Y98.287 E19.30568
G1 X87.198 Y98.054 E19.32108
G1 X86.792 Y97.712 E19.34720
G1 X86.030 Y97.253 E19.39098
G1 X84.721 Y96.573 E19.46360
G1 X84.200 Y96.229 E19.49431
G1 X83.806 Y95.885 E19.52007
G1 X83.251 Y95.193 E19.56372
G1 X81.879 Y93.066 E19.68826
G1 X80.424 Y90.181 E19.84734
G1 X79.692 Y88.533 E19.93606
G1 X79.582 Y88.210 E19.95287
G1 X79.545 Y87.914 E19.96751
G1 X79.558 Y87.479 E19.98893
G1 X79.641 Y86.795 E20.02284
G1 X85.108 Y86.795 E20.29189
G1 X87.287 Y90.351 E20.49715
G1 X87.637 Y88.943 E20.56856
G1 X87.850 Y88.457 E20.59468
G1 X88.053 Y88.148 E20.61288
G1 X88.313 Y87.862 E20.63190
G1 X88.559 Y87.666 E20.64739
G1 X88.800 Y87.529 E20.66102
G1 X89.181 Y87.387 E20.68104
G1 X89.844 Y87.245 E20.71443
G1 X90.877 Y87.157 E20.76546
G1 X92.911 Y87.049 E20.86569
G1 X100.639 Y86.867 E21.24614
G1 X108.878 Y86.899 E21.65163
G1 X108.942 Y86.982 E21.65680
G1 X109.556 Y86.983 E21.68702
G1 X112.183 Y91.579 E21.94757
G1 X96.407 Y91.665 E22.72401
G1 X96.346 Y91.736 E22.72862
G1 X93.445 Y92.079 E22.87239
G1 X93.387 Y92.144 E22.87666
G1 X92.163 Y92.512 E22.93955
G1 X91.814 Y92.658 E22.95820
G1 X91.597 Y92.789 E22.97068
G1 X91.434 Y92.927 E22.98116
G1 X91.264 Y93.120 E22.99382
G1 X91.101 Y93.368 E23.00844
G1 X90.946 Y93.717 E23.02723
G1 X90.832 Y94.138 E23.04868
G1 X90.774 Y94.624 E23.07280
G1 X90.800 Y95.277 E23.10495
G1 X91.091 Y96.664 E23.17469
G1 X91.152 Y96.725 E23.17896
G1 X92.295 Y98.984 E23.30356
G1 X92.384 Y99.433 F9000.000
G1 X87.861 Y100.051 F9000.000
G1 X91.296 Y105.838 E23.63477 F600.000
G1 X93.000 Y106.028 E23.71912
G1 X97.664 Y106.611 E23.95048
G1 X100.935 Y107.264 E24.11462
G1 X102.850 Y107.849 E24.21318
G1 X104.900 Y108.756 E24.32348
G1 X106.546 Y109.713 E24.41723
G1 X106.904 Y109.994 E24.43959
G1 X108.982 Y111.976 E24.58092
G1 X109.221 Y112.311 E24.60118
G1 X110.215 Y114.197 E24.70608
G1 X110.363 Y114.547 E24.72480
G1 X110.473 Y114.983 E24.74693
G1 X110.534 Y115.571 E24.77602
G1 X110.493 Y116.656 E24.82944
G1 X110.382 Y117.340 E24.86359
G1 X110.203 Y117.881 E24.89163
G1 X109.969 Y118.340 E24.91699
G1 X109.704 Y118.706 E24.93922
G1 X108.836 Y119.557 E24.99903
G1 X107.226 Y120.815 E25.09958
G1 X105.702 Y122.112 E25.19811
G1 X105.055 Y122.870 E25.24711
G1 X103.729 Y125.051 E25.37275
G1 X103.576 Y125.406 E25.39175
G1 X103.412 Y126.046 E25.42427
G1 X102.184 Y124.224 E25.53240
G1 X102.093 Y124.000 E25.54428
G1 X102.016 Y123.678 E25.56057
G1 X101.979 Y123.225 E25.58294
G1 X102.026 Y122.548 E25.61635
G1 X102.172 Y121.885 E25.64976
G1 X102.475 Y121.108 E25.69080
G1 X103.460 Y119.225 E25.79538
G1 X103.945 Y118.070 E25.85704
G1 X104.052 Y117.628 E25.87941
G1 X104.090 Y117.172 E25.90193
G1 X104.057 Y116.743 E25.92311
G1 X103.899 Y116.225 E25.94977
G1 X103.736 Y115.947 E25.96561
G1 X103.402 Y115.513 E25.99258
G1 X102.733 Y114.838 E26.03934
G1 X102.066 Y114.347 E26.08010
G1 X101.345 Y113.971 E26.12011
G1 X99.556 Y113.392 E26.21268
G1 X97.268 Y112.891 E26.32794
G1 X95.194 Y112.408 E26.43279
G1 X92.630 Y112.099 E26.55986
G1 X86.466 Y111.963 E26.86331
G1 X83.753 Y107.349 E27.12668
G1 X80.358 Y101.631 E27.45401
G1 X77.719 Y97.680 E27.68780
G1 X77.376 Y97.317 E27.71240
G1 X76.935 Y96.976 E27.73986
G1 X76.335 Y96.630 E27.77389
G1 X75.381 Y96.155 E27.82637
G1 X74.998 Y95.911 E27.84872
G1 X74.836 Y95.766 E27.85943
G1 X74.456 Y95.262 E27.89049
G1 X73.560 Y93.853 E27.97269
G1 X72.260 Y91.419 E28.10848
G1 X70.239 Y87.476 E28.32654
G1 X58.061 Y87.581 E28.92590
G1 X63.537 Y96.708 E29.44974
G1 X62.682 Y99.016 E29.57087
G1 X71.403 Y112.373 E30.35597
G1 X68.499 Y112.513 E30.49906
G1 X63.714 Y112.895 E30.73533
G1 X59.866 Y113.488 E30.92695
G1 X58.550 Y113.779 E30.99326
G1 X57.879 Y113.983 E31.02781
G1 X56.795 Y114.477 E31.08642
G1 X55.815 Y115.134 E31.14449
G1 X55.510 Y115.409 E31.16472
G1 X55.321 Y115.676 E31.18080
G1 X55.141 Y116.103 E31.20359
G1 X54.825 Y117.480 E31.27314
G1 X56.807 Y119.551 E31.41420
G1 X60.627 Y123.185 E31.67368
G1 X61.208 Y123.900 E31.71901
G1 X61.604 Y124.574 E31.75751
G1 X61.865 Y125.237 E31.79256
G1 X62.020 Y125.939 E31.82794
G1 X62.037 Y126.096 E31.83573
G1 X62.032 Y126.476 E31.85442
G1 X61.977 Y126.823 E31.87174
G1 X61.717 Y126.382 E31.89693
G1 X60.935 Y125.442 E31.95714
G1 X59.550 Y124.208 E32.04844
G1 X58.019 Y123.169 E32.13948
G1 X54.117 Y120.923 E32.36105
G1 X51.247 Y119.338 E32.52239
G1 X49.717 Y118.274 E32.61412
G1 X48.876 Y117.448 E32.67215
G1 X48.032 Y116.315 E32.74169
G1 X47.206 Y114.741 E32.82917
G1 X46.770 Y113.430 E32.89717
G1 X46.622 Y112.559 E32.94062
G1 X46.625 Y111.818 E32.97712
G1 X46.742 Y111.119 E33.01199
G1 X46.932 Y110.540 E33.04198
G1 X47.187 Y110.049 E33.06923
G1 X47.560 Y109.556 E33.09963
G1 X47.959 Y109.173 E33.12688
G1 X48.490 Y108.808 E33.15859
G1 X49.460 Y108.341 E33.21153
G1 X51.546 Y107.575 E33.32093
G1 X51.936 Y107.401 E33.34193
G1 X60.043 Y106.477 E33.74350
G1 X57.753 Y102.764 E33.95818
G1 X56.454 Y100.742 E34.07648
G1 X56.289 Y100.458 E34.09263
G1 X56.248 Y100.351 E34.09828
G1 X56.255 Y100.099 E34.11071
G1 X56.329 Y99.802 E34.12574
G1 X56.767 Y98.836 E34.17796
G1 X57.551 Y97.252 E34.26495
G1 X55.200 Y93.095 E34.49997
G1 X53.531 Y90.365 E34.65749
G1 X52.846 Y89.445 E34.71393
G1 X52.299 Y88.955 E34.75006
G1 X51.211 Y88.107 E34.81796
G1 X50.985 Y87.867 E34.83418
G1 X50.914 Y87.764 E34.84036
G1 X50.911 Y87.558 E34.85050
G1 X50.941 Y87.412 E34.85780
G1 X51.110 Y86.993 E34.88004
G1 X51.891 Y85.448 E34.96526
G1 X53.624 Y82.429 E35.13657
G1 X54.863 Y82.392 E35.19755
G1 X61.162 Y82.045 E35.50803
G1 X66.120 Y81.879 E35.75215
G1 X69.857 Y82.009 E35.93618
G1 X71.291 Y82.175 E36.00726
G1 X71.868 Y82.353 E36.03696
G1 X72.743 Y82.778 E36.08485
G1 X76.348 Y85.162 E36.29756
G1 X85.009 Y85.162 E36.72379
G1 X83.335 Y82.431 E36.88146
G1 X108.377 Y82.193 E38.11397
G1 X110.047 Y82.319 E38.19641
G1 X111.556 Y82.628 E38.27222
G1 X113.140 Y83.171 E38.35460
G1 X114.392 Y83.820 E38.42404
G1 X115.365 Y84.490 E38.48216
G1 X115.783 Y85.240 E38.52443
G1 X115.992 Y85.240 E38.53474
G1 X116.991 Y86.416 E38.61067
G1 X118.040 Y87.857 E38.69836
G1 X118.843 Y89.252 E38.77757
G1 X118.818 Y89.252 E38.77883
G1 X121.025 Y93.408 E39.01046
G1 X121.537 Y94.439 E39.06709
G1 X121.584 Y94.685 E39.07944
G1 X121.717 Y95.687 E39.12918
G1 X121.702 Y96.087 E39.14886
G1 X121.655 Y96.334 E39.16125
G1 X121.556 Y96.612 E39.17579
G1 X121.477 Y96.763 E39.18415
G1 X121.352 Y96.922 E39.19411
G1 X120.618 Y97.628 E39.24423
G1 X119.499 Y97.780 E39.29980
G1 X119.007 Y97.905 E39.32477
G1 X99.768 Y98.358 E40.27188
G1 X101.762 Y101.826 E40.46876
G1 X99.144 Y101.292 E40.60027
G1 X99.040 Y101.157 E40.60867
G1 X94.328 Y100.736 E40.84146
G1 X93.875 Y100.051 E40.88191
G1 X87.921 Y100.051 E41.17490
G1 E35.17490 F1800.00000
G92 E0
G1 X127.124 Y104.774 F9000.000
G1 E6.00000 F1800.00000
G1 X132.432 Y104.774 E6.26121 F600.000
G1 X119.992 Y82.176 E7.53076
G1 X126.123 Y82.114 E7.83251
G1 X132.214 Y92.773 E8.43673
G1 X151.354 Y92.858 E9.37872
G1 X154.265 Y96.608 E9.61235
G1 X134.948 Y97.274 E10.56356
G1 X138.292 Y103.342 E10.90452
G1 X146.290 Y103.575 E11.29829
G1 X150.432 Y103.472 E11.50222
G1 X153.239 Y103.201 E11.64101
G1 X154.488 Y102.979 E11.70343
G1 X156.470 Y102.436 E11.80457
G1 X157.710 Y101.857 E11.87195
G1 X158.519 Y101.367 E11.91849
G1 X158.720 Y101.190 E11.93166
G1 X162.618 Y107.646 E12.30283
G1 X134.142 Y107.881 E13.70432
G1 X132.565 Y105.016 E13.86528
G1 X127.257 Y105.016 E14.12651
G1 X128.744 Y107.724 E14.27858
G1 X112.824 Y107.798 E15.06210
G1 X112.544 Y107.461 E15.08370
G1 X109.584 Y105.266 E15.26503
G1 X108.095 Y104.341 E15.35132
G1 X107.151 Y103.873 E15.40313
G1 X107.193 Y103.695 E15.41216
G1 X110.207 Y103.692 E15.56050
G1 X120.890 Y103.613 E16.08625
G1 X121.443 Y103.579 E16.11355
G1 X122.480 Y103.396 E16.16535
G1 X123.468 Y103.055 E16.21680
G1 X124.584 Y102.445 E16.27939
G1 X125.474 Y101.768 E16.33441
G1 X127.095 Y104.721 E16.50021
G1 X127.352 Y104.388 F9000.000
G1 X131.779 Y104.388 E16.71808 F600.000
G1 X123.659 Y89.637 E17.54679
G1 X119.459 Y89.637 E17.75350
G1 X121.368 Y93.232 E17.95382
G1 X121.900 Y94.282 E18.01177
G1 X121.964 Y94.624 E18.02887
G1 X122.103 Y95.669 E18.08074
G1 X122.087 Y96.131 E18.10349
G1 X122.028 Y96.436 E18.11879
G1 X121.910 Y96.767 E18.13610
G1 X121.802 Y96.973 E18.14752
G1 X121.639 Y97.181 E18.16054
G1 X120.836 Y97.953 E18.21535
G1 X120.740 Y98.003 E18.22070
G1 X120.360 Y98.039 E18.23949
G1 X119.575 Y98.158 E18.27853
G1 X119.156 Y98.265 E18.29983
G1 X119.136 Y98.287 E18.30131
G1 X100.426 Y98.729 E19.22240
G1 X102.523 Y102.375 E19.42942
G1 X98.927 Y101.641 E19.61005
G1 X98.838 Y101.526 E19.61721
G1 X94.109 Y101.103 E19.85084
G1 X93.667 Y100.436 E19.89022
G1 X88.539 Y100.436 E20.14264
G1 X91.530 Y105.476 E20.43106
G1 X93.045 Y105.645 E20.50609
G1 X97.726 Y106.230 E20.73826
G1 X101.029 Y106.890 E20.90403
G1 X102.985 Y107.486 E21.00468
G1 X105.075 Y108.412 E21.11717
G1 X106.763 Y109.393 E21.21329
G1 X107.157 Y109.702 E21.23788
G1 X109.274 Y111.722 E21.38192
G1 X109.550 Y112.108 E21.40527
G1 X110.563 Y114.031 E21.51225
G1 X110.729 Y114.424 E21.53323
G1 X110.854 Y114.915 E21.55817
G1 X110.921 Y115.558 E21.58998
G1 X110.878 Y116.694 E21.64591
G1 X110.758 Y117.432 E21.68273
G1 X110.560 Y118.030 E21.71374
G1 X110.299 Y118.542 E21.74203
G1 X109.997 Y118.959 E21.76734
G1 X109.090 Y119.847 E21.82981
G1 X107.470 Y121.113 E21.93103
G1 X105.975 Y122.386 E22.02764
G1 X105.368 Y123.097 E22.07366
G1 X104.073 Y125.227 E22.19632
G1 X103.942 Y125.531 E22.21260
G1 X103.852 Y125.884 E22.23054
G1 X103.809 Y126.297 E22.25097
G1 X103.849 Y126.966 E22.28396
G1 X103.686 Y127.037 E22.29270
G1 X103.234 Y126.469 E22.32840
G1 X102.036 Y124.716 E22.43290
G1 X101.839 Y124.400 E22.45126
G1 X101.725 Y124.118 E22.46620
G1 X101.634 Y123.739 E22.48539
G1 X101.592 Y123.228 E22.51064
G1 X101.644 Y122.493 E22.54689
G1 X101.801 Y121.773 E22.58318
G1 X102.124 Y120.948 E22.62675
G1 X103.111 Y119.061 E22.73157
G1 X103.578 Y117.950 E22.79089
G1 X103.670 Y117.566 E22.81029
G1 X103.704 Y117.171 E22.82982
G1 X103.676 Y116.815 E22.84737
G1 X103.543 Y116.381 E22.86973
