; generated by Slic3r 1.2.9 on 2019-10-03 at 13:29:34

; external perimeters extrusion width = 0.40mm
; perimeters extrusion width = 0.62mm
; infill extrusion width = 0.33mm
; solid infill extrusion width = 0.62mm
; top infill extrusion width = 0.20mm

M106 S256; Turn on fan to 100% power
M104 S140; turn on extruder temperature at S value
M140 S60; turn on bed temperature at S value
G28; home all axes
M84; disable motors
G1 Z15 F15000; have Z move to 20mm at 15000 mm/min
M190 S55; turn on bed temperature at S value and wait
M140 S55; turn on bed temperature at S value (printing temperature)
M109 S200; turn on extruder temperature at S value and wait (printing temperature)
M104 S200; turn on extruder temperature at S value
G1 Z0 F12000; move Z back to home
G21 ; set units to millimeters
G90 ; use absolute coordinates
M82 ; use absolute distances for extrusion
G92 E0
M106 S255
;Layer change
G1 E-6.00000 F1800.00000
G92 E0
G1 Z0.300 F9000.000
G1 X67.497 Y32.969 F9000.000
G1 E6.00000 F1800.00000
G1 X68.304 Y31.396 E6.08702 F600.000
G1 X69.208 Y29.877 E6.17402
G1 X70.118 Y28.539 E6.25366
G1 X71.198 Y27.138 E6.34069
G1 X72.363 Y25.809 E6.42770
G1 X73.610 Y24.556 E6.51471
G1 X75.048 Y23.288 E6.60908
G1 X76.449 Y22.208 E6.69611
G1 X77.913 Y21.218 E6.78311
G1 X79.437 Y20.322 E6.87012
G1 X81.015 Y19.523 E6.95714
G1 X82.639 Y18.826 E7.04415
G1 X84.162 Y18.277 E7.12379
G1 X85.859 Y17.780 E7.21081
G1 X87.730 Y17.361 E7.30518
G1 X89.477 Y17.089 E7.39219
G1 X91.237 Y16.928 E7.47920
G1 X92.855 Y16.877 E7.55885
G1 X94.614 Y16.927 E7.64544
G1 X96.383 Y17.089 E7.73289 F600.000
G1 X98.277 Y17.389 E7.82726
G1 X99.856 Y17.742 E7.90690
G1 X101.555 Y18.231 E7.99391
G1 X103.221 Y18.826 E8.08093
G1 X104.981 Y19.587 E8.17531
G1 X106.554 Y20.394 E8.26233
G1 X108.073 Y21.298 E8.34933
G1 X109.411 Y22.208 E8.42897
G1 X110.812 Y23.288 E8.51601
G1 X112.141 Y24.454 E8.60304
G1 X113.497 Y25.809 E8.69738
G1 X114.662 Y27.138 E8.78438
G1 X115.654 Y28.417 E8.86404
G1 X116.652 Y29.877 E8.95106
G1 X117.628 Y31.528 E9.04543
G1 X118.427 Y33.105 E9.13245
G1 X119.124 Y34.729 E9.21943
G1 X119.673 Y36.252 E9.29910
G1 X120.170 Y37.949 E9.38611
G1 X120.561 Y39.673 E9.47313
G1 X120.861 Y41.567 E9.56751
G1 X121.022 Y43.327 E9.65451
G1 X121.073 Y44.945 E9.73416
G1 X121.022 Y46.713 E9.82118
G1 X120.842 Y48.622 E9.91556
G1 X120.561 Y50.367 E10.00257
G1 X120.208 Y51.946 E10.08221
G1 X119.719 Y53.645 E10.16922
G1 X119.124 Y55.311 E10.25627
G1 X118.363 Y57.071 E10.35062
G1 X117.556 Y58.644 E10.43764
G1 X116.652 Y60.163 E10.52464
G1 X115.742 Y61.501 E10.60428
G1 X114.662 Y62.902 E10.69133
G1 X113.394 Y64.340 E10.78568
G1 X112.141 Y65.586 E10.87266
G1 X110.927 Y66.657 E10.95233
G1 X109.533 Y67.744 E11.03934
G1 X107.947 Y68.822 E11.13372
G1 X106.422 Y69.718 E11.22074
G1 X104.981 Y70.453 E11.30039
G1 X103.360 Y71.159 E11.38740
G1 X101.555 Y71.809 E11.48178
G1 X100.001 Y72.260 E11.56142
G1 X98.286 Y72.649 E11.64801
G1 X96.532 Y72.932 E11.73544
G1 X94.623 Y73.112 E11.82982
G1 X93.005 Y73.163 E11.90947
G1 X91.246 Y73.113 E11.99606
G1 X89.477 Y72.951 E12.08349
G1 X87.730 Y72.679 E12.17051
G1 X85.859 Y72.260 E12.26489
G1 X84.162 Y71.763 E12.35190
G1 X82.639 Y71.214 E12.43158
G1 X81.015 Y70.517 E12.51855
G1 X79.438 Y69.718 E12.60557
G1 X77.787 Y68.742 E12.69994
G1 X76.327 Y67.744 E12.78697
G1 X75.049 Y66.752 E12.86661
G1 X73.719 Y65.587 E12.95362
G1 X72.364 Y64.231 E13.04797
G1 X71.198 Y62.902 E13.13499
G1 X70.118 Y61.501 E13.22203
G1 X69.208 Y60.163 E13.30167
G1 X68.304 Y58.644 E13.38867
G1 X67.497 Y57.071 E13.47569
G1 X66.736 Y55.311 E13.57007
G1 X66.141 Y53.645 E13.65709
G1 X65.690 Y52.091 E13.73673
G1 X65.299 Y50.367 E13.82374
G1 X64.999 Y48.473 E13.91811
G1 X64.838 Y46.713 E14.00511
G1 X64.787 Y44.945 E14.09215
G1 X64.838 Y43.327 E14.17181
G1 X64.999 Y41.567 E14.25880
G1 X65.271 Y39.820 E14.34582
G1 X65.690 Y37.949 E14.44020
G1 X66.141 Y36.395 E14.51984
G1 X66.736 Y34.729 E14.60687
G1 X67.472 Y33.024 E14.69828
G1 E8.69828 F1800.00000
G92 E0
G1 X117.604 Y48.137 F9000.000
G1 E6.00000 F1800.00000
G1 X117.359 Y49.680 E6.07689 F600.000
G1 X117.018 Y51.205 E6.15378
G1 X116.582 Y52.705 E6.23067
G1 X116.053 Y54.175 E6.30756
G1 X115.433 Y55.609 E6.38445
G1 X114.723 Y57.001 E6.46135
G1 X113.928 Y58.346 E6.53824
G1 X113.050 Y59.638 E6.61513
G1 X112.092 Y60.872 E6.69202
G1 X111.059 Y62.044 E6.76891
G1 X109.954 Y63.149 E6.84580
G1 X108.782 Y64.182 E6.92270
G1 X107.548 Y65.140 E6.99959
G1 X106.256 Y66.018 E7.07648
G1 X104.911 Y66.813 E7.15337
G1 X103.511 Y67.526 E7.23067
G1 X102.085 Y68.143 E7.30715
G1 X100.615 Y68.672 E7.38404
G1 X99.115 Y69.108 E7.46093
G1 X97.590 Y69.449 E7.53782
G1 X96.047 Y69.694 E7.61472
G1 X94.492 Y69.841 E7.69161
G1 X92.930 Y69.890 E7.76850
G1 X91.368 Y69.841 E7.84539
G1 X89.813 Y69.694 E7.92228
G1 X88.270 Y69.449 E7.99917
G1 X86.745 Y69.108 E8.07606
G1 X85.245 Y68.672 E8.15295
G1 X83.775 Y68.143 E8.22984
G1 X82.341 Y67.523 E8.30673
G1 X80.949 Y66.813 E8.38363
G1 X79.604 Y66.018 E8.46052
G1 X78.312 Y65.140 E8.53741
G1 X77.078 Y64.182 E8.61430
G1 X75.906 Y63.149 E8.69119
G1 X74.801 Y62.044 E8.76808
G1 X73.768 Y60.872 E8.84497
G1 X72.810 Y59.638 E8.92187
G1 X71.932 Y58.346 E8.99876
G1 X71.137 Y57.001 E9.07565
G1 X70.427 Y55.609 E9.15254
G1 X69.807 Y54.175 E9.22943
G1 X69.278 Y52.705 E9.30632
G1 X68.842 Y51.205 E9.38321
G1 X68.501 Y49.680 E9.46010
G1 X68.256 Y48.137 E9.53700
G1 X68.109 Y46.582 E9.61389
G1 X68.060 Y45.020 E9.69078
G1 X68.109 Y43.458 E9.76767
G1 X68.256 Y41.903 E9.84456
G1 X68.501 Y40.360 E9.92145
G1 X68.842 Y38.835 E9.99834
G1 X69.278 Y37.335 E10.07523
G1 X69.807 Y35.865 E10.15212
G1 X70.427 Y34.431 E10.22901
G1 X71.137 Y33.039 E10.30591
G1 X71.932 Y31.694 E10.38280
G1 X72.815 Y30.395 E10.46010
G1 X73.768 Y29.168 E10.53658
G1 X74.801 Y27.996 E10.61347
G1 X75.906 Y26.891 E10.69036
G1 X77.078 Y25.858 E10.76725
G1 X78.312 Y24.900 E10.84414
G1 X79.604 Y24.022 E10.92104
G1 X80.949 Y23.227 E10.99793
G1 X82.341 Y22.517 E11.07482
G1 X83.775 Y21.897 E11.15171
G1 X85.245 Y21.368 E11.22860
G1 X86.745 Y20.932 E11.30549
G1 X88.270 Y20.591 E11.38238
G1 X89.813 Y20.346 E11.45928
G1 X91.368 Y20.199 E11.53617
G1 X92.922 Y20.151 E11.61265 F600.000
G1 X94.491 Y20.199 E11.68994
G1 X96.047 Y20.346 E11.76684
G1 X97.590 Y20.591 E11.84373
G1 X99.115 Y20.932 E11.92062
G1 X100.615 Y21.368 E11.99751
G1 X102.085 Y21.897 E12.07440
G1 X103.519 Y22.517 E12.15129
G1 X104.911 Y23.227 E12.22818
G1 X106.256 Y24.022 E12.30507
G1 X107.548 Y24.900 E12.38197
G1 X108.783 Y25.858 E12.45886
G1 X109.960 Y26.897 E12.53616
G1 X111.059 Y27.996 E12.61264
G1 X112.092 Y29.168 E12.68953
G1 X113.050 Y30.402 E12.76642
G1 X113.928 Y31.694 E12.84332
G1 X114.723 Y33.039 E12.92021
G1 X115.433 Y34.431 E12.99710
G1 X116.053 Y35.865 E13.07399
G1 X116.582 Y37.335 E13.15088
G1 X117.018 Y38.835 E13.22777
G1 X117.359 Y40.360 E13.30466
G1 X117.604 Y41.903 E13.38155
G1 X117.751 Y43.458 E13.45844
G1 X117.800 Y45.020 E13.53533
G1 X117.751 Y46.582 E13.61223
G1 X117.609 Y48.077 E13.68616
G1 X117.221 Y48.089 F9000.000
G1 X116.980 Y49.608 E13.76186 F600.000
G1 X116.645 Y51.109 E13.83756
G1 X116.216 Y52.586 E13.91326
G1 X115.695 Y54.033 E13.98896
G1 X115.084 Y55.445 E14.06465
G1 X114.385 Y56.815 E14.14035
G1 X113.602 Y58.139 E14.21605
G1 X112.738 Y59.411 E14.29175
G1 X111.795 Y60.627 E14.36745
G1 X110.778 Y61.780 E14.44315
G1 X109.690 Y62.868 E14.51884
G1 X108.537 Y63.885 E14.59454
G1 X107.321 Y64.828 E14.67024
G1 X106.049 Y65.692 E14.74594
G1 X104.725 Y66.475 E14.82164
G1 X103.347 Y67.177 E14.89774
G1 X101.943 Y67.785 E14.97304
G1 X100.496 Y68.306 E15.04873
G1 X99.019 Y68.735 E15.12443
G1 X97.518 Y69.070 E15.20013
G1 X95.999 Y69.311 E15.27583
G1 X94.467 Y69.456 E15.35153
G1 X92.930 Y69.504 E15.42722
G1 X91.393 Y69.456 E15.50292
G1 X89.861 Y69.311 E15.57862
G1 X88.342 Y69.070 E15.65432
G1 X86.841 Y68.735 E15.73002
G1 X85.364 Y68.306 E15.80572
G1 X83.917 Y67.785 E15.88141
G1 X82.505 Y67.174 E15.95711
G1 X81.135 Y66.475 E16.03281
G1 X79.811 Y65.692 E16.10851
G1 X78.539 Y64.828 E16.18421
G1 X77.323 Y63.885 E16.25991
G1 X76.170 Y62.868 E16.33561
G1 X75.082 Y61.780 E16.41130
G1 X74.065 Y60.627 E16.48700
G1 X73.122 Y59.411 E16.56270
G1 X72.258 Y58.139 E16.63840
G1 X71.475 Y56.815 E16.71410
G1 X70.776 Y55.445 E16.78980
G1 X70.165 Y54.033 E16.86549
G1 X69.644 Y52.586 E16.94119
G1 X69.215 Y51.109 E17.01689
G1 X68.880 Y49.608 E17.09259
G1 X68.639 Y48.089 E17.16829
G1 X68.494 Y46.557 E17.24399
G1 X68.446 Y45.020 E17.31968
G1 X68.494 Y43.483 E17.39538
G1 X68.639 Y41.951 E17.47108
G1 X68.880 Y40.432 E17.54678
G1 X69.215 Y38.931 E17.62248
G1 X69.644 Y37.454 E17.69818
G1 X70.165 Y36.007 E17.77387
G1 X70.776 Y34.595 E17.84957
G1 X71.475 Y33.225 E17.92527
G1 X72.258 Y31.901 E18.00097
G1 X73.127 Y30.622 E18.07707
G1 X74.065 Y29.413 E18.15236
G1 X75.082 Y28.260 E18.22806
G1 X76.170 Y27.172 E18.30376
G1 X77.323 Y26.155 E18.37946
G1 X78.539 Y25.212 E18.45516
G1 X79.811 Y24.348 E18.53086
G1 X81.135 Y23.565 E18.60656
G1 X82.505 Y22.866 E18.68226
G1 X83.917 Y22.255 E18.75795
G1 X85.364 Y21.734 E18.83365
G1 X86.841 Y21.305 E18.90935
G1 X88.342 Y20.970 E18.98505
G1 X89.861 Y20.729 E19.06075
G1 X91.393 Y20.584 E19.13644
G1 X92.922 Y20.536 E19.21174 F600.000
G1 X94.467 Y20.584 E19.28784
G1 X95.999 Y20.729 E19.36354
G1 X97.518 Y20.970 E19.43924
G1 X99.019 Y21.305 E19.51493
G1 X100.496 Y21.734 E19.59063
G1 X101.943 Y22.255 E19.66633
G1 X103.355 Y22.866 E19.74203
G1 X104.725 Y23.565 E19.81773
G1 X106.049 Y24.348 E19.89342
G1 X107.321 Y25.212 E19.96912
G1 X108.537 Y26.155 E20.04482
G1 X109.696 Y27.178 E20.12092
G1 X110.778 Y28.260 E20.19622
G1 X111.795 Y29.413 E20.27192
G1 X112.738 Y30.629 E20.34762
G1 X113.602 Y31.901 E20.42332
G1 X114.385 Y33.225 E20.49901
G1 X115.084 Y34.595 E20.57471
G1 X115.695 Y36.007 E20.65041
G1 X116.216 Y37.454 E20.72611
G1 X116.645 Y38.931 E20.80180
G1 X116.980 Y40.432 E20.87750
G1 X117.221 Y41.951 E20.95320
G1 X117.365 Y43.483 E21.02890
G1 X117.414 Y45.020 E21.10460
G1 X117.365 Y46.557 E21.18030
G1 X117.226 Y48.029 E21.25304
G1 X117.537 Y48.334 F9000.000
G1 X117.882 Y48.151 F9000.000
G1 X117.632 Y49.732 E21.33182 F600.000
G1 X117.288 Y51.274 E21.40957
G1 X116.847 Y52.791 E21.48732
G1 X116.312 Y54.278 E21.56507
G1 X115.684 Y55.727 E21.64282
G1 X114.971 Y57.127 E21.72016
G1 X114.163 Y58.495 E21.79833
G1 X113.275 Y59.802 E21.87608
G1 X112.307 Y61.050 E21.95383
G1 X111.262 Y62.235 E22.03158
G1 X110.151 Y63.346 E22.10891
G1 X108.960 Y64.397 E22.18708
G1 X107.712 Y65.365 E22.26483
G1 X106.405 Y66.253 E22.34258
G1 X105.045 Y67.057 E22.42033
G1 X103.637 Y67.774 E22.49809
G1 X102.188 Y68.402 E22.57584
G1 X100.701 Y68.937 E22.65359
G1 X99.184 Y69.378 E22.73134
G1 X97.651 Y69.721 E22.80867
G1 X96.082 Y69.970 E22.88684
G1 X94.501 Y70.118 E22.96501
G1 X92.930 Y70.168 E23.04234
G1 X91.351 Y70.118 E23.12009
G1 X89.778 Y69.970 E23.19784
G1 X88.218 Y69.722 E23.27559
G1 X86.676 Y69.378 E23.35335
G1 X85.159 Y68.937 E23.43110
G1 X83.672 Y68.402 E23.50885
G1 X82.223 Y67.774 E23.58660
G1 X80.815 Y67.057 E23.66435
G1 X79.455 Y66.253 E23.74210
G1 X78.148 Y65.365 E23.81986
G1 X76.900 Y64.397 E23.89761
G1 X75.715 Y63.352 E23.97536
G1 X74.598 Y62.235 E24.05311
G1 X73.553 Y61.050 E24.13086
G1 X72.585 Y59.802 E24.20861
G1 X71.697 Y58.495 E24.28636
G1 X70.893 Y57.135 E24.36411
G1 X70.176 Y55.727 E24.44186
G1 X69.548 Y54.278 E24.51961
G1 X69.013 Y52.791 E24.59737
G1 X68.572 Y51.274 E24.67512
G1 X68.228 Y49.732 E24.75287
G1 X67.980 Y48.172 E24.83061
G1 X67.832 Y46.591 E24.90879
G1 X67.782 Y45.020 E24.98612
G1 X67.832 Y43.441 E25.06387
G1 X67.980 Y41.868 E25.14162
G1 X68.228 Y40.308 E25.21937
G1 X68.572 Y38.766 E25.29713
G1 X69.013 Y37.249 E25.37488
G1 X69.548 Y35.762 E25.45263
G1 X70.176 Y34.313 E25.53038
G1 X70.893 Y32.905 E25.60813
G1 X71.697 Y31.545 E25.68588
G1 X72.585 Y30.238 E25.76363
G1 X73.553 Y28.990 E25.84138
G1 X74.598 Y27.805 E25.91914
G1 X75.715 Y26.688 E25.99688
G1 X76.900 Y25.643 E26.07464
G1 X78.148 Y24.675 E26.15239
G1 X79.455 Y23.787 E26.23014
G1 X80.815 Y22.983 E26.30789
G1 X82.223 Y22.266 E26.38564
G1 X83.672 Y21.638 E26.46339
G1 X85.159 Y21.103 E26.54114
G1 X86.676 Y20.662 E26.61890
G1 X88.218 Y20.318 E26.69665
G1 X89.778 Y20.070 E26.77440
G1 X91.351 Y19.922 E26.85215
G1 X92.930 Y19.872 E26.92990
G1 X94.501 Y19.922 E27.00723
G1 X96.082 Y20.070 E27.08541 F600.000
G1 X97.642 Y20.318 E27.16315
G1 X99.184 Y20.662 E27.24090
G1 X100.701 Y21.103 E27.31866
G1 X102.188 Y21.638 E27.39641
G1 X103.637 Y22.266 E27.47416
G1 X105.045 Y22.983 E27.55191
G1 X106.405 Y23.787 E27.62966
G1 X107.712 Y24.675 E27.70741
G1 X108.960 Y25.643 E27.78516
G1 X110.145 Y26.688 E27.86292
G1 X111.262 Y27.805 E27.94066
G1 X112.307 Y28.990 E28.01841
G1 X113.275 Y30.238 E28.09617
G1 X114.163 Y31.545 E28.17392
G1 X114.967 Y32.905 E28.25167
G1 X115.684 Y34.313 E28.32942
G1 X116.312 Y35.762 E28.40717
G1 X116.847 Y37.249 E28.48492
G1 X117.288 Y38.766 E28.56267
G1 X117.631 Y40.299 E28.64001
G1 X117.880 Y41.868 E28.71818
G1 X118.028 Y43.441 E28.79593
G1 X118.078 Y45.020 E28.87368
G1 X118.028 Y46.599 E28.95143
G1 X117.887 Y48.091 E29.02520
G1 X118.265 Y48.187 F9000.000
G1 X118.011 Y49.805 E29.10577 F600.000
G1 X117.661 Y51.370 E29.18471
G1 X117.214 Y52.910 E29.26365
G1 X116.671 Y54.420 E29.34260
G1 X116.034 Y55.892 E29.42154
G1 X115.309 Y57.313 E29.50006
G1 X114.489 Y58.702 E29.57943
G1 X113.587 Y60.028 E29.65837
G1 X112.604 Y61.296 E29.73732
G1 X111.543 Y62.499 E29.81626
G1 X110.415 Y63.627 E29.89478
G1 X109.206 Y64.694 E29.97415
G1 X107.938 Y65.677 E30.05309
G1 X106.612 Y66.579 E30.13204
G1 X105.231 Y67.395 E30.21098
G1 X103.802 Y68.124 E30.28992
G1 X102.330 Y68.761 E30.36887
G1 X100.820 Y69.304 E30.44781
G1 X99.280 Y69.751 E30.52676
G1 X97.723 Y70.099 E30.60528
G1 X96.130 Y70.352 E30.68464
G1 X94.525 Y70.504 E30.76401
G1 X92.930 Y70.554 E30.84253
G1 X91.327 Y70.503 E30.92147
G1 X89.730 Y70.352 E31.00042
G1 X88.145 Y70.101 E31.07936
G1 X86.580 Y69.751 E31.15831
G1 X85.040 Y69.304 E31.23725
G1 X83.530 Y68.761 E31.31620
G1 X82.058 Y68.124 E31.39514
G1 X80.629 Y67.395 E31.47408
G1 X79.248 Y66.579 E31.55303
G1 X77.922 Y65.677 E31.63197
G1 X76.654 Y64.694 E31.71092
G1 X75.451 Y63.633 E31.78986
G1 X74.317 Y62.499 E31.86880
G1 X73.256 Y61.296 E31.94774
G1 X72.273 Y60.028 E32.02669
G1 X71.371 Y58.702 E32.10563
G1 X70.555 Y57.321 E32.18458
G1 X69.826 Y55.892 E32.26352
G1 X69.189 Y54.420 E32.34247
G1 X68.646 Y52.910 E32.42141
G1 X68.199 Y51.370 E32.50035
G1 X67.849 Y49.805 E32.57930
G1 X67.598 Y48.220 E32.65824
G1 X67.446 Y46.615 E32.73761
G1 X67.396 Y45.020 E32.81613
G1 X67.447 Y43.417 E32.89507
G1 X67.598 Y41.820 E32.97402
G1 X67.849 Y40.235 E33.05296
G1 X68.199 Y38.670 E33.13191
G1 X68.646 Y37.130 E33.21085
G1 X69.189 Y35.620 E33.28979
G1 X69.826 Y34.148 E33.36874
G1 X70.555 Y32.719 E33.44768
G1 X71.371 Y31.338 E33.52663
G1 X72.273 Y30.012 E33.60557
G1 X73.256 Y28.744 E33.68452
G1 X74.317 Y27.541 E33.76346
G1 X75.451 Y26.407 E33.84240
G1 X76.654 Y25.346 E33.92134
G1 X77.922 Y24.363 E34.00029
G1 X79.248 Y23.461 E34.07923
G1 X80.629 Y22.645 E34.15818
G1 X82.058 Y21.916 E34.23712
G1 X83.530 Y21.279 E34.31607
G1 X85.040 Y20.736 E34.39501
G1 X86.580 Y20.289 E34.47395
G1 X88.145 Y19.939 E34.55290
G1 X89.730 Y19.688 E34.63184
G1 X91.327 Y19.537 E34.71079
G1 X92.930 Y19.486 E34.78973
G1 X94.525 Y19.536 E34.86825
G1 X96.130 Y19.688 E34.94762 F600.000
G1 X97.715 Y19.939 E35.02656
G1 X99.280 Y20.289 E35.10551
G1 X100.820 Y20.736 E35.18445
G1 X102.330 Y21.279 E35.26339
G1 X103.802 Y21.916 E35.34234
G1 X105.231 Y22.645 E35.42128
G1 X106.612 Y23.461 E35.50023
G1 X107.938 Y24.363 E35.57917
G1 X109.206 Y25.346 E35.65812
G1 X110.409 Y26.407 E35.73706
G1 X111.543 Y27.541 E35.81600
G1 X112.604 Y28.744 E35.89494
G1 X113.587 Y30.012 E35.97389
G1 X114.489 Y31.338 E36.05283
G1 X115.305 Y32.719 E36.13178
G1 X116.034 Y34.148 E36.21072
G1 X116.671 Y35.620 E36.28966
G1 X117.214 Y37.130 E36.36861
G1 X117.661 Y38.670 E36.44755
G1 X118.009 Y40.227 E36.52607
G1 X118.262 Y41.820 E36.60544
G1 X118.413 Y43.417 E36.68438
G1 X118.464 Y45.020 E36.76333
G1 X118.413 Y46.623 E36.84227
G1 X118.271 Y48.128 E36.91664
G1 X117.895 Y48.339 F9000.000
M104 S205 ; set temperature
