; generated by Slic3r 1.2.9 on 2018-02-01 at 10:51:44

; external perimeters extrusion width = 0.40mm
; perimeters extrusion width = 0.62mm
; infill extrusion width = 0.33mm
; solid infill extrusion width = 0.62mm
; top infill extrusion width = 0.20mm

M106 S256; Turn on fan to 100% power
M104 S140; turn on extruder temperature at S value
M140 S60; turn on bed temperature at S value
G28; home all axes
M84; disable motors
G1 Z15 F15000; have Z move to 20mm at 15000 mm/min
M190 S55; turn on bed temperature at S value and wait
M140 S55; turn on bed temperature at S value (printing temperature)
M109 S200; turn on extruder temperature at S value and wait (printing temperature)
M104 S200; turn on extruder temperature at S value
G1 Z0 F12000; move Z back to home
G21 ; set units to millimeters
G90 ; use absolute coordinates
M82 ; use absolute distances for extrusion
G92 E0
M106 S255
;Layer change
G1 E-6.00000 F1800.00000
G92 E0
G1 Z0.300 F9000.000
G1 X69.945 Y25.500 F9000.000
G1 E6.00000 F1800.00000
G1 X70.188 Y24.949 E6.03069 F600.000
G1 X70.845 Y24.077 E6.08633
G1 X77.203 Y18.789 E6.50781
G1 X77.531 Y18.560 E6.52822
G1 X92.806 Y9.702 E7.42819
G1 X96.628 Y7.774 E7.64637
G1 X97.526 Y7.525 E7.69386
G1 X98.119 Y7.481 E7.72417
G1 X98.820 Y7.533 E7.75995
G1 X137.144 Y16.155 E9.76208 F600.000
G1 X137.907 Y16.382 E9.80264
G1 X138.400 Y16.597 E9.83003
G1 X141.747 Y18.530 E10.02703
G1 X142.177 Y18.847 E10.05429
G1 X142.626 Y19.264 E10.08552
G1 X142.974 Y19.669 E10.11269
G1 X145.151 Y22.862 E10.30966
G1 X145.400 Y23.334 E10.33690
G1 X145.624 Y23.905 E10.36817
G1 X145.762 Y24.421 E10.39537
G1 X146.338 Y28.242 E10.59232
G1 X146.358 Y28.776 E10.61958
G1 X146.312 Y29.388 E10.65082
G1 X146.213 Y29.911 E10.67799
G1 X145.074 Y33.605 E10.87501
G1 X144.861 Y34.095 E10.90225
G1 X144.555 Y34.625 E10.93345
G1 X144.237 Y35.055 E10.96068
G1 X141.608 Y37.888 E11.15767
G1 X141.203 Y38.237 E11.18488
G1 X140.697 Y38.582 E11.21610
G1 X140.225 Y38.831 E11.24333
G1 X136.599 Y40.254 E11.44184
G1 X113.365 Y49.038 E12.70785
G1 X112.960 Y49.152 E12.72925
G1 X112.357 Y49.265 E12.76052
G1 X111.826 Y49.304 E12.78768
G1 X107.965 Y49.155 E12.98461
G1 X107.522 Y49.096 E13.00742
G1 X77.622 Y42.208 E14.57123
G1 X77.254 Y42.091 E14.59090
G1 X76.687 Y41.859 E14.62213
G1 X76.324 Y41.673 E14.64294
G1 X73.796 Y40.089 E14.79498
G1 X73.470 Y39.843 E14.81580
G1 X73.014 Y39.434 E14.84702
G1 X72.403 Y38.572 E14.90091
G1 X69.197 Y30.833 E15.32785
G1 X69.019 Y29.778 E15.38237
G1 X69.055 Y29.174 E15.41321
G1 X69.118 Y28.754 E15.43484
G1 X69.809 Y25.901 E15.58445
G1 X69.925 Y25.557 E15.60298
G1 E9.60298 F1800.00000
G92 E0
G1 X113.370 Y37.009 F9000.000
G1 E6.00000 F1800.00000
G1 X112.967 Y38.506 E6.07902 F600.000
G1 X111.868 Y39.601 E6.15808
G1 X110.368 Y40.001 E6.23721
G1 X108.868 Y39.601 E6.31635
G1 X107.769 Y38.506 E6.39542
G1 X107.367 Y37.009 E6.47441
G1 X107.769 Y35.512 E6.55341
G1 X108.868 Y34.418 E6.63244 F600.000
G1 X110.368 Y34.017 E6.71159
G1 X111.868 Y34.418 E6.79074
G1 X112.967 Y35.512 E6.86975
G1 X113.355 Y36.951 E6.94572
G1 X112.971 Y37.009 F9000.000
G1 X112.622 Y38.306 E7.01417 F600.000
G1 X111.669 Y39.255 E7.08270
G1 X110.368 Y39.602 E7.15134
G1 X109.067 Y39.255 E7.21997
G1 X108.114 Y38.306 E7.28850
G1 X107.766 Y37.009 E7.35694
G1 X108.114 Y35.712 E7.42537
G1 X109.067 Y34.764 E7.49387
G1 X110.236 Y34.451 E7.55555
G1 X110.368 Y34.416 E7.56252 F600.000
G1 X111.669 Y34.764 E7.63116
G1 X112.622 Y35.712 E7.69965
G1 X112.956 Y36.951 E7.76505
G1 X113.299 Y37.239 F9000.000
G1 X118.009 Y36.891 F9000.000
G1 X119.325 Y37.265 E7.83477 F600.000
G1 X119.318 Y37.447 E7.84404
G1 X117.977 Y37.717 E7.91377
G1 X117.303 Y40.218 E8.04578
G1 X118.325 Y41.124 E8.11539
G1 X118.240 Y41.285 E8.12467
G1 X116.917 Y40.948 E8.19427
G1 X115.224 Y42.909 E8.32632
G1 X115.752 Y44.170 E8.39601
G1 X115.606 Y44.278 E8.40529
G1 X114.560 Y43.398 E8.47496
G1 X112.183 Y44.432 E8.60706
G1 X112.112 Y45.796 E8.67669
G1 X111.933 Y45.830 E8.68597
G1 X111.371 Y44.584 E8.75561
G1 X108.783 Y44.484 E8.88763
G1 X108.127 Y45.683 E8.95731
G1 X107.951 Y45.636 E8.96658
G1 X107.985 Y44.269 E9.03626
G1 X105.696 Y43.056 E9.16829
G1 X104.586 Y43.851 E9.23789
G1 X104.448 Y43.733 E9.24716
G1 X105.071 Y42.516 E9.31681
G1 X103.536 Y40.431 E9.44879
G1 X102.190 Y40.665 E9.51841
G1 X102.118 Y40.498 E9.52768
G1 X103.207 Y39.672 E9.59737
G1 X102.727 Y37.128 E9.72933
G1 X101.413 Y36.754 E9.79898
G1 X101.420 Y36.572 E9.80825
G1 X102.759 Y36.302 E9.87790
G1 X103.433 Y33.801 E10.00991
G1 X102.410 Y32.894 E10.07961
G1 X102.495 Y32.733 E10.08889
G1 X103.821 Y33.071 E10.15863
G1 X105.512 Y31.109 E10.29068
G1 X104.985 Y29.849 E10.36028
G1 X105.131 Y29.741 E10.36956
G1 X106.178 Y30.620 E10.43920
G1 X108.553 Y29.587 E10.57121
G1 X108.623 Y28.236 E10.64015
G1 X108.801 Y28.202 E10.64939
G1 X109.368 Y29.435 E10.71853
G1 X111.953 Y29.534 E10.85038
G1 X112.609 Y28.337 E10.91996
G1 X112.785 Y28.384 E10.92923
G1 X112.751 Y29.750 E10.99885
G1 X115.040 Y30.963 E11.13088
G1 X116.151 Y30.167 E11.20053
G1 X116.289 Y30.286 E11.20981
G1 X115.665 Y31.501 E11.27944
G1 X117.200 Y33.588 E11.41149
G1 X118.546 Y33.354 E11.48111
G1 X118.619 Y33.521 E11.49038
G1 X117.530 Y34.345 E11.55997
G1 X117.998 Y36.832 E11.68894
G1 X118.344 Y36.585 F9000.000
G1 X119.698 Y36.970 E11.76071 F600.000
G1 X120.169 Y37.222 E11.78791
G1 X120.156 Y37.554 E11.80484
G1 X119.668 Y37.769 E11.83204
G1 X118.287 Y38.048 E11.90382
G1 X117.738 Y40.088 E12.01150
G1 X118.792 Y41.022 E12.08328
G1 X119.106 Y41.454 E12.11049
G1 X118.951 Y41.747 E12.12739
G1 X118.417 Y41.728 E12.15461
G1 X117.053 Y41.381 E12.22637
G1 X115.672 Y42.980 E12.33409
G1 X116.216 Y44.280 E12.40588
G1 X116.312 Y44.804 E12.43308
G1 X116.046 Y45.001 E12.44998
G1 X115.572 Y44.754 E12.47721
G1 X114.494 Y43.847 E12.54901
G1 X112.556 Y44.690 E12.65676
G1 X112.483 Y46.097 E12.72855
G1 X112.341 Y46.612 E12.75576
G1 X112.015 Y46.673 E12.77268
G1 X111.697 Y46.244 E12.79987
G1 X111.118 Y44.961 E12.87166
G1 X109.007 Y44.879 E12.97935
G1 X108.330 Y46.115 E13.05115
G1 X107.980 Y46.517 E13.07835
G1 X107.659 Y46.430 E13.09527
G1 X107.559 Y45.906 E13.12247
G1 X107.593 Y44.498 E13.19425
G1 X105.726 Y43.509 E13.30195
G1 X104.581 Y44.329 E13.37374
G1 X104.091 Y44.539 E13.40093
G1 X103.840 Y44.323 E13.41782
G1 X103.976 Y43.807 E13.44500
G1 X104.619 Y42.553 E13.51682
G1 X103.367 Y40.851 E13.62448
G1 X101.978 Y41.093 E13.69631
G1 X101.445 Y41.070 E13.72350
G1 X101.313 Y40.766 E13.74038
G1 X101.660 Y40.361 E13.76759
G1 X102.784 Y39.509 E13.83945
G1 X102.392 Y37.434 E13.94710
G1 X101.038 Y37.048 E14.01887
G1 X100.567 Y36.796 E14.04608
G1 X100.580 Y36.465 E14.06296
G1 X101.069 Y36.250 E14.09016
G1 X102.449 Y35.971 E14.16194
G1 X102.999 Y33.931 E14.26962
G1 X101.945 Y32.997 E14.34140
G1 X101.631 Y32.565 E14.36860
G1 X101.786 Y32.272 E14.38553
G1 X102.319 Y32.290 E14.41271
G1 X103.685 Y32.638 E14.48453
G1 X105.064 Y31.037 E14.59226
G1 X104.521 Y29.739 E14.66398
G1 X104.424 Y29.214 E14.69122
G1 X104.691 Y29.017 E14.70812
G1 X105.164 Y29.265 E14.73533
G1 X106.243 Y30.171 E14.80713
G1 X108.181 Y29.329 E14.91480
G1 X108.254 Y27.922 E14.98660
G1 X108.395 Y27.407 E15.01381
G1 X108.721 Y27.346 E15.03073
G1 X109.013 Y27.740 E15.05574
G1 X109.619 Y29.059 E15.12969
G1 X111.729 Y29.139 E15.23732
G1 X112.407 Y27.904 E15.30909
G1 X112.756 Y27.502 E15.33626
G1 X113.077 Y27.589 E15.35317
G1 X113.178 Y28.112 E15.38033
G1 X113.143 Y29.521 E15.45216
G1 X115.010 Y30.510 E15.55986
G1 X116.155 Y29.690 E15.63164
G1 X116.646 Y29.480 E15.65884
G1 X116.897 Y29.697 E15.67573
G1 X116.761 Y30.212 E15.70290
G1 X116.117 Y31.465 E15.77470
G1 X117.369 Y33.168 E15.88241
G1 X118.758 Y32.926 E15.95423
G1 X119.291 Y32.949 E15.98142
G1 X119.423 Y33.253 E15.99831
G1 X119.076 Y33.658 E16.02551
G1 X117.953 Y34.509 E16.09729
G1 X118.333 Y36.526 E16.20193
G1 X118.295 Y36.982 F9000.000
G1 X117.889 Y37.300 F9000.000
G1 X118.835 Y37.337 E16.25015 F600.000
G1 X117.018 Y40.535 F9000.000
G1 X117.853 Y40.977 E16.29829 F600.000
G1 X114.830 Y43.070 F9000.000
G1 X115.390 Y43.831 E16.34644 F600.000
G1 X111.758 Y44.406 F9000.000
G1 X111.933 Y45.335 E16.39458 F600.000
G1 X108.411 Y44.277 F9000.000
G1 X108.165 Y45.190 E16.44277 F600.000
G1 X105.451 Y42.708 F9000.000
G1 X104.834 Y43.424 E16.49089 F600.000
G1 X103.466 Y40.010 F9000.000
G1 X102.600 Y40.387 E16.53903 F600.000
G1 X102.846 Y36.719 F9000.000
G1 X101.902 Y36.682 E16.58718 F600.000
G1 X103.718 Y33.484 F9000.000
G1 X102.883 Y33.041 E16.63537 F600.000
G1 X104.302 Y33.103 F9000.000
G1 X105.614 Y31.581 E16.73886 F600.000
G1 X105.643 Y31.619 E16.74133
G1 X106.626 Y30.896 E16.80422
G1 X106.598 Y30.857 E16.80667
G1 X108.443 Y30.056 E16.91025
G1 X108.453 Y30.108 E16.91302
G1 X109.652 Y29.878 E16.97590
G1 X109.643 Y29.831 E16.97838
G1 X111.648 Y29.908 E17.08169
G1 X111.635 Y29.954 E17.08416
G1 X112.815 Y30.272 E17.14705
G1 X112.827 Y30.226 E17.14949
G1 X114.602 Y31.167 E17.25297
G1 X114.571 Y31.203 E17.25546
G1 X115.495 Y32.001 E17.31834
G1 X115.527 Y31.964 E17.32085
G1 X116.718 Y33.583 E17.42432
G1 X116.673 Y33.602 E17.42680
G1 X117.161 Y34.722 E17.48968
G1 X117.205 Y34.703 E17.49218
G1 X117.576 Y36.677 E17.59564
G1 X117.528 Y36.675 E17.59814
G1 X117.481 Y37.895 E17.66103
G1 X117.529 Y37.897 E17.66352
G1 X117.006 Y39.837 E17.76698
G1 X116.963 Y39.815 E17.76949
G1 X116.392 Y40.894 E17.83238
G1 X116.435 Y40.916 E17.83488
G1 X115.122 Y42.437 E17.93831
G1 X115.094 Y42.398 E17.94080
G1 X114.110 Y43.121 E18.00369
G1 X114.139 Y43.161 E18.00620
G1 X112.296 Y43.962 E18.10971
G1 X112.287 Y43.915 E18.11221
G1 X111.087 Y44.140 E18.17510
G1 X111.095 Y44.188 E18.17759
G1 X109.088 Y44.110 E18.28105
G1 X109.101 Y44.063 E18.28356
G1 X107.921 Y43.746 E18.34645
G1 X107.909 Y43.793 E18.34894
G1 X106.133 Y42.852 E18.45242
G1 X106.165 Y42.815 E18.45492
G1 X105.240 Y42.018 E18.51781
G1 X105.209 Y42.054 E18.52026
G1 X104.019 Y40.436 E18.62369
G1 X104.063 Y40.417 E18.62620
G1 X103.576 Y39.297 E18.68909
G1 X103.532 Y39.316 E18.69154
G1 X103.160 Y37.342 E18.79496
G1 X103.208 Y37.344 E18.79742
G1 X103.255 Y36.124 E18.86031
G1 X103.207 Y36.122 E18.86279
G1 X103.730 Y34.182 E18.96626
G1 X103.773 Y34.204 E18.96875
G1 X104.339 Y33.136 E19.03102
G1 X104.767 Y33.161 F9000.000
G1 X105.740 Y32.032 E19.10777 F600.000
G1 X106.989 Y31.112 E19.18765
G1 X108.333 Y30.528 E19.26312
G1 X109.886 Y30.230 E19.34452
G1 X111.374 Y30.287 E19.42121
G1 X112.872 Y30.691 E19.50111
G1 X114.190 Y31.389 E19.57790
G1 X115.369 Y32.407 E19.65812
G1 X116.249 Y33.604 E19.73463
G1 X116.870 Y35.032 E19.81481
G1 X117.145 Y36.492 E19.89132
G1 X117.085 Y38.049 E19.97156
G1 X116.699 Y39.482 E20.04803
G1 X115.968 Y40.860 E20.12833
G1 X114.998 Y41.984 E20.20481
G1 X113.741 Y42.909 E20.28515
G1 X112.381 Y43.500 E20.36154
G1 X110.850 Y43.788 E20.44177
G1 X109.366 Y43.731 E20.51823
G1 X107.860 Y43.326 E20.59853
G1 X106.548 Y42.631 E20.67502
G1 X105.370 Y41.615 E20.75508
G1 X104.488 Y40.417 E20.83172
G1 X103.867 Y38.990 E20.91186
G1 X103.591 Y37.523 E20.98873
G1 X103.651 Y35.972 E21.06868
G1 X104.038 Y34.536 E21.14527
G1 X104.739 Y33.214 E21.22233
G1 X105.091 Y33.382 F9000.000
G1 X106.006 Y32.319 E21.29456 F600.000
G1 X107.185 Y31.452 E21.36991
G1 X108.449 Y30.903 E21.44089
G1 X109.915 Y30.621 E21.51778
G1 X111.315 Y30.675 E21.58991
G1 X112.728 Y31.056 E21.66529
G1 X113.968 Y31.713 E21.73755
G1 X115.081 Y32.673 E21.81325
G1 X115.909 Y33.799 E21.88524
G1 X116.496 Y35.147 E21.96091
G1 X116.754 Y36.520 E22.03290
G1 X116.697 Y37.990 E22.10861
G1 X116.334 Y39.339 E22.18056
G1 X115.645 Y40.639 E22.25634
G1 X114.732 Y41.697 E22.32829
G1 X113.546 Y42.569 E22.40411
G1 X112.266 Y43.126 E22.47598
G1 X110.821 Y43.397 E22.55169
G1 X109.425 Y43.343 E22.62363
G1 X108.004 Y42.961 E22.69941
G1 X106.769 Y42.307 E22.77139
G1 X105.658 Y41.349 E22.84692
G1 X104.828 Y40.221 E22.91903
G1 X104.242 Y38.875 E22.99466
G1 X103.982 Y37.494 E23.06701
G1 X104.039 Y36.031 E23.14242
G1 X104.403 Y34.679 E23.21449
G1 X105.063 Y33.435 E23.28704
G1 X105.414 Y33.603 F9000.000
G1 X106.273 Y32.607 E23.35475 F600.000
G1 X107.380 Y31.792 E23.42557
G1 X108.565 Y31.277 E23.49207
G1 X109.945 Y31.013 E23.56444
G1 X111.256 Y31.063 E23.63201
G1 X112.585 Y31.421 E23.70286
G1 X113.747 Y32.037 E23.77061
G1 X114.793 Y32.939 E23.84178
G1 X115.570 Y33.995 E23.90925
G1 X116.121 Y35.262 E23.98040
G1 X116.363 Y36.549 E24.04786
G1 X116.309 Y37.931 E24.11905
G1 X115.969 Y39.195 E24.18648
G1 X115.321 Y40.418 E24.25774
G1 X114.465 Y41.409 E24.32516
G1 X113.350 Y42.229 E24.39646
G1 X112.151 Y42.751 E24.46382
G1 X110.792 Y43.006 E24.53501
G1 X109.484 Y42.956 E24.60243
G1 X108.148 Y42.596 E24.67369
G1 X106.990 Y41.983 E24.74114
G1 X105.946 Y41.083 E24.81215
G1 X105.168 Y40.026 E24.87974
G1 X104.617 Y38.759 E24.95086
G1 X104.373 Y37.465 E25.01868
G1 X104.426 Y36.090 E25.08957
G1 X104.768 Y34.823 E25.15712
G1 X105.386 Y33.656 E25.22515
G1 X105.738 Y33.824 F9000.000
G1 X106.539 Y32.895 E25.28833 F600.000
G1 X107.576 Y32.132 E25.35462
G1 X108.681 Y31.652 E25.41664
G1 X109.975 Y31.404 E25.48450
G1 X111.197 Y31.450 E25.54751
G1 X112.441 Y31.785 E25.61384
G1 X113.526 Y32.360 E25.67706
G1 X114.505 Y33.206 E25.74370
G1 X115.230 Y34.191 E25.80666
G1 X115.746 Y35.377 E25.87329
G1 X115.972 Y36.578 E25.93623
G1 X115.922 Y37.872 E26.00290
G1 X115.604 Y39.051 E26.06581
G1 X114.997 Y40.196 E26.13254
G1 X114.199 Y41.121 E26.19544
G1 X113.155 Y41.889 E26.26222
G1 X112.035 Y42.376 E26.32506
G1 X110.763 Y42.615 E26.39172
G1 X109.543 Y42.568 E26.45463
G1 X108.291 Y42.232 E26.52136
G1 X107.211 Y41.659 E26.58430
G1 X106.234 Y40.816 E26.65079
G1 X105.508 Y39.830 E26.71385
G1 X104.992 Y38.644 E26.78045
G1 X104.764 Y37.436 E26.84374
G1 X104.814 Y36.149 E26.91010
G1 X105.132 Y34.967 E26.97314
G1 X105.710 Y33.877 E27.03665
G1 X106.027 Y34.503 F9000.000
G1 X107.864 Y32.674 E27.17014 F600.000
G1 X110.368 Y32.004 E27.30362
G1 X112.872 Y32.674 E27.43710
G1 X114.708 Y34.502 E27.57053
G1 X115.384 Y37.009 E27.70423
G1 X114.709 Y39.515 E27.83789
G1 X112.872 Y41.345 E27.97141
G1 X110.368 Y42.013 E28.10486
G1 X107.864 Y41.345 E28.23832
G1 X106.027 Y39.514 E28.37189
G1 X105.354 Y37.009 E28.50549
G1 X106.011 Y34.561 E28.63603
G1 X106.376 Y34.705 F9000.000
G1 X108.065 Y33.024 E28.75876 F600.000
G1 X110.368 Y32.408 E28.88152
G1 X112.671 Y33.024 E29.00428
G1 X114.359 Y34.704 E29.12697
G1 X114.980 Y37.009 E29.24987
G1 X114.360 Y39.313 E29.37275
G1 X112.671 Y40.996 E29.49552
G1 X110.368 Y41.610 E29.61825
G1 X108.065 Y40.996 E29.74098
G1 X106.376 Y39.312 E29.86380
G1 X105.757 Y37.009 E29.98662
G1 X106.361 Y34.763 E30.10637
G1 X106.725 Y34.907 F9000.000
G1 X108.266 Y33.373 E30.21836 F600.000
G1 X110.368 Y32.811 E30.33039
G1 X112.470 Y33.373 E30.44243
G1 X114.010 Y34.907 E30.55437
G1 X114.577 Y37.009 E30.66649
G1 X114.011 Y39.111 E30.77858
G1 X112.470 Y40.646 E30.89060
G1 X110.368 Y41.207 E31.00261
G1 X108.266 Y40.646 E31.11462
G1 X106.725 Y39.110 E31.22668
G1 X106.161 Y37.009 E31.33871
G1 X106.710 Y34.965 E31.44769
G1 X107.074 Y35.110 F9000.000
G1 X108.468 Y33.723 E31.54892 F600.000
G1 X110.368 Y33.214 E31.65023
G1 X112.269 Y33.723 E31.75154
G1 X113.661 Y35.109 E31.85275
G1 X114.173 Y37.009 E31.95407
G1 X113.662 Y38.908 E32.05537
G1 X112.269 Y40.296 E32.15664
G1 X110.368 Y40.803 E32.25793
G1 X108.468 Y40.296 E32.35922
G1 X107.074 Y38.908 E32.46052
G1 X106.564 Y37.009 E32.56178
G1 X107.059 Y35.168 E32.65997
G1 X107.423 Y35.312 F9000.000
G1 X108.669 Y34.072 E32.75045 F600.000
G1 X110.368 Y33.618 E32.84104
G1 X112.067 Y34.072 E32.93163
G1 X113.312 Y35.312 E33.02209
G1 X113.770 Y37.009 E33.11262
G1 X113.312 Y38.706 E33.20313
G1 X112.067 Y39.947 E33.29365
G1 X110.368 Y40.400 E33.38422
G1 X108.669 Y39.947 E33.47479
G1 X107.423 Y38.706 E33.56533
G1 X106.968 Y37.009 E33.65581
G1 X107.408 Y35.370 E33.74322
G1 X105.906 Y30.947 F9000.000
G1 X105.347 Y30.187 E33.79132 F600.000
G1 X108.980 Y29.615 F9000.000
G1 X108.803 Y28.692 E33.83920 F600.000
G1 X112.325 Y29.741 F9000.000
G1 X112.571 Y28.829 E33.88731 F600.000
G1 X115.285 Y31.310 F9000.000
G1 X115.902 Y30.595 E33.93545 F600.000
G1 X117.271 Y34.008 F9000.000
G1 X118.136 Y33.632 E33.98355 F600.000
G1 E27.98355 F1800.00000
G92 E0
G1 X100.264 Y18.463 F9000.000
