; generated by Slic3r 1.2.9 on 2018-01-31 at 20:26:58

; external perimeters extrusion width = 0.40mm
; perimeters extrusion width = 0.62mm
; infill extrusion width = 0.33mm
; solid infill extrusion width = 0.62mm
; top infill extrusion width = 0.20mm

M106 S256; Turn on fan to 100% power
M104 S140; turn on extruder temperature at S value
M140 S60; turn on bed temperature at S value
G28; home all axes
M84; disable motors
G1 Z15 F15000; have Z move to 20mm at 15000 mm/min
M190 S55; turn on bed temperature at S value and wait
M140 S55; turn on bed temperature at S value (printing temperature)
M109 S200; turn on extruder temperature at S value and wait (printing temperature)
M104 S200; turn on extruder temperature at S value
G1 Z0 F12000; move Z back to home
G21 ; set units to millimeters
G90 ; use absolute coordinates
M82 ; use absolute distances for extrusion
G92 E0
M106 S255
;Layer change
G1 E-6.00000 F1800.00000
G92 E0
G1 Z0.300 F9000.000
G1 X49.629 Y16.390 F9000.000
G1 E6.00000 F1800.00000
G1 X50.437 Y13.944 E6.13128 F600.000
G1 X50.661 Y13.457 E6.15859
G1 X50.978 Y12.933 E6.18981
G1 X51.303 Y12.511 E6.21696
G1 X53.988 Y9.730 E6.41398
G1 X54.401 Y9.388 E6.44132
G1 X54.915 Y9.053 E6.47260
G1 X55.391 Y8.814 E6.49971
G1 X59.015 Y7.474 E6.69663
G1 X59.538 Y7.346 E6.72412
G1 X60.146 Y7.268 E6.75537
G1 X150.990 Y4.146 E11.38817
G1 X156.783 Y4.348 E11.68360 F600.000
G1 X157.310 Y4.426 E11.71077
G1 X158.200 Y4.662 E11.75766
G1 X158.699 Y4.856 E11.78494
G1 X163.830 Y7.552 E12.08037
G1 X164.274 Y7.853 E12.10773
G1 X164.972 Y8.452 E12.15458
G1 X165.334 Y8.841 E12.18167
G1 X168.789 Y13.497 E12.47716
G1 X169.056 Y13.957 E12.50428
G1 X169.427 Y14.798 E12.55115
G1 X169.586 Y15.310 E12.57848
G1 X170.678 Y21.004 E12.87398
G1 X170.719 Y21.539 E12.90133
G1 X170.686 Y22.457 E12.94814
G1 X170.636 Y22.865 E12.96908
G1 X164.186 Y53.375 E14.55849
G1 X164.118 Y53.629 E14.57187
G1 X162.106 Y59.729 E14.89926
G1 X161.649 Y60.538 E14.94660
G1 X161.069 Y61.213 E14.99197
G1 X160.334 Y61.787 E15.03949
G1 X154.601 Y64.679 E15.36676
G1 X154.264 Y64.818 E15.38537
G1 X120.563 Y75.761 E17.19127
G1 X120.130 Y75.858 E17.21390
G1 X119.218 Y75.975 E17.26076
G1 X118.689 Y75.984 E17.28772
G1 X112.919 Y75.436 E17.58315
G1 X112.576 Y75.378 E17.60088
G1 X54.348 Y61.094 E20.65657
G1 X53.650 Y60.799 E20.69520
G1 X46.514 Y56.329 E21.12436
G1 X45.767 Y55.587 E21.17802
G1 X45.439 Y55.071 E21.20919
G1 X45.249 Y54.704 E21.23025
G1 X44.113 Y51.962 E21.38152
G1 X43.988 Y51.567 E21.40266
G1 X43.856 Y50.973 E21.43368
G1 X43.831 Y50.066 E21.47990
G1 X49.136 Y17.973 E23.13782
G1 X49.225 Y17.614 E23.15666
G1 X49.610 Y16.447 E23.21930
G1 E17.21930 F1800.00000
G92 E0
G1 X115.351 Y55.024 F9000.000
G1 E6.00000 F1800.00000
G1 X115.647 Y54.945 E6.01563 F600.000
G1 X117.376 Y54.483 E6.10682 F600.000
G1 X119.400 Y55.024 E6.21364
G1 X120.886 Y56.503 E6.32047
G1 X121.430 Y58.525 E6.42718
G1 X120.886 Y60.547 E6.53388
G1 X119.400 Y62.026 E6.64071
G1 X119.330 Y62.044 E6.64443
G1 X119.247 Y62.131 E6.65053
G1 X117.601 Y62.601 E6.73777
G1 X117.417 Y62.555 E6.74740
G1 X117.375 Y62.567 E6.74962
G1 X115.351 Y62.026 E6.85643
G1 X113.866 Y60.547 E6.96326
G1 X113.321 Y58.525 E7.06997
G1 X113.866 Y56.503 E7.17668
G1 X115.308 Y55.066 E7.28045
G1 X115.550 Y55.370 F9000.000
G1 X115.746 Y55.318 E7.29082 F600.000
G1 X117.376 Y54.882 E7.37677 F600.000
G1 X119.201 Y55.370 E7.47308
G1 X120.540 Y56.703 E7.56938
G1 X121.030 Y58.525 E7.66553
G1 X120.540 Y60.346 E7.76167
G1 X119.201 Y61.680 E7.85797
G1 X119.127 Y61.700 E7.86187
G1 X119.041 Y61.788 E7.86816
G1 X117.594 Y62.202 E7.94490
G1 X117.414 Y62.157 E7.95435
G1 X117.375 Y62.167 E7.95637
G1 X115.550 Y61.680 E8.05268
G1 X114.211 Y60.346 E8.14898
G1 X113.721 Y58.525 E8.24512
G1 X114.211 Y56.703 E8.34127
G1 X115.507 Y55.412 E8.43451
G1 X115.749 Y55.716 F9000.000
G1 X115.846 Y55.690 E8.43963 F600.000
G1 X117.376 Y55.282 E8.52032 F600.000
G1 X119.002 Y55.716 E8.60614
G1 X120.195 Y56.904 E8.69191
G1 X120.631 Y58.525 E8.77749
G1 X120.195 Y60.146 E8.86306
G1 X119.002 Y61.334 E8.94883
G1 X118.925 Y61.355 E8.95293
G1 X118.836 Y61.446 E8.95940
G1 X117.587 Y61.803 E9.02564
G1 X117.410 Y61.759 E9.03490
G1 X117.376 Y61.768 E9.03673
G1 X115.749 Y61.334 E9.12254
G1 X114.556 Y60.146 E9.20832
G1 X114.120 Y58.525 E9.29389
G1 X114.556 Y56.904 E9.37947
G1 X115.706 Y55.758 E9.46218
G1 X115.758 Y55.616 F9000.000
G1 X110.743 Y49.412 F9000.000
G1 X110.087 Y47.563 E9.56216 F600.000
G1 X110.239 Y47.464 E9.57144
G1 X111.669 Y48.807 E9.67144
G1 X115.407 Y47.426 E9.87455
G1 X115.619 Y45.477 E9.97444
G1 X115.800 Y45.454 E9.98372
G1 X116.504 Y47.283 E10.08362
G1 X120.471 Y47.659 E10.28670
G1 X121.507 Y45.995 E10.38663
G1 X121.680 Y46.052 E10.39591
G1 X121.521 Y48.007 E10.49587
G1 X124.932 Y50.068 E10.69898
G1 X126.588 Y49.018 E10.79895
G1 X126.719 Y49.144 E10.80823
G1 X125.728 Y50.836 E10.90816
G1 X127.907 Y54.172 E11.11126
G1 X129.855 Y53.945 E11.21124
G1 X129.918 Y54.116 E11.22052
G1 X128.290 Y55.210 E11.32050
G1 X128.805 Y59.161 E11.52359
G1 X130.658 Y59.803 E11.62356
G1 X130.641 Y59.984 E11.63283
G1 X128.701 Y60.264 E11.73274
G1 X127.450 Y64.048 E11.93585
G1 X128.842 Y65.429 E12.03583
G1 X128.748 Y65.585 E12.04511
G1 X126.878 Y64.994 E12.14509
G1 X124.110 Y67.862 E12.34821
G1 X124.765 Y69.710 E12.44818
G1 X124.613 Y69.810 E12.45745
G1 X123.184 Y68.466 E12.55741
G1 X119.446 Y69.848 E12.76054
G1 X119.234 Y71.795 E12.86039
G1 X119.053 Y71.819 E12.86967
G1 X118.349 Y69.990 E12.96954
G1 X114.380 Y69.614 E13.17272
G1 X113.344 Y71.281 E13.27272
G1 X113.171 Y71.224 E13.28200
G1 X113.331 Y69.267 E13.38205
G1 X109.922 Y67.205 E13.58510
G1 X108.264 Y68.256 E13.68511
G1 X108.134 Y68.130 E13.69438
G1 X109.125 Y66.436 E13.79442
G1 X106.946 Y63.101 E13.99745
G1 X104.996 Y63.328 E14.09753
G1 X104.933 Y63.158 E14.10681
G1 X106.562 Y62.063 E14.20682
G1 X106.047 Y58.110 E14.41001
G1 X104.194 Y57.471 E14.50989
G1 X104.211 Y57.290 E14.51917
G1 X106.152 Y57.009 E14.61911
G1 X107.401 Y53.225 E14.82220
G1 X106.009 Y51.843 E14.92219
G1 X106.103 Y51.688 E14.93147
G1 X107.973 Y52.279 E15.03146
G1 X110.702 Y49.455 E15.23161
G1 X110.300 Y49.316 F9000.000
G1 X109.546 Y47.193 E15.34641 F600.000
G1 X109.471 Y46.597 E15.37703
G1 X109.603 Y46.511 E15.38501
G1 X110.117 Y46.820 E15.41559
G1 X111.759 Y48.363 E15.53043
G1 X115.050 Y47.147 E15.70921
G1 X115.293 Y44.907 E15.82404
G1 X115.483 Y44.338 E15.85459
G1 X115.638 Y44.318 E15.86253
G1 X115.969 Y44.819 E15.89311
G1 X116.778 Y46.922 E16.00795
G1 X120.270 Y47.252 E16.18670
G1 X121.460 Y45.341 E16.30148
G1 X121.880 Y44.911 E16.33209
G1 X122.028 Y44.960 E16.34003
G1 X122.108 Y45.554 E16.37058
G1 X121.925 Y47.800 E16.48543
G1 X124.927 Y49.615 E16.66421
G1 X126.830 Y48.408 E16.77904
G1 X127.394 Y48.203 E16.80967
G1 X127.505 Y48.310 E16.81755
G1 X127.320 Y48.882 E16.84819
G1 X126.181 Y50.825 E16.96297
G1 X128.099 Y53.762 E17.14174
G1 X130.336 Y53.501 E17.25653
G1 X130.934 Y53.561 E17.28714
G1 X130.988 Y53.707 E17.29507
G1 X130.573 Y54.140 E17.32564
G1 X128.703 Y55.397 E17.44047
G1 X129.156 Y58.875 E17.61923
G1 X131.286 Y59.611 E17.73406
G1 X131.798 Y59.924 E17.76467
G1 X131.784 Y60.079 E17.77258
G1 X131.221 Y60.289 E17.80319
G1 X128.992 Y60.612 E17.91797
G1 X127.891 Y63.942 E18.09675
G1 X129.490 Y65.529 E18.21155
G1 X129.816 Y66.032 E18.24213
G1 X129.735 Y66.166 E18.25010
G1 X129.138 Y66.113 E18.28069
G1 X126.989 Y65.434 E18.39552
G1 X124.553 Y67.958 E18.57430
G1 X125.305 Y70.080 E18.68906
G1 X125.380 Y70.677 E18.71971
G1 X125.250 Y70.762 E18.72765
G1 X124.734 Y70.453 E18.75827
G1 X123.094 Y68.911 E18.87304
G1 X119.803 Y70.127 E19.05184
G1 X119.560 Y72.366 E19.16664
G1 X119.369 Y72.935 E19.19723
G1 X119.215 Y72.955 E19.20516
G1 X118.885 Y72.453 E19.23575
G1 X118.075 Y70.352 E19.35055
G1 X114.582 Y70.021 E19.52938
G1 X113.393 Y71.932 E19.64412
G1 X112.973 Y72.362 E19.67472
G1 X112.825 Y72.313 E19.68269
G1 X112.744 Y71.717 E19.71333
G1 X112.927 Y69.473 E19.82808
G1 X109.926 Y67.659 E20.00680
G1 X108.024 Y68.865 E20.12164
G1 X107.459 Y69.071 E20.15226
G1 X107.347 Y68.962 E20.16021
G1 X107.533 Y68.392 E20.19079
G1 X108.672 Y66.447 E20.30567
G1 X106.754 Y63.512 E20.48438
G1 X104.516 Y63.773 E20.59923
G1 X103.919 Y63.713 E20.62980
G1 X103.865 Y63.566 E20.63777
G1 X104.280 Y63.132 E20.66839
G1 X106.148 Y61.876 E20.78311
G1 X105.695 Y58.397 E20.96197
G1 X103.566 Y57.662 E21.07678
G1 X103.054 Y57.349 E21.10734
G1 X103.069 Y57.194 E21.11527
G1 X103.631 Y56.984 E21.14585
G1 X105.861 Y56.662 E21.26070
G1 X106.960 Y53.331 E21.43947
G1 X105.362 Y51.745 E21.55424
G1 X105.035 Y51.240 E21.58486
G1 X105.116 Y51.107 E21.59279
G1 X105.715 Y51.161 E21.62347
G1 X107.862 Y51.840 E21.73822
G1 X110.258 Y49.359 E21.91402
G1 X117.052 Y46.560 F9000.000
G1 X120.068 Y46.846 E22.06844 F600.000
G1 X121.155 Y45.102 E22.17319
G1 X121.772 Y44.470 E22.21820
G1 X122.378 Y44.669 E22.25072
G1 X122.495 Y45.544 E22.29568
G1 X122.328 Y47.593 E22.40049
G1 X124.922 Y49.161 E22.55494
G1 X126.658 Y48.060 E22.65974
G1 X127.489 Y47.758 E22.70478
G1 X127.947 Y48.200 E22.73722
G1 X127.674 Y49.041 E22.78226
G1 X126.634 Y50.814 E22.88701
G1 X128.291 Y53.351 E23.04145
G1 X130.333 Y53.113 E23.14621
G1 X131.211 Y53.201 E23.19122
G1 X131.433 Y53.799 E23.22369
G1 X130.823 Y54.437 E23.26870
G1 X129.116 Y55.584 E23.37349
G1 X129.508 Y58.589 E23.52793
G1 X131.451 Y59.261 E23.63272
G1 X132.204 Y59.721 E23.67771
G1 X132.145 Y60.356 E23.71021
G1 X131.317 Y60.665 E23.75525
G1 X129.284 Y60.959 E23.85999
G1 X128.332 Y63.837 E24.01445
G1 X129.791 Y65.284 E24.11919
G1 X130.271 Y66.025 E24.16418
G1 X129.941 Y66.571 E24.19672
G1 X129.061 Y66.493 E24.24173
G1 X127.101 Y65.873 E24.34653
G1 X124.996 Y68.054 E24.50098
G1 X125.683 Y69.991 E24.60570
G1 X125.793 Y70.868 E24.65077
G1 X125.259 Y71.217 E24.68327
G1 X124.500 Y70.763 E24.72831
G1 X123.004 Y69.355 E24.83304
G1 X120.161 Y70.406 E24.98751
G1 X119.938 Y72.449 E25.09226
G1 X119.658 Y73.287 E25.13729
G1 X119.025 Y73.368 E25.16981
G1 X118.540 Y72.631 E25.21478
G1 X117.801 Y70.713 E25.31954
G1 X114.783 Y70.427 E25.47404
G1 X113.698 Y72.172 E25.57875
G1 X113.081 Y72.804 E25.62375
G1 X112.475 Y72.604 E25.65628
G1 X112.356 Y71.728 E25.70133
G1 X112.523 Y69.680 E25.80605
G1 X109.931 Y68.112 E25.96044
G1 X108.195 Y69.213 E26.06524
G1 X107.364 Y69.515 E26.11028
G1 X106.905 Y69.072 E26.14281
G1 X107.179 Y68.233 E26.18781
G1 X108.219 Y66.458 E26.29263
G1 X106.562 Y63.922 E26.44701
G1 X104.519 Y64.161 E26.55184
G1 X103.640 Y64.072 E26.59683
G1 X103.420 Y63.473 E26.62935
G1 X104.030 Y62.835 E26.67437
G1 X105.735 Y61.689 E26.77906
G1 X105.344 Y58.683 E26.93358
G1 X103.400 Y58.013 E27.03834
G1 X102.647 Y57.553 E27.08332
G1 X102.708 Y56.918 E27.11583
G1 X103.534 Y56.608 E27.16082
G1 X105.570 Y56.314 E27.26563
G1 X106.519 Y53.437 E27.42006
G1 X105.061 Y51.989 E27.52480
G1 X104.580 Y51.247 E27.56984
G1 X104.910 Y50.702 E27.60233
G1 X105.792 Y50.780 E27.64742
G1 X107.751 Y51.400 E27.75214
G1 X109.857 Y49.219 E27.90665
G1 X109.169 Y47.283 E28.01141
G1 X109.059 Y46.406 E28.05646
G1 X109.594 Y46.057 E28.08902
G1 X110.351 Y46.510 E28.13401
G1 X111.849 Y47.918 E28.23879
G1 X114.692 Y46.868 E28.39326
G1 X114.915 Y44.824 E28.49802
G1 X115.194 Y43.987 E28.54302
G1 X115.827 Y43.905 E28.57554
G1 X116.313 Y44.641 E28.62050
G1 X117.031 Y46.504 E28.72226
G1 X117.076 Y46.960 F9000.000
G1 X115.896 Y46.897 F9000.000
G1 X115.772 Y45.948 E28.77101 F600.000
G1 E22.77101 F1800.00000
G92 E0
G1 X121.141 Y47.393 F9000.000
G1 E6.00000 F1800.00000
G1 X121.441 Y46.485 E6.04875 F600.000
G1 E0.04875 F1800.00000
G92 E0
G1 X125.651 Y50.120 F9000.000
G1 E6.00000 F1800.00000
G1 X126.315 Y49.431 E6.04878 F600.000
G1 E0.04878 F1800.00000
G92 E0
G1 X128.532 Y54.531 F9000.000
G1 E6.00000 F1800.00000
G1 X129.430 Y54.199 E6.04878 F600.000
G1 E0.04878 F1800.00000
G92 E0
G1 X129.215 Y59.757 F9000.000
G1 E6.00000 F1800.00000
G1 X130.166 Y59.847 E6.04867 F600.000
G1 E0.04867 F1800.00000
G92 E0
G1 X127.559 Y64.760 F9000.000
G1 E6.00000 F1800.00000
G1 X128.379 Y65.255 E6.04881 F600.000
G1 E0.04881 F1800.00000
G92 E0
G1 X123.899 Y68.550 F9000.000
G1 E6.00000 F1800.00000
G1 X124.423 Y69.352 E6.04881 F600.000
G1 E0.04881 F1800.00000
G92 E0
G1 X118.957 Y70.377 F9000.000
G1 E6.00000 F1800.00000
G1 X119.081 Y71.325 E6.04872 F600.000
G1 E0.04872 F1800.00000
G92 E0
G1 X113.711 Y69.879 F9000.000
G1 E6.00000 F1800.00000
G1 X113.410 Y70.789 E6.04884 F600.000
G1 E0.04884 F1800.00000
G92 E0
G1 X109.201 Y67.155 F9000.000
G1 E6.00000 F1800.00000
G1 X108.537 Y67.843 E6.04873 F600.000
G1 E0.04873 F1800.00000
G92 E0
G1 X106.319 Y62.743 F9000.000
G1 E6.00000 F1800.00000
G1 X105.421 Y63.074 E6.04880 F600.000
G1 E0.04880 F1800.00000
G92 E0
G1 X105.640 Y57.516 F9000.000
G1 E6.00000 F1800.00000
G1 X104.688 Y57.426 E6.04878 F600.000
G1 E0.04878 F1800.00000
G92 E0
G1 X107.293 Y52.514 F9000.000
G1 E6.00000 F1800.00000
G1 X106.473 Y52.018 E6.04884 F600.000
G1 X107.694 Y52.595 F9000.000
G1 X108.085 Y52.719 E6.06982 F600.000
G1 X111.187 Y49.508 E6.29819
G1 X111.050 Y49.121 E6.31916
G1 X111.280 Y48.971 E6.33325
G1 X111.579 Y49.251 E6.35423
G1 X115.765 Y47.705 E6.58249
G1 X115.809 Y47.297 E6.60347
G1 X116.082 Y47.261 E6.61757
G1 X116.230 Y47.644 E6.63857
G1 X120.672 Y48.065 E6.86680
G1 X120.889 Y47.716 E6.88782
G1 X121.151 Y47.803 E6.90192
G1 X121.117 Y48.213 E6.92297
G1 X124.936 Y50.522 E7.15123
G1 X125.284 Y50.301 E7.17226
G1 X125.482 Y50.493 E7.18635
G1 X125.274 Y50.847 E7.20733
G1 X127.714 Y54.583 E7.43559
G1 X128.123 Y54.535 E7.45662
G1 X128.218 Y54.794 E7.47071
G1 X127.877 Y55.023 E7.49175
G1 X128.453 Y59.448 E7.71998
G1 X128.844 Y59.583 E7.74116
G1 X128.818 Y59.858 E7.75525
G1 X128.410 Y59.917 E7.77637
G1 X127.009 Y64.153 E8.00461
G1 X127.300 Y64.442 E8.02561
G1 X127.158 Y64.678 E8.03970
G1 X126.766 Y64.554 E8.06071
G1 X123.667 Y67.766 E8.28899
G1 X123.804 Y68.152 E8.30997
G1 X123.573 Y68.303 E8.32406
G1 X123.275 Y68.022 E8.34503
G1 X119.088 Y69.569 E8.57331
G1 X119.044 Y69.977 E8.59431
G1 X118.771 Y70.012 E8.60840
G1 X118.623 Y69.629 E8.62943
G1 X114.179 Y69.208 E8.85775
G1 X113.962 Y69.556 E8.87873
G1 X113.701 Y69.470 E8.89282
G1 X113.734 Y69.061 E8.91384
G1 X109.917 Y66.752 E9.14203
G1 X109.568 Y66.973 E9.16317
G1 X109.370 Y66.782 E9.17727
G1 X109.579 Y66.425 E9.19843
G1 X107.139 Y62.690 E9.42660
G1 X106.729 Y62.738 E9.44771
G1 X106.633 Y62.480 E9.46180
G1 X106.975 Y62.250 E9.48284
G1 X106.398 Y57.823 E9.71120
G1 X106.011 Y57.690 E9.73214
G1 X106.037 Y57.415 E9.74623
G1 X106.444 Y57.357 E9.76723
G1 X107.842 Y53.120 E9.99546
G1 X107.551 Y52.831 E10.01643
G1 X107.663 Y52.647 E10.02745
G1 X108.257 Y53.098 F9000.000
G1 X111.571 Y49.667 E10.27143 F600.000
G1 X116.041 Y48.015 E10.51518
G1 X120.785 Y48.465 E10.75896
G1 X124.868 Y50.933 E11.00298
G1 X127.473 Y54.922 E11.24670
G1 X128.090 Y59.652 E11.49071
G1 X126.594 Y64.175 E11.73438
G1 X123.283 Y67.606 E11.97824
G1 X118.812 Y69.258 E12.22204
G1 X114.065 Y68.809 E12.46594
G1 X109.987 Y66.342 E12.70976
G1 X107.378 Y62.349 E12.95372
G1 X106.763 Y57.625 E13.19740
G1 X108.238 Y53.155 E13.43817
G1 X108.597 Y53.303 F9000.000
G1 X111.788 Y49.999 E13.67311 F600.000
G1 X116.092 Y48.409 E13.90784
G1 X120.661 Y48.842 E14.14258
G1 X124.592 Y51.218 E14.37756
G1 X127.101 Y55.060 E14.61224
G1 X127.694 Y59.615 E14.84721
G1 X126.254 Y63.970 E15.08185
G1 X123.066 Y67.274 E15.31668
G1 X118.761 Y68.864 E15.55144
G1 X114.190 Y68.432 E15.78630
G1 X110.262 Y66.056 E16.02109
G1 X107.750 Y62.211 E16.25601
G1 X107.158 Y57.662 E16.49066
G1 X108.578 Y53.360 E16.72239
G1 X108.937 Y53.508 F9000.000
G1 X112.005 Y50.332 E16.94829 F600.000
G1 X116.143 Y48.802 E17.17398
G1 X120.536 Y49.219 E17.39969
G1 X124.317 Y51.504 E17.62563
G1 X126.729 Y55.197 E17.85128
G1 X127.299 Y59.577 E18.07720
G1 X125.915 Y63.765 E18.30281
G1 X122.849 Y66.941 E18.52861
G1 X118.710 Y68.471 E18.75433
G1 X114.315 Y68.055 E18.98015
G1 X110.538 Y65.771 E19.20590
G1 X108.123 Y62.074 E19.43179
G1 X107.553 Y57.700 E19.65740
G1 X108.918 Y53.565 E19.88010
G1 X109.276 Y53.714 F9000.000
G1 X112.222 Y50.664 E20.09696 F600.000
G1 X116.195 Y49.196 E20.31362
G1 X120.412 Y49.596 E20.53029
G1 X124.041 Y51.789 E20.74719
G1 X126.356 Y55.335 E20.96380
