; generated by Slic3r 1.2.9 on 2018-02-01 at 20:33:31

; external perimeters extrusion width = 0.40mm
; perimeters extrusion width = 0.62mm
; infill extrusion width = 0.33mm
; solid infill extrusion width = 0.62mm
; top infill extrusion width = 0.20mm

M106 S256; Turn on fan to 100% power
M104 S140; turn on extruder temperature at S value
M140 S60; turn on bed temperature at S value
G28; home all axes
M84; disable motors
G1 Z15 F15000; have Z move to 20mm at 15000 mm/min
M190 S55; turn on bed temperature at S value and wait
M140 S55; turn on bed temperature at S value (printing temperature)
M109 S200; turn on extruder temperature at S value and wait (printing temperature)
M104 S200; turn on extruder temperature at S value
G1 Z0 F12000; move Z back to home
G21 ; set units to millimeters
G90 ; use absolute coordinates
M82 ; use absolute distances for extrusion
G92 E0
M106 S255
;Layer change
G1 E-6.00000 F1800.00000
G92 E0
G1 Z0.300 F9000.000
G1 X105.012 Y36.453 F9000.000
G1 E6.00000 F1800.00000
G1 X107.617 Y31.231 E6.28720 F600.000
G1 X107.826 Y30.888 E6.30699
G1 X125.613 Y6.568 E7.78986
G1 X126.702 Y5.742 E7.85713
G1 X128.066 Y5.649 E7.92441
G1 X129.315 Y6.383 E7.99570
G1 X148.358 Y27.623 E9.39964 F600.000
G1 X148.623 Y27.982 E9.42158
G1 X151.503 Y32.745 E9.69551
G1 X151.802 Y33.516 E9.73624
G1 X153.049 Y39.824 E10.05269
G1 X153.072 Y40.613 E10.09151
G1 X152.178 Y47.101 E10.41383
G1 X151.949 Y47.840 E10.45192
G1 X149.344 Y53.061 E10.73908
G1 X148.849 Y53.729 E10.77999
G1 X144.906 Y57.460 E11.04715
G1 X144.039 Y57.984 E11.09703
G1 X138.904 Y59.741 E11.36413
G1 X138.330 Y59.861 E11.39297
G1 X119.915 Y61.401 E12.30243
G1 X119.314 Y61.375 E12.33206
G1 X114.106 Y60.483 E12.59211
G1 X113.089 Y60.050 E12.64650
G1 X108.960 Y56.994 E12.89931
G1 X108.338 Y56.311 E12.94477
G1 X105.457 Y51.548 E13.21873
G1 X105.158 Y50.776 E13.25948
G1 X103.911 Y44.468 E13.57594
G1 X103.888 Y43.679 E13.61477
G1 X104.783 Y37.192 E13.93705
G1 X104.994 Y36.510 E13.97216
G1 E7.97216 F1800.00000
G92 E0
G1 X128.686 Y51.736 F9000.000
G1 E6.00000 F1800.00000
G1 X124.120 Y56.057 E6.30936 F600.000
G1 X119.603 Y57.602 E6.54434
G1 X115.066 Y56.826 E6.77085
G1 X111.421 Y54.127 E6.99405
G1 X108.807 Y49.806 E7.24261
G1 X107.652 Y43.964 E7.53568
G1 X108.484 Y37.932 E7.83538
G1 X110.936 Y33.017 E8.10567
G1 X127.648 Y10.168 E9.49889
G1 X145.466 Y30.042 E10.81256
G1 X148.153 Y34.486 E11.06813
G1 X149.308 Y40.328 E11.36121
G1 X148.477 Y46.361 E11.66096
G1 X146.082 Y51.160 E11.92491
G1 X142.535 Y54.517 E12.16525
G1 X138.018 Y56.062 E12.40023
G1 X133.481 Y55.286 E12.62674
G1 X128.734 Y51.772 E12.91740
G1 X128.716 Y52.239 F9000.000
G1 X124.324 Y56.395 E13.21498 F600.000
G1 X119.634 Y57.999 E13.45893
G1 X114.911 Y57.190 E13.69480
G1 X111.130 Y54.392 E13.92626
G1 X108.442 Y49.948 E14.18190
G1 X107.261 Y43.976 E14.48150
G1 X108.111 Y37.816 E14.78751
G1 X110.605 Y32.816 E15.06251
G1 X127.617 Y9.556 E16.48075
G1 X145.777 Y29.811 E17.81961
G1 X148.518 Y34.344 E18.08031
G1 X149.699 Y40.316 E18.37991
G1 X148.850 Y46.477 E18.68596
G1 X146.397 Y51.394 E18.95638
G1 X142.739 Y54.855 E19.20421
G1 X138.049 Y56.459 E19.44815
G1 X133.326 Y55.650 E19.68402
G1 X128.764 Y52.274 E19.96329
G1 X128.746 Y52.741 F9000.000
G1 X124.528 Y56.732 E20.24910 F600.000
G1 X119.666 Y58.396 E20.50201
G1 X114.755 Y57.555 E20.74724
G1 X110.840 Y54.657 E20.98696
G1 X108.077 Y50.089 E21.24970
G1 X106.870 Y43.987 E21.55582
G1 X107.738 Y37.701 E21.86813
G1 X110.275 Y32.615 E22.14785
G1 X127.587 Y8.944 E23.59111
G1 X146.089 Y29.581 E24.95516
G1 X148.883 Y34.203 E25.22098
G1 X150.090 Y40.305 E25.52711
G1 X149.223 Y46.592 E25.83946
G1 X146.711 Y51.627 E26.11636
G1 X142.943 Y55.192 E26.37167
G1 X138.081 Y56.856 E26.62458
G1 X133.170 Y56.015 E26.86980
G1 X128.795 Y52.776 E27.13769
G1 X128.777 Y53.243 F9000.000
G1 X124.732 Y57.070 E27.41172 F600.000
G1 X119.698 Y58.793 E27.67360
G1 X114.599 Y57.919 E27.92818
G1 X110.549 Y54.922 E28.17617
G1 X107.712 Y50.230 E28.44599
G1 X106.480 Y43.998 E28.75864
G1 X107.364 Y37.585 E29.07725
G1 X109.944 Y32.413 E29.36170
G1 X127.556 Y8.333 E30.82997
G1 X146.400 Y29.350 E32.21921
G1 X149.248 Y34.062 E32.49016
G1 X150.480 Y40.294 E32.80281
G1 X149.597 Y46.708 E33.12146
G1 X147.026 Y51.860 E33.40484
G1 X143.147 Y55.530 E33.66763
G1 X138.113 Y57.253 E33.92950
G1 X133.014 Y56.379 E34.18409
G1 X128.825 Y53.279 E34.44059
G1 X128.485 Y52.969 F9000.000
G1 X127.678 Y10.779 F9000.000
G1 X145.155 Y30.272 E35.74130 F600.000
G1 X147.788 Y34.627 E35.99413
G1 X148.917 Y40.339 E36.28340
G1 X148.103 Y46.246 E36.57964
G1 X145.768 Y50.927 E36.83955
G1 X142.331 Y54.179 E37.07462
G1 X137.986 Y55.666 E37.30278
G1 X133.637 Y54.921 E37.52200
G1 X128.656 Y51.234 E37.82988
G1 X123.916 Y55.719 E38.15407
G1 X119.571 Y57.206 E38.38223
G1 X115.222 Y56.461 E38.60145
G1 X111.711 Y53.863 E38.81842
G1 X109.172 Y49.665 E39.06218
G1 X108.043 Y43.953 E39.35144
G1 X108.858 Y38.047 E39.64763
G1 X111.266 Y33.219 E39.91571
G1 X127.643 Y10.828 E41.29393
G1 X127.709 Y11.397 F9000.000
G1 X144.841 Y30.505 E42.56896 F600.000
G1 X147.419 Y34.770 E42.81657
G1 X148.523 Y40.351 E43.09920
G1 X147.726 Y46.129 E43.38901
G1 X145.450 Y50.692 E43.64232
G1 X142.125 Y53.838 E43.86977
G1 X137.954 Y55.265 E44.08879
G1 X133.794 Y54.553 E44.29847
G1 X128.625 Y50.727 E44.61796
G1 X123.710 Y55.378 E44.95415
G1 X119.539 Y56.805 E45.17318
G1 X115.379 Y56.093 E45.38285
G1 X112.005 Y53.596 E45.59141
G1 X109.541 Y49.522 E45.82794
G1 X108.437 Y43.942 E46.11055
G1 X109.235 Y38.164 E46.40033
G1 X111.600 Y33.422 E46.66359
G1 X127.673 Y11.445 E48.01631
G1 X127.739 Y12.014 F9000.000
G1 X144.526 Y30.738 E49.26567 F600.000
G1 X147.051 Y34.913 E49.50806
G1 X148.128 Y40.362 E49.78404
G1 X147.349 Y46.013 E50.06743
G1 X145.132 Y50.456 E50.31415
G1 X141.919 Y53.497 E50.53396
G1 X137.921 Y54.865 E50.74385
G1 X133.951 Y54.185 E50.94400
G1 X128.594 Y50.220 E51.27508
G1 X123.504 Y55.037 E51.62328
G1 X119.506 Y56.405 E51.83317
G1 X115.536 Y55.725 E52.03331
G1 X112.298 Y53.328 E52.23344
G1 X109.909 Y49.379 E52.46275
G1 X108.832 Y43.930 E52.73871
G1 X109.611 Y38.280 E53.02207
G1 X111.934 Y33.625 E53.28052
G1 X127.704 Y12.063 E54.60774
G1 X127.770 Y12.631 F9000.000
G1 X144.212 Y30.970 E55.83143 F600.000
G1 X146.682 Y35.055 E56.06860
G1 X147.734 Y40.374 E56.33794
G1 X146.973 Y45.896 E56.61491
G1 X144.815 Y50.221 E56.85502
G1 X141.713 Y53.156 E57.06721
G1 X137.889 Y54.464 E57.26796
G1 X134.108 Y53.817 E57.45857
G1 X128.564 Y49.713 E57.80126
G1 X123.298 Y54.696 E58.16146
G1 X119.474 Y56.004 E58.36221
G1 X115.693 Y55.357 E58.55281
G1 X112.591 Y53.061 E58.74453
G1 X110.278 Y49.236 E58.96661
G1 X109.227 Y43.919 E59.23592
G1 X109.988 Y38.397 E59.51285
G1 X112.267 Y33.828 E59.76649
G1 X127.735 Y12.680 E61.06823
G1 X127.801 Y13.249 F9000.000
G1 X143.898 Y31.203 E62.26624 F600.000
G1 X146.314 Y35.198 E62.49819
G1 X147.339 Y40.385 E62.76088
G1 X146.596 Y45.780 E63.03143
G1 X144.497 Y49.985 E63.26494
G1 X141.506 Y52.815 E63.46950
G1 X137.857 Y54.064 E63.66112
G1 X134.265 Y53.449 E63.84219
G1 X128.533 Y49.206 E64.19648
G1 X123.091 Y54.355 E64.56868
G1 X119.442 Y55.604 E64.76030
G1 X115.850 Y54.989 E64.94137
G1 X112.885 Y52.794 E65.12466
G1 X110.646 Y49.094 E65.33952
G1 X109.621 Y43.907 E65.60218
G1 X110.365 Y38.513 E65.87269
G1 X112.601 Y34.032 E66.12152
G1 X127.765 Y13.297 E67.39776
G1 X127.832 Y13.866 F9000.000
G1 X143.584 Y31.436 E68.57010 F600.000
G1 X145.945 Y35.341 E68.79683
G1 X146.944 Y40.397 E69.05287
G1 X146.219 Y45.663 E69.31700
G1 X144.180 Y49.750 E69.54391
G1 X141.300 Y52.474 E69.74085
G1 X137.825 Y53.664 E69.92333
G1 X134.422 Y53.081 E70.09486
G1 X128.502 Y48.699 E70.46075
G1 X122.885 Y54.015 E70.84496
G1 X119.410 Y55.204 E71.02744
G1 X116.007 Y54.621 E71.19897
G1 X113.178 Y52.527 E71.37384
G1 X111.015 Y48.951 E71.58148
G1 X110.016 Y43.896 E71.83748
G1 X110.742 Y38.630 E72.10158
G1 X112.935 Y34.235 E72.34559
G1 X127.796 Y13.915 E73.59634
G1 X127.862 Y14.484 F9000.000
G1 X143.269 Y31.668 E74.74301 F600.000
G1 X145.576 Y35.484 E74.96451
G1 X146.550 Y40.408 E75.21391
G1 X145.842 Y45.547 E75.47161
G1 X143.862 Y49.515 E75.69192
G1 X141.094 Y52.134 E75.88124
G1 X137.793 Y53.263 E76.05459
G1 X134.579 Y52.713 E76.21658
G1 X128.472 Y48.192 E76.59408
G1 X122.679 Y53.674 E76.99028
G1 X119.378 Y54.803 E77.16363
G1 X116.164 Y54.253 E77.32562
G1 X113.471 Y52.260 E77.49207
G1 X111.384 Y48.808 E77.69248
G1 X110.410 Y43.884 E77.94184
G1 X111.119 Y38.746 E78.19951
G1 X113.268 Y34.438 E78.43871
G1 X127.827 Y14.532 E79.66396
G1 X127.893 Y15.101 F9000.000
G1 X142.955 Y31.901 E80.78497 F600.000
G1 X145.208 Y35.626 E81.00125
G1 X146.155 Y40.420 E81.24399
G1 X145.465 Y45.430 E81.49528
G1 X143.545 Y49.279 E81.70899
G1 X140.888 Y51.793 E81.89068
G1 X137.761 Y52.863 E82.05489
G1 X134.736 Y52.345 E82.20735
G1 X128.441 Y47.685 E82.59645
G1 X122.473 Y53.333 E83.00465
G1 X119.346 Y54.403 E83.16886
G1 X116.321 Y53.885 E83.32132
G1 X113.765 Y51.992 E83.47935
G1 X111.752 Y48.665 E83.67254
G1 X110.805 Y43.873 E83.91524
G1 X111.496 Y38.863 E84.16650
G1 X113.602 Y34.641 E84.40089
G1 X127.858 Y15.150 E85.60064
G1 X127.924 Y15.719 F9000.000
G1 X142.641 Y32.134 E86.69597 F600.000
G1 X144.839 Y35.769 E86.90703
G1 X145.761 Y40.431 E87.14313
G1 X145.088 Y45.314 E87.38800
G1 X143.227 Y49.044 E87.59510
G1 X140.682 Y51.452 E87.76917
G1 X137.729 Y52.462 E87.92425
G1 X134.893 Y51.977 E88.06717
G1 X128.411 Y47.179 E88.46786
G1 X122.267 Y52.992 E88.88807
G1 X119.314 Y54.002 E89.04315
G1 X116.478 Y53.517 E89.18607
G1 X114.058 Y51.725 E89.33567
G1 X112.121 Y48.522 E89.52164
G1 X111.199 Y43.861 E89.75770
G1 X111.873 Y38.980 E90.00253
G1 X113.936 Y34.845 E90.23211
G1 X127.888 Y15.767 E91.40637
G1 X127.954 Y16.336 F9000.000
G1 X142.327 Y32.366 E92.47602 F600.000
G1 X144.471 Y35.912 E92.68187
G1 X145.366 Y40.443 E92.91132
G1 X144.711 Y45.197 E93.14976
G1 X142.909 Y48.808 E93.35027
G1 X140.476 Y51.111 E93.51671
G1 X137.697 Y52.062 E93.66265
G1 X135.050 Y51.609 E93.79603
G1 X128.380 Y46.672 E94.20833
G1 X122.061 Y52.651 E94.64054
G1 X119.282 Y53.602 E94.78648
G1 X116.635 Y53.149 E94.91987
G1 X114.351 Y51.458 E95.06105
G1 X112.489 Y48.380 E95.23979
G1 X111.594 Y43.850 E95.46920
G1 X112.250 Y39.096 E95.70761
G1 X114.269 Y35.048 E95.93237
G1 X127.919 Y16.384 E97.08114
G1 X127.985 Y16.953 F9000.000
G1 X142.013 Y32.599 E98.12513 F600.000
G1 X144.102 Y36.055 E98.32575
G1 X144.972 Y40.454 E98.54855
G1 X144.334 Y45.081 E98.78058
G1 X142.592 Y48.573 E98.97448
G1 X140.270 Y50.770 E99.13329
G1 X137.665 Y51.661 E99.27010
G1 X135.207 Y51.241 E99.39395
G1 X128.349 Y46.165 E99.81785
G1 X121.855 Y52.310 E100.26206
G1 X119.250 Y53.201 E100.39887
G1 X116.793 Y52.781 E100.52271
G1 X114.645 Y51.191 E100.65548
G1 X112.858 Y48.237 E100.82699
G1 X111.988 Y43.838 E101.04975
G1 X112.627 Y39.213 E101.28174
G1 X114.603 Y35.251 E101.50169
G1 X127.950 Y17.002 E102.62497
G1 X128.016 Y17.571 F9000.000
G1 X141.698 Y32.832 E103.64328 F600.000
G1 X143.733 Y36.197 E103.83868
G1 X144.577 Y40.466 E104.05483
G1 X143.957 Y44.964 E104.28044
G1 X142.274 Y48.337 E104.46774
G1 X140.064 Y50.429 E104.61893
G1 X137.632 Y51.261 E104.74660
G1 X135.365 Y50.872 E104.86091
G1 X128.319 Y45.658 E105.29641
G1 X121.649 Y51.969 E105.75263
G1 X119.217 Y52.801 E105.88030
G1 X116.950 Y52.412 E105.99461
G1 X114.938 Y50.924 E106.11895
G1 X113.226 Y48.094 E106.28324
G1 X112.383 Y43.827 E106.49935
G1 X113.003 Y39.329 E106.72492
G1 X114.936 Y35.454 E106.94006
G1 X127.981 Y17.619 E108.03784
G1 X128.047 Y18.188 F9000.000
G1 X141.384 Y33.064 E109.03048 F600.000
G1 X143.365 Y36.340 E109.22066
G1 X144.183 Y40.477 E109.43017
G1 X143.580 Y44.847 E109.64935
G1 X141.957 Y48.102 E109.83005
G1 X139.858 Y50.088 E109.97361
G1 X137.600 Y50.860 E110.09215
G1 X135.522 Y50.504 E110.19693
G1 X128.288 Y45.151 E110.64403
G1 X121.443 Y51.628 E111.11224
G1 X119.185 Y52.400 E111.23078
G1 X117.107 Y52.044 E111.33555
G1 X115.231 Y50.656 E111.45147
G1 X113.595 Y47.951 E111.60854
G1 X112.777 Y43.815 E111.81799
G1 X113.380 Y39.446 E112.03715
G1 X115.270 Y35.658 E112.24747
G1 X128.011 Y18.237 E113.31976
G1 X128.077 Y18.806 F9000.000
G1 X141.070 Y33.297 E114.28673 F600.000
G1 X142.996 Y36.483 E114.47169
G1 X143.788 Y40.489 E114.67455
G1 X143.204 Y44.731 E114.88731
G1 X141.639 Y47.867 E115.06141
G1 X139.652 Y49.747 E115.19734
G1 X137.568 Y50.460 E115.30675
G1 X135.679 Y50.136 E115.40199
G1 X128.258 Y44.644 E115.86069
G1 X121.237 Y51.287 E116.34091
G1 X119.153 Y52.000 E116.45031
G1 X117.264 Y51.676 E116.54555
G1 X115.525 Y50.389 E116.65304
G1 X113.964 Y47.809 E116.80289
G1 X113.172 Y43.804 E117.00569
G1 X113.757 Y39.562 E117.21842
G1 X115.604 Y35.861 E117.42394
G1 X128.042 Y18.854 E118.47073
G1 X128.108 Y19.423 F9000.000
G1 X140.756 Y33.530 E119.41202 F600.000
G1 X142.628 Y36.626 E119.59177
G1 X143.394 Y40.500 E119.78798
G1 X142.827 Y44.614 E119.99432
G1 X141.321 Y47.631 E120.16182
G1 X139.446 Y49.406 E120.29013
G1 X137.536 Y50.060 E120.39039
G1 X135.836 Y49.768 E120.47610
G1 X128.227 Y44.137 E120.94640
G1 X121.031 Y50.946 E121.43862
G1 X119.121 Y51.600 E121.53889
G1 X117.421 Y51.308 E121.62459
G1 X115.818 Y50.122 E121.72366
G1 X114.332 Y47.666 E121.86628
G1 X113.567 Y43.793 E122.06244
G1 X114.134 Y39.679 E122.26875
G1 X115.937 Y36.064 E122.46945
G1 X128.073 Y19.471 E123.49075
G1 X128.139 Y20.040 F9000.000
G1 X140.441 Y33.762 E124.40637 F600.000
G1 X142.259 Y36.768 E124.58089
G1 X142.999 Y40.512 E124.77046
G1 X142.450 Y44.498 E124.97038
G1 X141.004 Y47.396 E125.13128
G1 X139.239 Y49.065 E125.25196
G1 X137.504 Y49.659 E125.34309
G1 X135.993 Y49.400 E125.41926
G1 X128.196 Y43.630 E125.90116
G1 X120.824 Y50.605 E126.40538
G1 X119.089 Y51.199 E126.49651
G1 X117.578 Y50.940 E126.57268
G1 X116.111 Y49.855 E126.66333
G1 X114.701 Y47.523 E126.79873
G1 X113.961 Y43.781 E126.98823
G1 X114.511 Y39.795 E127.18812
G1 X116.271 Y36.267 E127.38401
G1 X128.103 Y20.089 E128.37982
G1 X128.170 Y20.658 F9000.000
G1 X140.127 Y33.995 E129.26977 F600.000
G1 X141.890 Y36.911 E129.43907
G1 X142.604 Y40.523 E129.62198
G1 X142.073 Y44.381 E129.81548
G1 X140.686 Y47.160 E129.96978
G1 X139.033 Y48.724 E130.08284
G1 X137.472 Y49.259 E130.16483
G1 X136.150 Y49.032 E130.23146
G1 X128.166 Y43.123 E130.72497
G1 X120.618 Y50.264 E131.24120
G1 X119.057 Y50.799 E131.32319
G1 X117.735 Y50.572 E131.38982
G1 X116.405 Y49.588 E131.47205
G1 X115.069 Y47.380 E131.60022
G1 X114.356 Y43.770 E131.78307
G1 X114.888 Y39.912 E131.97655
G1 X116.605 Y36.470 E132.16762
G1 X128.134 Y20.706 E133.13793
G1 X128.200 Y21.275 F9000.000
G1 X139.813 Y34.228 E134.00221 F600.000
G1 X141.522 Y37.054 E134.16629
G1 X142.210 Y40.535 E134.34256
G1 X141.696 Y44.265 E134.52964
G1 X140.369 Y46.925 E134.67734
G1 X138.827 Y48.383 E134.78277
G1 X137.440 Y48.858 E134.85562
G1 X136.307 Y48.664 E134.91272
G1 X128.135 Y42.616 E135.41783
G1 X120.412 Y49.923 E135.94606
G1 X119.025 Y50.398 E136.01891
G1 X117.892 Y50.204 E136.07601
G1 X116.698 Y49.320 E136.14982
G1 X115.438 Y47.237 E136.27076
G1 X114.750 Y43.758 E136.44696
G1 X115.265 Y40.029 E136.63402
G1 X116.938 Y36.674 E136.82028
G1 X128.165 Y21.324 E137.76510
G1 X128.231 Y21.893 F9000.000
G1 X139.499 Y34.461 E138.60370 F600.000
G1 X141.153 Y37.197 E138.76256
G1 X141.815 Y40.546 E138.93218
G1 X141.319 Y44.148 E139.11284
G1 X140.051 Y46.689 E139.25394
G1 X138.621 Y48.043 E139.35174
G1 X137.408 Y48.458 E139.41547
G1 X136.464 Y48.296 E139.46303
G1 X128.104 Y42.109 E139.97973
G1 X120.206 Y49.583 E140.51996
G1 X118.993 Y49.998 E140.58369
G1 X118.049 Y49.836 E140.63124
G1 X116.991 Y49.053 E140.69663
G1 X115.807 Y47.095 E140.81036
G1 X115.145 Y43.747 E140.97990
G1 X115.642 Y40.145 E141.16054
G1 X117.272 Y36.877 E141.34199
G1 X128.196 Y21.941 E142.26131
G1 X128.262 Y22.510 F9000.000
G1 X139.185 Y34.693 E143.07425 F600.000
G1 X140.785 Y37.339 E143.22788
G1 X141.421 Y40.558 E143.39086
G1 X140.942 Y44.032 E143.56510
G1 X139.734 Y46.454 E143.69959
G1 X138.415 Y47.702 E143.78977
G1 X137.376 Y48.057 E143.84436
G1 X136.621 Y47.928 E143.88238
G1 X128.074 Y41.602 E144.41069
G1 X120.000 Y49.242 E144.96292
G1 X118.961 Y49.597 E145.01751
G1 X118.206 Y49.468 E145.05553
G1 X117.285 Y48.786 E145.11250
G1 X116.175 Y46.952 E145.21900
