; generated by Slic3r 1.2.9 on 2018-02-01 at 10:58:00

; external perimeters extrusion width = 0.40mm
; perimeters extrusion width = 0.62mm
; infill extrusion width = 0.33mm
; solid infill extrusion width = 0.62mm
; top infill extrusion width = 0.20mm

M106 S256; Turn on fan to 100% power
M104 S140; turn on extruder temperature at S value
M140 S60; turn on bed temperature at S value
G28; home all axes
M84; disable motors
G1 Z15 F15000; have Z move to 20mm at 15000 mm/min
M190 S55; turn on bed temperature at S value and wait
M140 S55; turn on bed temperature at S value (printing temperature)
M109 S200; turn on extruder temperature at S value and wait (printing temperature)
M104 S200; turn on extruder temperature at S value
G1 Z0 F12000; move Z back to home
G21 ; set units to millimeters
G90 ; use absolute coordinates
M82 ; use absolute distances for extrusion
G92 E0
M106 S255
;Layer change
G1 E-6.00000 F1800.00000
G92 E0
G1 Z0.300 F9000.000
G1 X64.958 Y37.245 F9000.000
G1 E6.00000 F1800.00000
G1 X65.170 Y36.902 E6.02054 F600.000
G1 X87.339 Y7.079 E7.91450
G1 X88.435 Y6.262 E7.98417
G1 X89.799 Y6.180 E8.05384
G1 X91.018 Y6.897 E8.12591
G1 X114.648 Y32.865 E9.91538 F600.000
G1 X114.918 Y33.224 E9.93827
G1 X118.488 Y39.050 E10.28652
G1 X118.793 Y39.830 E10.32922
G1 X120.332 Y47.553 E10.73058
G1 X120.354 Y48.355 E10.77145
G1 X119.226 Y56.301 E11.18050
G1 X118.991 Y57.046 E11.22032
G1 X115.740 Y63.446 E11.58618
G1 X115.241 Y64.110 E11.62855
G1 X110.331 Y68.689 E11.97071
G1 X110.078 Y68.894 E11.98734
G1 X96.587 Y78.386 E12.82805
G1 X95.131 Y79.310 E12.91594
G1 X94.661 Y79.540 E12.94261
G1 X93.081 Y80.109 E13.02821
G1 X92.551 Y80.234 E13.05597
G1 X90.907 Y80.427 E13.14033
G1 X90.350 Y80.427 E13.16869
G1 X88.707 Y80.234 E13.25301
G1 X88.177 Y80.109 E13.28076
G1 X86.597 Y79.540 E13.36635
G1 X86.326 Y79.423 E13.38143
G1 X71.863 Y72.081 E14.20811
G1 X71.539 Y71.882 E14.22747
G1 X66.411 Y68.150 E14.55072
G1 X65.780 Y67.468 E14.59808
G1 X62.210 Y61.641 E14.94637
G1 X61.905 Y60.860 E14.98909
G1 X60.368 Y53.138 E15.39039
G1 X60.345 Y52.338 E15.43118
G1 X61.470 Y44.392 E15.84021
G1 X61.706 Y43.646 E15.88008
G1 X64.930 Y37.298 E16.24295
G1 E10.24295 F1800.00000
G92 E0
G1 X98.004 Y67.768 F9000.000
G1 E6.00000 F1800.00000
G1 X97.843 Y69.719 E6.09979 F600.000
G1 X97.433 Y71.321 E6.18407
G1 X96.766 Y72.803 E6.26689
G1 X95.863 Y74.110 E6.34786
G1 X94.753 Y75.190 E6.42680
G1 X93.478 Y76.000 E6.50380
G1 X92.084 Y76.502 E6.57929
G1 X90.628 Y76.672 E6.65400
G1 X89.174 Y76.502 E6.72865
G1 X87.779 Y76.000 E6.80419
G1 X86.504 Y75.190 E6.88120
G1 X85.395 Y74.109 E6.96011
G1 X84.492 Y72.803 E7.04106
G1 X83.824 Y71.321 E7.12391
G1 X83.415 Y69.719 E7.20817
G1 X83.360 Y69.054 E7.24217
G1 X85.484 Y68.334 E7.35649
G1 X90.667 Y63.503 E7.71759
G1 X96.085 Y67.447 E8.05916
G1 X97.945 Y67.758 E8.15526
G1 X97.591 Y68.090 F9000.000
G1 X97.461 Y69.655 E8.23531 F600.000
G1 X97.068 Y71.193 E8.31623
G1 X96.429 Y72.613 E8.39556
G1 X95.567 Y73.859 E8.47282
G1 X94.513 Y74.886 E8.54782
G1 X93.307 Y75.652 E8.62062
G1 X91.995 Y76.124 E8.69167
G1 X90.628 Y76.284 E8.76182
G1 X89.263 Y76.124 E8.83191
G1 X87.950 Y75.652 E8.90301
G1 X86.744 Y74.886 E8.97581
G1 X85.691 Y73.859 E9.05077
G1 X84.829 Y72.613 E9.12803
G1 X84.189 Y71.193 E9.20738
G1 X83.797 Y69.655 E9.28829
G1 X83.769 Y69.323 E9.30529
G1 X85.686 Y68.673 E9.40846
G1 X90.697 Y64.002 E9.75757
G1 X95.932 Y67.812 E10.08757
G1 X97.531 Y68.080 E10.17022
G1 X97.988 Y68.134 F9000.000
G1 X90.636 Y63.004 F9000.000
G1 X85.282 Y67.996 E10.54330 F600.000
G1 X79.333 Y70.012 E10.86345
G1 X73.339 Y69.010 E11.17319
G1 X68.561 Y65.532 E11.47438
G1 X65.187 Y60.026 E11.80353
G1 X63.718 Y52.644 E12.18712
G1 X64.796 Y45.030 E12.57906
G1 X67.934 Y38.852 E12.93225
G1 X89.331 Y10.068 E14.76022
G1 X112.083 Y35.071 E16.48321
G1 X115.511 Y40.665 E16.81760
G1 X116.982 Y48.048 E17.20125
G1 X115.901 Y55.662 E17.59321
G1 X112.805 Y61.757 E17.94166
G1 X108.182 Y66.069 E18.26387
G1 X102.234 Y68.084 E18.58394
G1 X96.239 Y67.082 E18.89374
G1 X90.685 Y63.040 E19.24383
G1 X98.457 Y67.843 F9000.000
G1 X98.286 Y69.906 E19.34932 F600.000
G1 X97.833 Y71.681 E19.44269
G1 X97.099 Y73.311 E19.53381
G1 X96.117 Y74.732 E19.62185
G1 X94.928 Y75.890 E19.70642
G1 X93.582 Y76.744 E19.78765
G1 X92.132 Y77.266 E19.86623
G1 X90.629 Y77.443 E19.94337
G1 X89.126 Y77.266 E20.02045
G1 X87.676 Y76.744 E20.09904
G1 X86.329 Y75.890 E20.18031
G1 X85.141 Y74.732 E20.26484
G1 X84.158 Y73.311 E20.35291
G1 X83.425 Y71.681 E20.44402
G1 X82.801 Y69.243 E20.57226
G1 X79.365 Y70.408 E20.75719
G1 X73.185 Y69.375 E21.07651
G1 X68.272 Y65.799 E21.38624
G1 X64.822 Y60.168 E21.72280
G1 X63.327 Y52.655 E22.11324
G1 X64.423 Y44.913 E22.51179
G1 X67.605 Y38.648 E22.86991
G1 X89.301 Y9.462 E24.72343
G1 X112.393 Y34.839 E26.47215
G1 X115.876 Y40.523 E26.81191
G1 X117.373 Y48.037 E27.20241
G1 X116.274 Y55.779 E27.60098
G1 X113.118 Y61.993 E27.95617
G1 X108.384 Y66.407 E28.28608
G1 X102.266 Y68.480 E28.61532
G1 X98.517 Y67.853 E28.80906
G1 X98.807 Y68.293 F9000.000
G1 X98.668 Y69.970 E28.89484 F600.000
G1 X98.198 Y71.809 E28.99157
G1 X97.436 Y73.501 E29.08618
G1 X96.413 Y74.983 E29.17793
G1 X95.168 Y76.194 E29.26645
G1 X93.753 Y77.092 E29.35188
G1 X92.221 Y77.644 E29.43489
G1 X90.629 Y77.831 E29.51659
G1 X89.037 Y77.644 E29.59824
G1 X87.505 Y77.092 E29.68125
G1 X86.089 Y76.194 E29.76673
G1 X84.845 Y74.983 E29.85522
G1 X83.821 Y73.501 E29.94699
G1 X83.060 Y71.809 E30.04159
G1 X82.531 Y69.742 E30.15031
G1 X79.397 Y70.804 E30.31897
G1 X73.032 Y69.740 E30.64787
G1 X67.983 Y66.066 E30.96613
G1 X64.457 Y60.311 E31.31010
G1 X62.936 Y52.666 E31.70740
G1 X64.050 Y44.795 E32.11256
G1 X67.276 Y38.444 E32.47562
G1 X89.271 Y8.856 E34.35467
G1 X112.703 Y34.606 E36.12912
G1 X116.241 Y40.380 E36.47424
G1 X117.764 Y48.026 E36.87160
G1 X116.647 Y55.897 E37.27679
G1 X113.431 Y62.228 E37.63872
G1 X108.586 Y66.746 E37.97634
G1 X102.298 Y68.876 E38.31475
G1 X98.866 Y68.303 E38.49207
G1 X98.410 Y68.249 F9000.000
G1 X98.247 Y67.613 F9000.000
G1 X98.069 Y69.760 E38.60189 F600.000
G1 X97.660 Y71.396 E38.68784
G1 X97.590 Y71.596 E38.69863
G1 X96.993 Y72.924 E38.77284
G1 X96.853 Y73.172 E38.78737
G1 X96.073 Y74.299 E38.85719
G1 X95.878 Y74.530 E38.87264
G1 X94.932 Y75.451 E38.93994
G1 X94.930 Y75.450 F9000.000
G1 X94.715 Y75.620 E38.97027 F600.000
G1 X93.643 Y76.300 E39.11044
G1 X93.420 Y76.412 E39.13805
G1 X92.188 Y76.855 E39.28262
G1 X92.043 Y76.892 E39.29908
G1 X90.629 Y77.057 E39.45640
G1 X89.215 Y76.892 E39.61362
G1 X89.070 Y76.855 E39.63007
G1 X87.838 Y76.412 E39.77468
G1 X87.614 Y76.300 E39.80235
G1 X86.542 Y75.620 E39.94253
G1 X86.327 Y75.450 E39.97281
G1 X86.326 Y75.452 F9000.000
G1 X85.380 Y74.530 E40.04010 F600.000
G1 X85.184 Y74.299 E40.05556
G1 X84.405 Y73.172 E40.12539
G1 X84.265 Y72.924 E40.13989
G1 X83.667 Y71.596 E40.21412
G1 X83.600 Y71.403 E40.22453
G1 X83.180 Y69.762 E40.31086
G1 X83.044 Y68.958 E40.35246
G1 X89.361 Y10.674 F9000.000
G1 X111.774 Y35.304 E42.05097 F600.000
G1 X115.146 Y40.808 E42.38023
G1 X116.591 Y48.059 E42.75730
G1 X115.529 Y55.544 E43.14293
G1 X112.492 Y61.522 E43.48489
G1 X107.980 Y65.730 E43.79962
G1 X102.202 Y67.687 E44.11076
G1 X96.392 Y66.716 E44.41120
G1 X90.606 Y62.506 E44.77619
G1 X85.080 Y67.657 E45.16154
G1 X79.301 Y69.615 E45.47274
G1 X73.492 Y68.644 E45.77314
G1 X68.849 Y65.266 E46.06600
G1 X65.552 Y59.883 E46.38797
G1 X64.109 Y52.633 E46.76499
G1 X65.168 Y45.148 E47.15060
G1 X68.263 Y39.056 E47.49911
G1 X89.325 Y10.722 E49.29981
G1 X89.391 Y11.280 F9000.000
G1 X111.464 Y35.537 E50.97254 F600.000
G1 X114.781 Y40.951 E51.29644
G1 X116.200 Y48.069 E51.66664
G1 X115.156 Y55.427 E52.04565
G1 X112.179 Y61.286 E52.38086
G1 X107.777 Y65.391 E52.68787
G1 X102.170 Y67.291 E52.98982
G1 X96.545 Y66.351 E53.28068
G1 X90.576 Y62.006 E53.65726
G1 X84.877 Y67.318 E54.05461
G1 X79.269 Y69.219 E54.35664
G1 X73.645 Y68.279 E54.64744
G1 X69.138 Y64.999 E54.93175
G1 X65.917 Y59.740 E55.24630
G1 X64.500 Y52.622 E55.61645
G1 X65.542 Y45.265 E55.99545
G1 X68.593 Y39.260 E56.33902
G1 X89.355 Y11.329 E58.11414
G1 X89.421 Y11.887 F9000.000
G1 X111.154 Y35.769 E59.76110 F600.000
G1 X114.416 Y41.094 E60.07963
G1 X115.809 Y48.080 E60.44296
G1 X114.782 Y55.309 E60.81535
G1 X111.866 Y61.050 E61.14381
G1 X107.575 Y65.052 E61.44310
G1 X102.138 Y66.894 E61.73587
G1 X96.699 Y65.985 E62.01714
G1 X90.545 Y61.507 E62.40531
G1 X84.675 Y66.979 E62.81466
G1 X79.237 Y68.822 E63.10751
G1 X73.799 Y67.913 E63.38872
G1 X69.428 Y64.732 E63.66448
G1 X66.282 Y59.597 E63.97161
G1 X64.891 Y52.612 E64.33490
G1 X65.915 Y45.383 E64.70728
G1 X68.922 Y39.464 E65.04590
G1 X89.385 Y11.935 E66.79545
G1 X89.451 Y12.493 F9000.000
G1 X110.844 Y36.002 E68.41664 F600.000
G1 X114.051 Y41.237 E68.72979
G1 X115.417 Y48.091 E69.08626
G1 X114.409 Y55.191 E69.45202
G1 X111.553 Y60.815 E69.77373
G1 X107.372 Y64.714 E70.06531
G1 X102.106 Y66.498 E70.34890
G1 X96.852 Y65.619 E70.62058
G1 X90.515 Y61.008 E71.02034
G1 X84.472 Y66.641 E71.44170
G1 X79.205 Y68.425 E71.72537
G1 X73.952 Y67.548 E71.99699
G1 X69.717 Y64.465 E72.26419
G1 X66.647 Y59.454 E72.56391
G1 X65.283 Y52.601 E72.92033
G1 X66.288 Y45.500 E73.28609
G1 X69.251 Y39.668 E73.61977
G1 X89.416 Y12.541 E75.34374
G1 X89.481 Y13.100 F9000.000
G1 X110.534 Y36.235 E76.93916 F600.000
G1 X113.686 Y41.380 E77.24694
G1 X115.026 Y48.102 E77.59654
G1 X114.036 Y55.074 E77.95569
G1 X111.240 Y60.579 E78.27065
G1 X107.170 Y64.375 E78.55450
G1 X102.074 Y66.101 E78.82892
G1 X97.006 Y65.254 E79.09100
G1 X90.485 Y60.508 E79.50235
G1 X84.270 Y66.302 E79.93572
G1 X79.173 Y68.029 E80.21021
G1 X74.106 Y67.182 E80.47224
G1 X70.006 Y64.198 E80.73089
G1 X67.012 Y59.311 E81.02318
G1 X65.674 Y52.590 E81.37275
G1 X66.661 Y45.618 E81.73188
G1 X69.580 Y39.872 E82.06063
G1 X89.446 Y13.148 E83.75901
G1 X89.511 Y13.706 F9000.000
G1 X110.224 Y36.468 E85.32867 F600.000
G1 X113.321 Y41.523 E85.63108
G1 X114.635 Y48.113 E85.97381
G1 X113.663 Y54.956 E86.32633
G1 X110.927 Y60.343 E86.63454
G1 X106.967 Y64.036 E86.91068
G1 X102.042 Y65.704 E87.17591
G1 X97.159 Y64.888 E87.42841
G1 X90.455 Y60.009 E87.85135
G1 X84.067 Y65.963 E88.29671
G1 X79.141 Y67.632 E88.56203
G1 X74.259 Y66.816 E88.81447
G1 X70.295 Y63.931 E89.06457
G1 X67.377 Y59.168 E89.34944
G1 X66.065 Y52.579 E89.69214
G1 X67.034 Y45.736 E90.04465
G1 X69.910 Y40.076 E90.36846
G1 X89.476 Y13.754 E92.04127
G1 X89.542 Y14.312 F9000.000
G1 X109.914 Y36.700 E93.58516 F600.000
G1 X112.956 Y41.666 E93.88219
G1 X114.243 Y48.124 E94.21806
G1 X113.290 Y54.838 E94.56396
G1 X110.613 Y60.108 E94.86542
G1 X106.765 Y63.697 E95.13383
G1 X102.010 Y65.308 E95.38989
G1 X97.313 Y64.523 E95.63280
G1 X90.424 Y59.510 E96.06733
G1 X83.865 Y65.624 E96.52470
G1 X79.109 Y67.236 E96.78084
G1 X74.413 Y66.451 E97.02368
G1 X70.584 Y63.664 E97.26523
G1 X67.742 Y59.026 E97.54268
G1 X66.456 Y52.568 E97.87852
G1 X67.407 Y45.853 E98.22441
G1 X70.239 Y40.280 E98.54328
G1 X89.506 Y14.361 E100.19051
G1 X89.572 Y14.919 F9000.000
G1 X109.604 Y36.933 E101.70863 F600.000
G1 X112.591 Y41.809 E102.00029
G1 X113.852 Y48.135 E102.32929
G1 X112.917 Y54.721 E102.66856
G1 X110.300 Y59.872 E102.96327
G1 X106.562 Y63.358 E103.22397
G1 X101.978 Y64.911 E103.47085
G1 X97.466 Y64.157 E103.70417
G1 X90.394 Y59.010 E104.15029
G1 X83.663 Y65.285 E104.61966
G1 X79.077 Y66.839 E104.86662
G1 X74.566 Y66.085 E105.09988
G1 X70.873 Y63.397 E105.33287
G1 X68.107 Y58.883 E105.60290
G1 X66.848 Y52.557 E105.93188
G1 X67.780 Y45.971 E106.27115
G1 X70.568 Y40.484 E106.58508
G1 X89.536 Y14.967 E108.20673
G1 X89.602 Y15.525 F9000.000
G1 X109.294 Y37.166 E109.69908 F600.000
G1 X112.226 Y41.952 E109.98537
G1 X113.461 Y48.146 E110.30750
G1 X112.544 Y54.603 E110.64015
G1 X109.987 Y59.636 E110.92811
G1 X106.360 Y63.019 E111.18110
G1 X101.946 Y64.515 E111.41879
G1 X97.619 Y63.791 E111.64252
G1 X90.364 Y58.511 E112.10023
G1 X83.460 Y64.946 E112.58161
G1 X79.045 Y66.442 E112.81939
G1 X74.720 Y65.719 E113.04306
G1 X71.162 Y63.130 E113.26749
G1 X68.472 Y58.740 E113.53011
G1 X67.239 Y52.546 E113.85222
G1 X68.153 Y46.088 E114.18487
G1 X70.897 Y40.688 E114.49386
G1 X89.566 Y15.573 E116.08993
G1 X89.632 Y16.132 F9000.000
G1 X108.984 Y37.398 E117.55651 F600.000
G1 X111.861 Y42.095 E117.83743
G1 X113.069 Y48.157 E118.15270
G1 X112.171 Y54.485 E118.47873
G1 X109.674 Y59.401 E118.75994
G1 X106.157 Y62.680 E119.00520
G1 X101.914 Y64.118 E119.23372
G1 X97.773 Y63.426 E119.44786
G1 X90.333 Y58.012 E119.91716
G1 X83.258 Y64.607 E120.41054
G1 X79.013 Y66.046 E120.63914
G1 X74.873 Y65.354 E120.85322
G1 X71.451 Y62.863 E121.06910
G1 X68.837 Y58.597 E121.32429
G1 X67.630 Y52.535 E121.63955
G1 X68.526 Y46.206 E121.96557
G1 X71.226 Y40.891 E122.26962
G1 X89.596 Y16.180 E123.84012
G1 X89.662 Y16.738 F9000.000
G1 X108.674 Y37.631 E125.28093 F600.000
G1 X111.496 Y42.238 E125.55648
G1 X112.678 Y48.167 E125.86488
G1 X111.798 Y54.368 E126.18428
G1 X109.361 Y59.165 E126.45874
G1 X105.955 Y62.342 E126.69629
G1 X101.882 Y63.721 E126.91562
G1 X97.926 Y63.060 E127.12017
G1 X90.303 Y57.512 E127.60106
G1 X83.055 Y64.269 E128.10645
G1 X78.981 Y65.649 E128.32587
G1 X75.026 Y64.988 E128.53036
G1 X71.740 Y62.596 E128.73769
G1 X69.202 Y58.454 E128.98546
G1 X68.022 Y52.524 E129.29385
G1 X68.899 Y46.324 E129.61326
G1 X71.556 Y41.095 E129.91236
G1 X89.626 Y16.786 E131.45729
G1 X89.692 Y17.345 F9000.000
G1 X108.364 Y37.864 E132.87233 F600.000
G1 X111.131 Y42.381 E133.14250
G1 X112.287 Y48.178 E133.44404
G1 X111.425 Y54.250 E133.75682
G1 X109.048 Y58.930 E134.02453
G1 X105.752 Y62.003 E134.25435
G1 X101.850 Y63.325 E134.46451
G1 X98.080 Y62.695 E134.65947
G1 X90.273 Y57.013 E135.15195
G1 X82.853 Y63.930 E135.66934
G1 X78.949 Y65.253 E135.87959
G1 X75.180 Y64.623 E136.07448
G1 X72.029 Y62.329 E136.27326
G1 X69.567 Y58.311 E136.51361
G1 X68.413 Y52.513 E136.81514
G1 X69.273 Y46.441 E137.12793
G1 X71.885 Y41.299 E137.42209
G1 X89.656 Y17.393 E138.94144
G1 X89.722 Y17.951 F9000.000
G1 X108.054 Y38.097 E140.33071 F600.000
G1 X110.766 Y42.523 E140.59551
G1 X111.895 Y48.189 E140.89018
G1 X111.052 Y54.132 E141.19634
G1 X108.735 Y58.694 E141.45730
G1 X105.550 Y61.664 E141.67940
G1 X101.818 Y62.928 E141.88038
G1 X98.233 Y62.329 E142.06575
G1 X90.242 Y56.514 E142.56983
G1 X82.650 Y63.591 E143.09921
G1 X78.917 Y64.856 E143.30029
G1 X75.333 Y64.257 E143.48559
G1 X72.318 Y62.062 E143.67582
G1 X69.932 Y58.168 E143.90875
G1 X68.804 Y52.502 E144.20341
G1 X69.646 Y46.559 E144.50958
G1 X72.214 Y41.503 E144.79880
G1 X89.686 Y17.999 E146.29257
G1 X89.752 Y18.557 F9000.000
G1 X107.744 Y38.329 E147.65607 F600.000
G1 X110.401 Y42.666 E147.91550
G1 X111.504 Y48.200 E148.20330
G1 X110.679 Y54.015 E148.50284
G1 X108.422 Y58.458 E148.75705
G1 X105.347 Y61.325 E148.97144
G1 X101.786 Y62.532 E149.16324
G1 X98.387 Y61.963 E149.33902
G1 X90.212 Y56.014 E149.85468
G1 X82.448 Y63.252 E150.39607
G1 X78.885 Y64.459 E150.58797
G1 X75.487 Y63.891 E150.76368
G1 X72.607 Y61.796 E150.94535
G1 X70.297 Y58.025 E151.17086
G1 X69.196 Y52.491 E151.45867
G1 X70.019 Y46.676 E151.75821
G1 X72.543 Y41.707 E152.04249
G1 X89.716 Y18.606 E153.51068
G1 X89.782 Y19.164 F9000.000
G1 X107.434 Y38.562 E154.84842 F600.000
G1 X110.036 Y42.809 E155.10247
G1 X111.113 Y48.211 E155.38341
G1 X110.306 Y53.897 E155.67632
G1 X108.108 Y58.223 E155.92378
G1 X105.145 Y60.986 E156.13045
G1 X101.754 Y62.135 E156.31307
G1 X98.540 Y61.598 E156.47926
G1 X90.182 Y55.515 E157.00651
G1 X82.245 Y62.913 E157.55991
G1 X78.853 Y64.063 E157.74263
G1 X75.640 Y63.526 E157.90875
G1 X72.896 Y61.529 E158.08187
G1 X70.662 Y57.883 E158.29996
G1 X69.587 Y52.480 E158.58090
G1 X70.392 Y46.794 E158.87382
G1 X72.873 Y41.911 E159.15317
G1 X89.746 Y19.212 E160.59578
G1 X89.812 Y19.770 F9000.000
G1 X107.124 Y38.795 E161.90774 F600.000
G1 X109.671 Y42.952 E162.15643
G1 X110.721 Y48.222 E162.43050
G1 X109.933 Y53.779 E162.71679
G1 X107.795 Y57.987 E162.95750
G1 X104.943 Y60.647 E163.15645
G1 X101.722 Y61.738 E163.32989
G1 X98.694 Y61.232 E163.48649
G1 X90.152 Y55.016 E164.02533
G1 X82.043 Y62.574 E164.59073
G1 X78.821 Y63.666 E164.76427
G1 X75.794 Y63.160 E164.92080
G1 X73.185 Y61.262 E165.08537
G1 X71.027 Y57.740 E165.29604
G1 X69.978 Y52.469 E165.57012
