; generated by Slic3r 1.2.9 on 2018-01-31 at 20:17:18

; external perimeters extrusion width = 0.40mm
; perimeters extrusion width = 0.62mm
; infill extrusion width = 0.33mm
; solid infill extrusion width = 0.62mm
; top infill extrusion width = 0.20mm

M106 S256; Turn on fan to 100% power
M104 S140; turn on extruder temperature at S value
M140 S60; turn on bed temperature at S value
G28; home all axes
M84; disable motors
G1 Z15 F15000; have Z move to 20mm at 15000 mm/min
M190 S55; turn on bed temperature at S value and wait
M140 S55; turn on bed temperature at S value (printing temperature)
M109 S200; turn on extruder temperature at S value and wait (printing temperature)
M104 S200; turn on extruder temperature at S value
G1 Z0 F12000; move Z back to home
G21 ; set units to millimeters
G90 ; use absolute coordinates
M82 ; use absolute distances for extrusion
G92 E0
M106 S255
;Layer change
G1 E-6.00000 F1800.00000
G92 E0
G1 Z0.300 F9000.000
G1 X30.990 Y22.665 F9000.000
G1 E6.00000 F1800.00000
G1 X39.287 Y11.321 E6.71632 F600.000
G1 X40.715 Y10.396 E6.80302
G1 X84.025 Y1.162 E9.06006
G1 X84.633 Y1.084 E9.09131
G1 X84.937 Y1.065 E9.10681
G1 X109.062 Y1.065 E10.33640
G1 X109.809 Y1.185 E10.37498
G1 X113.874 Y2.526 E10.59314 F600.000
G1 X114.682 Y2.983 E10.64045
G1 X115.132 Y3.370 E10.67071
G1 X115.708 Y4.105 E10.71830
G1 X117.634 Y7.929 E10.93652
G1 X117.775 Y8.274 E10.95550
G1 X125.458 Y32.233 E12.23790
G1 X125.529 Y32.513 E12.25259
G1 X126.257 Y36.309 E12.44958
G1 X126.298 Y36.844 E12.47693
G1 X126.276 Y37.456 E12.50815
G1 X126.198 Y37.982 E12.53526
G1 X125.207 Y41.717 E12.73221
G1 X125.014 Y42.214 E12.75938
G1 X124.729 Y42.757 E12.79064
G1 X124.428 Y43.199 E12.81791
G1 X121.914 Y46.135 E13.01491
G1 X121.524 Y46.500 E13.04214
G1 X121.032 Y46.865 E13.07336
G1 X120.570 Y47.133 E13.10059
G1 X116.803 Y48.774 E13.31000
G1 X44.891 Y71.909 E17.16015
G1 X44.437 Y72.007 E17.18383
G1 X42.793 Y72.199 E17.26819
G1 X42.240 Y72.199 E17.29640
G1 X40.597 Y72.007 E17.38071
G1 X40.065 Y71.882 E17.40854
G1 X38.485 Y71.313 E17.49413
G1 X38.134 Y71.153 E17.51382
G1 X27.023 Y64.970 E18.16189
G1 X26.763 Y64.803 E18.17761
G1 X22.634 Y61.747 E18.43943
G1 X22.012 Y61.064 E18.48652
G1 X19.132 Y56.301 E18.77021
G1 X18.833 Y55.530 E18.81237
G1 X17.585 Y49.222 E19.14010
G1 X17.562 Y48.432 E19.18034
G1 X18.457 Y41.945 E19.51410
G1 X18.686 Y41.207 E19.55351
G1 X21.291 Y35.985 E19.85094
G1 X21.500 Y35.641 E19.87144
G1 X30.955 Y22.714 E20.68772
G1 E14.68772 F1800.00000
G92 E0
G1 X42.421 Y57.494 F9000.000
G1 E6.00000 F1800.00000
G1 X46.844 Y60.768 E6.28049 F600.000
G1 X49.787 Y61.272 E6.43266
G1 X49.321 Y63.093 E6.52845
G1 X48.655 Y64.575 E6.61127
G1 X47.751 Y65.882 E6.69224
G1 X46.641 Y66.962 E6.77118
G1 X45.366 Y67.772 E6.84819
G1 X43.972 Y68.274 E6.92368
G1 X42.517 Y68.444 E6.99838
G1 X41.062 Y68.274 E7.07303
G1 X39.667 Y67.772 E7.14857
G1 X38.392 Y66.962 E7.22559
G1 X37.283 Y65.881 E7.30449
G1 X36.380 Y64.575 E7.38544
G1 X35.712 Y63.093 E7.46830
G1 X35.535 Y62.399 E7.50481
G1 X38.159 Y61.501 E7.64617
G1 X38.173 Y61.515 E7.64716
G1 X42.377 Y57.536 E7.94218
G1 X42.451 Y57.996 F9000.000
G1 X46.688 Y61.133 E8.21088 F600.000
G1 X49.310 Y61.582 E8.34642
G1 X48.956 Y62.965 E8.41920
G1 X48.317 Y64.385 E8.49853
G1 X47.455 Y65.631 E8.57579
G1 X46.401 Y66.658 E8.65079
G1 X45.195 Y67.424 E8.72359
G1 X43.883 Y67.896 E8.79465
G1 X42.517 Y68.056 E8.86479
G1 X41.151 Y67.896 E8.93488
G1 X39.838 Y67.424 E9.00598
G1 X38.632 Y66.658 E9.07879
G1 X37.579 Y65.631 E9.15375
G1 X36.717 Y64.385 E9.23100
G1 X36.077 Y62.965 E9.31036
G1 X35.997 Y62.648 E9.32702
G1 X38.407 Y61.823 E9.45688
G1 X42.407 Y58.038 E9.73758
G1 X42.707 Y57.689 F9000.000
G1 X42.390 Y56.992 F9000.000
G1 X37.999 Y61.148 E10.04573 F600.000
G1 X33.309 Y62.753 E10.29835
G1 X28.585 Y61.944 E10.54267
G1 X24.804 Y59.146 E10.78237
G1 X22.117 Y54.701 E11.04709
G1 X20.935 Y48.729 E11.35737
G1 X21.785 Y42.570 E11.67427
G1 X24.279 Y37.570 E11.95906
G1 X41.291 Y14.310 E13.42780
G1 X59.451 Y34.565 E14.81433
G1 X62.192 Y39.098 E15.08431
G1 X63.374 Y45.071 E15.39464
G1 X62.524 Y51.230 E15.71154
G1 X60.071 Y56.148 E15.99165
G1 X56.414 Y59.608 E16.24822
G1 X51.724 Y61.213 E16.50085
G1 X47.000 Y60.404 E16.74517
G1 X42.438 Y57.028 E17.03439
G1 X50.257 Y61.353 F9000.000
G1 X49.721 Y63.453 E17.14487 F600.000
G1 X48.987 Y65.083 E17.23600
G1 X48.005 Y66.505 E17.32404
G1 X46.816 Y67.662 E17.40861
G1 X45.470 Y68.517 E17.48987
G1 X44.020 Y69.039 E17.56844
G1 X42.517 Y69.215 E17.64558
G1 X41.014 Y69.039 E17.72266
G1 X39.564 Y68.517 E17.80123
G1 X38.217 Y67.662 E17.88253
G1 X37.029 Y66.505 E17.96707
G1 X36.047 Y65.083 E18.05514
G1 X35.313 Y63.453 E18.14625
G1 X35.083 Y62.553 E18.19357
G1 X33.341 Y63.149 E18.28740
G1 X28.429 Y62.308 E18.54140
G1 X24.514 Y59.410 E18.78966
G1 X21.752 Y54.843 E19.06173
G1 X20.544 Y48.740 E19.37876
G1 X21.412 Y42.454 E19.70219
G1 X23.949 Y37.368 E19.99187
G1 X41.261 Y13.698 E21.48651
G1 X59.763 Y34.334 E22.89914
G1 X62.557 Y38.956 E23.17442
G1 X63.765 Y45.060 E23.49151
G1 X62.897 Y51.346 E23.81493
G1 X60.385 Y56.381 E24.10174
G1 X56.618 Y59.946 E24.36607
G1 X51.756 Y61.609 E24.62798
G1 X50.316 Y61.363 E24.70243
G1 X50.543 Y61.793 F9000.000
G1 X50.086 Y63.581 E24.79649 F600.000
G1 X49.324 Y65.273 E24.89110
G1 X48.301 Y66.755 E24.98285
G1 X47.056 Y67.966 E25.07137
G1 X45.641 Y68.865 E25.15683
G1 X44.109 Y69.417 E25.23984
G1 X42.517 Y69.603 E25.32154
G1 X40.925 Y69.417 E25.40318
G1 X39.393 Y68.865 E25.48619
G1 X37.977 Y67.966 E25.57169
G1 X36.733 Y66.755 E25.66018
G1 X35.709 Y65.273 E25.75195
G1 X34.948 Y63.581 E25.84655
G1 X34.813 Y63.053 E25.87430
G1 X33.373 Y63.546 E25.95186
G1 X28.273 Y62.673 E26.21556
G1 X24.223 Y59.675 E26.47238
G1 X21.387 Y54.984 E26.75178
G1 X20.154 Y48.752 E27.07557
G1 X21.038 Y42.339 E27.40552
G1 X23.618 Y37.167 E27.70010
G1 X41.230 Y13.086 E29.22065
G1 X60.074 Y34.104 E30.65936
G1 X62.923 Y38.815 E30.93995
G1 X64.156 Y45.048 E31.26379
G1 X63.271 Y51.461 E31.59374
G1 X60.700 Y56.614 E31.88726
G1 X56.822 Y60.283 E32.15933
G1 X51.788 Y62.006 E32.43053
G1 X50.602 Y61.803 E32.49186
G1 X50.153 Y61.704 F9000.000
G1 X50.070 Y61.125 F9000.000
G1 X49.546 Y63.176 E32.59973 F600.000
G1 X49.478 Y63.368 E32.61012
G1 X48.875 Y64.706 E32.68492
G1 X48.741 Y64.944 E32.69887
G1 X47.961 Y66.071 E32.76868
G1 X47.766 Y66.302 E32.78413
G1 X46.820 Y67.223 E32.85144
G1 X46.818 Y67.222 F9000.000
G1 X46.603 Y67.392 E32.88179 F600.000
G1 X45.531 Y68.072 E33.02194
G1 X45.307 Y68.184 E33.04962
G1 X44.076 Y68.628 E33.19413
G1 X43.932 Y68.664 E33.21058
G1 X42.517 Y68.829 E33.36792
G1 X41.103 Y68.664 E33.52516
G1 X40.958 Y68.628 E33.54160
G1 X39.727 Y68.185 E33.68614
G1 X39.502 Y68.072 E33.71389
G1 X38.431 Y67.392 E33.85404
G1 X38.215 Y67.222 E33.88435
G1 X38.214 Y67.224 F9000.000
G1 X37.268 Y66.302 E33.95164 F600.000
G1 X37.073 Y66.071 E33.96710
G1 X36.293 Y64.944 E34.03693
G1 X36.153 Y64.696 E34.05143
G1 X35.555 Y63.368 E34.12566
G1 X35.486 Y63.168 E34.13647
G1 X35.261 Y62.289 E34.18272
G1 X41.322 Y14.921 F9000.000
G1 X59.140 Y34.795 E35.54349 F600.000
G1 X61.827 Y39.239 E35.80824
G1 X62.983 Y45.082 E36.11188
G1 X62.151 Y51.115 E36.42233
G1 X59.756 Y55.915 E36.69579
G1 X56.210 Y59.270 E36.94468
G1 X51.693 Y60.816 E37.18809
G1 X47.155 Y60.039 E37.42277
G1 X42.360 Y56.490 E37.72691
G1 X37.795 Y60.810 E38.04733
G1 X33.278 Y62.356 E38.29073
G1 X28.740 Y61.579 E38.52542
G1 X25.095 Y58.881 E38.75661
G1 X22.482 Y54.560 E39.01406
G1 X21.326 Y48.718 E39.31765
G1 X22.158 Y42.685 E39.62810
G1 X24.610 Y37.771 E39.90807
G1 X41.286 Y14.970 E41.34819
G1 X41.352 Y15.533 F9000.000
G1 X58.829 Y35.026 E42.68286 F600.000
G1 X61.462 Y39.381 E42.94230
G1 X62.592 Y45.094 E43.23918
G1 X61.777 Y50.999 E43.54310
G1 X59.442 Y55.682 E43.80986
G1 X56.006 Y58.933 E44.05099
G1 X51.661 Y60.419 E44.28511
G1 X47.311 Y59.674 E44.51010
G1 X42.329 Y55.988 E44.82603
G1 X37.591 Y60.473 E45.15866
G1 X33.246 Y61.959 E45.39277
G1 X28.896 Y61.214 E45.61776
G1 X25.386 Y58.616 E45.84039
G1 X22.847 Y54.418 E46.09049
G1 X21.717 Y48.706 E46.38733
G1 X22.532 Y42.801 E46.69125
G1 X24.941 Y37.972 E46.96633
G1 X41.317 Y15.581 E48.38053
G1 X41.383 Y16.145 F9000.000
G1 X58.517 Y35.257 E49.68910 F600.000
G1 X61.097 Y39.522 E49.94322
G1 X62.201 Y45.105 E50.23335
G1 X61.404 Y50.884 E50.53074
G1 X59.127 Y55.448 E50.79078
G1 X55.802 Y58.595 E51.02416
G1 X51.629 Y60.022 E51.24899
G1 X47.466 Y59.310 E51.46429
G1 X42.299 Y55.485 E51.79202
G1 X37.386 Y60.135 E52.13685
G1 X33.214 Y61.562 E52.36167
G1 X29.051 Y60.850 E52.57696
G1 X25.676 Y58.352 E52.79103
G1 X23.212 Y54.277 E53.03379
G1 X22.108 Y48.695 E53.32386
G1 X22.905 Y42.916 E53.62126
G1 X25.271 Y38.174 E53.89144
G1 X41.347 Y16.193 E55.27972
G1 X41.413 Y16.756 F9000.000
G1 X58.206 Y35.487 E56.56219 F600.000
G1 X60.732 Y39.664 E56.81101
G1 X61.810 Y45.116 E57.09437
G1 X61.030 Y50.768 E57.38524
G1 X58.812 Y55.215 E57.63857
G1 X55.597 Y58.257 E57.86420
G1 X51.597 Y59.626 E58.07974
G1 X47.622 Y58.945 E58.28534
G1 X42.269 Y54.983 E58.62487
G1 X37.182 Y59.797 E58.98190
G1 X33.182 Y61.166 E59.19744
G1 X29.207 Y60.485 E59.40303
G1 X25.967 Y58.087 E59.60853
G1 X23.578 Y54.135 E59.84395
G1 X22.499 Y48.684 E60.12726
G1 X23.279 Y43.032 E60.41812
G1 X25.602 Y38.375 E60.68342
G1 X41.378 Y16.805 E62.04578
G1 X41.443 Y17.368 F9000.000
G1 X57.895 Y35.718 E63.30214 F600.000
G1 X60.366 Y39.805 E63.54566
G1 X61.419 Y45.128 E63.82226
G1 X60.657 Y50.653 E64.10660
G1 X58.497 Y54.982 E64.35322
G1 X55.393 Y57.919 E64.57109
G1 X51.565 Y59.229 E64.77735
G1 X47.778 Y58.580 E64.97325
G1 X42.238 Y54.480 E65.32458
G1 X36.978 Y59.459 E65.69381
G1 X33.150 Y60.769 E65.90006
G1 X29.363 Y60.120 E66.09596
G1 X26.258 Y57.822 E66.29290
G1 X23.943 Y53.994 E66.52097
G1 X22.890 Y48.672 E66.79752
G1 X23.652 Y43.147 E67.08186
G1 X25.932 Y38.576 E67.34226
G1 X41.408 Y17.417 E68.67870
G1 X41.474 Y17.980 F9000.000
G1 X57.583 Y35.948 E69.90896 F600.000
G1 X60.001 Y39.947 E70.14717
G1 X61.028 Y45.139 E70.41701
G1 X60.284 Y50.537 E70.69482
G1 X58.183 Y54.749 E70.93473
G1 X55.189 Y57.581 E71.14485
G1 X51.533 Y58.832 E71.34182
G1 X47.933 Y58.216 E71.52802
G1 X42.208 Y53.978 E71.89115
G1 X36.774 Y59.121 E72.27259
G1 X33.118 Y60.372 E72.46955
G1 X29.518 Y59.756 E72.65575
G1 X26.548 Y57.557 E72.84412
G1 X24.308 Y53.852 E73.06485
G1 X23.281 Y48.661 E73.33464
G1 X24.026 Y43.263 E73.61245
G1 X26.263 Y38.778 E73.86796
G1 X41.438 Y18.028 E75.17847
G1 X41.504 Y18.592 F9000.000
G1 X57.272 Y36.179 E76.38264 F600.000
G1 X59.636 Y40.088 E76.61554
G1 X60.637 Y45.151 E76.87862
G1 X59.910 Y50.422 E77.14990
G1 X57.868 Y54.515 E77.38311
G1 X54.985 Y57.244 E77.58547
G1 X51.502 Y58.435 E77.77315
G1 X48.089 Y57.851 E77.94966
G1 X42.178 Y53.476 E78.32458
G1 X36.570 Y58.784 E78.71822
G1 X33.087 Y59.975 E78.90589
G1 X29.674 Y59.391 E79.08240
G1 X26.839 Y57.293 E79.26221
G1 X24.673 Y53.711 E79.47560
G1 X23.672 Y48.649 E79.73863
G1 X24.399 Y43.378 E80.00990
G1 X26.593 Y38.979 E80.26052
G1 X41.469 Y18.640 E81.54512
G1 X41.535 Y19.203 F9000.000
G1 X56.961 Y36.409 E82.72318 F600.000
G1 X59.271 Y40.230 E82.95078
G1 X60.246 Y45.162 E83.20710
G1 X59.537 Y50.306 E83.47185
G1 X57.553 Y54.282 E83.69834
G1 X54.781 Y56.906 E83.89295
G1 X51.470 Y58.039 E84.07134
G1 X48.245 Y57.486 E84.23815
G1 X42.147 Y52.973 E84.62487
G1 X36.365 Y58.446 E85.03072
G1 X33.055 Y59.579 E85.20910
G1 X29.830 Y59.026 E85.37591
G1 X27.130 Y57.028 E85.54716
G1 X25.038 Y53.569 E85.75320
G1 X24.063 Y48.638 E86.00947
G1 X24.772 Y43.494 E86.27422
G1 X26.924 Y39.181 E86.51994
G1 X41.499 Y19.252 E87.77862
G1 X41.565 Y19.815 F9000.000
G1 X56.649 Y36.640 E88.93058 F600.000
G1 X58.906 Y40.371 E89.15287
G1 X59.856 Y45.173 E89.40243
G1 X59.163 Y50.191 E89.66065
G1 X57.239 Y54.049 E89.88044
G1 X54.576 Y56.568 E90.06729
G1 X51.438 Y57.642 E90.23640
G1 X48.400 Y57.122 E90.39351
G1 X42.117 Y52.471 E90.79203
G1 X36.161 Y58.108 E91.21008
G1 X33.023 Y59.182 E91.37917
G1 X29.985 Y58.662 E91.53629
G1 X27.420 Y56.763 E91.69897
G1 X25.404 Y53.428 E91.89767
G1 X24.454 Y48.627 E92.14718
G1 X25.146 Y43.609 E92.40540
G1 X27.255 Y39.382 E92.64622
G1 X41.530 Y19.864 E93.87898
G1 X41.596 Y20.427 F9000.000
G1 X56.338 Y36.870 E95.00484 F600.000
G1 X58.540 Y40.513 E95.22183
G1 X59.465 Y45.185 E95.46463
G1 X58.790 Y50.075 E95.71632
G1 X56.924 Y53.816 E95.92940
G1 X54.372 Y56.230 E96.10850
G1 X51.406 Y57.245 E96.26831
G1 X48.556 Y56.757 E96.41573
G1 X42.087 Y51.969 E96.82605
G1 X35.957 Y57.770 E97.25630
G1 X32.991 Y58.785 E97.41610
G1 X30.141 Y58.297 E97.56352
G1 X27.711 Y56.498 E97.71764
G1 X25.769 Y53.286 E97.90900
G1 X24.845 Y48.615 E98.15175
G1 X25.519 Y43.725 E98.40344
G1 X27.585 Y39.583 E98.63937
G1 X41.560 Y20.475 E99.84621
G1 X41.626 Y21.039 F9000.000
G1 X56.027 Y37.101 E100.94597 F600.000
G1 X58.175 Y40.654 E101.15764
G1 X59.074 Y45.196 E101.39368
G1 X58.416 Y49.960 E101.63885
G1 X56.609 Y53.582 E101.84522
G1 X54.168 Y55.892 E102.01656
G1 X51.374 Y56.848 E102.16709
G1 X48.712 Y56.392 E102.30482
G1 X42.056 Y51.466 E102.72693
G1 X35.753 Y57.432 E103.16938
G1 X32.959 Y58.388 E103.31990
G1 X30.297 Y57.932 E103.45762
G1 X28.002 Y56.234 E103.60317
G1 X26.134 Y53.145 E103.78719
G1 X25.235 Y48.604 E104.02318
G1 X25.893 Y43.840 E104.26834
G1 X27.916 Y39.785 E104.49938
G1 X41.591 Y21.087 E105.68030
G1 X41.656 Y21.650 F9000.000
G1 X55.715 Y37.331 E106.75395 F600.000
G1 X57.810 Y40.795 E106.96032
G1 X58.683 Y45.207 E107.18960
G1 X58.043 Y49.844 E107.42824
G1 X56.295 Y53.349 E107.62790
G1 X53.964 Y55.555 E107.79149
G1 X51.342 Y56.451 E107.93273
G1 X48.867 Y56.028 E108.06076
G1 X42.026 Y50.964 E108.49467
G1 X35.548 Y57.095 E108.94933
G1 X32.927 Y57.991 E109.09055
G1 X30.452 Y57.568 E109.21858
G1 X28.292 Y55.969 E109.35557
G1 X26.499 Y53.003 E109.53224
G1 X25.626 Y48.593 E109.76147
G1 X26.266 Y43.956 E110.00010
G1 X28.246 Y39.986 E110.22625
G1 X41.621 Y21.699 E111.38125
G1 X41.687 Y22.262 F9000.000
G1 X55.404 Y37.562 E112.42880 F600.000
G1 X57.445 Y40.937 E112.62987
G1 X58.292 Y45.219 E112.85238
G1 X57.670 Y49.729 E113.08449
G1 X55.980 Y53.116 E113.27744
G1 X53.760 Y55.217 E113.43328
G1 X51.311 Y56.055 E113.56523
G1 X49.023 Y55.663 E113.68356
G1 X41.995 Y50.462 E114.12927
G1 X35.344 Y56.757 E114.59613
G1 X32.896 Y57.595 E114.72807
G1 X30.608 Y57.203 E114.84640
G1 X28.583 Y55.704 E114.97483
G1 X26.864 Y52.862 E115.14415
G1 X26.017 Y48.581 E115.36662
G1 X26.640 Y44.071 E115.59872
G1 X28.577 Y40.187 E115.81998
G1 X41.652 Y22.311 E116.94906
G1 X41.717 Y22.874 F9000.000
G1 X55.093 Y37.792 E117.97051 F600.000
G1 X57.080 Y41.078 E118.16627
G1 X57.901 Y45.230 E118.38203
G1 X57.296 Y49.614 E118.60761
G1 X55.665 Y52.883 E118.79384
G1 X53.555 Y54.879 E118.94193
G1 X51.279 Y55.658 E119.06459
G1 X49.178 Y55.298 E119.17323
G1 X41.965 Y49.959 E119.63073
G1 X35.140 Y56.419 E120.10980
G1 X32.864 Y57.198 E120.23245
G1 X30.763 Y56.838 E120.34108
G1 X28.874 Y55.440 E120.46094
G1 X27.230 Y52.721 E120.62293
G1 X26.408 Y48.570 E120.83863
G1 X27.013 Y44.186 E121.06421
G1 X28.908 Y40.389 E121.28057
G1 X41.682 Y22.922 E122.38373
G1 X41.748 Y23.486 F9000.000
G1 X54.781 Y38.023 E123.37908 F600.000
G1 X56.714 Y41.220 E123.56953
G1 X57.510 Y45.242 E123.77853
G1 X56.923 Y49.498 E123.99758
G1 X55.351 Y52.649 E124.17711
G1 X53.351 Y54.541 E124.31744
G1 X51.247 Y55.261 E124.43082
G1 X49.334 Y54.934 E124.52976
G1 X41.935 Y49.457 E124.99906
G1 X34.936 Y56.081 E125.49033
G1 X32.832 Y56.801 E125.60369
G1 X30.919 Y56.474 E125.70263
G1 X29.164 Y55.175 E125.81392
G1 X27.595 Y52.579 E125.96856
G1 X26.799 Y48.558 E126.17751
G1 X27.386 Y44.302 E126.39655
G1 X29.238 Y40.590 E126.60802
G1 X41.712 Y23.534 E127.68526
G1 X41.778 Y24.098 F9000.000
G1 X54.470 Y38.254 E128.65452 F600.000
G1 X56.349 Y41.361 E128.83966
G1 X57.119 Y45.253 E129.04190
G1 X56.549 Y49.383 E129.25442
G1 X55.036 Y52.416 E129.42724
G1 X53.147 Y54.203 E129.55981
G1 X51.215 Y54.864 E129.66390
G1 X49.490 Y54.569 E129.75315
G1 X41.904 Y48.955 E130.23424
G1 X34.732 Y55.744 E130.73772
G1 X32.800 Y56.404 E130.84179
G1 X31.075 Y56.109 E130.93103
G1 X29.455 Y54.910 E131.03376
G1 X27.960 Y52.438 E131.18106
G1 X27.190 Y48.547 E131.38325
G1 X27.760 Y44.417 E131.59576
G1 X29.569 Y40.791 E131.80234
G1 X41.743 Y24.146 E132.85366
