; generated by Slic3r 1.2.9 on 2020-01-22 at 15:02:17

; external perimeters extrusion width = 0.40mm
; perimeters extrusion width = 0.62mm
; infill extrusion width = 0.33mm
; solid infill extrusion width = 0.62mm
; top infill extrusion width = 0.20mm

M106 S256; Turn on fan to 100% power
M104 S140; turn on extruder temperature at S value
M140 S60; turn on bed temperature at S value
G28; home all axes
M84; disable motors
G1 Z15 F15000; have Z move to 20mm at 15000 mm/min
M190 S55; turn on bed temperature at S value and wait
M140 S55; turn on bed temperature at S value (printing temperature)
M109 S200; turn on extruder temperature at S value and wait (printing temperature)
M104 S200; turn on extruder temperature at S value
G1 Z0 F12000; move Z back to home
G21 ; set units to millimeters
G90 ; use absolute coordinates
M82 ; use absolute distances for extrusion
G92 E0
M106 S255
;Layer change
G1 E-6.00000 F1800.00000
G92 E0
G1 Z0.300 F9000.000
G1 X79.207 Y51.624 F9000.000
G1 E6.00000 F1800.00000
G1 X79.500 Y51.220 E6.02454 F600.000
G1 X79.920 Y50.754 E6.05541
G1 X80.290 Y50.421 E6.07995
G1 X80.798 Y50.052 E6.11082
G1 X81.230 Y49.803 E6.13537
G1 X81.803 Y49.547 E6.16623
G1 X82.277 Y49.393 E6.19078
G1 X82.890 Y49.263 E6.22164
G1 X83.386 Y49.211 E6.24619
G1 X124.014 Y49.211 E8.24566
G1 X124.510 Y49.263 E8.27020
G1 X125.123 Y49.393 E8.30107 F600.000
G1 X125.597 Y49.547 E8.32562
G1 X126.170 Y49.803 E8.35648
G1 X126.602 Y50.052 E8.38102
G1 X127.110 Y50.421 E8.41189
G1 X127.480 Y50.754 E8.43643
G1 X127.900 Y51.220 E8.46730
G1 X128.193 Y51.624 E8.49186
G1 X128.507 Y52.167 E8.52273
G1 X128.709 Y52.623 E8.54726
G1 X128.903 Y53.219 E8.57813
G1 X129.007 Y53.707 E8.60266
G1 X129.073 Y54.330 E8.63353
G1 X129.073 Y54.830 E8.65809
G1 X129.007 Y55.453 E8.68896
G1 X128.903 Y55.941 E8.71349
G1 X128.709 Y56.537 E8.74436
G1 X128.507 Y56.993 E8.76889
G1 X128.193 Y57.536 E8.79975
G1 X127.900 Y57.940 E8.82432
G1 X127.480 Y58.406 E8.85519
G1 X127.110 Y58.739 E8.87973
G1 X126.602 Y59.108 E8.91059
G1 X126.170 Y59.357 E8.93513
G1 X125.597 Y59.613 E8.96600
G1 X125.123 Y59.767 E8.99055
G1 X124.510 Y59.897 E9.02142
G1 X124.014 Y59.949 E9.04596
G1 X83.386 Y59.949 E11.04543
G1 X82.890 Y59.897 E11.06998
G1 X82.277 Y59.767 E11.10084
G1 X81.803 Y59.613 E11.12539
G1 X81.230 Y59.357 E11.15625
G1 X80.798 Y59.108 E11.18080
G1 X80.290 Y58.739 E11.21167
G1 X79.920 Y58.406 E11.23621
G1 X79.500 Y57.940 E11.26707
G1 X79.207 Y57.536 E11.29162
G1 X78.893 Y56.993 E11.32249
G1 X78.690 Y56.537 E11.34703
G1 X78.497 Y55.941 E11.37790
G1 X78.393 Y55.453 E11.40244
G1 X78.337 Y54.923 E11.42868
G1 X78.327 Y54.331 E11.45783
G1 X78.393 Y53.707 E11.48870
G1 X78.497 Y53.219 E11.51324
G1 X78.691 Y52.623 E11.54411
G1 X78.893 Y52.167 E11.56866
G1 X79.177 Y51.676 E11.59657
G1 E5.59657 F1800.00000
G92 E0
G1 X124.922 Y55.937 F9000.000
G1 E6.00000 F1800.00000
G1 X124.613 Y56.162 E6.01879 F600.000
G1 X124.264 Y56.317 E6.03758
G1 X123.891 Y56.396 E6.05637
G1 X123.509 Y56.396 E6.07516
G1 X123.136 Y56.317 E6.09395
G1 X122.787 Y56.162 E6.11274
G1 X122.478 Y55.937 E6.13153
G1 X122.223 Y55.653 E6.15032
G1 X122.032 Y55.323 E6.16911
G1 X121.914 Y54.960 E6.18790
G1 X121.874 Y54.580 E6.20669
G1 X121.914 Y54.200 E6.22548
G1 X122.032 Y53.837 E6.24426
G1 X122.223 Y53.507 E6.26306
G1 X122.478 Y53.223 E6.28184
G1 X122.787 Y52.998 E6.30063
G1 X123.136 Y52.843 E6.31943
G1 X123.509 Y52.764 E6.33822
G1 X123.891 Y52.764 E6.35700 F600.000
G1 X124.264 Y52.843 E6.37579
G1 X124.613 Y52.998 E6.39458
G1 X124.922 Y53.223 E6.41337
G1 X125.177 Y53.507 E6.43216
G1 X125.368 Y53.837 E6.45095
G1 X125.486 Y54.200 E6.46974
G1 X125.526 Y54.580 E6.48853
G1 X125.486 Y54.960 E6.50732
G1 X125.368 Y55.323 E6.52611
G1 X125.177 Y55.653 E6.54490
G1 X124.962 Y55.893 E6.56074
G1 X124.988 Y56.313 F9000.000
G1 X125.476 Y56.700 F9000.000
G1 X125.087 Y56.982 E6.58440 F600.000
G1 X124.557 Y57.218 E6.61294
G1 X123.990 Y57.339 E6.64148
G1 X123.410 Y57.339 E6.67002
G1 X122.843 Y57.218 E6.69856
G1 X122.313 Y56.982 E6.72709
G1 X121.844 Y56.641 E6.75563
G1 X121.456 Y56.210 E6.78417
G1 X121.166 Y55.708 E6.81271
G1 X120.987 Y55.157 E6.84125
G1 X120.926 Y54.580 E6.86979
G1 X120.987 Y54.003 E6.89832
G1 X121.166 Y53.452 E6.92686
G1 X121.456 Y52.950 E6.95540
G1 X121.844 Y52.519 E6.98394
G1 X122.313 Y52.178 E7.01248
G1 X122.843 Y51.942 E7.04101
G1 X123.410 Y51.821 E7.06955
G1 X123.990 Y51.821 E7.09809
G1 X124.059 Y51.836 E7.10156
G1 X124.557 Y51.942 E7.12663 F600.000
G1 X125.087 Y52.178 E7.15517
G1 X125.556 Y52.519 E7.18371
G1 X125.944 Y52.950 E7.21225
G1 X126.234 Y53.452 E7.24079
G1 X126.413 Y54.003 E7.26933
G1 X126.474 Y54.580 E7.29786
G1 X126.413 Y55.157 E7.32640
G1 X126.234 Y55.708 E7.35494
G1 X125.944 Y56.210 E7.38348
G1 X125.524 Y56.664 E7.41390
G1 X125.101 Y56.559 F9000.000
G1 X125.199 Y56.318 F9000.000
G1 X124.850 Y56.571 E7.45989 F600.000
G1 X124.437 Y56.756 E7.50804
G1 X123.940 Y56.867 E7.56236
G1 X123.431 Y56.861 E7.61668
G1 X122.989 Y56.767 E7.66484
G1 X122.577 Y56.584 E7.71299
G1 X122.141 Y56.267 E7.77038
G1 X121.840 Y55.931 E7.81852
G1 X121.613 Y55.541 E7.86667
G1 X121.451 Y55.058 E7.92100
G1 X121.403 Y54.551 E7.97533
G1 X121.451 Y54.102 E8.02347 F600.000
G1 X121.590 Y53.672 E8.07162
G1 X121.825 Y53.253 E8.12285
G1 X122.161 Y52.871 E8.17716
G1 X122.550 Y52.589 E8.22843
G1 X122.989 Y52.393 E8.27968
G1 X123.489 Y52.293 E8.33402
G1 X123.940 Y52.293 E8.38217
G1 X124.382 Y52.386 E8.43031
G1 X124.823 Y52.576 E8.48153
G1 X125.239 Y52.871 E8.53586
G1 X125.560 Y53.229 E8.58712
G1 X125.800 Y53.645 E8.63837
G1 X125.953 Y54.131 E8.69270
G1 X125.997 Y54.609 E8.74392
G1 X125.949 Y55.058 E8.79207
G1 X125.810 Y55.488 E8.84021
G1 X125.560 Y55.931 E8.89454
G1 X125.246 Y56.281 E8.94468
G1 E2.94468 F1800.00000
G92 E0
G1 X117.486 Y54.960 F9000.000
G1 E6.00000 F1800.00000
G1 X117.368 Y55.323 E6.01879 F600.000
G1 X117.177 Y55.653 E6.03758
G1 X116.922 Y55.937 E6.05637
G1 X116.613 Y56.162 E6.07516
G1 X116.264 Y56.317 E6.09395
G1 X115.891 Y56.396 E6.11274
G1 X115.509 Y56.396 E6.13153
G1 X115.136 Y56.317 E6.15032
G1 X114.787 Y56.162 E6.16911
G1 X114.478 Y55.937 E6.18790
G1 X114.223 Y55.653 E6.20668
G1 X114.032 Y55.323 E6.22548
G1 X113.914 Y54.960 E6.24427
G1 X113.874 Y54.580 E6.26306
G1 X113.914 Y54.200 E6.28184
G1 X114.032 Y53.837 E6.30063
G1 X114.223 Y53.507 E6.31943
G1 X114.478 Y53.223 E6.33821
G1 X114.787 Y52.998 E6.35700
G1 X115.136 Y52.843 E6.37579
G1 X115.509 Y52.764 E6.39458
G1 X115.891 Y52.764 E6.41337 F600.000
G1 X116.264 Y52.843 E6.43216
G1 X116.613 Y52.998 E6.45095
G1 X116.922 Y53.223 E6.46974
G1 X117.177 Y53.507 E6.48853
G1 X117.368 Y53.837 E6.50732
G1 X117.486 Y54.200 E6.52611
G1 X117.526 Y54.580 E6.54490
G1 X117.493 Y54.900 E6.56074
G1 X117.761 Y55.225 F9000.000
G1 X118.383 Y55.251 F9000.000
G1 X118.234 Y55.708 E6.58440 F600.000
G1 X117.944 Y56.210 E6.61294
G1 X117.556 Y56.641 E6.64148
G1 X117.087 Y56.982 E6.67002
G1 X116.557 Y57.218 E6.69855
G1 X115.990 Y57.339 E6.72709
G1 X115.410 Y57.339 E6.75563
G1 X114.843 Y57.218 E6.78417
G1 X114.313 Y56.982 E6.81271
G1 X113.844 Y56.641 E6.84125
G1 X113.456 Y56.210 E6.86979
G1 X113.166 Y55.708 E6.89832
G1 X112.987 Y55.157 E6.92686
G1 X112.926 Y54.580 E6.95540
G1 X112.987 Y54.003 E6.98394
G1 X113.166 Y53.452 E7.01248
G1 X113.456 Y52.950 E7.04102
G1 X113.844 Y52.519 E7.06955
G1 X114.313 Y52.178 E7.09809
G1 X114.843 Y51.942 E7.12663
G1 X115.410 Y51.821 E7.15517
G1 X115.990 Y51.821 E7.18371
G1 X116.059 Y51.836 E7.18718
G1 X116.557 Y51.942 E7.21225 F600.000
G1 X117.087 Y52.178 E7.24079
G1 X117.556 Y52.519 E7.26933
G1 X117.944 Y52.950 E7.29787
G1 X118.234 Y53.452 E7.32640
G1 X118.413 Y54.003 E7.35494
G1 X118.474 Y54.580 E7.38348
G1 X118.401 Y55.194 E7.41390
G1 X117.997 Y55.357 F9000.000
G1 X117.934 Y55.105 F9000.000
G1 X117.800 Y55.515 E7.45989 F600.000
G1 X117.560 Y55.931 E7.51115
G1 X117.239 Y56.289 E7.56241
G1 X116.874 Y56.555 E7.61056
G1 X116.382 Y56.774 E7.66795
G1 X115.940 Y56.867 E7.71609
G1 X115.460 Y56.867 E7.76736
G1 X114.989 Y56.767 E7.81862
G1 X114.550 Y56.571 E7.86988
G1 X114.161 Y56.289 E7.92114
G1 X113.859 Y55.954 E7.96929
G1 X113.590 Y55.488 E8.02668
G1 X113.451 Y55.058 E8.07482
G1 X113.401 Y54.580 E8.12608
G1 X113.451 Y54.102 E8.17734 F600.000
G1 X113.600 Y53.645 E8.22861
G1 X113.840 Y53.229 E8.27987
G1 X114.161 Y52.871 E8.33113
G1 X114.550 Y52.589 E8.38239
G1 X114.989 Y52.393 E8.43365
G1 X115.460 Y52.293 E8.48492
G1 X115.940 Y52.293 E8.53618
G1 X116.411 Y52.393 E8.58744
G1 X116.850 Y52.589 E8.63870
G1 X117.239 Y52.871 E8.68997
G1 X117.560 Y53.229 E8.74123
G1 X117.800 Y53.645 E8.79248
G1 X117.949 Y54.102 E8.84375
G1 X117.999 Y54.580 E8.89501
G1 X117.950 Y55.048 E8.94515
G1 E2.94515 F1800.00000
G92 E0
G1 X109.526 Y54.580 F9000.000
G1 E6.00000 F1800.00000
G1 X109.486 Y54.960 E6.01879 F600.000
G1 X109.368 Y55.323 E6.03758
G1 X109.177 Y55.653 E6.05637
G1 X108.922 Y55.937 E6.07516
G1 X108.613 Y56.162 E6.09395
G1 X108.264 Y56.317 E6.11274
G1 X107.891 Y56.396 E6.13153
G1 X107.509 Y56.396 E6.15031
G1 X107.136 Y56.317 E6.16911
G1 X106.787 Y56.162 E6.18790
G1 X106.478 Y55.937 E6.20669
G1 X106.223 Y55.653 E6.22547
G1 X106.032 Y55.323 E6.24427
G1 X105.914 Y54.960 E6.26306
G1 X105.874 Y54.580 E6.28184
G1 X105.914 Y54.200 E6.30063
G1 X106.032 Y53.837 E6.31942
G1 X106.223 Y53.507 E6.33821
G1 X106.478 Y53.223 E6.35700
G1 X106.787 Y52.998 E6.37579
G1 X107.136 Y52.843 E6.39458
G1 X107.509 Y52.764 E6.41337
G1 X107.891 Y52.764 E6.43216 F600.000
G1 X108.264 Y52.843 E6.45095
G1 X108.613 Y52.998 E6.46974
G1 X108.922 Y53.223 E6.48853
G1 X109.177 Y53.507 E6.50732
G1 X109.368 Y53.837 E6.52611
G1 X109.486 Y54.200 E6.54490
G1 X109.520 Y54.520 E6.56074
G1 X109.850 Y54.782 F9000.000
G1 X110.463 Y54.679 F9000.000
G1 X110.413 Y55.157 E6.58440 F600.000
G1 X110.234 Y55.708 E6.61294
G1 X109.944 Y56.210 E6.64147
G1 X109.556 Y56.641 E6.67001
G1 X109.087 Y56.982 E6.69855
G1 X108.557 Y57.218 E6.72709
G1 X107.990 Y57.339 E6.75563
G1 X107.410 Y57.339 E6.78417
G1 X106.843 Y57.218 E6.81271
G1 X106.313 Y56.982 E6.84124
G1 X105.844 Y56.641 E6.86978
G1 X105.456 Y56.210 E6.89832
G1 X105.166 Y55.708 E6.92686
G1 X104.987 Y55.157 E6.95540
G1 X104.926 Y54.580 E6.98394
G1 X104.987 Y54.003 E7.01248
G1 X105.166 Y53.452 E7.04101
G1 X105.456 Y52.950 E7.06955
G1 X105.844 Y52.519 E7.09809
G1 X106.313 Y52.178 E7.12663
G1 X106.843 Y51.942 E7.15517
G1 X107.410 Y51.821 E7.18371
G1 X107.990 Y51.821 E7.21225
G1 X108.059 Y51.836 E7.21571
G1 X108.557 Y51.942 E7.24079 F600.000
G1 X109.087 Y52.178 E7.26932
G1 X109.556 Y52.519 E7.29786
G1 X109.944 Y52.950 E7.32640
G1 X110.234 Y53.452 E7.35494
G1 X110.413 Y54.003 E7.38348
G1 X110.470 Y54.619 E7.41390
G1 X110.108 Y54.863 F9000.000
G1 X109.995 Y54.629 F9000.000
G1 X109.949 Y55.058 E7.45988 F600.000
G1 X109.800 Y55.515 E7.51115
G1 X109.560 Y55.931 E7.56241
G1 X109.239 Y56.289 E7.61367
G1 X108.850 Y56.571 E7.66494
G1 X108.411 Y56.767 E7.71619
G1 X107.940 Y56.867 E7.76746
G1 X107.489 Y56.867 E7.81560
G1 X106.963 Y56.756 E7.87299
G1 X106.550 Y56.571 E7.92114
G1 X106.141 Y56.267 E7.97547
G1 X105.840 Y55.931 E8.02362
G1 X105.600 Y55.515 E8.07487
G1 X105.451 Y55.058 E8.12614
G1 X105.401 Y54.580 E8.17740
G1 X105.451 Y54.102 E8.22866 F600.000
G1 X105.600 Y53.645 E8.27993
G1 X105.840 Y53.229 E8.33119
G1 X106.141 Y52.893 E8.37934
G1 X106.550 Y52.589 E8.43366
G1 X106.963 Y52.404 E8.48182
G1 X107.489 Y52.293 E8.53920
G1 X107.940 Y52.293 E8.58735
G1 X108.411 Y52.393 E8.63861
G1 X108.850 Y52.589 E8.68987
G1 X109.239 Y52.871 E8.74114
G1 X109.560 Y53.229 E8.79240
G1 X109.800 Y53.645 E8.84365
G1 X109.949 Y54.102 E8.89492
G1 X109.998 Y54.569 E8.94506
G1 E2.94506 F1800.00000
G92 E0
G1 X101.526 Y54.580 F9000.000
G1 E6.00000 F1800.00000
G1 X101.486 Y54.960 E6.01879 F600.000
G1 X101.368 Y55.323 E6.03758
G1 X101.177 Y55.653 E6.05637
G1 X100.922 Y55.937 E6.07516
G1 X100.613 Y56.162 E6.09395
G1 X100.264 Y56.317 E6.11274
G1 X99.891 Y56.396 E6.13153
G1 X99.509 Y56.396 E6.15031
G1 X99.136 Y56.317 E6.16911
G1 X98.787 Y56.162 E6.18790
G1 X98.478 Y55.937 E6.20669
G1 X98.223 Y55.653 E6.22547
G1 X98.032 Y55.323 E6.24427
G1 X97.914 Y54.960 E6.26306
G1 X97.874 Y54.580 E6.28184
G1 X97.914 Y54.200 E6.30063
G1 X98.032 Y53.837 E6.31942
G1 X98.223 Y53.507 E6.33821
G1 X98.478 Y53.223 E6.35700
G1 X98.787 Y52.998 E6.37579
G1 X99.136 Y52.843 E6.39458
G1 X99.509 Y52.764 E6.41337
G1 X99.891 Y52.764 E6.43216 F600.000
G1 X100.264 Y52.843 E6.45095
G1 X100.613 Y52.998 E6.46974
G1 X100.922 Y53.223 E6.48853
G1 X101.177 Y53.507 E6.50732
G1 X101.368 Y53.837 E6.52611
G1 X101.486 Y54.200 E6.54490
G1 X101.520 Y54.520 E6.56074
G1 X101.850 Y54.782 F9000.000
G1 X102.463 Y54.679 F9000.000
G1 X102.413 Y55.157 E6.58440 F600.000
G1 X102.234 Y55.708 E6.61294
G1 X101.944 Y56.210 E6.64147
G1 X101.556 Y56.641 E6.67001
G1 X101.087 Y56.982 E6.69855
G1 X100.557 Y57.218 E6.72709
G1 X99.990 Y57.339 E6.75563
G1 X99.410 Y57.339 E6.78417
G1 X98.843 Y57.218 E6.81271
G1 X98.313 Y56.982 E6.84124
G1 X97.844 Y56.641 E6.86978
G1 X97.456 Y56.210 E6.89832
G1 X97.166 Y55.708 E6.92686
G1 X96.987 Y55.157 E6.95540
G1 X96.926 Y54.580 E6.98394
G1 X96.987 Y54.003 E7.01248
G1 X97.166 Y53.452 E7.04101
G1 X97.456 Y52.950 E7.06955
G1 X97.844 Y52.519 E7.09809
G1 X98.313 Y52.178 E7.12663
G1 X98.843 Y51.942 E7.15517
G1 X99.410 Y51.821 E7.18371
G1 X99.990 Y51.821 E7.21225
G1 X100.059 Y51.836 E7.21571
G1 X100.557 Y51.942 E7.24079 F600.000
G1 X101.087 Y52.178 E7.26932
G1 X101.556 Y52.519 E7.29786
G1 X101.944 Y52.950 E7.32640
G1 X102.234 Y53.452 E7.35494
G1 X102.413 Y54.003 E7.38348
G1 X102.470 Y54.619 E7.41390
G1 X102.108 Y54.863 F9000.000
G1 X101.995 Y54.629 F9000.000
G1 X101.949 Y55.058 E7.45989 F600.000
G1 X101.800 Y55.515 E7.51115
G1 X101.560 Y55.931 E7.56241
G1 X101.239 Y56.289 E7.61367
G1 X100.850 Y56.571 E7.66494
G1 X100.411 Y56.767 E7.71619
G1 X99.940 Y56.867 E7.76746
G1 X99.489 Y56.867 E7.81560
G1 X98.989 Y56.767 E7.86994
G1 X98.550 Y56.571 E7.92119
G1 X98.161 Y56.289 E7.97246
G1 X97.859 Y55.954 E8.02060
G1 X97.590 Y55.488 E8.07800
G1 X97.451 Y55.058 E8.12614
G1 X97.403 Y54.551 E8.18047
G1 X97.451 Y54.102 E8.22861 F600.000
G1 X97.600 Y53.645 E8.27988
G1 X97.840 Y53.229 E8.33114
G1 X98.161 Y52.871 E8.38240
G1 X98.550 Y52.589 E8.43366
G1 X98.989 Y52.393 E8.48492
G1 X99.460 Y52.293 E8.53619
G1 X99.911 Y52.293 E8.58433
G1 X100.437 Y52.404 E8.64171
G1 X100.850 Y52.589 E8.68987
G1 X101.259 Y52.893 E8.74420
G1 X101.560 Y53.229 E8.79235
G1 X101.800 Y53.645 E8.84360
G1 X101.949 Y54.102 E8.89487
G1 X101.998 Y54.569 E8.94501
G1 E2.94501 F1800.00000
G92 E0
G1 X93.526 Y54.580 F9000.000
G1 E6.00000 F1800.00000
G1 X93.486 Y54.960 E6.01879 F600.000
G1 X93.368 Y55.323 E6.03758
G1 X93.177 Y55.653 E6.05637
G1 X92.922 Y55.937 E6.07516
G1 X92.613 Y56.162 E6.09395
G1 X92.264 Y56.317 E6.11274
G1 X91.891 Y56.396 E6.13153
G1 X91.509 Y56.396 E6.15032
G1 X91.136 Y56.317 E6.16911
G1 X90.787 Y56.162 E6.18790
G1 X90.521 Y55.968 E6.20407
G1 X90.224 Y55.656 E6.22528
G1 X90.032 Y55.323 E6.24422
G1 X89.914 Y54.960 E6.26301
G1 X89.874 Y54.580 E6.28180
G1 X89.914 Y54.200 E6.30059
G1 X90.032 Y53.837 E6.31938
G1 X90.223 Y53.507 E6.33817
G1 X90.478 Y53.223 E6.35696
G1 X90.787 Y52.998 E6.37575
G1 X91.136 Y52.843 E6.39454
G1 X91.509 Y52.764 E6.41333
G1 X91.891 Y52.764 E6.43212 F600.000
G1 X92.264 Y52.843 E6.45091
G1 X92.613 Y52.998 E6.46970
G1 X92.922 Y53.223 E6.48849
G1 X93.177 Y53.507 E6.50728
G1 X93.368 Y53.837 E6.52607
G1 X93.486 Y54.200 E6.54486
G1 X93.520 Y54.520 E6.56069
G1 X93.850 Y54.782 F9000.000
G1 X94.463 Y54.679 F9000.000
G1 X94.413 Y55.157 E6.58435 F600.000
G1 X94.234 Y55.708 E6.61289
G1 X93.944 Y56.210 E6.64143
G1 X93.556 Y56.641 E6.66997
G1 X93.087 Y56.982 E6.69851
G1 X92.557 Y57.218 E6.72705
G1 X91.990 Y57.339 E6.75558
G1 X91.410 Y57.339 E6.78412
G1 X90.843 Y57.218 E6.81266
G1 X90.313 Y56.982 E6.84120
G1 X89.844 Y56.641 E6.86974
G1 X89.456 Y56.210 E6.89828
G1 X89.166 Y55.708 E6.92682
G1 X88.987 Y55.157 E6.95535
G1 X88.926 Y54.580 E6.98389
G1 X88.987 Y54.003 E7.01243
G1 X89.166 Y53.452 E7.04097
G1 X89.456 Y52.950 E7.06951
G1 X89.844 Y52.519 E7.09805
G1 X90.313 Y52.178 E7.12659
G1 X90.843 Y51.942 E7.15512
G1 X91.410 Y51.821 E7.18366
G1 X91.990 Y51.821 E7.21220
G1 X92.059 Y51.836 E7.21567
