; generated by Slic3r 1.2.9 on 2017-07-14 at 23:45:36

; external perimeters extrusion width = 0.40mm
; perimeters extrusion width = 0.62mm
; infill extrusion width = 0.33mm
; solid infill extrusion width = 0.62mm
; top infill extrusion width = 0.20mm

M106 S256; Turn on fan to 100% power
M104 S140; turn on extruder temperature at S value
M140 S60; turn on bed temperature at S value
G28; home all axes
M84; disable motors
G1 Z15 F15000; have Z move to 20mm at 15000 mm/min
M190 S55; turn on bed temperature at S value and wait
M140 S55; turn on bed temperature at S value (printing temperature)
M109 S200; turn on extruder temperature at S value and wait (printing temperature)
M104 S200; turn on extruder temperature at S value
G1 Z0 F12000; move Z back to home
G21 ; set units to millimeters
G90 ; use absolute coordinates
M82 ; use absolute distances for extrusion
G92 E0
M106 S255
;Layer change
G1 E-6.00000 F1800.00000
G92 E0
G1 Z0.300 F9000.000
G1 X43.306 Y28.624 F9000.000
G1 E6.00000 F1800.00000
G1 X43.786 Y27.941 E6.04155 F600.000
G1 X44.670 Y26.801 E6.11341
G1 X45.673 Y25.660 E6.18902
G1 X46.254 Y25.061 E6.23056
G1 X47.306 Y24.072 E6.30246
G1 X47.941 Y23.530 E6.34399
G1 X49.142 Y22.602 E6.41960
G1 X50.336 Y21.790 E6.49147
G1 X51.642 Y21.015 E6.56708
G1 X52.379 Y20.625 E6.60862
G1 X53.685 Y20.010 E6.68049
G1 X54.456 Y19.691 E6.72204
G1 X55.886 Y19.179 E6.79764
G1 X57.272 Y18.776 E6.86953
G1 X58.083 Y18.581 E6.91106
G1 X59.576 Y18.299 E6.98668
G1 X61.008 Y18.118 E7.05855
G1 X61.765 Y18.057 E7.09636
G1 X63.320 Y18.007 E7.17383
G1 X113.358 Y18.007 E9.66516
G1 X114.800 Y18.053 E9.73702 F600.000
G1 X115.632 Y18.118 E9.77857
G1 X117.064 Y18.299 E9.85044
G1 X117.886 Y18.442 E9.89199
G1 X119.295 Y18.757 E9.96387
G1 X120.100 Y18.977 E10.00541
G1 X121.473 Y19.424 E10.07728
G1 X122.253 Y19.718 E10.11882
G1 X123.578 Y20.292 E10.19071
G1 X124.328 Y20.659 E10.23225
G1 X125.593 Y21.354 E10.30412
G1 X126.304 Y21.790 E10.34566
G1 X127.498 Y22.602 E10.41753
G1 X128.165 Y23.103 E10.45907
G1 X129.278 Y24.023 E10.53098
G1 X129.895 Y24.584 E10.57250
G1 X130.916 Y25.605 E10.64438
G1 X131.477 Y26.222 E10.68590
G1 X132.397 Y27.335 E10.75781
G1 X132.898 Y28.002 E10.79935
G1 X133.710 Y29.196 E10.87122
G1 X134.146 Y29.907 E10.91275
G1 X134.841 Y31.172 E10.98462
G1 X135.208 Y31.922 E11.02617
G1 X135.520 Y32.614 E11.06398
G1 X136.051 Y33.957 E11.13586
G1 X136.321 Y34.746 E11.17739
G1 X136.724 Y36.132 E11.24928
G1 X136.919 Y36.943 E11.29081
G1 X137.189 Y38.361 E11.36269
G1 X137.307 Y39.188 E11.40424
G1 X137.443 Y40.625 E11.47611
G1 X137.482 Y41.458 E11.51764
G1 X137.482 Y42.902 E11.58954
G1 X137.443 Y43.735 E11.63107
G1 X137.307 Y45.172 E11.70295
G1 X137.189 Y45.999 E11.74449
G1 X136.919 Y47.417 E11.81637
G1 X136.724 Y48.228 E11.85791
G1 X136.321 Y49.614 E11.92980
G1 X136.051 Y50.403 E11.97132
G1 X135.520 Y51.746 E12.04320
G1 X135.176 Y52.506 E12.08474
G1 X134.521 Y53.793 E12.15663
G1 X134.108 Y54.517 E12.19816
G1 X133.334 Y55.736 E12.27004
G1 X132.854 Y56.419 E12.31159
G1 X131.970 Y57.559 E12.38345
G1 X131.428 Y58.194 E12.42499
G1 X130.439 Y59.246 E12.49688
G1 X129.840 Y59.827 E12.53843
G1 X128.758 Y60.781 E12.61028
G1 X128.106 Y61.303 E12.65183
G1 X126.938 Y62.152 E12.72373
G1 X126.241 Y62.610 E12.76526
G1 X124.998 Y63.345 E12.83713
G1 X124.261 Y63.735 E12.87867
G1 X122.955 Y64.350 E12.95055
G1 X122.184 Y64.669 E12.99210
G1 X121.376 Y64.970 E13.03501
G1 X120.100 Y65.383 E13.10177
G1 X119.295 Y65.603 E13.14332
G1 X117.886 Y65.918 E13.21520
G1 X117.064 Y66.061 E13.25674
G1 X115.632 Y66.242 E13.32862
G1 X114.875 Y66.303 E13.36643
G1 X113.320 Y66.353 E13.44390
G1 X63.320 Y66.353 E15.93335
G1 X62.523 Y66.340 E15.97302
G1 X61.082 Y66.249 E16.04490
G1 X59.576 Y66.061 E16.12050
G1 X58.754 Y65.918 E16.16205
G1 X57.345 Y65.603 E16.23393
G1 X56.540 Y65.383 E16.27548
G1 X55.097 Y64.911 E16.35107
G1 X53.754 Y64.380 E16.42295
G1 X52.379 Y63.735 E16.49856
G1 X51.047 Y63.006 E16.57417
G1 X50.336 Y62.570 E16.61571
G1 X49.142 Y61.758 E16.68758
G1 X47.941 Y60.830 E16.76319
G1 X47.306 Y60.288 E16.80473
G1 X46.254 Y59.299 E16.87662
G1 X45.673 Y58.700 E16.91817
G1 X44.670 Y57.559 E16.99378
G1 X43.742 Y56.358 E17.06939
G1 X42.930 Y55.164 E17.14125
G1 X42.155 Y53.858 E17.21686
G1 X41.765 Y53.121 E17.25840
G1 X41.150 Y51.815 E17.33027
G1 X40.831 Y51.044 E17.37182
G1 X40.319 Y49.614 E17.44742
G1 X39.916 Y48.228 E17.51931
G1 X39.721 Y47.417 E17.56085
G1 X39.451 Y45.999 E17.63272
G1 X39.258 Y44.492 E17.70833
G1 X39.193 Y43.660 E17.74988
G1 X39.147 Y42.218 E17.82175
G1 X39.193 Y40.700 E17.89735
G1 X39.258 Y39.868 E17.93890
G1 X39.451 Y38.361 E18.01451
G1 X39.721 Y36.943 E18.08639
G1 X40.097 Y35.472 E18.16199
G1 X40.342 Y34.675 E18.20354
G1 X40.831 Y33.316 E18.27541
G1 X41.150 Y32.545 E18.31696
G1 X41.799 Y31.172 E18.39257
G1 X42.494 Y29.907 E18.46444
G1 X43.273 Y28.674 E18.53706
G1 E12.53706 F1800.00000
G92 E0
G1 X72.113 Y60.716 F9000.000
G1 E6.00000 F1800.00000
G1 X70.873 Y61.251 E6.06727 F600.000
G1 X70.267 Y61.480 E6.09952
G1 X69.043 Y61.878 E6.16360
G1 X67.795 Y62.199 E6.22776
G1 X66.529 Y62.440 E6.29192
G1 X65.250 Y62.602 E6.35608
G1 X63.964 Y62.683 E6.42024
G1 X62.676 Y62.683 E6.48439
G1 X60.935 Y62.574 E6.57126
G1 X61.926 Y61.581 E6.64110
G1 X62.555 Y60.867 E6.68847
G1 X63.138 Y60.115 E6.73584
G1 X63.673 Y59.328 E6.78321
G1 X64.157 Y58.510 E6.83058
G1 X64.589 Y57.662 E6.87795
G1 X64.967 Y56.787 E6.92540
G1 X65.134 Y56.346 E6.94890
G1 X65.448 Y55.370 E6.99995
G1 X65.666 Y54.516 E7.04382
G1 X65.762 Y54.053 E7.06733
G1 X65.911 Y53.112 E7.11479
G1 X66.000 Y52.163 E7.16225
G1 X66.023 Y51.690 E7.18585
G1 X66.030 Y51.216 E7.20945
G1 X66.000 Y50.263 E7.25690
G1 X65.911 Y49.316 E7.30427
G1 X65.762 Y48.377 E7.35158
G1 X65.444 Y47.019 E7.42102
G1 X66.005 Y46.720 E7.45265
G1 X66.420 Y46.447 E7.47741
G1 X66.809 Y46.136 E7.50223
G1 X67.256 Y45.698 E7.53336
G1 X67.893 Y46.226 E7.57457
G1 X68.537 Y46.831 E7.61857
G1 X69.142 Y47.475 E7.66256
G1 X69.432 Y47.814 E7.68478
G1 X69.973 Y48.513 E7.72878
G1 X70.470 Y49.243 E7.77278
G1 X70.703 Y49.624 E7.79500
G1 X71.129 Y50.399 E7.83901
G1 X71.531 Y51.260 E7.88636
G1 X71.831 Y52.021 E7.92708
G1 X71.976 Y52.443 E7.94929
G1 X72.222 Y53.292 E7.99329
G1 X72.415 Y54.156 E8.03739
G1 X72.561 Y55.096 E8.08474
G1 X72.637 Y55.910 E8.12546
G1 X72.658 Y56.354 E8.14759
G1 X72.665 Y56.799 E8.16972
G1 X72.637 Y57.682 E8.21372
G1 X72.554 Y58.564 E8.25780
G1 X72.415 Y59.439 E8.30196
G1 X72.127 Y60.657 E8.36426
G1 X72.190 Y61.108 F9000.000
G1 X73.377 Y60.081 F9000.000
G1 X73.595 Y58.695 E8.43410 F600.000
G1 X73.685 Y57.748 E8.48148
G1 X73.715 Y56.797 E8.52885
G1 X73.685 Y55.846 E8.57622
G1 X73.595 Y54.899 E8.62358
G1 X73.447 Y53.959 E8.67095
G1 X73.239 Y53.029 E8.71841
G1 X73.114 Y52.574 E8.74192
G1 X72.819 Y51.665 E8.78946
G1 X72.652 Y51.224 E8.81298
G1 X72.274 Y50.349 E8.86043
G1 X71.841 Y49.500 E8.90789
G1 X71.607 Y49.090 E8.93140
G1 X71.095 Y48.283 E8.97894
G1 X70.824 Y47.897 E9.00246
G1 X70.239 Y47.144 E9.04991
G1 X69.610 Y46.430 E9.09728
G1 X68.938 Y45.758 E9.14459
G1 X67.883 Y44.847 E9.21403
G1 X68.161 Y44.275 E9.24566
G1 X68.337 Y43.810 E9.27042
G1 X68.468 Y43.329 E9.29524
G1 X68.572 Y42.713 E9.32637
G1 X68.956 Y42.731 E9.34554
G1 X69.834 Y42.814 E9.38945
G1 X70.276 Y42.876 E9.41166
G1 X71.078 Y43.028 E9.45229
G1 X71.576 Y43.146 E9.47777
G1 X72.423 Y43.392 E9.52171
G1 X72.845 Y43.537 E9.54393
G1 X73.667 Y43.862 E9.58793
G1 X74.468 Y44.239 E9.63201
G1 X75.244 Y44.665 E9.67609
G1 X75.990 Y45.139 E9.72009
G1 X76.355 Y45.396 E9.74231
G1 X77.053 Y45.937 E9.78631
G1 X77.716 Y46.522 E9.83030
G1 X78.037 Y46.832 E9.85253
G1 X78.642 Y47.476 E9.89652
G1 X79.206 Y48.159 E9.94061
G1 X79.727 Y48.875 E9.98469
G1 X80.200 Y49.621 E10.02869
G1 X80.421 Y50.009 E10.05091
G1 X80.823 Y50.797 E10.09498
G1 X81.329 Y52.007 E10.16027
G1 X80.640 Y53.170 E10.22754
G1 X80.285 Y53.711 E10.25979
G1 X79.528 Y54.752 E10.32387
G1 X78.707 Y55.745 E10.38803
G1 X77.825 Y56.685 E10.45219
G1 X76.885 Y57.567 E10.51634
G1 X75.892 Y58.388 E10.58050
G1 X74.850 Y59.146 E10.64466
G1 X73.428 Y60.049 E10.72854
G1 X72.979 Y60.115 F9000.000
G1 E4.72854 F1800.00000
G92 E0
G1 X64.443 Y47.346 F9000.000
G1 E6.00000 F1800.00000
G1 X64.641 Y48.140 E6.04075 F600.000
G1 X64.807 Y49.009 E6.08480
G1 X64.918 Y49.887 E6.12889
G1 X64.973 Y50.771 E6.17297
G1 X64.973 Y51.655 E6.21699
G1 X64.947 Y52.166 E6.24247
G1 X64.869 Y52.980 E6.28319
G1 X64.731 Y53.853 E6.32718
G1 X64.641 Y54.290 E6.34941
G1 X64.421 Y55.146 E6.39340
G1 X64.148 Y55.986 E6.43740
G1 X63.990 Y56.404 E6.45962
G1 X63.640 Y57.213 E6.50353
G1 X63.443 Y57.614 E6.52575
G1 X63.018 Y58.388 E6.56974
G1 X62.544 Y59.135 E6.61374
G1 X62.289 Y59.498 E6.63587
G1 X62.022 Y59.854 E6.65801
G1 X61.459 Y60.533 E6.70192
G1 X61.159 Y60.863 E6.72414
G1 X60.533 Y61.489 E6.76821
G1 X59.539 Y62.344 E6.83349
G1 X58.220 Y62.049 E6.90076
G1 X57.595 Y61.878 E6.93302
G1 X56.372 Y61.480 E6.99709
G1 X55.173 Y61.006 E7.06125
G1 X54.007 Y60.457 E7.12541
G1 X52.878 Y59.836 E7.18957
G1 X51.790 Y59.146 E7.25373
G1 X50.748 Y58.388 E7.31789
G1 X49.403 Y57.277 E7.40474
G1 X50.790 Y57.056 E7.47467
G1 X51.253 Y56.960 E7.49819
G1 X52.176 Y56.723 E7.54565
G1 X53.081 Y56.429 E7.59302
G1 X53.965 Y56.079 E7.64038
G1 X54.826 Y55.674 E7.68775
G1 X55.660 Y55.215 E7.73512
G1 X56.463 Y54.706 E7.78249
G1 X57.234 Y54.145 E7.82995
G1 X57.603 Y53.850 E7.85346
G1 X58.318 Y53.220 E7.90091
G1 X58.990 Y52.547 E7.94828
G1 X59.619 Y51.833 E7.99565
G1 X60.203 Y51.082 E8.04302
G1 X60.737 Y50.295 E8.09039
G1 X61.222 Y49.476 E8.13776
G1 X61.653 Y48.628 E8.18511
G1 X62.046 Y47.716 E8.23454
G1 X62.187 Y47.343 E8.25443
G1 X62.823 Y47.431 E8.28640
G1 X63.320 Y47.455 E8.31116
G1 X63.817 Y47.431 E8.33594
G1 X64.383 Y47.354 E8.36440
G1 X64.834 Y47.263 F9000.000
G1 X61.192 Y47.019 F9000.000
G1 X60.886 Y47.778 E8.40515 F600.000
G1 X60.509 Y48.579 E8.44920
G1 X60.082 Y49.355 E8.49328
G1 X59.609 Y50.101 E8.53728
G1 X59.352 Y50.466 E8.55950
G1 X58.811 Y51.164 E8.60350
G1 X58.225 Y51.828 E8.64758
G1 X57.599 Y52.454 E8.69167
G1 X56.936 Y53.039 E8.73567
G1 X56.234 Y53.584 E8.77992
G1 X55.503 Y54.080 E8.82392
G1 X54.742 Y54.530 E8.86792
G1 X54.348 Y54.739 E8.89014
G1 X53.550 Y55.114 E8.93405
G1 X53.138 Y55.285 E8.95627
G1 X52.306 Y55.585 E9.00027
G1 X51.457 Y55.831 E9.04427
G1 X50.590 Y56.025 E9.08853
G1 X49.716 Y56.164 E9.13259
G1 X48.409 Y56.270 E9.19788
G1 X47.516 Y55.256 E9.26515
G1 X47.111 Y54.751 E9.29741
G1 X46.354 Y53.710 E9.36148
G1 X45.664 Y52.622 E9.42564
G1 X45.043 Y51.493 E9.48980
G1 X44.495 Y50.327 E9.55396
G1 X44.020 Y49.128 E9.61812
G1 X43.622 Y47.903 E9.68228
G1 X43.187 Y46.213 E9.76914
G1 X44.439 Y46.850 E9.83907
G1 X44.870 Y47.044 E9.86259
G1 X45.756 Y47.395 E9.91005
G1 X46.661 Y47.689 E9.95742
G1 X47.582 Y47.926 E10.00478
G1 X48.517 Y48.104 E10.05215
G1 X49.461 Y48.223 E10.09952
G1 X50.410 Y48.283 E10.14689
G1 X51.362 Y48.283 E10.19425
G1 X52.311 Y48.223 E10.24162
G1 X53.255 Y48.104 E10.28899
G1 X54.191 Y47.925 E10.33645
G1 X54.651 Y47.815 E10.35997
G1 X55.497 Y47.570 E10.40384
G1 X56.461 Y47.227 E10.45480
G1 X57.334 Y46.849 E10.50215
G1 X58.182 Y46.417 E10.54952
G1 X59.002 Y45.932 E10.59697
G1 X59.369 Y45.691 E10.61883
G1 X59.831 Y46.136 E10.65080
G1 X60.220 Y46.447 E10.67556
G1 X60.635 Y46.721 E10.70033
G1 X61.139 Y46.991 E10.72879
G1 X61.557 Y47.182 F9000.000
G1 X68.579 Y41.655 F9000.000
G1 X68.468 Y41.030 E10.76043 F600.000
G1 X68.337 Y40.550 E10.78519
G1 X68.161 Y40.085 E10.80996
G1 X67.888 Y39.520 E10.84119
G1 X68.964 Y38.863 E10.90396
G1 X69.753 Y38.461 E10.94805
G1 X70.566 Y38.109 E10.99213
G1 X71.399 Y37.809 E11.03622
G1 X72.247 Y37.563 E11.08021
G1 X72.681 Y37.459 E11.10243
G1 X73.549 Y37.293 E11.14643
G1 X74.428 Y37.182 E11.19051
G1 X75.311 Y37.126 E11.23460
G1 X76.197 Y37.126 E11.27869
G1 X77.079 Y37.182 E11.32268
G1 X77.522 Y37.231 E11.34490
G1 X78.395 Y37.369 E11.38890
G1 X79.257 Y37.562 E11.43290
G1 X79.686 Y37.679 E11.45503
G1 X80.111 Y37.810 E11.47716
G1 X80.943 Y38.109 E11.52116
G1 X81.755 Y38.461 E11.56524
G1 X82.545 Y38.863 E11.60940
G1 X83.666 Y39.545 E11.67469
G1 X83.792 Y40.890 E11.74196
G1 X83.822 Y41.537 E11.77421
G1 X83.822 Y42.824 E11.83829
G1 X83.742 Y44.110 E11.90245
G1 X83.580 Y45.389 E11.96661
G1 X83.339 Y46.655 E12.03076
G1 X83.018 Y47.903 E12.09492
G1 X82.620 Y49.128 E12.15908
G1 X81.978 Y50.751 E12.24594
G1 X81.340 Y49.500 E12.31588
G1 X81.106 Y49.090 E12.33939
G1 X80.595 Y48.285 E12.38685
G1 X80.036 Y47.515 E12.43422
G1 X79.429 Y46.782 E12.48158
G1 X78.778 Y46.089 E12.52895
G1 X78.084 Y45.437 E12.57632
G1 X77.351 Y44.831 E12.62369
G1 X76.582 Y44.272 E12.67106
G1 X75.778 Y43.762 E12.71843
G1 X74.945 Y43.304 E12.76580
G1 X74.084 Y42.898 E12.81316
G1 X73.198 Y42.548 E12.86062
G1 X72.751 Y42.395 E12.88413
G1 X71.836 Y42.129 E12.93159
G1 X70.907 Y41.921 E12.97896
G1 X69.969 Y41.772 E13.02627
G1 X68.639 Y41.660 E13.09271
G1 X68.181 Y41.691 F9000.000
G1 X67.266 Y38.664 F9000.000
G1 X66.809 Y38.224 E13.12435 F600.000
G1 X66.420 Y37.913 E13.14911
G1 X66.005 Y37.639 E13.17389
G1 X65.445 Y37.339 E13.20551
G1 X65.936 Y36.180 E13.26820
G1 X66.338 Y35.391 E13.31226
G1 X66.593 Y34.948 E13.33774
G1 X67.032 Y34.258 E13.37846
G1 X67.553 Y33.541 E13.42254
G1 X68.117 Y32.859 E13.46662
G1 X68.722 Y32.215 E13.51062
G1 X69.042 Y31.904 E13.53284
G1 X69.705 Y31.320 E13.57684
G1 X70.405 Y30.777 E13.62092
G1 X71.137 Y30.280 E13.66501
G1 X71.898 Y29.830 E13.70901
G1 X72.292 Y29.621 E13.73123
G1 X73.092 Y29.245 E13.77522
G1 X73.915 Y28.919 E13.81931
G1 X74.755 Y28.646 E13.86330
G1 X75.186 Y28.528 E13.88553
G1 X76.048 Y28.335 E13.92952
G1 X76.924 Y28.196 E13.97367
G1 X78.234 Y28.093 E14.03911
G1 X79.125 Y29.105 E14.10623
G1 X79.915 Y30.123 E14.17039
G1 X80.639 Y31.189 E14.23455
G1 X81.295 Y32.298 E14.29871
G1 X81.880 Y33.446 E14.36287
G1 X82.392 Y34.629 E14.42702
G1 X82.828 Y35.840 E14.49110
G1 X83.019 Y36.459 E14.52336
G1 X83.453 Y38.147 E14.61013
G1 X82.202 Y37.511 E14.67997
G1 X81.329 Y37.133 E14.72735
G1 X80.434 Y36.811 E14.77472
G1 X79.520 Y36.545 E14.82209
G1 X78.592 Y36.338 E14.86945
G1 X77.652 Y36.189 E14.91683
G1 X76.775 Y36.105 E14.96070
G1 X75.756 Y36.070 E15.01147
G1 X74.803 Y36.100 E15.05892
G1 X73.856 Y36.189 E15.10629
G1 X72.916 Y36.338 E15.15366
G1 X71.986 Y36.546 E15.20112
G1 X71.531 Y36.670 E15.22463
G1 X70.624 Y36.965 E15.27209
G1 X69.738 Y37.316 E15.31954
G1 X69.308 Y37.510 E15.34305
G1 X68.459 Y37.942 E15.39045
G1 X67.318 Y38.633 E15.45690
G1 X66.965 Y38.927 F9000.000
G1 X64.446 Y37.016 F9000.000
G1 X63.817 Y36.929 E15.48854 F600.000
G1 X63.320 Y36.905 E15.51330
G1 X62.823 Y36.929 E15.53807
G1 X62.194 Y37.015 E15.56969
G1 X61.909 Y35.788 E15.63238
G1 X61.771 Y34.913 E15.67651
G1 X61.687 Y34.031 E15.72059
G1 X61.660 Y33.148 E15.76459
G1 X61.667 Y32.702 E15.78681
G1 X61.722 Y31.819 E15.83083
G1 X61.844 Y30.876 E15.87817
G1 X61.999 Y30.073 E15.91890
G1 X62.103 Y29.639 E15.94111
G1 X62.349 Y28.791 E15.98510
G1 X62.649 Y27.958 E16.02919
G1 X62.994 Y27.160 E16.07245
G1 X63.197 Y26.746 E16.09541
G1 X63.622 Y25.972 E16.13941
G1 X64.097 Y25.224 E16.18349
G1 X64.616 Y24.509 E16.22751
G1 X64.938 Y24.111 E16.25299
G1 X65.480 Y23.498 E16.29371
G1 X66.107 Y22.871 E16.33785
G1 X67.106 Y22.017 E16.40329
G1 X68.421 Y22.312 E16.47041
G1 X69.659 Y22.671 E16.53456
G1 X70.871 Y23.108 E16.59873
G1 X72.054 Y23.620 E16.66288
G1 X73.202 Y24.205 E16.72704
G1 X74.311 Y24.861 E16.79120
G1 X75.376 Y25.584 E16.85528
G1 X75.894 Y25.973 E16.88753
G1 X77.237 Y27.083 E16.97430
G1 X75.852 Y27.304 E17.04415
G1 X74.923 Y27.512 E17.09152
G1 X74.009 Y27.777 E17.13889
G1 X73.113 Y28.100 E17.18635
G1 X72.676 Y28.281 E17.20986
G1 X71.814 Y28.686 E17.25731
G1 X70.980 Y29.145 E17.30468
G1 X70.177 Y29.654 E17.35205
G1 X69.406 Y30.215 E17.39951
G1 X69.037 Y30.510 E17.42302
G1 X68.322 Y31.140 E17.47047
G1 X67.648 Y31.814 E17.51793
G1 X67.331 Y32.164 E17.54144
G1 X66.723 Y32.898 E17.58888
G1 X66.124 Y33.728 E17.63984
G1 X65.653 Y34.472 E17.68371
G1 X65.419 Y34.883 E17.70723
G1 X64.987 Y35.731 E17.75463
G1 X64.469 Y36.961 E17.82108
G1 X64.357 Y37.406 F9000.000
G1 X63.752 Y39.721 F9000.000
G1 X64.175 Y39.829 E17.84281 F600.000
G1 X64.654 Y40.064 E17.86937
G1 X65.032 Y40.357 E17.89320
