; generated by Slic3r 1.2.9 on 2017-07-14 at 23:32:52

; external perimeters extrusion width = 0.40mm
; perimeters extrusion width = 0.62mm
; infill extrusion width = 0.33mm
; solid infill extrusion width = 0.62mm
; top infill extrusion width = 0.20mm

M106 S256; Turn on fan to 100% power
M104 S140; turn on extruder temperature at S value
M140 S60; turn on bed temperature at S value
G28; home all axes
M84; disable motors
G1 Z15 F15000; have Z move to 20mm at 15000 mm/min
M190 S55; turn on bed temperature at S value and wait
M140 S55; turn on bed temperature at S value (printing temperature)
M109 S200; turn on extruder temperature at S value and wait (printing temperature)
M104 S200; turn on extruder temperature at S value
G1 Z0 F12000; move Z back to home
G21 ; set units to millimeters
G90 ; use absolute coordinates
M82 ; use absolute distances for extrusion
G92 E0
M106 S255
;Layer change
G1 E-6.00000 F1800.00000
G92 E0
G1 Z0.300 F9000.000
G1 X71.812 Y32.622 F9000.000
G1 E6.00000 F1800.00000
G1 X72.499 Y31.267 E6.07561 F600.000
G1 X72.912 Y30.543 E6.11713
G1 X73.310 Y29.896 E6.15495
G1 X74.166 Y28.641 E6.23057
G1 X75.050 Y27.501 E6.30243
G1 X75.543 Y26.922 E6.34027
G1 X76.104 Y26.305 E6.38179
G1 X76.634 Y25.761 E6.41959
G1 X77.180 Y25.233 E6.45741
G1 X78.262 Y24.279 E6.52926
G1 X78.855 Y23.803 E6.56710
G1 X79.522 Y23.302 E6.60864
G1 X80.779 Y22.450 E6.68425
G1 X81.427 Y22.054 E6.72205
G1 X82.692 Y21.359 E6.79392
G1 X84.065 Y20.710 E6.86953
G1 X85.477 Y20.149 E6.94515
G1 X86.266 Y19.879 E6.98667
G1 X86.992 Y19.657 E7.02449
G1 X88.390 Y19.298 E7.09637
G1 X89.134 Y19.142 E7.13418
G1 X90.633 Y18.902 E7.20979
G1 X91.462 Y18.811 E7.25133
G1 X92.220 Y18.753 E7.28914
G1 X92.978 Y18.718 E7.32694
G1 X93.840 Y18.709 E7.36987
G1 X95.180 Y18.753 E7.43662 F600.000
G1 X96.012 Y18.818 E7.47817
G1 X97.444 Y18.999 E7.55004
G1 X98.193 Y19.128 E7.58786
G1 X98.937 Y19.281 E7.62567
G1 X99.748 Y19.476 E7.66721
G1 X100.480 Y19.677 E7.70502
G1 X101.853 Y20.124 E7.77690
G1 X102.633 Y20.418 E7.81843
G1 X103.335 Y20.710 E7.85625
G1 X104.641 Y21.325 E7.92812
G1 X105.313 Y21.679 E7.96594
G1 X106.037 Y22.092 E8.00746
G1 X106.684 Y22.490 E8.04528
G1 X107.878 Y23.302 E8.11715
G1 X108.486 Y23.757 E8.15498
G1 X109.079 Y24.230 E8.19277
G1 X109.714 Y24.772 E8.23430
G1 X110.275 Y25.284 E8.27213
G1 X111.296 Y26.305 E8.34400
G1 X111.808 Y26.866 E8.38183
G1 X112.350 Y27.501 E8.42336
G1 X113.234 Y28.641 E8.49522
G1 X113.672 Y29.262 E8.53305
G1 X114.130 Y29.959 E8.57459
G1 X114.814 Y31.113 E8.64135
G1 X115.221 Y31.872 E8.68426
G1 X115.588 Y32.621 E8.72580
G1 X115.900 Y33.314 E8.76362
G1 X116.431 Y34.657 E8.83550
G1 X116.678 Y35.375 E8.87330
G1 X116.923 Y36.172 E8.91484
G1 X117.282 Y37.570 E8.98672
G1 X117.438 Y38.314 E9.02453
G1 X117.581 Y39.136 E9.06607
G1 X117.687 Y39.888 E9.10388
G1 X117.823 Y41.325 E9.17576
G1 X117.860 Y42.083 E9.21357
G1 X117.873 Y42.918 E9.25511
G1 X117.827 Y44.360 E9.32698
G1 X117.769 Y45.118 E9.36479
G1 X117.678 Y45.947 E9.40633
G1 X117.569 Y46.699 E9.44414
G1 X117.299 Y48.117 E9.51602
G1 X117.123 Y48.855 E9.55383
G1 X116.903 Y49.660 E9.59538
G1 X116.490 Y50.936 E9.66214
G1 X116.189 Y51.744 E9.70505
G1 X115.900 Y52.446 E9.74286
G1 X115.556 Y53.206 E9.78440
G1 X115.221 Y53.888 E9.82222
G1 X114.526 Y55.153 E9.89409
G1 X114.130 Y55.801 E9.93189
G1 X113.672 Y56.498 E9.97343
G1 X113.234 Y57.119 E10.01126
G1 X112.350 Y58.259 E10.08312
G1 X111.857 Y58.838 E10.12096
G1 X111.296 Y59.455 E10.16248
G1 X110.275 Y60.476 E10.23435
G1 X109.658 Y61.037 E10.27588
G1 X109.079 Y61.530 E10.31371
G1 X107.939 Y62.414 E10.38557
G1 X107.318 Y62.852 E10.42340
G1 X106.621 Y63.310 E10.46494
G1 X105.884 Y63.756 E10.50785
G1 X104.708 Y64.401 E10.57461
G1 X104.026 Y64.736 E10.61243
G1 X103.266 Y65.080 E10.65397
G1 X101.923 Y65.611 E10.72585
G1 X101.134 Y65.881 E10.76737
G1 X100.408 Y66.103 E10.80519
G1 X99.010 Y66.462 E10.87707
G1 X98.266 Y66.618 E10.91488
G1 X97.444 Y66.761 E10.95643
G1 X96.012 Y66.942 E11.02830
G1 X95.255 Y67.003 E11.06611
G1 X94.497 Y67.040 E11.10392
G1 X93.662 Y67.053 E11.14546
G1 X92.220 Y67.007 E11.21733
G1 X91.462 Y66.949 E11.25514
G1 X90.633 Y66.858 E11.29668
G1 X89.881 Y66.749 E11.33450
G1 X88.463 Y66.479 E11.40637
G1 X87.725 Y66.303 E11.44418
G1 X86.992 Y66.103 E11.48199
G1 X86.195 Y65.858 E11.52353
G1 X84.836 Y65.369 E11.59540
G1 X84.134 Y65.080 E11.63321
G1 X83.441 Y64.768 E11.67103
G1 X82.692 Y64.401 E11.71257
G1 X81.427 Y63.706 E11.78444
G1 X80.779 Y63.310 E11.82225
G1 X80.082 Y62.852 E11.86378
G1 X79.461 Y62.414 E11.90161
G1 X78.321 Y61.530 E11.97347
G1 X77.742 Y61.037 E12.01131
G1 X77.125 Y60.476 E12.05283
G1 X76.581 Y59.946 E12.09064
G1 X76.053 Y59.400 E12.12846
G1 X75.099 Y58.318 E12.20031
G1 X74.623 Y57.725 E12.23815
G1 X74.122 Y57.058 E12.27968
G1 X73.310 Y55.864 E12.35155
G1 X72.912 Y55.217 E12.38937
G1 X72.535 Y54.558 E12.42717
G1 X72.145 Y53.821 E12.46871
G1 X71.530 Y52.515 E12.54058
G1 X71.238 Y51.813 E12.57840
G1 X70.944 Y51.033 E12.61994
G1 X70.497 Y49.660 E12.69181
G1 X70.296 Y48.928 E12.72962
G1 X70.101 Y48.117 E12.77116
G1 X69.831 Y46.699 E12.84304
G1 X69.722 Y45.947 E12.88086
G1 X69.631 Y45.118 E12.92239
G1 X69.573 Y44.360 E12.96021
G1 X69.527 Y42.918 E13.03207
G1 X69.538 Y42.158 E13.06989
G1 X69.577 Y41.325 E13.11143
G1 X69.638 Y40.568 E13.14923
G1 X69.819 Y39.136 E13.22111
G1 X69.948 Y38.387 E13.25893
G1 X70.101 Y37.643 E13.29673
G1 X70.296 Y36.832 E13.33827
G1 X70.497 Y36.100 E13.37609
G1 X70.944 Y34.727 E13.44796
G1 X71.238 Y33.947 E13.48949
G1 X71.787 Y32.676 E13.55840
G1 E7.55840 F1800.00000
G92 E0
G1 X102.493 Y61.416 F9000.000
G1 E6.00000 F1800.00000
G1 X101.253 Y61.951 E6.06727 F600.000
G1 X100.647 Y62.180 E6.09952
G1 X99.423 Y62.578 E6.16360
G1 X98.175 Y62.899 E6.22776
G1 X96.909 Y63.140 E6.29192
G1 X95.630 Y63.302 E6.35608
G1 X94.344 Y63.383 E6.42024
G1 X93.056 Y63.383 E6.48439
G1 X91.315 Y63.274 E6.57126
G1 X92.306 Y62.281 E6.64110
G1 X92.935 Y61.567 E6.68847
G1 X93.518 Y60.815 E6.73584
G1 X94.053 Y60.028 E6.78321
G1 X94.537 Y59.210 E6.83058
G1 X94.969 Y58.362 E6.87795
G1 X95.347 Y57.487 E6.92540
G1 X95.514 Y57.046 E6.94890
G1 X95.828 Y56.070 E6.99995
G1 X96.046 Y55.216 E7.04381
G1 X96.142 Y54.753 E7.06733
G1 X96.291 Y53.812 E7.11479
G1 X96.380 Y52.863 E7.16225
G1 X96.403 Y52.391 E7.18576
G1 X96.403 Y51.438 E7.23322
G1 X96.343 Y50.487 E7.28067
G1 X96.291 Y50.018 E7.30418
G1 X96.142 Y49.077 E7.35158
G1 X95.824 Y47.719 E7.42102
G1 X96.385 Y47.420 E7.45265
G1 X96.800 Y47.147 E7.47741
G1 X97.189 Y46.836 E7.50223
G1 X97.636 Y46.398 E7.53337
G1 X97.936 Y46.638 E7.55253
G1 X98.598 Y47.222 E7.59644
G1 X98.917 Y47.531 E7.61859
G1 X99.271 Y47.899 E7.64399
G1 X99.811 Y48.513 E7.68471
G1 X100.353 Y49.213 E7.72878
G1 X100.851 Y49.945 E7.77287
G1 X101.301 Y50.706 E7.81687
G1 X101.510 Y51.100 E7.83911
G1 X101.911 Y51.960 E7.88636
G1 X102.211 Y52.721 E7.92708
G1 X102.356 Y53.143 E7.94930
G1 X102.602 Y53.992 E7.99329
G1 X102.795 Y54.856 E8.03740
G1 X102.941 Y55.796 E8.08474
G1 X103.017 Y56.610 E8.12546
G1 X103.038 Y57.055 E8.14761
G1 X103.044 Y57.565 E8.17301
G1 X103.017 Y58.382 E8.21373
G1 X102.934 Y59.264 E8.25781
G1 X102.795 Y60.139 E8.30196
G1 X102.507 Y61.357 E8.36426
G1 X102.570 Y61.808 F9000.000
G1 X103.757 Y60.781 F9000.000
G1 X103.975 Y59.395 E8.43411 F600.000
G1 X104.065 Y58.448 E8.48148
G1 X104.095 Y57.497 E8.52885
G1 X104.065 Y56.546 E8.57622
G1 X103.975 Y55.599 E8.62359
G1 X103.827 Y54.659 E8.67095
G1 X103.619 Y53.729 E8.71841
G1 X103.494 Y53.274 E8.74192
G1 X103.199 Y52.365 E8.78947
G1 X103.032 Y51.924 E8.81298
G1 X102.654 Y51.049 E8.86044
G1 X102.221 Y50.200 E8.90789
G1 X101.987 Y49.790 E8.93140
G1 X101.476 Y48.985 E8.97886
G1 X100.916 Y48.214 E9.02632
G1 X100.621 Y47.845 E9.04983
G1 X99.990 Y47.130 E9.09728
G1 X99.318 Y46.458 E9.14459
G1 X98.263 Y45.547 E9.21403
G1 X98.541 Y44.975 E9.24567
G1 X98.717 Y44.510 E9.27043
G1 X98.848 Y44.029 E9.29525
G1 X98.952 Y43.413 E9.32638
G1 X99.778 Y43.465 E9.36758
G1 X100.654 Y43.576 E9.41157
G1 X101.458 Y43.728 E9.45229
G1 X101.956 Y43.846 E9.47777
G1 X102.805 Y44.092 E9.52179
G1 X103.636 Y44.392 E9.56579
G1 X104.049 Y44.563 E9.58801
G1 X104.848 Y44.939 E9.63201
G1 X105.624 Y45.365 E9.67608
G1 X106.315 Y45.803 E9.71680
G1 X106.735 Y46.095 E9.74229
G1 X107.433 Y46.637 E9.78630
G1 X108.096 Y47.222 E9.83030
G1 X108.417 Y47.532 E9.85252
G1 X109.022 Y48.176 E9.89652
G1 X109.586 Y48.859 E9.94060
G1 X110.107 Y49.575 E9.98469
G1 X110.580 Y50.321 E10.02869
G1 X110.801 Y50.709 E10.05091
G1 X111.203 Y51.497 E10.09497
G1 X111.709 Y52.707 E10.16026
G1 X111.020 Y53.870 E10.22753
G1 X110.665 Y54.411 E10.25979
G1 X109.908 Y55.452 E10.32386
G1 X109.087 Y56.445 E10.38802
G1 X108.205 Y57.385 E10.45218
G1 X107.265 Y58.267 E10.51634
G1 X106.272 Y59.088 E10.58050
G1 X105.230 Y59.846 E10.64466
G1 X103.808 Y60.749 E10.72854
G1 X103.359 Y60.815 F9000.000
G1 E4.72854 F1800.00000
G92 E0
G1 X94.823 Y48.046 F9000.000
G1 E6.00000 F1800.00000
G1 X95.021 Y48.840 E6.04075 F600.000
G1 X95.187 Y49.709 E6.08480
G1 X95.298 Y50.587 E6.12889
G1 X95.353 Y51.471 E6.17297
G1 X95.353 Y52.355 E6.21699
G1 X95.327 Y52.866 E6.24247
G1 X95.249 Y53.680 E6.28319
G1 X95.111 Y54.553 E6.32718
G1 X95.021 Y54.990 E6.34941
G1 X94.801 Y55.846 E6.39340
G1 X94.528 Y56.686 E6.43740
G1 X94.370 Y57.104 E6.45962
G1 X94.020 Y57.913 E6.50353
G1 X93.823 Y58.314 E6.52575
G1 X93.398 Y59.088 E6.56974
G1 X92.924 Y59.835 E6.61374
G1 X92.669 Y60.198 E6.63587
G1 X92.402 Y60.554 E6.65801
G1 X91.839 Y61.233 E6.70192
G1 X91.539 Y61.563 E6.72414
G1 X90.913 Y62.189 E6.76821
G1 X89.919 Y63.044 E6.83349
G1 X88.600 Y62.749 E6.90076
G1 X87.975 Y62.578 E6.93302
G1 X86.752 Y62.180 E6.99709
G1 X85.553 Y61.706 E7.06125
G1 X84.387 Y61.157 E7.12541
G1 X83.258 Y60.536 E7.18957
G1 X82.170 Y59.846 E7.25373
G1 X81.128 Y59.088 E7.31789
G1 X79.783 Y57.977 E7.40474
G1 X81.170 Y57.756 E7.47467
G1 X81.633 Y57.660 E7.49819
G1 X82.556 Y57.423 E7.54565
G1 X83.461 Y57.129 E7.59302
G1 X84.345 Y56.779 E7.64038
G1 X85.206 Y56.374 E7.68775
G1 X86.040 Y55.915 E7.73512
G1 X86.843 Y55.406 E7.78249
G1 X87.614 Y54.845 E7.82995
G1 X87.983 Y54.550 E7.85346
G1 X88.698 Y53.920 E7.90091
G1 X89.370 Y53.247 E7.94828
G1 X89.999 Y52.533 E7.99565
G1 X90.583 Y51.782 E8.04302
G1 X91.117 Y50.995 E8.09039
G1 X91.602 Y50.176 E8.13776
G1 X92.033 Y49.328 E8.18511
G1 X92.426 Y48.416 E8.23454
G1 X92.567 Y48.043 E8.25443
G1 X93.203 Y48.131 E8.28640
G1 X93.700 Y48.155 E8.31116
G1 X94.197 Y48.131 E8.33594
G1 X94.763 Y48.054 E8.36440
G1 X95.214 Y47.963 F9000.000
G1 X91.572 Y47.719 F9000.000
G1 X91.266 Y48.478 E8.40515 F600.000
G1 X90.889 Y49.279 E8.44920
G1 X90.462 Y50.055 E8.49328
G1 X89.988 Y50.802 E8.53737
G1 X89.468 Y51.518 E8.58139
G1 X89.147 Y51.916 E8.60687
G1 X88.605 Y52.528 E8.64759
G1 X87.979 Y53.154 E8.69167
G1 X87.316 Y53.739 E8.73566
G1 X86.614 Y54.284 E8.77992
G1 X85.883 Y54.780 E8.82392
G1 X85.122 Y55.230 E8.86792
G1 X84.728 Y55.439 E8.89014
G1 X83.930 Y55.814 E8.93405
G1 X83.518 Y55.985 E8.95627
G1 X82.686 Y56.285 E9.00027
G1 X81.837 Y56.531 E9.04426
G1 X80.970 Y56.725 E9.08852
G1 X80.096 Y56.864 E9.13259
G1 X78.789 Y56.970 E9.19788
G1 X77.896 Y55.956 E9.26515
G1 X77.491 Y55.451 E9.29741
G1 X76.734 Y54.410 E9.36148
G1 X76.044 Y53.322 E9.42564
G1 X75.423 Y52.193 E9.48980
G1 X74.874 Y51.027 E9.55396
G1 X74.400 Y49.828 E9.61812
G1 X74.002 Y48.603 E9.68228
G1 X73.567 Y46.913 E9.76914
G1 X74.819 Y47.550 E9.83907
G1 X75.250 Y47.744 E9.86259
G1 X76.136 Y48.095 E9.91004
G1 X77.041 Y48.389 E9.95741
G1 X77.962 Y48.626 E10.00478
G1 X78.897 Y48.804 E10.05215
G1 X79.841 Y48.923 E10.09952
G1 X80.790 Y48.983 E10.14689
G1 X81.742 Y48.983 E10.19425
G1 X82.691 Y48.923 E10.24162
G1 X83.635 Y48.804 E10.28899
G1 X84.570 Y48.626 E10.33636
G1 X85.491 Y48.389 E10.38373
G1 X86.398 Y48.094 E10.43118
G1 X86.839 Y47.928 E10.45470
G1 X87.714 Y47.549 E10.50215
G1 X88.562 Y47.117 E10.54952
G1 X89.382 Y46.632 E10.59698
G1 X89.749 Y46.391 E10.61883
G1 X90.211 Y46.836 E10.65080
G1 X90.600 Y47.147 E10.67556
G1 X91.015 Y47.421 E10.70033
G1 X91.519 Y47.691 E10.72880
G1 X91.937 Y47.882 F9000.000
G1 X98.959 Y42.355 F9000.000
G1 X98.848 Y41.730 E10.76043 F600.000
G1 X98.717 Y41.250 E10.78519
G1 X98.541 Y40.785 E10.80997
G1 X98.268 Y40.220 E10.84119
G1 X99.344 Y39.563 E10.90396
G1 X100.133 Y39.161 E10.94805
G1 X100.946 Y38.809 E10.99213
G1 X101.777 Y38.510 E11.03613
G1 X102.203 Y38.379 E11.05834
G1 X102.995 Y38.174 E11.09907
G1 X103.929 Y37.993 E11.14641
G1 X104.808 Y37.882 E11.19051
G1 X105.691 Y37.826 E11.23460
G1 X106.577 Y37.826 E11.27868
G1 X107.459 Y37.882 E11.32268
G1 X107.902 Y37.931 E11.34490
G1 X108.775 Y38.069 E11.38890
G1 X109.637 Y38.262 E11.43290
G1 X110.068 Y38.380 E11.45511
G1 X110.844 Y38.631 E11.49574
G1 X111.324 Y38.810 E11.52122
G1 X112.135 Y39.161 E11.56524
G1 X112.925 Y39.563 E11.60940
G1 X114.046 Y40.245 E11.67469
G1 X114.172 Y41.590 E11.74196
G1 X114.202 Y42.237 E11.77421
G1 X114.202 Y43.524 E11.83828
G1 X114.122 Y44.810 E11.90244
G1 X113.960 Y46.089 E11.96660
G1 X113.719 Y47.355 E12.03076
G1 X113.398 Y48.603 E12.09492
G1 X113.000 Y49.828 E12.15908
G1 X112.358 Y51.451 E12.24594
G1 X111.720 Y50.200 E12.31587
G1 X111.486 Y49.790 E12.33939
G1 X110.975 Y48.985 E12.38685
G1 X110.416 Y48.215 E12.43422
G1 X109.809 Y47.482 E12.48158
G1 X109.158 Y46.789 E12.52895
G1 X108.464 Y46.137 E12.57632
G1 X107.731 Y45.531 E12.62369
G1 X106.962 Y44.972 E12.67106
G1 X106.158 Y44.462 E12.71843
G1 X105.325 Y44.004 E12.76579
G1 X104.464 Y43.598 E12.81316
G1 X103.578 Y43.248 E12.86062
G1 X103.131 Y43.095 E12.88413
G1 X102.216 Y42.829 E12.93159
G1 X101.287 Y42.621 E12.97895
G1 X100.349 Y42.472 E13.02627
G1 X99.019 Y42.360 E13.09271
G1 X98.561 Y42.391 F9000.000
G1 X97.646 Y39.364 F9000.000
G1 X97.189 Y38.924 E13.12435 F600.000
G1 X96.800 Y38.613 E13.14911
G1 X96.385 Y38.339 E13.17388
G1 X95.825 Y38.039 E13.20550
G1 X96.316 Y36.880 E13.26819
G1 X96.717 Y36.092 E13.31223
G1 X96.939 Y35.704 E13.33446
G1 X97.412 Y34.958 E13.37845
G1 X97.931 Y34.243 E13.42245
G1 X98.211 Y33.895 E13.44467
G1 X98.795 Y33.232 E13.48867
G1 X99.421 Y32.606 E13.53275
G1 X100.085 Y32.020 E13.57684
G1 X100.785 Y31.477 E13.62092
G1 X101.517 Y30.980 E13.66501
G1 X102.278 Y30.530 E13.70900
G1 X102.672 Y30.321 E13.73123
G1 X103.472 Y29.945 E13.77522
G1 X104.295 Y29.619 E13.81931
G1 X105.135 Y29.346 E13.86330
G1 X105.566 Y29.228 E13.88553
G1 X106.428 Y29.035 E13.92952
G1 X107.304 Y28.896 E13.97367
G1 X108.614 Y28.793 E14.03911
G1 X109.505 Y29.805 E14.10623
G1 X110.295 Y30.823 E14.17038
G1 X111.019 Y31.889 E14.23454
G1 X111.675 Y32.998 E14.29871
G1 X112.260 Y34.146 E14.36287
G1 X112.772 Y35.329 E14.42702
G1 X113.208 Y36.540 E14.49110
G1 X113.399 Y37.159 E14.52335
G1 X113.833 Y38.847 E14.61013
G1 X112.582 Y38.211 E14.67997
G1 X111.709 Y37.833 E14.72735
G1 X110.814 Y37.511 E14.77472
G1 X109.900 Y37.245 E14.82209
G1 X108.972 Y37.038 E14.86945
G1 X108.032 Y36.889 E14.91683
G1 X107.155 Y36.805 E14.96070
G1 X106.136 Y36.770 E15.01147
G1 X105.183 Y36.800 E15.05892
G1 X104.236 Y36.889 E15.10629
G1 X103.296 Y37.038 E15.15366
G1 X102.366 Y37.246 E15.20112
G1 X101.911 Y37.370 E15.22463
G1 X101.002 Y37.666 E15.27217
G1 X100.561 Y37.832 E15.29568
G1 X99.686 Y38.211 E15.34314
G1 X98.839 Y38.642 E15.39045
G1 X97.698 Y39.333 E15.45690
G1 X97.345 Y39.627 F9000.000
G1 X94.826 Y37.716 F9000.000
G1 X94.197 Y37.629 E15.48854 F600.000
G1 X93.700 Y37.605 E15.51330
G1 X93.203 Y37.629 E15.53807
G1 X92.574 Y37.715 E15.56969
G1 X92.289 Y36.488 E15.63238
G1 X92.151 Y35.613 E15.67651
G1 X92.067 Y34.731 E15.72059
G1 X92.040 Y33.848 E15.76459
G1 X92.047 Y33.402 E15.78681
G1 X92.102 Y32.520 E15.83081
G1 X92.213 Y31.643 E15.87481
G1 X92.290 Y31.203 E15.89703
G1 X92.482 Y30.341 E15.94102
G1 X92.729 Y29.491 E15.98511
G1 X93.029 Y28.659 E16.02911
G1 X93.200 Y28.247 E16.05132
G1 X93.576 Y27.447 E16.09532
G1 X94.002 Y26.672 E16.13941
G1 X94.477 Y25.924 E16.18349
G1 X94.996 Y25.209 E16.22749
G1 X95.275 Y24.861 E16.24971
G1 X95.860 Y24.198 E16.29371
G1 X96.487 Y23.571 E16.33786
G1 X97.486 Y22.717 E16.40330
G1 X98.801 Y23.012 E16.47041
G1 X100.039 Y23.371 E16.53457
G1 X101.251 Y23.808 E16.59873
G1 X102.434 Y24.320 E16.66289
G1 X103.582 Y24.905 E16.72705
