; generated by Slic3r 1.2.9 on 2017-07-15 at 12:48:11

; external perimeters extrusion width = 0.40mm
; perimeters extrusion width = 0.62mm
; infill extrusion width = 0.33mm
; solid infill extrusion width = 0.62mm
; top infill extrusion width = 0.20mm

M106 S256; Turn on fan to 100% power
M104 S140; turn on extruder temperature at S value
M140 S60; turn on bed temperature at S value
G28; home all axes
M84; disable motors
G1 Z15 F15000; have Z move to 20mm at 15000 mm/min
M190 S55; turn on bed temperature at S value and wait
M140 S55; turn on bed temperature at S value (printing temperature)
M109 S200; turn on extruder temperature at S value and wait (printing temperature)
M104 S200; turn on extruder temperature at S value
G1 Z0 F12000; move Z back to home
G21 ; set units to millimeters
G90 ; use absolute coordinates
M82 ; use absolute distances for extrusion
G92 E0
M106 S255
;Layer change
G1 E-6.00000 F1800.00000
G92 E0
G1 Z0.300 F9000.000
G1 X82.962 Y38.021 F9000.000
G1 E6.00000 F1800.00000
G1 X83.580 Y36.797 E6.06829 F600.000
G1 X84.274 Y35.614 E6.13659
G1 X85.041 Y34.477 E6.20488
G1 X85.822 Y33.462 E6.26861
G1 X86.885 Y32.249 E6.34892
G1 X87.858 Y31.282 E6.41721
G1 X88.890 Y30.378 E6.48551
G1 X89.977 Y29.541 E6.55380
G1 X91.114 Y28.774 E6.62210
G1 X92.297 Y28.080 E6.69039
G1 X93.521 Y27.462 E6.75868
G1 X94.642 Y26.976 E6.81952
G1 X95.932 Y26.507 E6.88783
G1 X97.247 Y26.120 E6.95611
G1 X98.585 Y25.816 E7.02440
G1 X100.088 Y25.578 E7.10016
G1 X101.454 Y25.454 E7.16845
G1 X102.750 Y25.414 E7.23302
G1 X147.825 Y25.416 E9.47726
G1 X149.046 Y25.454 E9.53809 F600.000
G1 X150.412 Y25.578 E9.60639
G1 X151.915 Y25.816 E9.68214
G1 X153.108 Y26.083 E9.74298
G1 X154.426 Y26.461 E9.81127
G1 X155.857 Y26.976 E9.88702
G1 X157.114 Y27.525 E9.95531
G1 X158.203 Y28.080 E10.01615
G1 X159.386 Y28.774 E10.08445
G1 X160.644 Y29.630 E10.16019
G1 X161.726 Y30.474 E10.22850
G1 X162.642 Y31.282 E10.28934
G1 X163.718 Y32.358 E10.36508
G1 X164.622 Y33.390 E10.43338
G1 X165.370 Y34.355 E10.49422
G1 X166.226 Y35.614 E10.56997
G1 X166.848 Y36.666 E10.63080
G1 X167.475 Y37.886 E10.69910
G1 X168.079 Y39.282 E10.77486
G1 X168.493 Y40.432 E10.83570
G1 X168.880 Y41.747 E10.90398
G1 X169.212 Y43.232 E10.97974
G1 X169.403 Y44.439 E11.04057
G1 X169.528 Y45.713 E11.10430
G1 X169.584 Y47.175 E11.17715
G1 X169.537 Y48.696 E11.25290
G1 X169.422 Y49.912 E11.31374
G1 X169.212 Y51.268 E11.38203
G1 X168.880 Y52.753 E11.45779
G1 X168.539 Y53.926 E11.51862
G1 X168.079 Y55.218 E11.58691
G1 X167.475 Y56.614 E11.66267
G1 X166.920 Y57.703 E11.72350
G1 X166.226 Y58.886 E11.79180
G1 X165.370 Y60.145 E11.86755
G1 X164.622 Y61.110 E11.92839
G1 X163.718 Y62.142 E11.99669
G1 X162.642 Y63.218 E12.07243
G1 X161.726 Y64.026 E12.13326
G1 X160.645 Y64.870 E12.20157
G1 X159.386 Y65.726 E12.27732
G1 X158.203 Y66.420 E12.34561
G1 X156.979 Y67.038 E12.41390
G1 X155.858 Y67.524 E12.47474
G1 X154.426 Y68.039 E12.55049
G1 X153.108 Y68.417 E12.61878
G1 X151.915 Y68.684 E12.67962
G1 X150.412 Y68.922 E12.75538
G1 X149.046 Y69.046 E12.82367
G1 X147.750 Y69.086 E12.88824
G1 X102.675 Y69.084 E15.13248
G1 X101.304 Y69.037 E15.20077
G1 X100.088 Y68.922 E15.26161
G1 X98.585 Y68.684 E15.33736
G1 X97.247 Y68.380 E15.40565
G1 X95.932 Y67.993 E15.47394
G1 X94.782 Y67.579 E15.53477
G1 X93.521 Y67.038 E15.60308
G1 X92.166 Y66.348 E15.67883
G1 X90.987 Y65.645 E15.74712
G1 X89.855 Y64.870 E15.81542
G1 X88.890 Y64.122 E15.87625
G1 X87.858 Y63.218 E15.94456
G1 X86.782 Y62.142 E16.02030
G1 X85.974 Y61.226 E16.08113
G1 X85.130 Y60.145 E16.14944
G1 X84.274 Y58.886 E16.22519
G1 X83.652 Y57.835 E16.28602
G1 X83.025 Y56.614 E16.35432
G1 X82.421 Y55.218 E16.43008
G1 X82.007 Y54.068 E16.49091
G1 X81.620 Y52.753 E16.55920
G1 X81.288 Y51.268 E16.63496
G1 X81.097 Y50.061 E16.69579
G1 X80.963 Y48.696 E16.76408
G1 X80.916 Y47.175 E16.83984
G1 X80.954 Y45.954 E16.90067
G1 X81.078 Y44.588 E16.96897
G1 X81.316 Y43.085 E17.04472
G1 X81.583 Y41.892 E17.10556
G1 X81.961 Y40.574 E17.17385
G1 X82.421 Y39.282 E17.24213
G1 X82.938 Y38.076 E17.30745
G1 E11.30745 F1800.00000
G92 E0
G1 X104.945 Y65.792 F9000.000
G1 E6.00000 F1800.00000
G1 X103.923 Y65.888 E6.05113 F600.000
G1 X102.750 Y65.925 E6.10954
G1 X101.577 Y65.888 E6.16795
G1 X100.409 Y65.778 E6.22636
G1 X99.251 Y65.594 E6.28477
G1 X98.106 Y65.338 E6.34319
G1 X96.979 Y65.011 E6.40160
G1 X95.875 Y64.614 E6.46001
G1 X94.909 Y64.196 E6.51242
G1 X94.766 Y63.702 E6.53801
G1 X94.592 Y62.923 E6.57773
G1 X94.467 Y62.135 E6.61747
G1 X94.392 Y61.341 E6.65720
G1 X94.367 Y60.543 E6.69693
G1 X94.392 Y59.746 E6.73666
G1 X94.467 Y58.951 E6.77639
G1 X94.592 Y58.163 E6.81612
G1 X94.766 Y57.384 E6.85585
G1 X94.984 Y56.630 E6.89497
G1 X95.259 Y55.867 E6.93531
G1 X95.576 Y55.135 E6.97504
G1 X95.938 Y54.424 E7.01478
G1 X96.344 Y53.737 E7.05451
G1 X96.793 Y53.077 E7.09424
G1 X97.282 Y52.446 E7.13397
G1 X97.810 Y51.848 E7.17370
G1 X98.374 Y51.284 E7.21343
G1 X98.874 Y50.843 E7.24662
G1 X99.389 Y51.316 E7.28146
G1 X99.647 Y51.515 E7.29767
G1 X100.211 Y51.873 E7.33095
G1 X100.720 Y52.127 E7.35924
G1 X100.549 Y52.889 E7.39811
G1 X100.414 Y53.742 E7.44112
G1 X100.333 Y54.602 E7.48414
G1 X100.306 Y55.466 E7.52715
G1 X100.333 Y56.329 E7.57017
G1 X100.414 Y57.189 E7.61318
G1 X100.549 Y58.043 E7.65619
G1 X100.738 Y58.886 E7.69921
G1 X100.979 Y59.715 E7.74222
G1 X101.271 Y60.528 E7.78524
G1 X101.615 Y61.321 E7.82825
G1 X102.007 Y62.091 E7.87127
G1 X102.447 Y62.834 E7.91428
G1 X102.932 Y63.549 E7.95730
G1 X103.462 Y64.232 E8.00031
G1 X104.033 Y64.880 E8.04332
G1 X104.902 Y65.749 E8.10455
G1 X105.072 Y66.171 F9000.000
G1 E2.10455 F1800.00000
G92 E0
G1 X93.627 Y63.541 F9000.000
G1 E6.00000 F1800.00000
G1 X92.743 Y63.018 E6.05113 F600.000
G1 X91.773 Y62.359 E6.10954
G1 X90.846 Y61.639 E6.16796
G1 X89.966 Y60.864 E6.22637
G1 X89.136 Y60.034 E6.28478
G1 X88.361 Y59.154 E6.34319
G1 X87.641 Y58.227 E6.40161
G1 X86.982 Y57.257 E6.46002
G1 X86.446 Y56.351 E6.51242
G1 X86.620 Y55.867 E6.53801
G1 X86.937 Y55.135 E6.57774
G1 X87.300 Y54.424 E6.61747
G1 X87.706 Y53.737 E6.65720
G1 X88.154 Y53.077 E6.69693
G1 X88.643 Y52.446 E6.73666
G1 X89.171 Y51.848 E6.77639
G1 X89.735 Y51.284 E6.81612
G1 X90.334 Y50.756 E6.85586
G1 X90.964 Y50.267 E6.89558
G1 X91.624 Y49.818 E6.93532
G1 X92.311 Y49.412 E6.97505
G1 X93.022 Y49.050 E7.01478
G1 X93.755 Y48.733 E7.05451
G1 X94.506 Y48.462 E7.09424
G1 X95.272 Y48.240 E7.13397
G1 X96.051 Y48.066 E7.17370
G1 X96.839 Y47.941 E7.21343
G1 X97.502 Y47.878 E7.24663
G1 X97.641 Y48.564 E7.28146
G1 X97.732 Y48.877 E7.29767
G1 X97.978 Y49.498 E7.33096
G1 X98.241 Y50.002 E7.35924
G1 X97.655 Y50.518 E7.39811
G1 X97.044 Y51.129 E7.44113
G1 X96.473 Y51.777 E7.48414
G1 X95.943 Y52.460 E7.52716
G1 X95.458 Y53.174 E7.57017
G1 X95.018 Y53.918 E7.61318
G1 X94.626 Y54.688 E7.65620
G1 X94.283 Y55.481 E7.69921
G1 X93.990 Y56.294 E7.74223
G1 X93.749 Y57.123 E7.78524
G1 X93.561 Y57.966 E7.82826
G1 X93.425 Y58.820 E7.87127
G1 X93.344 Y59.680 E7.91428
G1 X93.317 Y60.543 E7.95730
G1 X93.344 Y61.407 E8.00031
G1 X93.425 Y62.267 E8.04333
G1 X93.618 Y63.481 E8.10456
G1 X93.508 Y63.922 F9000.000
G1 E2.10456 F1800.00000
G92 E0
G1 X85.794 Y55.067 F9000.000
G1 E6.00000 F1800.00000
G1 X85.386 Y54.125 E6.05113 F600.000
G1 X84.989 Y53.021 E6.10954
G1 X84.662 Y51.894 E6.16795
G1 X84.406 Y50.749 E6.22636
G1 X84.222 Y49.591 E6.28478
G1 X84.112 Y48.423 E6.34319
G1 X84.075 Y47.250 E6.40160
G1 X84.112 Y46.077 E6.46001
G1 X84.211 Y45.030 E6.51242
G1 X84.636 Y44.741 E6.53801
G1 X85.323 Y44.334 E6.57774
G1 X86.054 Y43.962 E6.61861
G1 X86.766 Y43.655 E6.65721
G1 X87.517 Y43.385 E6.69693
G1 X88.283 Y43.162 E6.73666
G1 X89.062 Y42.988 E6.77639
G1 X89.850 Y42.863 E6.81612
G1 X90.645 Y42.788 E6.85586
G1 X91.383 Y42.765 E6.89264
G1 X92.239 Y42.788 E6.93529
G1 X93.034 Y42.863 E6.97504
G1 X93.822 Y42.988 E7.01477
G1 X94.601 Y43.162 E7.05450
G1 X95.367 Y43.385 E7.09424
G1 X96.118 Y43.655 E7.13397
G1 X96.851 Y43.972 E7.17370
G1 X97.562 Y44.334 E7.21343
G1 X98.135 Y44.674 E7.24662
G1 X97.845 Y45.310 E7.28146
G1 X97.734 Y45.617 E7.29767
G1 X97.568 Y46.264 E7.33095
G1 X97.484 Y46.826 E7.35924
G1 X96.707 Y46.899 E7.39811
G1 X95.854 Y47.035 E7.44112
G1 X95.011 Y47.223 E7.48414
G1 X94.181 Y47.464 E7.52715
G1 X93.368 Y47.757 E7.57017
G1 X92.575 Y48.100 E7.61318
G1 X91.806 Y48.492 E7.65619
G1 X91.062 Y48.932 E7.69921
G1 X90.348 Y49.417 E7.74222
G1 X89.665 Y49.947 E7.78524
G1 X89.017 Y50.518 E7.82825
G1 X88.406 Y51.129 E7.87127
G1 X87.835 Y51.777 E7.91428
G1 X87.305 Y52.460 E7.95730
G1 X86.819 Y53.174 E8.00031
G1 X86.380 Y53.918 E8.04332
G1 X85.821 Y55.014 E8.10455
G1 X85.473 Y55.306 F9000.000
G1 E2.10455 F1800.00000
G92 E0
G1 X84.438 Y43.608 F9000.000
G1 E6.00000 F1800.00000
G1 X84.662 Y42.606 E6.05113 F600.000
G1 X84.989 Y41.479 E6.10954
G1 X85.386 Y40.375 E6.16795
G1 X85.852 Y39.299 E6.22636
G1 X86.385 Y38.253 E6.28478
G1 X86.982 Y37.243 E6.34319
G1 X87.642 Y36.273 E6.40162
G1 X88.407 Y35.293 E6.46354
G1 X89.057 Y34.557 E6.51241
G1 X89.570 Y34.573 E6.53800
G1 X90.365 Y34.648 E6.57772
G1 X91.153 Y34.773 E6.61746
G1 X91.932 Y34.947 E6.65719
G1 X92.698 Y35.169 E6.69692
G1 X93.449 Y35.440 E6.73665
G1 X94.181 Y35.757 E6.77638
G1 X94.892 Y36.119 E6.81611
G1 X95.579 Y36.525 E6.85584
G1 X96.239 Y36.974 E6.89557
G1 X96.870 Y37.463 E6.93530
G1 X97.468 Y37.990 E6.97504
G1 X98.032 Y38.555 E7.01477
G1 X98.560 Y39.153 E7.05450
G1 X99.049 Y39.784 E7.09423
G1 X99.498 Y40.444 E7.13396
G1 X99.904 Y41.131 E7.17369
G1 X100.266 Y41.842 E7.21342
G1 X100.531 Y42.453 E7.24661
G1 X99.922 Y42.798 E7.28145
G1 X99.652 Y42.981 E7.29766
G1 X99.137 Y43.407 E7.33094
G1 X98.739 Y43.812 E7.35923
G1 X98.067 Y43.415 E7.39810
G1 X97.298 Y43.022 E7.44112
G1 X96.505 Y42.679 E7.48413
G1 X95.692 Y42.387 E7.52714
G1 X94.862 Y42.146 E7.57016
G1 X94.019 Y41.957 E7.61317
G1 X93.166 Y41.822 E7.65619
G1 X92.306 Y41.741 E7.69920
G1 X91.442 Y41.713 E7.74222
G1 X90.579 Y41.741 E7.78523
G1 X89.719 Y41.822 E7.82825
G1 X88.865 Y41.957 E7.87126
G1 X88.022 Y42.146 E7.91428
G1 X87.192 Y42.387 E7.95729
G1 X86.380 Y42.679 E8.00030
G1 X85.587 Y43.022 E8.04332
G1 X84.491 Y43.581 E8.10454
G1 X84.038 Y43.612 F9000.000
G1 E2.10454 F1800.00000
G92 E0
G1 X90.076 Y33.540 F9000.000
G1 E6.00000 F1800.00000
G1 X90.846 Y32.861 E6.05113 F600.000
G1 X91.773 Y32.141 E6.10954
G1 X92.743 Y31.482 E6.16795
G1 X93.753 Y30.885 E6.22636
G1 X94.799 Y30.352 E6.28478
G1 X95.875 Y29.886 E6.34319
G1 X96.979 Y29.489 E6.40160
G1 X98.106 Y29.162 E6.46001
G1 X99.133 Y28.932 E6.51242
G1 X99.539 Y29.247 E6.53801
G1 X100.138 Y29.775 E6.57774
G1 X100.702 Y30.339 E6.61747
G1 X101.229 Y30.938 E6.65720
G1 X101.719 Y31.568 E6.69693
G1 X102.167 Y32.228 E6.73666
G1 X102.573 Y32.915 E6.77639
G1 X102.936 Y33.626 E6.81612
G1 X103.253 Y34.358 E6.85585
G1 X103.523 Y35.109 E6.89558
G1 X103.745 Y35.875 E6.93531
G1 X103.920 Y36.654 E6.97505
G1 X104.044 Y37.442 E7.01477
G1 X104.119 Y38.237 E7.05451
G1 X104.145 Y39.034 E7.09424
G1 X104.119 Y39.832 E7.13397
G1 X104.044 Y40.626 E7.17370
G1 X103.920 Y41.415 E7.21343
G1 X103.774 Y42.065 E7.24662
G1 X103.079 Y41.985 E7.28146
G1 X102.754 Y41.975 E7.29767
G1 X102.086 Y42.017 E7.33095
G1 X101.526 Y42.111 E7.35924
G1 X101.216 Y41.395 E7.39811
G1 X100.824 Y40.625 E7.44112
G1 X100.384 Y39.881 E7.48414
G1 X99.898 Y39.167 E7.52715
G1 X99.369 Y38.484 E7.57017
G1 X98.798 Y37.836 E7.61318
G1 X98.187 Y37.225 E7.65620
G1 X97.539 Y36.654 E7.69921
G1 X96.856 Y36.124 E7.74223
G1 X96.142 Y35.639 E7.78524
G1 X95.398 Y35.199 E7.82825
G1 X94.628 Y34.807 E7.87127
G1 X93.835 Y34.464 E7.91428
G1 X93.022 Y34.171 E7.95730
G1 X92.193 Y33.930 E8.00031
G1 X91.350 Y33.741 E8.04333
G1 X90.135 Y33.549 E8.10455
G1 X89.750 Y33.308 F9000.000
G1 E2.10455 F1800.00000
G92 E0
G1 X101.167 Y45.312 F9000.000
G1 E6.00000 F1800.00000
G1 X101.670 Y44.993 E6.02967 F600.000
G1 X102.128 Y44.828 E6.05389
G1 X102.593 Y44.754 E6.07733 F600.000
G1 X103.063 Y44.769 E6.10076
G1 X103.523 Y44.872 E6.12420
G1 X103.955 Y45.059 E6.14763
G1 X104.344 Y45.323 E6.17107
G1 X104.677 Y45.656 E6.19450
G1 X104.950 Y46.058 E6.21872
G1 X105.170 Y46.612 E6.24839
G1 X105.246 Y47.093 E6.27262
G1 X105.231 Y47.563 E6.29605
G1 X105.128 Y48.023 E6.31948
G1 X104.941 Y48.455 E6.34292
G1 X104.677 Y48.844 E6.36635
G1 X104.333 Y49.188 E6.39057
G1 X103.830 Y49.507 E6.42025
G1 X103.372 Y49.672 E6.44447
G1 X102.907 Y49.746 E6.46790
G1 X102.437 Y49.731 E6.49134
G1 X101.977 Y49.628 E6.51477
G1 X101.545 Y49.441 E6.53820
G1 X101.156 Y49.177 E6.56164
G1 X100.823 Y48.844 E6.58507
G1 X100.559 Y48.455 E6.60851
G1 X100.365 Y48.008 E6.63273
G1 X100.254 Y47.423 E6.66240
G1 X100.269 Y46.937 E6.68662
G1 X100.372 Y46.477 E6.71006
G1 X100.559 Y46.045 E6.73349
G1 X100.823 Y45.656 E6.75693
G1 X101.125 Y45.354 E6.77816
G1 X101.410 Y45.615 F9000.000
G1 X101.841 Y45.341 E6.80359 F600.000
G1 X102.224 Y45.203 E6.82388
G1 X102.617 Y45.141 E6.84369 F600.000
G1 X103.015 Y45.153 E6.86349
G1 X103.403 Y45.240 E6.88329
G1 X103.768 Y45.398 E6.90310
G1 X104.097 Y45.622 E6.92290
G1 X104.378 Y45.903 E6.94271
G1 X104.607 Y46.240 E6.96299
G1 X104.795 Y46.715 E6.98843
G1 X104.859 Y47.117 E7.00871
G1 X104.847 Y47.515 E7.02852
G1 X104.760 Y47.903 E7.04832
G1 X104.602 Y48.268 E7.06813
G1 X104.378 Y48.597 E7.08793
G1 X104.090 Y48.885 E7.10822
G1 X103.659 Y49.159 E7.13365
G1 X103.276 Y49.297 E7.15394
G1 X102.883 Y49.359 E7.17374
G1 X102.485 Y49.347 E7.19355
G1 X102.097 Y49.260 E7.21335
G1 X101.732 Y49.102 E7.23316
G1 X101.403 Y48.878 E7.25296
G1 X101.122 Y48.597 E7.27276
G1 X100.898 Y48.268 E7.29257
G1 X100.736 Y47.894 E7.31286
G1 X100.641 Y47.392 E7.33829
G1 X100.653 Y46.985 E7.35858
G1 X100.740 Y46.597 E7.37838
G1 X100.898 Y46.232 E7.39818
G1 X101.122 Y45.903 E7.41799
G1 X101.367 Y45.657 E7.43529
G1 X101.652 Y45.918 F9000.000
G1 X102.012 Y45.689 E7.45648 F600.000
G1 X102.321 Y45.578 E7.47283
G1 X102.642 Y45.527 E7.48901 F600.000
G1 X102.966 Y45.538 E7.50518
G1 X103.283 Y45.608 E7.52136
G1 X103.582 Y45.737 E7.53753
G1 X103.850 Y45.920 E7.55371
G1 X104.080 Y46.150 E7.56988
G1 X104.265 Y46.421 E7.58624
G1 X104.421 Y46.817 E7.60743
G1 X104.473 Y47.142 E7.62378
G1 X104.462 Y47.466 E7.63996
G1 X104.392 Y47.783 E7.65613
G1 X104.263 Y48.082 E7.67231
G1 X104.080 Y48.350 E7.68848
G1 X103.848 Y48.582 E7.70483
G1 X103.488 Y48.811 E7.72603
G1 X103.179 Y48.922 E7.74238
G1 X102.858 Y48.973 E7.75855
G1 X102.534 Y48.962 E7.77473
G1 X102.217 Y48.892 E7.79090
G1 X101.918 Y48.763 E7.80708
G1 X101.650 Y48.580 E7.82325
G1 X101.420 Y48.350 E7.83943
G1 X101.237 Y48.082 E7.85560
G1 X101.107 Y47.780 E7.87195
G1 X101.027 Y47.362 E7.89315
G1 X101.038 Y47.034 E7.90950
G1 X101.108 Y46.717 E7.92567
G1 X101.237 Y46.418 E7.94185
G1 X101.420 Y46.150 E7.95802
G1 X101.610 Y45.960 E7.97139
G1 X101.606 Y45.520 F9000.000
G1 X99.889 Y43.786 F9000.000
G1 X100.116 Y43.598 E7.98607 F600.000
G1 X100.329 Y43.453 E7.99887
G1 X101.234 Y42.942 E8.05064
G1 X102.175 Y42.784 E8.09812
G1 X102.766 Y42.747 E8.12761
G1 X103.023 Y42.755 E8.14042
G1 X104.056 Y42.874 E8.19218 F600.000
G1 X104.909 Y43.299 E8.23966
G1 X105.409 Y43.616 E8.26915
G1 X105.613 Y43.774 E8.28196
G1 X106.379 Y44.477 E8.33372
G1 X106.819 Y45.323 E8.38120
G1 X107.037 Y45.873 E8.41069
G1 X107.109 Y46.121 E8.42350
G1 X107.315 Y47.139 E8.47526
G1 X107.175 Y48.083 E8.52275
G1 X107.028 Y48.656 E8.55223
G1 X106.940 Y48.898 E8.56504
G1 X106.557 Y49.738 E8.61099
G1 X106.035 Y50.330 E8.65027
G1 X105.843 Y50.522 E8.66379
G1 X105.384 Y50.902 E8.69348
G1 X105.171 Y51.047 E8.70629
G1 X104.367 Y51.501 E8.75225
G1 X103.609 Y51.670 E8.79094
G1 X103.017 Y51.745 E8.82065
G1 X102.477 Y51.745 E8.84753
G1 X101.444 Y51.626 E8.89930
G1 X100.591 Y51.201 E8.94678
G1 X100.091 Y50.884 E8.97626
G1 X99.887 Y50.726 E8.98907
G1 X99.121 Y50.023 E9.04084
G1 X98.681 Y49.177 E9.08832
G1 X98.463 Y48.627 E9.11781
G1 X98.391 Y48.379 E9.13061
G1 X98.185 Y47.361 E9.18238
G1 X98.325 Y46.417 E9.22986
G1 X98.472 Y45.844 E9.25935
G1 X98.560 Y45.602 E9.27216
G1 X98.991 Y44.656 E9.32392
G1 X99.660 Y43.975 E9.37140
G1 X99.843 Y43.824 E9.38322
G1 X98.803 Y44.298 F9000.000
G1 X99.399 Y43.691 E9.42555 F600.000
G1 X99.884 Y43.289 E9.45693
G1 X100.125 Y43.125 E9.47144
G1 X101.023 Y42.619 E9.52276
G1 X100.615 Y41.677 E9.57382
