; generated by Slic3r 1.2.9 on 2017-07-15 at 12:25:35

; external perimeters extrusion width = 0.40mm
; perimeters extrusion width = 0.62mm
; infill extrusion width = 0.33mm
; solid infill extrusion width = 0.62mm
; top infill extrusion width = 0.20mm

M106 S256; Turn on fan to 100% power
M104 S140; turn on extruder temperature at S value
M140 S60; turn on bed temperature at S value
G28; home all axes
M84; disable motors
G1 Z15 F15000; have Z move to 20mm at 15000 mm/min
M190 S55; turn on bed temperature at S value and wait
M140 S55; turn on bed temperature at S value (printing temperature)
M109 S200; turn on extruder temperature at S value and wait (printing temperature)
M104 S200; turn on extruder temperature at S value
G1 Z0 F12000; move Z back to home
G21 ; set units to millimeters
G90 ; use absolute coordinates
M82 ; use absolute distances for extrusion
G92 E0
M106 S255
;Layer change
G1 E-6.00000 F1800.00000
G92 E0
G1 Z0.300 F9000.000
G1 X75.955 Y75.459 F9000.000
G1 E6.00000 F1800.00000
G1 X76.819 Y74.595 E6.06084 F600.000
G1 X77.844 Y73.684 E6.12912
G1 X79.047 Y72.752 E6.20488
G1 X80.057 Y72.065 E6.26572
G1 X81.235 Y71.362 E6.33401
G1 X82.456 Y70.735 E6.40231
G1 X83.712 Y70.186 E6.47060
G1 X85.002 Y69.717 E6.53891
G1 X86.317 Y69.330 E6.60719
G1 X87.802 Y68.998 E6.68295
G1 X89.158 Y68.788 E6.75124
G1 X90.374 Y68.673 E6.81207
G1 X91.987 Y68.628 E6.89238
G1 X93.266 Y68.673 E6.95612 F600.000
G1 X94.482 Y68.788 E7.01695
G1 X95.985 Y69.026 E7.09271
G1 X97.323 Y69.330 E7.16100
G1 X98.638 Y69.717 E7.22928
G1 X99.788 Y70.131 E7.29012
G1 X101.049 Y70.672 E7.35842
G1 X102.405 Y71.362 E7.43418
G1 X103.583 Y72.065 E7.50247
G1 X104.593 Y72.752 E7.56330
G1 X105.796 Y73.684 E7.63906
G1 X106.712 Y74.492 E7.69990
G1 X107.685 Y75.459 E7.76819
G1 X108.692 Y76.600 E7.84394
G1 X109.529 Y77.687 E7.91224
G1 X110.296 Y78.824 E7.98053
G1 X110.918 Y79.876 E8.04137
G1 X111.608 Y81.231 E8.11712
G1 X112.149 Y82.492 E8.18542
G1 X112.563 Y83.642 E8.24626
G1 X112.950 Y84.957 E8.31454
G1 X113.282 Y86.442 E8.39030
G1 X113.473 Y87.649 E8.45114
G1 X113.607 Y89.014 E8.51943
G1 X113.654 Y90.535 E8.59518
G1 X113.607 Y91.906 E8.66348
G1 X113.492 Y93.122 E8.72431
G1 X113.282 Y94.478 E8.79260
G1 X112.987 Y95.818 E8.86090
G1 X112.563 Y97.278 E8.93664
G1 X112.094 Y98.568 E9.00495
G1 X111.608 Y99.689 E9.06578
G1 X110.990 Y100.913 E9.13408
G1 X110.215 Y102.223 E9.20983
G1 X109.528 Y103.233 E9.27067
G1 X108.692 Y104.320 E9.33896
G1 X107.788 Y105.352 E9.40726
G1 X106.712 Y106.428 E9.48300
G1 X105.680 Y107.332 E9.55130
G1 X104.593 Y108.168 E9.61959
G1 X103.583 Y108.855 E9.68043
G1 X102.273 Y109.630 E9.75618
G1 X101.184 Y110.185 E9.81702
G1 X99.928 Y110.734 E9.88531
G1 X98.496 Y111.249 E9.96107
G1 X97.178 Y111.627 E10.02935
G1 X95.985 Y111.894 E10.09019
G1 X94.631 Y112.113 E10.15850
G1 X93.116 Y112.256 E10.23424
G1 X91.745 Y112.294 E10.30254
G1 X90.524 Y112.256 E10.36338
G1 X89.158 Y112.132 E10.43167
G1 X87.802 Y111.922 E10.49996
G1 X86.317 Y111.590 E10.57572
G1 X85.144 Y111.249 E10.63655
G1 X83.852 Y110.789 E10.70484
G1 X82.591 Y110.248 E10.77314
G1 X81.236 Y109.558 E10.84889
G1 X80.184 Y108.936 E10.90973
G1 X79.047 Y108.168 E10.97802
G1 X77.960 Y107.332 E11.04632
G1 X76.819 Y106.325 E11.12207
G1 X75.955 Y105.461 E11.18291
G1 X75.044 Y104.436 E11.25120
G1 X74.111 Y103.233 E11.32696
G1 X73.425 Y102.223 E11.38779
G1 X72.722 Y101.045 E11.45608
G1 X72.032 Y99.689 E11.53184
G1 X71.491 Y98.428 E11.60014
G1 X71.031 Y97.136 E11.66843
G1 X70.690 Y95.963 E11.72926
G1 X70.358 Y94.478 E11.80502
G1 X70.167 Y93.271 E11.86586
G1 X70.042 Y91.997 E11.92958
G1 X69.986 Y90.535 E12.00243
G1 X70.033 Y89.014 E12.07819
G1 X70.148 Y87.798 E12.13902
G1 X70.358 Y86.442 E12.20731
G1 X70.653 Y85.102 E12.27562
G1 X71.077 Y83.642 E12.35135
G1 X71.491 Y82.492 E12.41219
G1 X72.032 Y81.231 E12.48050
G1 X72.650 Y80.007 E12.54879
G1 X73.425 Y78.697 E12.62454
G1 X74.111 Y77.687 E12.68538
G1 X74.948 Y76.600 E12.75367
G1 X75.914 Y75.502 E12.82644
G1 E6.82644 F1800.00000
G92 E0
G1 X94.015 Y109.002 F9000.000
G1 E6.00000 F1800.00000
G1 X92.993 Y109.098 E6.05113 F600.000
G1 X91.820 Y109.135 E6.10954
G1 X90.647 Y109.098 E6.16795
G1 X89.479 Y108.988 E6.22636
G1 X88.321 Y108.804 E6.28478
G1 X87.176 Y108.548 E6.34319
G1 X86.049 Y108.221 E6.40160
G1 X84.945 Y107.824 E6.46001
G1 X83.979 Y107.406 E6.51242
G1 X83.836 Y106.912 E6.53801
G1 X83.662 Y106.133 E6.57773
G1 X83.537 Y105.345 E6.61747
G1 X83.462 Y104.551 E6.65720
G1 X83.437 Y103.753 E6.69693
G1 X83.462 Y102.956 E6.73666
G1 X83.537 Y102.161 E6.77639
G1 X83.662 Y101.373 E6.81612
G1 X83.836 Y100.594 E6.85585
G1 X84.059 Y99.828 E6.89558
G1 X84.329 Y99.077 E6.93531
G1 X84.646 Y98.345 E6.97504
G1 X85.008 Y97.634 E7.01477
G1 X85.414 Y96.947 E7.05450
G1 X85.863 Y96.287 E7.09424
G1 X86.352 Y95.656 E7.13397
G1 X86.880 Y95.058 E7.17370
G1 X87.444 Y94.494 E7.21343
G1 X87.944 Y94.053 E7.24662
G1 X88.459 Y94.526 E7.28146
G1 X88.717 Y94.725 E7.29767
G1 X89.281 Y95.083 E7.33095
G1 X89.790 Y95.337 E7.35924
G1 X89.619 Y96.099 E7.39811
G1 X89.484 Y96.952 E7.44112
G1 X89.403 Y97.812 E7.48414
G1 X89.376 Y98.676 E7.52715
G1 X89.403 Y99.539 E7.57017
G1 X89.484 Y100.399 E7.61318
G1 X89.619 Y101.253 E7.65619
G1 X89.808 Y102.096 E7.69921
G1 X90.049 Y102.925 E7.74222
G1 X90.341 Y103.738 E7.78524
G1 X90.685 Y104.531 E7.82825
G1 X91.077 Y105.301 E7.87126
G1 X91.517 Y106.044 E7.91428
G1 X92.002 Y106.759 E7.95730
G1 X92.532 Y107.442 E8.00031
G1 X93.103 Y108.090 E8.04332
G1 X93.972 Y108.959 E8.10455
G1 X94.143 Y109.381 F9000.000
G1 E2.10455 F1800.00000
G92 E0
G1 X82.697 Y106.751 F9000.000
G1 E6.00000 F1800.00000
G1 X81.813 Y106.228 E6.05113 F600.000
G1 X80.843 Y105.569 E6.10954
G1 X79.916 Y104.849 E6.16796
G1 X79.036 Y104.074 E6.22637
G1 X78.206 Y103.244 E6.28478
G1 X77.431 Y102.364 E6.34319
G1 X76.711 Y101.437 E6.40161
G1 X76.052 Y100.467 E6.46002
G1 X75.516 Y99.561 E6.51242
G1 X75.690 Y99.077 E6.53801
G1 X76.007 Y98.345 E6.57774
G1 X76.370 Y97.634 E6.61747
G1 X76.776 Y96.947 E6.65720
G1 X77.224 Y96.287 E6.69693
G1 X77.713 Y95.656 E6.73666
G1 X78.241 Y95.058 E6.77639
G1 X78.805 Y94.494 E6.81612
G1 X79.404 Y93.966 E6.85586
G1 X80.034 Y93.477 E6.89558
G1 X80.694 Y93.028 E6.93532
G1 X81.381 Y92.622 E6.97505
G1 X82.092 Y92.260 E7.01478
G1 X82.770 Y91.966 E7.05156
G1 X83.575 Y91.673 E7.09421
G1 X84.342 Y91.450 E7.13396
G1 X85.121 Y91.276 E7.17370
G1 X85.909 Y91.151 E7.21343
G1 X86.573 Y91.088 E7.24662
G1 X86.711 Y91.774 E7.28146
G1 X86.802 Y92.087 E7.29767
G1 X87.048 Y92.708 E7.33095
G1 X87.311 Y93.212 E7.35924
G1 X86.725 Y93.728 E7.39811
G1 X86.114 Y94.339 E7.44112
G1 X85.543 Y94.987 E7.48414
G1 X85.013 Y95.670 E7.52715
G1 X84.528 Y96.384 E7.57017
G1 X84.088 Y97.128 E7.61318
G1 X83.696 Y97.898 E7.65619
G1 X83.353 Y98.691 E7.69921
G1 X83.060 Y99.504 E7.74222
G1 X82.819 Y100.333 E7.78524
G1 X82.631 Y101.176 E7.82825
G1 X82.495 Y102.030 E7.87127
G1 X82.414 Y102.890 E7.91428
G1 X82.387 Y103.753 E7.95730
G1 X82.414 Y104.617 E8.00031
G1 X82.495 Y105.477 E8.04332
G1 X82.688 Y106.691 E8.10456
G1 X82.578 Y107.132 F9000.000
G1 E2.10456 F1800.00000
G92 E0
G1 X74.864 Y98.277 F9000.000
G1 E6.00000 F1800.00000
G1 X74.456 Y97.335 E6.05113 F600.000
G1 X74.059 Y96.231 E6.10954
G1 X73.732 Y95.104 E6.16795
G1 X73.476 Y93.959 E6.22636
G1 X73.292 Y92.801 E6.28478
G1 X73.182 Y91.633 E6.34319
G1 X73.145 Y90.460 E6.40160
G1 X73.182 Y89.287 E6.46001
G1 X73.281 Y88.240 E6.51242
G1 X73.706 Y87.951 E6.53801
G1 X74.393 Y87.544 E6.57774
G1 X75.104 Y87.182 E6.61747
G1 X75.836 Y86.865 E6.65720
G1 X76.587 Y86.595 E6.69693
G1 X77.353 Y86.372 E6.73666
G1 X78.132 Y86.198 E6.77639
G1 X78.920 Y86.073 E6.81612
G1 X79.715 Y85.998 E6.85585
G1 X80.453 Y85.975 E6.89264
G1 X81.309 Y85.998 E6.93528
G1 X82.104 Y86.073 E6.97504
G1 X82.892 Y86.198 E7.01477
G1 X83.671 Y86.372 E7.05450
G1 X84.437 Y86.595 E7.09423
G1 X85.188 Y86.865 E7.13396
G1 X85.921 Y87.182 E7.17369
G1 X86.632 Y87.544 E7.21342
G1 X87.205 Y87.884 E7.24662
G1 X86.915 Y88.520 E7.28146
G1 X86.804 Y88.827 E7.29767
G1 X86.638 Y89.474 E7.33095
G1 X86.554 Y90.036 E7.35923
G1 X85.777 Y90.109 E7.39811
G1 X84.924 Y90.245 E7.44112
G1 X84.081 Y90.433 E7.48414
G1 X83.251 Y90.674 E7.52715
G1 X82.438 Y90.967 E7.57016
G1 X81.645 Y91.310 E7.61318
G1 X80.876 Y91.702 E7.65619
G1 X80.132 Y92.142 E7.69921
G1 X79.418 Y92.627 E7.74222
G1 X78.735 Y93.157 E7.78524
G1 X78.087 Y93.728 E7.82825
G1 X77.476 Y94.339 E7.87126
G1 X76.905 Y94.987 E7.91428
G1 X76.375 Y95.670 E7.95729
G1 X75.889 Y96.384 E8.00031
G1 X75.450 Y97.128 E8.04332
G1 X74.891 Y98.224 E8.10455
G1 X74.543 Y98.516 F9000.000
G1 E2.10455 F1800.00000
G92 E0
G1 X73.508 Y86.818 F9000.000
G1 E6.00000 F1800.00000
G1 X73.732 Y85.816 E6.05113 F600.000
G1 X74.059 Y84.689 E6.10954
G1 X74.456 Y83.585 E6.16795
G1 X74.922 Y82.509 E6.22636
G1 X75.455 Y81.463 E6.28478
G1 X76.052 Y80.453 E6.34319
G1 X76.712 Y79.483 E6.40162
G1 X77.477 Y78.503 E6.46354
G1 X78.127 Y77.767 E6.51241
G1 X78.640 Y77.783 E6.53800
G1 X79.435 Y77.858 E6.57772
G1 X80.223 Y77.983 E6.61746
G1 X81.002 Y78.157 E6.65719
G1 X81.768 Y78.379 E6.69692
G1 X82.519 Y78.650 E6.73665
G1 X83.251 Y78.967 E6.77638
G1 X83.962 Y79.329 E6.81611
G1 X84.649 Y79.735 E6.85584
G1 X85.309 Y80.184 E6.89557
G1 X85.940 Y80.673 E6.93530
G1 X86.538 Y81.200 E6.97503
G1 X87.102 Y81.765 E7.01477
G1 X87.630 Y82.363 E7.05450
G1 X88.119 Y82.994 E7.09423
G1 X88.568 Y83.654 E7.13396
G1 X88.974 Y84.341 E7.17369
G1 X89.336 Y85.052 E7.21342
G1 X89.601 Y85.663 E7.24661
G1 X88.992 Y86.008 E7.28145
G1 X88.722 Y86.191 E7.29766
G1 X88.207 Y86.617 E7.33094
G1 X87.809 Y87.022 E7.35923
G1 X87.137 Y86.625 E7.39810
G1 X86.368 Y86.232 E7.44112
G1 X85.575 Y85.889 E7.48413
G1 X84.762 Y85.597 E7.52715
G1 X83.932 Y85.356 E7.57016
G1 X83.089 Y85.167 E7.61317
G1 X82.236 Y85.032 E7.65619
G1 X81.376 Y84.951 E7.69920
G1 X80.512 Y84.923 E7.74222
G1 X79.649 Y84.951 E7.78523
G1 X78.789 Y85.032 E7.82825
G1 X77.935 Y85.167 E7.87126
G1 X77.092 Y85.356 E7.91428
G1 X76.262 Y85.597 E7.95729
G1 X75.450 Y85.889 E8.00030
G1 X74.657 Y86.232 E8.04332
G1 X73.561 Y86.791 E8.10454
G1 X73.108 Y86.822 F9000.000
G1 E2.10454 F1800.00000
G92 E0
G1 X79.146 Y76.750 F9000.000
G1 E6.00000 F1800.00000
G1 X79.916 Y76.071 E6.05113 F600.000
G1 X80.843 Y75.351 E6.10954
G1 X81.813 Y74.692 E6.16795
G1 X82.823 Y74.095 E6.22636
G1 X83.869 Y73.562 E6.28478
G1 X84.945 Y73.096 E6.34319
G1 X86.049 Y72.699 E6.40160
G1 X87.176 Y72.372 E6.46001
G1 X88.203 Y72.142 E6.51242
G1 X88.609 Y72.457 E6.53801
G1 X89.208 Y72.985 E6.57773
G1 X89.772 Y73.549 E6.61747
G1 X90.299 Y74.148 E6.65720
G1 X90.789 Y74.778 E6.69693
G1 X91.237 Y75.438 E6.73666
G1 X91.643 Y76.125 E6.77639
G1 X92.006 Y76.836 E6.81612
G1 X92.323 Y77.568 E6.85585
G1 X92.593 Y78.319 E6.89558
G1 X92.815 Y79.085 E6.93531
G1 X92.990 Y79.864 E6.97504
G1 X93.114 Y80.652 E7.01477
G1 X93.189 Y81.447 E7.05450
G1 X93.215 Y82.244 E7.09424
G1 X93.189 Y83.042 E7.13397
G1 X93.114 Y83.836 E7.17370
G1 X92.990 Y84.625 E7.21343
G1 X92.844 Y85.275 E7.24662
G1 X92.149 Y85.195 E7.28146
G1 X91.824 Y85.185 E7.29767
G1 X91.156 Y85.227 E7.33095
G1 X90.596 Y85.321 E7.35924
G1 X90.286 Y84.605 E7.39811
G1 X89.894 Y83.835 E7.44112
G1 X89.454 Y83.091 E7.48414
G1 X88.968 Y82.377 E7.52715
G1 X88.439 Y81.694 E7.57017
G1 X87.868 Y81.046 E7.61318
G1 X87.257 Y80.435 E7.65620
G1 X86.609 Y79.864 E7.69921
G1 X85.926 Y79.334 E7.74223
G1 X85.212 Y78.849 E7.78524
G1 X84.468 Y78.409 E7.82825
G1 X83.698 Y78.017 E7.87127
G1 X82.905 Y77.674 E7.91428
G1 X82.092 Y77.381 E7.95730
G1 X81.263 Y77.140 E8.00031
G1 X80.420 Y76.951 E8.04333
G1 X79.205 Y76.759 E8.10455
G1 X78.820 Y76.518 F9000.000
G1 E2.10455 F1800.00000
G92 E0
G1 X90.226 Y88.533 F9000.000
G1 E6.00000 F1800.00000
G1 X90.628 Y88.260 E6.02422 F600.000
G1 X91.182 Y88.040 E6.05389
G1 X91.663 Y87.964 E6.07812 F600.000
G1 X92.133 Y87.979 E6.10155
G1 X92.593 Y88.082 E6.12498
G1 X93.039 Y88.275 E6.14921
G1 X93.521 Y88.625 E6.17888
G1 X93.843 Y88.990 E6.20310
G1 X94.083 Y89.395 E6.22653
G1 X94.242 Y89.838 E6.24997
G1 X94.316 Y90.303 E6.27340
G1 X94.301 Y90.773 E6.29684
G1 X94.198 Y91.233 E6.32027
G1 X94.011 Y91.665 E6.34370
G1 X93.747 Y92.054 E6.36714
G1 X93.403 Y92.398 E6.39136
G1 X92.900 Y92.717 E6.42103
G1 X92.442 Y92.882 E6.44525
G1 X91.961 Y92.958 E6.46948
G1 X91.367 Y92.921 E6.49915
G1 X90.899 Y92.785 E6.52337
G1 X90.480 Y92.571 E6.54680
G1 X90.108 Y92.283 E6.57024
G1 X89.797 Y91.930 E6.59367
G1 X89.557 Y91.525 E6.61711
G1 X89.398 Y91.082 E6.64054
G1 X89.324 Y90.617 E6.66397
G1 X89.339 Y90.147 E6.68741
G1 X89.442 Y89.687 E6.71084
G1 X89.629 Y89.255 E6.73428
G1 X89.893 Y88.866 E6.75771
G1 X90.184 Y88.576 E6.77816
G1 X90.473 Y88.832 F9000.000
G1 X90.810 Y88.603 E6.79845 F600.000
G1 X91.285 Y88.415 E6.82388
G1 X91.687 Y88.351 E6.84417 F600.000
G1 X92.085 Y88.363 E6.86397
G1 X92.473 Y88.450 E6.88378
G1 X92.847 Y88.612 E6.90406
G1 X93.260 Y88.912 E6.92950
G1 X93.530 Y89.218 E6.94978
G1 X93.732 Y89.560 E6.96959
G1 X93.867 Y89.934 E6.98939
G1 X93.929 Y90.327 E7.00920
G1 X93.917 Y90.725 E7.02900
G1 X93.830 Y91.113 E7.04880
G1 X93.672 Y91.478 E7.06861
G1 X93.448 Y91.807 E7.08841
G1 X93.160 Y92.095 E7.10870
G1 X92.729 Y92.369 E7.13413
G1 X92.346 Y92.507 E7.15442
G1 X91.943 Y92.571 E7.17471
G1 X91.433 Y92.539 E7.20014
G1 X91.042 Y92.425 E7.22043
G1 X90.688 Y92.244 E7.24023
G1 X90.373 Y92.001 E7.26004
G1 X90.110 Y91.702 E7.27984
G1 X89.908 Y91.360 E7.29965
G1 X89.773 Y90.986 E7.31945
G1 X89.711 Y90.593 E7.33925
G1 X89.723 Y90.195 E7.35906
G1 X89.810 Y89.807 E7.37886
G1 X89.968 Y89.442 E7.39867
G1 X90.192 Y89.113 E7.41847
G1 X90.430 Y88.874 E7.43529
G1 X90.720 Y89.130 F9000.000
G1 X90.991 Y88.945 E7.45164 F600.000
G1 X91.387 Y88.789 E7.47283
G1 X91.712 Y88.737 E7.48919 F600.000
G1 X92.036 Y88.748 E7.50536
G1 X92.353 Y88.818 E7.52154
G1 X92.655 Y88.949 E7.53789
G1 X92.999 Y89.199 E7.55908
G1 X93.216 Y89.445 E7.57543
G1 X93.382 Y89.725 E7.59161
G1 X93.492 Y90.031 E7.60779
G1 X93.543 Y90.352 E7.62396
G1 X93.532 Y90.676 E7.64013
G1 X93.462 Y90.993 E7.65631
G1 X93.333 Y91.292 E7.67248
G1 X93.150 Y91.560 E7.68866
G1 X92.918 Y91.792 E7.70501
G1 X92.558 Y92.021 E7.72620
G1 X92.249 Y92.132 E7.74256
G1 X91.925 Y92.183 E7.75891
G1 X91.500 Y92.156 E7.78010
G1 X91.185 Y92.065 E7.79646
G1 X90.895 Y91.917 E7.81263
G1 X90.638 Y91.718 E7.82880
G1 X90.424 Y91.475 E7.84498
G1 X90.258 Y91.195 E7.86115
G1 X90.148 Y90.889 E7.87733
G1 X90.097 Y90.568 E7.89350
G1 X90.108 Y90.244 E7.90968
G1 X90.178 Y89.927 E7.92585
G1 X90.307 Y89.629 E7.94203
G1 X90.490 Y89.360 E7.95820
G1 X90.677 Y89.173 E7.97139
G1 X90.675 Y88.805 F9000.000
G1 X88.956 Y86.998 F9000.000
G1 X89.186 Y86.808 E7.98624 F600.000
G1 X89.399 Y86.663 E7.99905
G1 X90.304 Y86.152 E8.05082
G1 X91.245 Y85.994 E8.09830
G1 X91.836 Y85.957 E8.12778
G1 X92.093 Y85.965 E8.14059
G1 X93.126 Y86.084 E8.19236 F600.000
G1 X93.979 Y86.509 E8.23984
G1 X94.479 Y86.826 E8.26933
G1 X94.683 Y86.984 E8.28213
G1 X95.449 Y87.687 E8.33390
G1 X95.889 Y88.533 E8.38138
G1 X96.107 Y89.083 E8.41087
G1 X96.179 Y89.331 E8.42368
G1 X96.385 Y90.350 E8.47544
G1 X96.245 Y91.293 E8.52292
G1 X96.098 Y91.866 E8.55241
G1 X96.010 Y92.108 E8.56522
G1 X95.627 Y92.948 E8.61118
G1 X95.105 Y93.540 E8.65045
G1 X94.913 Y93.732 E8.66397
G1 X94.454 Y94.112 E8.69366
G1 X94.241 Y94.257 E8.70647
G1 X93.437 Y94.711 E8.75244
G1 X92.679 Y94.880 E8.79112
G1 X92.087 Y94.955 E8.82083
G1 X91.547 Y94.955 E8.84771
G1 X90.514 Y94.836 E8.89948
G1 X89.661 Y94.411 E8.94696
G1 X89.161 Y94.094 E8.97644
G1 X88.957 Y93.936 E8.98925
G1 X88.191 Y93.233 E9.04102
G1 X87.751 Y92.387 E9.08850
G1 X87.533 Y91.837 E9.11798
G1 X87.461 Y91.589 E9.13079
G1 X87.255 Y90.571 E9.18256
G1 X87.395 Y89.627 E9.23004
G1 X87.542 Y89.054 E9.25953
G1 X87.630 Y88.812 E9.27233
G1 X88.061 Y87.866 E9.32410
G1 X88.730 Y87.185 E9.37158
G1 X88.910 Y87.036 E9.38322
G1 X87.873 Y87.508 F9000.000
G1 X88.469 Y86.901 E9.42555 F600.000
G1 X88.954 Y86.499 E9.45693
G1 X89.195 Y86.335 E9.47144
G1 X90.093 Y85.829 E9.52276
G1 X89.685 Y84.887 E9.57382
G1 X89.312 Y84.155 E9.61476
G1 X88.893 Y83.447 E9.65570
G1 X88.431 Y82.767 E9.69664
G1 X87.927 Y82.117 E9.73757
G1 X87.384 Y81.501 E9.77851
G1 X86.802 Y80.919 E9.81945
G1 X86.185 Y80.375 E9.86039
G1 X85.536 Y79.871 E9.90132
