; generated by Slic3r 1.2.9 on 2017-07-15 at 13:33:57

; external perimeters extrusion width = 0.40mm
; perimeters extrusion width = 0.62mm
; infill extrusion width = 0.33mm
; solid infill extrusion width = 0.62mm
; top infill extrusion width = 0.20mm

M106 S256; Turn on fan to 100% power
M104 S140; turn on extruder temperature at S value
M140 S60; turn on bed temperature at S value
G28; home all axes
M84; disable motors
G1 Z15 F15000; have Z move to 20mm at 15000 mm/min
M190 S55; turn on bed temperature at S value and wait
M140 S55; turn on bed temperature at S value (printing temperature)
M109 S200; turn on extruder temperature at S value and wait (printing temperature)
M104 S200; turn on extruder temperature at S value
G1 Z0 F12000; move Z back to home
G21 ; set units to millimeters
G90 ; use absolute coordinates
M82 ; use absolute distances for extrusion
G92 E0
M106 S255
;Layer change
G1 E-6.00000 F1800.00000
G92 E0
G1 Z0.300 F9000.000
G1 X73.695 Y50.083 F9000.000
G1 E6.00000 F1800.00000
G1 X74.322 Y49.168 E6.05522 F600.000
G1 X75.167 Y48.087 E6.12352
G1 X75.975 Y47.170 E6.18436
G1 X76.941 Y46.197 E6.25264
G1 X78.082 Y45.191 E6.32840
G1 X79.169 Y44.354 E6.39669
G1 X80.306 Y43.587 E6.46498
G1 X81.358 Y42.965 E6.52582
G1 X82.578 Y42.338 E6.59412
G1 X83.975 Y41.734 E6.66988
G1 X85.267 Y41.274 E6.73816
G1 X86.585 Y40.895 E6.80645
G1 X87.777 Y40.629 E6.86729
G1 X89.132 Y40.410 E6.93559
G1 X90.497 Y40.276 E7.00388
G1 X91.943 Y40.227 E7.07591
G1 X137.017 Y40.228 E9.32015
G1 X138.388 Y40.276 E9.38844 F600.000
G1 X139.753 Y40.410 E9.45673
G1 X141.108 Y40.629 E9.52503
G1 X142.445 Y40.933 E9.59332
G1 X143.761 Y41.320 E9.66161
G1 X145.050 Y41.789 E9.72991
G1 X146.171 Y42.274 E9.79075
G1 X147.396 Y42.893 E9.85904
G1 X148.579 Y43.587 E9.92734
G1 X149.716 Y44.354 E9.99563
G1 X150.803 Y45.191 E10.06392
G1 X151.835 Y46.095 E10.13223
G1 X152.910 Y47.170 E10.20797
G1 X153.814 Y48.202 E10.27627
G1 X154.651 Y49.289 E10.34456
G1 X155.338 Y50.300 E10.40540
G1 X155.993 Y51.399 E10.46913
G1 X156.667 Y52.698 E10.54199
G1 X157.216 Y53.955 E10.61027
G1 X157.685 Y55.244 E10.67858
G1 X158.072 Y56.560 E10.74686
G1 X158.376 Y57.898 E10.81516
G1 X168.018 Y104.837 E13.20105
G1 X168.161 Y105.656 E13.24240
G1 X168.267 Y106.408 E13.28021
G1 X168.403 Y107.845 E13.35208
G1 X168.442 Y108.678 E13.39362
G1 X168.442 Y110.122 E13.46551
G1 X168.357 Y111.535 E13.53600
G1 X168.258 Y112.467 E13.58264
G1 X168.032 Y113.893 E13.65453
G1 X167.862 Y114.710 E13.69607
G1 X167.503 Y116.108 E13.76795
G1 X167.258 Y116.905 E13.80949
G1 X166.769 Y118.264 E13.88136
G1 X166.450 Y119.035 E13.92291
G1 X165.835 Y120.341 E13.99479
G1 X165.445 Y121.078 E14.03632
G1 X164.710 Y122.321 E14.10820
G1 X164.252 Y123.018 E14.14973
G1 X163.403 Y124.186 E14.22163
G1 X162.881 Y124.837 E14.26318
G1 X161.927 Y125.920 E14.33503
G1 X161.346 Y126.519 E14.37658
G1 X160.294 Y127.508 E14.44847
G1 X159.659 Y128.050 E14.49001
G1 X158.519 Y128.934 E14.56187
G1 X157.836 Y129.414 E14.60341
G1 X156.617 Y130.188 E14.67530
G1 X155.893 Y130.601 E14.71683
G1 X154.606 Y131.256 E14.78871
G1 X153.846 Y131.600 E14.83026
G1 X152.503 Y132.131 E14.90213
G1 X151.060 Y132.603 E14.97773
G1 X150.255 Y132.823 E15.01927
G1 X148.846 Y133.138 E15.09116
G1 X148.024 Y133.281 E15.13271
G1 X146.592 Y133.462 E15.20458
G1 X145.835 Y133.523 E15.24239
G1 X144.280 Y133.573 E15.31986
G1 X94.280 Y133.573 E17.80931
G1 X92.800 Y133.527 E17.88305
G1 X91.968 Y133.462 E17.92459
G1 X90.536 Y133.281 E17.99646
G1 X89.787 Y133.152 E18.03428
G1 X88.970 Y132.983 E18.07582
G1 X87.572 Y132.623 E18.14770
G1 X86.775 Y132.378 E18.18924
G1 X85.416 Y131.889 E18.26111
G1 X84.645 Y131.570 E18.30266
G1 X83.339 Y130.955 E18.37453
G1 X82.602 Y130.565 E18.41607
G1 X81.359 Y129.830 E18.48795
G1 X80.662 Y129.372 E18.52948
G1 X79.494 Y128.523 E18.60138
G1 X78.843 Y128.001 E18.64293
G1 X77.760 Y127.047 E18.71478
G1 X77.161 Y126.466 E18.75633
G1 X76.172 Y125.414 E18.82822
G1 X75.630 Y124.779 E18.86976
G1 X74.746 Y123.639 E18.94162
G1 X74.308 Y123.018 E18.97945
G1 X73.850 Y122.321 E19.02098
G1 X73.115 Y121.078 E19.09285
G1 X72.725 Y120.341 E19.13440
G1 X72.110 Y119.035 E19.20627
G1 X71.818 Y118.333 E19.24409
G1 X71.524 Y117.553 E19.28562
G1 X71.077 Y116.180 E19.35749
G1 X70.876 Y115.448 E19.39531
G1 X70.681 Y114.637 E19.43685
G1 X70.411 Y113.219 E19.50872
G1 X70.302 Y112.467 E19.54654
G1 X70.211 Y111.638 E19.58808
G1 X70.120 Y110.197 E19.65996
G1 X70.107 Y109.400 E19.69963
G1 X70.107 Y62.062 E22.05652
G1 X70.146 Y60.766 E22.12109
G1 X70.271 Y59.400 E22.18938
G1 X70.481 Y58.045 E22.25767
G1 X70.775 Y56.705 E22.32597
G1 X71.200 Y55.244 E22.40171
G1 X71.669 Y53.955 E22.47002
G1 X72.218 Y52.698 E22.53831
G1 X72.845 Y51.478 E22.60661
G1 X73.467 Y50.426 E22.66744
G1 X73.661 Y50.132 E22.68499
G1 E16.68499 F1800.00000
G92 E0
G1 X92.156 Y114.239 F9000.000
G1 E6.00000 F1800.00000
G1 X91.838 Y115.597 E6.06943 F600.000
G1 X91.689 Y116.535 E6.11673
G1 X91.596 Y117.555 E6.16769
G1 X91.570 Y118.435 E6.21156
G1 X91.602 Y119.409 E6.26006
G1 X91.689 Y120.332 E6.30621
G1 X91.838 Y121.272 E6.35358
G1 X92.046 Y122.202 E6.40104
G1 X92.171 Y122.657 E6.42455
G1 X92.465 Y123.564 E6.47201
G1 X92.815 Y124.448 E6.51937
G1 X93.220 Y125.309 E6.56675
G1 X93.680 Y126.144 E6.61420
G1 X93.926 Y126.547 E6.63771
G1 X94.462 Y127.335 E6.68517
G1 X95.045 Y128.087 E6.73254
G1 X95.674 Y128.801 E6.77991
G1 X96.665 Y129.794 E6.84976
G1 X94.924 Y129.902 E6.93662
G1 X93.636 Y129.902 E7.00078
G1 X92.350 Y129.822 E7.06493
G1 X91.071 Y129.660 E7.12910
G1 X89.805 Y129.419 E7.19325
G1 X88.557 Y129.098 E7.25741
G1 X87.333 Y128.700 E7.32149
G1 X86.727 Y128.471 E7.35374
G1 X85.487 Y127.936 E7.42101
G1 X85.185 Y126.659 E7.48630
G1 X85.046 Y125.784 E7.53045
G1 X84.963 Y124.902 E7.57454
G1 X84.935 Y124.019 E7.61854
G1 X84.942 Y123.573 E7.64076
G1 X84.997 Y122.692 E7.68467
G1 X85.046 Y122.249 E7.70689
G1 X85.185 Y121.376 E7.75089
G1 X85.378 Y120.512 E7.79497
G1 X85.624 Y119.663 E7.83897
G1 X85.769 Y119.241 E7.86119
G1 X86.094 Y118.420 E7.90518
G1 X86.471 Y117.618 E7.94927
G1 X86.898 Y116.842 E7.99335
G1 X87.372 Y116.095 E8.03746
G1 X87.934 Y115.327 E8.08480
G1 X88.456 Y114.698 E8.12552
G1 X88.756 Y114.368 E8.14774
G1 X89.381 Y113.743 E8.19174
G1 X90.338 Y112.922 E8.25451
G1 X90.791 Y113.356 E8.28573
G1 X91.180 Y113.667 E8.31051
G1 X91.595 Y113.940 E8.33527
G1 X92.103 Y114.211 E8.36392
G1 X92.536 Y114.364 F9000.000
G1 X89.717 Y112.067 F9000.000
G1 X88.662 Y112.978 E8.43335 F600.000
G1 X87.990 Y113.650 E8.48064
G1 X87.316 Y114.420 E8.53161
G1 X86.776 Y115.117 E8.57547
G1 X86.505 Y115.503 E8.59899
G1 X85.993 Y116.310 E8.64654
G1 X85.759 Y116.720 E8.67005
G1 X85.326 Y117.569 E8.71751
G1 X84.949 Y118.442 E8.76487
G1 X84.626 Y119.339 E8.81233
G1 X84.359 Y120.258 E8.85997
G1 X84.153 Y121.179 E8.90698
G1 X84.005 Y122.119 E8.95435
G1 X83.915 Y123.066 E9.00171
G1 X83.885 Y124.017 E9.04908
G1 X83.915 Y124.968 E9.09645
G1 X84.005 Y125.915 E9.14383
G1 X84.223 Y127.301 E9.21367
G1 X82.750 Y126.366 E9.30054
G1 X81.708 Y125.608 E9.36469
G1 X80.715 Y124.787 E9.42885
G1 X79.775 Y123.905 E9.49301
G1 X78.893 Y122.965 E9.55717
G1 X78.072 Y121.972 E9.62133
G1 X77.315 Y120.931 E9.68540
G1 X76.960 Y120.390 E9.71766
G1 X76.271 Y119.227 E9.78493
G1 X76.777 Y118.017 E9.85022
G1 X77.179 Y117.227 E9.89437
G1 X77.614 Y116.489 E9.93702
G1 X77.874 Y116.093 E9.96060
G1 X78.394 Y115.379 E10.00459
G1 X78.958 Y114.696 E10.04868
G1 X79.563 Y114.052 E10.09267
G1 X79.884 Y113.742 E10.11489
G1 X80.547 Y113.157 E10.15889
G1 X81.246 Y112.614 E10.20298
G1 X81.978 Y112.117 E10.24706
G1 X82.739 Y111.667 E10.29106
G1 X83.134 Y111.458 E10.31328
G1 X83.933 Y111.082 E10.35727
G1 X84.756 Y110.756 E10.40136
G1 X85.598 Y110.482 E10.44544
G1 X86.390 Y110.278 E10.48616
G1 X86.891 Y110.172 E10.51164
G1 X87.764 Y110.034 E10.55566
G1 X89.021 Y109.933 E10.61843
G1 X89.132 Y110.550 E10.64966
G1 X89.263 Y111.030 E10.67443
G1 X89.439 Y111.495 E10.69919
G1 X89.691 Y112.013 E10.72784
G1 X89.951 Y112.391 F9000.000
G1 X93.157 Y114.566 F9000.000
G1 X93.783 Y114.651 E10.75929 F600.000
G1 X94.282 Y114.675 E10.78415
G1 X94.609 Y114.665 E10.80048
G1 X95.404 Y114.558 E10.84037
G1 X95.947 Y115.849 E10.91012
G1 X96.378 Y116.696 E10.95743
G1 X96.863 Y117.515 E11.00480
G1 X97.398 Y118.303 E11.05225
G1 X97.682 Y118.681 E11.07577
G1 X98.289 Y119.415 E11.12322
G1 X98.941 Y120.109 E11.17059
G1 X99.634 Y120.760 E11.21796
G1 X100.367 Y121.366 E11.26533
G1 X101.137 Y121.926 E11.31270
G1 X101.940 Y122.435 E11.36006
G1 X102.774 Y122.894 E11.40743
G1 X103.635 Y123.299 E11.45480
G1 X104.519 Y123.649 E11.50217
G1 X105.424 Y123.943 E11.54954
G1 X106.347 Y124.180 E11.59699
G1 X106.810 Y124.276 E11.62051
G1 X108.197 Y124.497 E11.69044
G1 X106.852 Y125.608 E11.77730
G1 X105.810 Y126.366 E11.84145
G1 X104.722 Y127.056 E11.90562
G1 X103.593 Y127.677 E11.96978
G1 X102.427 Y128.225 E12.03393
G1 X101.228 Y128.700 E12.09809
G1 X100.005 Y129.098 E12.16217
G1 X99.380 Y129.269 E12.19442
G1 X98.061 Y129.564 E12.26169
G1 X97.067 Y128.709 E12.32698
G1 X96.441 Y128.083 E12.37105
G1 X96.141 Y127.753 E12.39327
G1 X95.578 Y127.074 E12.43718
G1 X95.056 Y126.355 E12.48144
G1 X94.582 Y125.608 E12.52544
G1 X94.157 Y124.834 E12.56943
G1 X93.960 Y124.433 E12.59165
G1 X93.609 Y123.622 E12.63565
G1 X93.310 Y122.791 E12.67965
G1 X93.179 Y122.364 E12.70187
G1 X92.959 Y121.510 E12.74577
G1 X92.869 Y121.073 E12.76800
G1 X92.731 Y120.200 E12.81200
G1 X92.647 Y119.319 E12.85608
G1 X92.620 Y118.436 E12.90008
G1 X92.627 Y117.989 E12.92230
G1 X92.682 Y117.107 E12.96629
G1 X92.793 Y116.229 E13.01038
G1 X92.959 Y115.360 E13.05443
G1 X93.143 Y114.624 E13.09219
G1 X93.226 Y114.172 F9000.000
G1 X96.408 Y114.239 F9000.000
G1 X96.965 Y113.941 E13.12364 F600.000
G1 X97.380 Y113.667 E13.14842
G1 X97.769 Y113.356 E13.17323
G1 X98.221 Y112.912 E13.20473
G1 X99.419 Y113.638 E13.27448
G1 X100.268 Y114.070 E13.32188
G1 X100.698 Y114.264 E13.34539
G1 X101.584 Y114.615 E13.39285
G1 X102.489 Y114.909 E13.44021
G1 X103.410 Y115.146 E13.48758
G1 X104.345 Y115.324 E13.53495
G1 X105.289 Y115.443 E13.58232
G1 X106.238 Y115.503 E13.62969
G1 X107.190 Y115.503 E13.67706
G1 X108.139 Y115.443 E13.72442
G1 X109.083 Y115.324 E13.77179
G1 X110.018 Y115.146 E13.81916
G1 X110.939 Y114.909 E13.86653
G1 X111.844 Y114.615 E13.91390
G1 X112.730 Y114.264 E13.96135
G1 X113.161 Y114.070 E13.98487
G1 X114.413 Y113.433 E14.05481
G1 X113.978 Y115.123 E14.14167
G1 X113.580 Y116.348 E14.20583
G1 X113.106 Y117.547 E14.26999
G1 X112.557 Y118.713 E14.33414
G1 X111.936 Y119.842 E14.39831
G1 X111.246 Y120.930 E14.46246
G1 X110.489 Y121.971 E14.52654
G1 X110.084 Y122.476 E14.55879
G1 X109.191 Y123.490 E14.62606
G1 X107.884 Y123.384 E14.69135
G1 X107.010 Y123.245 E14.73542
G1 X106.143 Y123.051 E14.77968
G1 X105.294 Y122.805 E14.82368
G1 X104.462 Y122.505 E14.86767
G1 X104.050 Y122.334 E14.88990
G1 X103.252 Y121.959 E14.93380
G1 X102.858 Y121.750 E14.95602
G1 X102.097 Y121.300 E15.00002
G1 X101.366 Y120.804 E15.04402
G1 X100.664 Y120.259 E15.08828
G1 X100.001 Y119.674 E15.13228
G1 X99.375 Y119.048 E15.17636
G1 X98.789 Y118.384 E15.22045
G1 X98.248 Y117.686 E15.26444
G1 X97.991 Y117.321 E15.28666
G1 X97.518 Y116.575 E15.33066
G1 X97.091 Y115.799 E15.37474
G1 X96.714 Y114.998 E15.41879
G1 X96.430 Y114.295 E15.45656
G1 X96.232 Y113.880 F9000.000
G1 X98.845 Y112.067 F9000.000
G1 X99.121 Y111.495 E15.48818 F600.000
G1 X99.297 Y111.030 E15.51295
G1 X99.428 Y110.550 E15.53771
G1 X99.539 Y109.925 E15.56935
G1 X100.929 Y109.808 E15.63878
G1 X101.869 Y109.659 E15.68618
G1 X102.331 Y109.563 E15.70969
G1 X103.254 Y109.326 E15.75715
G1 X104.159 Y109.032 E15.80452
G1 X105.044 Y108.682 E15.85189
G1 X105.906 Y108.276 E15.89934
G1 X106.324 Y108.055 E15.92286
G1 X107.144 Y107.570 E15.97031
G1 X107.932 Y107.034 E16.01777
G1 X108.311 Y106.749 E16.04137
G1 X108.681 Y106.453 E16.06497
G1 X109.396 Y105.823 E16.11242
G1 X110.069 Y105.150 E16.15979
G1 X110.698 Y104.436 E16.20716
G1 X111.281 Y103.684 E16.25453
G1 X111.816 Y102.898 E16.30190
G1 X112.301 Y102.078 E16.34933
G1 X112.934 Y100.819 E16.41948
G1 X113.580 Y102.452 E16.50690
G1 X113.978 Y103.677 E16.57106
G1 X114.299 Y104.925 E16.63522
G1 X114.540 Y106.191 E16.69938
G1 X114.702 Y107.470 E16.76354
G1 X114.783 Y108.756 E16.82770
G1 X114.783 Y110.043 E16.89177
G1 X114.752 Y110.690 E16.92403
G1 X114.626 Y112.035 E16.99130
G1 X113.505 Y112.717 E17.05659
G1 X112.715 Y113.119 E17.10074
G1 X111.903 Y113.471 E17.14482
G1 X111.134 Y113.749 E17.18554
G1 X110.645 Y113.901 E17.21102
G1 X109.790 Y114.121 E17.25495
G1 X109.353 Y114.211 E17.27717
G1 X108.546 Y114.340 E17.31789
G1 X107.599 Y114.433 E17.36523
G1 X106.714 Y114.461 E17.40933
G1 X105.897 Y114.436 E17.45005
G1 X105.386 Y114.398 E17.47553
G1 X104.509 Y114.287 E17.51955
G1 X103.639 Y114.121 E17.56364
G1 X102.784 Y113.901 E17.60763
G1 X102.357 Y113.770 E17.62985
G1 X101.587 Y113.494 E17.67057
G1 X100.713 Y113.119 E17.71791
G1 X99.923 Y112.717 E17.76206
G1 X98.896 Y112.098 E17.82176
G1 X98.490 Y111.882 F9000.000
G1 X99.541 Y108.875 F9000.000
G1 X99.428 Y108.250 E17.85338 F600.000
G1 X99.297 Y107.770 E17.87816
G1 X99.121 Y107.305 E17.90292
G1 X98.843 Y106.733 E17.93456
G1 X99.898 Y105.822 E18.00399
G1 X100.570 Y105.150 E18.05128
G1 X101.244 Y104.380 E18.10225
G1 X101.784 Y103.683 E18.14611
G1 X102.055 Y103.297 E18.16963
G1 X102.567 Y102.490 E18.21718
G1 X102.801 Y102.080 E18.24069
G1 X103.234 Y101.231 E18.28815
G1 X103.611 Y100.358 E18.33551
G1 X103.934 Y99.461 E18.38297
G1 X104.074 Y99.008 E18.40657
G1 X104.199 Y98.551 E18.43017
G1 X104.407 Y97.621 E18.47763
G1 X104.555 Y96.681 E18.52499
G1 X104.645 Y95.734 E18.57236
G1 X104.675 Y94.783 E18.61973
G1 X104.645 Y93.832 E18.66710
G1 X104.555 Y92.883 E18.71454
G1 X104.328 Y91.493 E18.78469
G1 X105.810 Y92.434 E18.87212
G1 X106.852 Y93.192 E18.93628
G1 X107.845 Y94.013 E19.00044
G1 X108.785 Y94.895 E19.06459
G1 X109.667 Y95.835 E19.12875
G1 X110.488 Y96.828 E19.19291
G1 X111.245 Y97.869 E19.25698
G1 X111.600 Y98.410 E19.28924
G1 X112.289 Y99.573 E19.35651
G1 X111.783 Y100.783 E19.42180
G1 X111.381 Y101.571 E19.46587
G1 X111.160 Y101.959 E19.48809
G1 X110.687 Y102.705 E19.53209
G1 X110.167 Y103.420 E19.57608
G1 X109.888 Y103.768 E19.59830
G1 X109.304 Y104.431 E19.64230
G1 X108.678 Y105.057 E19.68639
G1 X108.013 Y105.643 E19.73047
G1 X107.314 Y106.186 E19.77456
G1 X106.582 Y106.683 E19.81864
G1 X105.821 Y107.133 E19.86264
G1 X105.427 Y107.342 E19.88486
G1 X104.627 Y107.718 E19.92885
G1 X103.804 Y108.044 E19.97293
G1 X103.026 Y108.298 E20.01365
G1 X102.533 Y108.435 E20.03914
G1 X101.670 Y108.628 E20.08315
G1 X100.795 Y108.766 E20.12728
G1 X99.600 Y108.870 E20.18699
G1 X99.145 Y108.934 F9000.000
G1 X96.767 Y109.225 F9000.000
G1 X96.779 Y109.321 E20.19182 F600.000
G1 X96.750 Y109.791 E20.21525
G1 X96.631 Y110.255 E20.23907
G1 X96.397 Y110.733 E20.26558
G1 X96.103 Y111.112 E20.28946
G1 X95.750 Y111.423 E20.31289
G1 X95.338 Y111.667 E20.33672
G1 X94.833 Y111.839 E20.36327
G1 X94.359 Y111.899 E20.38710
G1 X93.889 Y111.870 E20.41054
G1 X93.433 Y111.753 E20.43397
G1 X93.000 Y111.549 E20.45780
G1 X92.573 Y111.229 E20.48437
G1 X92.251 Y110.863 E20.50863
G1 X91.987 Y110.401 E20.53513
G1 X91.840 Y109.946 E20.55896
G1 X91.781 Y109.479 E20.58239
G1 X91.810 Y109.009 E20.60582
G1 X91.929 Y108.545 E20.62965
G1 X92.164 Y108.066 E20.65621
G1 X92.457 Y107.688 E20.68003
G1 X92.816 Y107.372 E20.70386
G1 X93.279 Y107.107 E20.73042
G1 X93.735 Y106.960 E20.75425
G1 X94.201 Y106.901 E20.77768 F600.000
G1 X94.679 Y106.931 E20.80151
G1 X95.193 Y107.071 E20.82806
G1 X95.620 Y107.289 E20.85189
G1 X95.998 Y107.582 E20.87572
G1 X96.344 Y107.987 E20.90227
G1 X96.575 Y108.407 E20.92610
G1 X96.720 Y108.855 E20.94954
G1 X96.760 Y109.166 E20.96515
G1 X96.385 Y109.274 F9000.000
G1 X96.367 Y109.731 E20.98792 F600.000
G1 X96.267 Y110.120 E21.00797
G1 X96.068 Y110.528 E21.03054
G1 X95.821 Y110.847 E21.05064
G1 X95.522 Y111.110 E21.07043
G1 X95.176 Y111.315 E21.09048
G1 X94.746 Y111.462 E21.11310
G1 X94.346 Y111.512 E21.13315
G1 X93.949 Y111.487 E21.15296
G1 X93.564 Y111.388 E21.17276
G1 X93.200 Y111.217 E21.19281
G1 X92.836 Y110.944 E21.21543
G1 X92.567 Y110.638 E21.23576
