; generated by Slic3r 1.2.9 on 2018-05-13 at 20:04:39

; external perimeters extrusion width = 0.40mm
; perimeters extrusion width = 0.62mm
; infill extrusion width = 0.33mm
; solid infill extrusion width = 0.62mm
; top infill extrusion width = 0.20mm

M106 S256; Turn on fan to 100% power
M104 S140; turn on extruder temperature at S value
M140 S60; turn on bed temperature at S value
G28; home all axes
M84; disable motors
G1 Z15 F15000; have Z move to 20mm at 15000 mm/min
M190 S55; turn on bed temperature at S value and wait
M140 S55; turn on bed temperature at S value (printing temperature)
M109 S200; turn on extruder temperature at S value and wait (printing temperature)
M104 S200; turn on extruder temperature at S value
G1 Z0 F12000; move Z back to home
G21 ; set units to millimeters
G90 ; use absolute coordinates
M82 ; use absolute distances for extrusion
G92 E0
M106 S255
;Layer change
G1 E-6.00000 F1800.00000
G92 E0
G1 Z0.300 F9000.000
G1 X157.156 Y33.412 F9000.000
G1 E6.00000 F1800.00000
G1 X157.207 Y33.172 E6.01205 F600.000
G1 X157.383 Y32.778 E6.03329
G1 X157.636 Y32.429 E6.05452
G1 X157.957 Y32.140 E6.07576
G1 X158.333 Y31.923 E6.09711
G1 X158.754 Y31.790 E6.11889
G1 X159.170 Y31.746 E6.13945 F600.000
G1 X159.599 Y31.791 E6.16069
G1 X160.009 Y31.924 E6.18192
G1 X160.383 Y32.140 E6.20316
G1 X160.704 Y32.429 E6.22440
G1 X160.957 Y32.778 E6.24563
G1 X161.133 Y33.172 E6.26687
G1 X161.223 Y33.594 E6.28810
G1 X161.223 Y34.026 E6.30934
G1 X161.133 Y34.448 E6.33058
G1 X160.957 Y34.842 E6.35181
G1 X160.704 Y35.191 E6.37304
G1 X160.383 Y35.480 E6.39428
G1 X160.009 Y35.696 E6.41552
G1 X159.599 Y35.829 E6.43675
G1 X159.170 Y35.874 E6.45799
G1 X158.741 Y35.829 E6.47923
G1 X158.331 Y35.696 E6.50046
G1 X157.957 Y35.480 E6.52170
G1 X157.636 Y35.191 E6.54294
G1 X157.383 Y34.842 E6.56417
G1 X157.207 Y34.448 E6.58540
G1 X157.117 Y34.026 E6.60664
G1 X157.117 Y33.594 E6.62788
G1 X157.144 Y33.470 E6.63411
G1 X157.533 Y33.492 F9000.000
G1 X157.576 Y33.292 E6.64417 F600.000
G1 X157.718 Y32.972 E6.66141
G1 X157.924 Y32.688 E6.67866
G1 X158.185 Y32.454 E6.69591
G1 X158.489 Y32.278 E6.71319
G1 X158.834 Y32.169 E6.73099
G1 X159.170 Y32.134 E6.74763 F600.000
G1 X159.519 Y32.170 E6.76488
G1 X159.852 Y32.279 E6.78212
G1 X160.155 Y32.454 E6.79937
G1 X160.416 Y32.688 E6.81662
G1 X160.622 Y32.972 E6.83386
G1 X160.764 Y33.292 E6.85111
G1 X160.837 Y33.635 E6.86835
G1 X160.837 Y33.985 E6.88560
G1 X160.764 Y34.328 E6.90285
G1 X160.622 Y34.648 E6.92010
G1 X160.416 Y34.932 E6.93734
G1 X160.155 Y35.166 E6.95459
G1 X159.852 Y35.341 E6.97183
G1 X159.519 Y35.450 E6.98908
G1 X159.170 Y35.486 E7.00633
G1 X158.821 Y35.450 E7.02357
G1 X158.488 Y35.341 E7.04082
G1 X158.185 Y35.166 E7.05806
G1 X157.924 Y34.932 E7.07531
G1 X157.718 Y34.648 E7.09256
G1 X157.576 Y34.328 E7.10980
G1 X157.503 Y33.985 E7.12705
G1 X157.503 Y33.635 E7.14430
G1 X157.521 Y33.551 E7.14853
G1 X157.381 Y33.355 F9000.000
G1 E1.14853 F1800.00000
G92 E0
G1 X168.117 Y33.594 F9000.000
G1 E6.00000 F1800.00000
G1 X168.207 Y33.172 E6.02124 F600.000
G1 X168.383 Y32.778 E6.04247
G1 X168.636 Y32.429 E6.06370
G1 X168.957 Y32.140 E6.08494
G1 X169.333 Y31.923 E6.10629
G1 X169.754 Y31.790 E6.12807
G1 X170.170 Y31.746 E6.14864 F600.000
G1 X170.599 Y31.791 E6.16988
G1 X171.010 Y31.924 E6.19111
G1 X171.383 Y32.140 E6.21234
G1 X171.704 Y32.429 E6.23359
G1 X171.957 Y32.778 E6.25482
G1 X172.133 Y33.172 E6.27604
G1 X172.223 Y33.594 E6.29728
G1 X172.223 Y34.026 E6.31853
G1 X172.133 Y34.448 E6.33977
G1 X171.957 Y34.842 E6.36099
G1 X171.704 Y35.191 E6.38222
G1 X171.383 Y35.480 E6.40347
G1 X171.010 Y35.695 E6.42470
G1 X170.599 Y35.829 E6.44593
G1 X170.170 Y35.874 E6.46717
G1 X169.741 Y35.829 E6.48841
G1 X169.330 Y35.696 E6.50965
G1 X168.957 Y35.480 E6.53088
G1 X168.636 Y35.191 E6.55212
G1 X168.383 Y34.842 E6.57335
G1 X168.207 Y34.448 E6.59459
G1 X168.117 Y34.026 E6.61582
G1 X168.117 Y33.654 E6.63411
G1 X168.503 Y33.635 F9000.000
G1 X168.576 Y33.292 E6.65135 F600.000
G1 X168.718 Y32.972 E6.66860
G1 X168.924 Y32.688 E6.68584
G1 X169.185 Y32.454 E6.70309
G1 X169.489 Y32.278 E6.72038
G1 X169.834 Y32.169 E6.73817
G1 X170.170 Y32.134 E6.75482 F600.000
G1 X170.519 Y32.170 E6.77207
G1 X170.852 Y32.279 E6.78931
G1 X171.155 Y32.454 E6.80656
G1 X171.416 Y32.688 E6.82381
G1 X171.622 Y32.972 E6.84105
G1 X171.764 Y33.292 E6.85829
G1 X171.837 Y33.635 E6.87554
G1 X171.837 Y33.985 E6.89279
G1 X171.764 Y34.328 E6.91004
G1 X171.622 Y34.648 E6.92728
G1 X171.416 Y34.932 E6.94453
G1 X171.155 Y35.166 E6.96178
G1 X170.852 Y35.341 E6.97902
G1 X170.519 Y35.450 E6.99627
G1 X170.170 Y35.486 E7.01352
G1 X169.821 Y35.450 E7.03076
G1 X169.488 Y35.341 E7.04801
G1 X169.185 Y35.166 E7.06526
G1 X168.924 Y34.932 E7.08250
G1 X168.718 Y34.648 E7.09975
G1 X168.576 Y34.328 E7.11699
G1 X168.503 Y33.985 E7.13424
G1 X168.503 Y33.695 E7.14854
G1 X168.227 Y33.419 F9000.000
G1 E1.14854 F1800.00000
G92 E0
G1 X171.486 Y36.064 F9000.000
G1 E6.00000 F1800.00000
G1 X171.440 Y35.892 E6.00874 F600.000
G1 X171.611 Y35.794 E6.01846
G1 X171.992 Y35.450 E6.04369
G1 X172.264 Y35.076 E6.06645
G1 X172.424 Y35.128 E6.07473
G1 X172.424 Y36.064 E6.12077
G1 X171.546 Y36.064 E6.16397
G1 E0.16397 F1800.00000
G92 E0
G1 X172.424 Y6.992 F9000.000
G1 E6.00000 F1800.00000
G1 X172.264 Y7.044 E6.00827 F600.000
G1 X171.992 Y6.670 E6.03104
G1 X171.611 Y6.327 E6.05627
G1 X171.440 Y6.228 E6.06599
G1 X171.486 Y6.056 E6.07473
G1 X172.424 Y6.056 E6.12088
G1 X172.424 Y6.932 E6.16398
G1 X171.957 Y7.278 F9000.000
G1 X172.133 Y7.672 E6.18520 F600.000
G1 X172.223 Y8.094 E6.20644
G1 X172.223 Y8.526 E6.22768
G1 X172.133 Y8.948 E6.24892
G1 X171.957 Y9.342 E6.27015
G1 X171.704 Y9.691 E6.29139
G1 X171.383 Y9.980 E6.31262
G1 X171.010 Y10.196 E6.33386
G1 X170.599 Y10.329 E6.35509
G1 X170.170 Y10.374 E6.37633
G1 X169.741 Y10.329 E6.39757
G1 X169.330 Y10.196 E6.41881
G1 X168.957 Y9.980 E6.44004
G1 X168.636 Y9.691 E6.46128
G1 X168.383 Y9.342 E6.48251
G1 X168.207 Y8.948 E6.50375
G1 X168.117 Y8.526 E6.52498
G1 X168.117 Y8.094 E6.54622
G1 X168.207 Y7.672 E6.56745
G1 X168.383 Y7.278 E6.58869
G1 X168.636 Y6.929 E6.60993
G1 X168.957 Y6.640 E6.63116
G1 X169.332 Y6.423 E6.65251
G1 X169.754 Y6.290 E6.67430
G1 X170.170 Y6.246 E6.69486 F600.000
G1 X170.599 Y6.291 E6.71610
G1 X171.010 Y6.424 E6.73733
G1 X171.383 Y6.640 E6.75857
G1 X171.704 Y6.929 E6.77980
G1 X171.922 Y7.230 E6.79809
G1 X171.622 Y7.472 F9000.000
G1 X171.764 Y7.792 E6.81533 F600.000
G1 X171.837 Y8.135 E6.83258
G1 X171.837 Y8.485 E6.84983
G1 X171.764 Y8.828 E6.86707
G1 X171.622 Y9.148 E6.88432
G1 X171.416 Y9.432 E6.90156
G1 X171.155 Y9.666 E6.91881
G1 X170.852 Y9.841 E6.93606
G1 X170.519 Y9.950 E6.95330
G1 X170.170 Y9.986 E6.97055
G1 X169.821 Y9.950 E6.98780
G1 X169.488 Y9.841 E7.00505
G1 X169.185 Y9.666 E7.02229
G1 X168.924 Y9.432 E7.03954
G1 X168.718 Y9.148 E7.05678
G1 X168.576 Y8.828 E7.07403
G1 X168.503 Y8.485 E7.09128
G1 X168.503 Y8.135 E7.10852
G1 X168.576 Y7.792 E7.12577
G1 X168.718 Y7.472 E7.14301
G1 X168.924 Y7.188 E7.16026
G1 X169.185 Y6.954 E7.17751
G1 X169.489 Y6.778 E7.19479
G1 X169.834 Y6.669 E7.21259
G1 X170.170 Y6.634 E7.22924 F600.000
G1 X170.519 Y6.670 E7.24648
G1 X170.852 Y6.779 E7.26373
G1 X171.155 Y6.954 E7.28098
G1 X171.416 Y7.188 E7.29822
G1 X171.586 Y7.423 E7.31251
G1 X171.972 Y7.484 F9000.000
G1 E1.31251 F1800.00000
G92 E0
G1 X161.223 Y8.094 F9000.000
G1 E6.00000 F1800.00000
G1 X161.223 Y8.526 E6.02124 F600.000
G1 X161.133 Y8.948 E6.04247
G1 X160.957 Y9.342 E6.06371
G1 X160.704 Y9.691 E6.08494
G1 X160.383 Y9.980 E6.10618
G1 X160.010 Y10.196 E6.12741
G1 X159.599 Y10.329 E6.14865
G1 X159.170 Y10.374 E6.16989
G1 X158.741 Y10.329 E6.19112
G1 X158.331 Y10.196 E6.21236
G1 X157.957 Y9.980 E6.23359
G1 X157.636 Y9.691 E6.25483
G1 X157.383 Y9.342 E6.27607
G1 X157.207 Y8.948 E6.29730
G1 X157.117 Y8.526 E6.31854
G1 X157.117 Y8.094 E6.33977
G1 X157.207 Y7.672 E6.36101
G1 X157.383 Y7.278 E6.38224
G1 X157.636 Y6.929 E6.40348
G1 X157.957 Y6.640 E6.42472
G1 X158.333 Y6.423 E6.44607
G1 X158.754 Y6.290 E6.46785
G1 X159.170 Y6.246 E6.48841 F600.000
G1 X159.599 Y6.291 E6.50965
G1 X160.010 Y6.424 E6.53088
G1 X160.383 Y6.640 E6.55212
G1 X160.704 Y6.929 E6.57335
G1 X160.957 Y7.278 E6.59459
G1 X161.133 Y7.672 E6.61583
G1 X161.210 Y8.036 E6.63411
G1 X160.837 Y8.135 F9000.000
G1 X160.837 Y8.485 E6.65136 F600.000
G1 X160.764 Y8.828 E6.66860
G1 X160.622 Y9.148 E6.68585
G1 X160.416 Y9.432 E6.70309
G1 X160.155 Y9.666 E6.72034
G1 X159.852 Y9.841 E6.73759
G1 X159.519 Y9.950 E6.75483
G1 X159.170 Y9.986 E6.77208
G1 X158.821 Y9.950 E6.78933
G1 X158.488 Y9.841 E6.80657
G1 X158.185 Y9.666 E6.82382
G1 X157.924 Y9.432 E6.84107
G1 X157.718 Y9.148 E6.85831
G1 X157.576 Y8.828 E6.87556
G1 X157.503 Y8.485 E6.89281
G1 X157.503 Y8.135 E6.91005
G1 X157.576 Y7.792 E6.92730
G1 X157.718 Y7.472 E6.94454
G1 X157.924 Y7.188 E6.96179
G1 X158.185 Y6.954 E6.97904
G1 X158.489 Y6.778 E6.99633
G1 X158.834 Y6.669 E7.01412
G1 X159.170 Y6.634 E7.03077 F600.000
G1 X159.519 Y6.670 E7.04801
G1 X159.852 Y6.779 E7.06526
G1 X160.155 Y6.954 E7.08250
G1 X160.416 Y7.188 E7.09975
G1 X160.622 Y7.472 E7.11700
G1 X160.764 Y7.792 E7.13424
G1 X160.825 Y8.076 E7.14854
G1 X161.152 Y8.288 F9000.000
G1 E1.14854 F1800.00000
G92 E0
G1 X123.223 Y8.135 F9000.000
G1 E6.00000 F1800.00000
G1 X123.223 Y8.526 E6.01924 F600.000
G1 X123.133 Y8.948 E6.04048
G1 X122.957 Y9.342 E6.06171
G1 X122.704 Y9.691 E6.08294
G1 X122.383 Y9.980 E6.10418
G1 X122.010 Y10.196 E6.12542
G1 X121.599 Y10.329 E6.14666
G1 X121.170 Y10.374 E6.16789
G1 X120.741 Y10.329 E6.18913
G1 X120.330 Y10.196 E6.21037
G1 X119.957 Y9.980 E6.23160
G1 X119.636 Y9.691 E6.25284
G1 X119.383 Y9.342 E6.27407
G1 X119.207 Y8.948 E6.29530
G1 X119.117 Y8.526 E6.31654
G1 X119.117 Y8.094 E6.33778
G1 X119.207 Y7.672 E6.35902
G1 X119.383 Y7.278 E6.38025
G1 X119.636 Y6.929 E6.40148
G1 X119.957 Y6.640 E6.42272
G1 X120.332 Y6.423 E6.44407
G1 X120.754 Y6.290 E6.46585
G1 X121.170 Y6.246 E6.48642 F600.000
G1 X121.599 Y6.291 E6.50765
G1 X122.010 Y6.424 E6.52889
G1 X122.383 Y6.640 E6.55013
G1 X122.704 Y6.929 E6.57136
G1 X122.957 Y7.278 E6.59260
G1 X123.133 Y7.672 E6.61383
G1 X123.219 Y8.075 E6.63411
G1 X122.837 Y8.135 F9000.000
G1 X122.837 Y8.485 E6.65136 F600.000
G1 X122.764 Y8.828 E6.66861
G1 X122.622 Y9.148 E6.68585
G1 X122.416 Y9.432 E6.70309
G1 X122.155 Y9.666 E6.72034
G1 X121.852 Y9.841 E6.73759
G1 X121.519 Y9.950 E6.75483
G1 X121.170 Y9.986 E6.77208
G1 X120.821 Y9.950 E6.78933
G1 X120.488 Y9.841 E6.80658
G1 X120.185 Y9.666 E6.82382
G1 X119.924 Y9.432 E6.84107
G1 X119.718 Y9.148 E6.85831
G1 X119.576 Y8.828 E6.87556
G1 X119.503 Y8.485 E6.89281
G1 X119.503 Y8.135 E6.91006
G1 X119.576 Y7.792 E6.92730
G1 X119.718 Y7.472 E6.94455
G1 X119.924 Y7.188 E6.96179
G1 X120.185 Y6.954 E6.97904
G1 X120.489 Y6.778 E6.99633
G1 X120.834 Y6.669 E7.01412
G1 X121.170 Y6.634 E7.03077 F600.000
G1 X121.519 Y6.670 E7.04801
G1 X121.852 Y6.779 E7.06526
G1 X122.155 Y6.954 E7.08251
G1 X122.416 Y7.188 E7.09976
G1 X122.622 Y7.472 E7.11700
G1 X122.764 Y7.792 E7.13424
G1 X122.825 Y8.076 E7.14854
G1 X123.152 Y8.288 F9000.000
G1 X122.486 Y6.056 F9000.000
G1 X157.854 Y6.056 E8.88918 F600.000
G1 X157.900 Y6.228 E8.89792
G1 X157.729 Y6.327 E8.90765
G1 X157.348 Y6.669 E8.93287
G1 X157.047 Y7.084 E8.95810
G1 X156.838 Y7.552 E8.98332
G1 X156.732 Y8.054 E9.00855
G1 X156.732 Y8.566 E9.03377
G1 X156.838 Y9.068 E9.05900
G1 X157.047 Y9.536 E9.08422
G1 X157.348 Y9.951 E9.10945
G1 X157.729 Y10.293 E9.13467
G1 X158.173 Y10.550 E9.15990
G1 X158.660 Y10.708 E9.18512
G1 X159.170 Y10.762 E9.21035
G1 X159.680 Y10.708 E9.23557
G1 X160.167 Y10.550 E9.26080
G1 X160.611 Y10.293 E9.28602
G1 X160.992 Y9.951 E9.31125
G1 X161.293 Y9.536 E9.33647
G1 X161.502 Y9.068 E9.36170
G1 X161.608 Y8.566 E9.38692
G1 X161.608 Y8.054 E9.41215
G1 X161.502 Y7.552 E9.43737
G1 X161.293 Y7.084 E9.46260
G1 X160.992 Y6.669 E9.48783
G1 X160.611 Y6.327 E9.51305
G1 X160.440 Y6.228 E9.52277
G1 X160.486 Y6.056 E9.53151
G1 X168.854 Y6.056 E9.94335
G1 X168.900 Y6.228 E9.95209
G1 X168.729 Y6.327 E9.96181
G1 X168.348 Y6.669 E9.98704
G1 X168.047 Y7.084 E10.01226
G1 X167.838 Y7.552 E10.03749
G1 X167.732 Y8.054 E10.06271
G1 X167.732 Y8.566 E10.08794
G1 X167.838 Y9.068 E10.11316
G1 X168.047 Y9.536 E10.13839
G1 X168.348 Y9.951 E10.16361
G1 X168.729 Y10.293 E10.18883
G1 X169.173 Y10.550 E10.21406
G1 X169.660 Y10.708 E10.23929
G1 X170.170 Y10.762 E10.26451
G1 X170.680 Y10.708 E10.28974
G1 X171.167 Y10.550 E10.31497
G1 X171.611 Y10.293 E10.34019
G1 X171.992 Y9.950 E10.36542
G1 X172.264 Y9.576 E10.38818
G1 X172.424 Y9.628 E10.39646
G1 X172.424 Y32.492 E11.52169
G1 X172.264 Y32.544 E11.52997
G1 X171.992 Y32.170 E11.55273
G1 X171.611 Y31.826 E11.57796
G1 X171.167 Y31.570 E11.60319
G1 X170.680 Y31.412 E11.62841
G1 X170.170 Y31.358 E11.65364
G1 X169.675 Y31.410 E11.67812
G1 X169.176 Y31.568 E11.70389
G1 X168.729 Y31.826 E11.72930
G1 X168.348 Y32.170 E11.75453
G1 X168.047 Y32.584 E11.77975
G1 X167.838 Y33.052 E11.80497
G1 X167.732 Y33.554 E11.83020
G1 X167.732 Y34.066 E11.85543
G1 X167.838 Y34.568 E11.88065
G1 X168.047 Y35.036 E11.90588
G1 X168.348 Y35.450 E11.93110
G1 X168.729 Y35.794 E11.95633
G1 X168.900 Y35.892 E11.96605
G1 X168.854 Y36.064 E11.97478
G1 X160.486 Y36.064 E12.38662
G1 X160.440 Y35.892 E12.39536
G1 X160.611 Y35.794 E12.40508
G1 X160.992 Y35.450 E12.43031
G1 X161.293 Y35.036 E12.45553
G1 X161.502 Y34.568 E12.48075
G1 X161.608 Y34.066 E12.50598
G1 X161.608 Y33.554 E12.53121
G1 X161.502 Y33.052 E12.55643
G1 X161.293 Y32.584 E12.58166
G1 X160.992 Y32.170 E12.60688
G1 X160.611 Y31.826 E12.63211
G1 X160.167 Y31.570 E12.65733
G1 X159.680 Y31.412 E12.68255
G1 X159.170 Y31.358 E12.70778
G1 X158.675 Y31.410 E12.73226
G1 X158.176 Y31.568 E12.75803
G1 X157.729 Y31.826 E12.78344
G1 X157.348 Y32.170 E12.80867
G1 X157.047 Y32.584 E12.83389
G1 X156.838 Y33.052 E12.85912
G1 X156.732 Y33.554 E12.88434
G1 X156.732 Y34.066 E12.90957
G1 X156.838 Y34.568 E12.93480
G1 X157.047 Y35.036 E12.96002
G1 X157.348 Y35.450 E12.98524
G1 X157.729 Y35.794 E13.01047
G1 X157.900 Y35.892 E13.02019
G1 X157.854 Y36.064 E13.02893
G1 X122.487 Y36.064 E14.76950
G1 X122.440 Y35.894 E14.77816
G1 X122.618 Y35.787 E14.78837
G1 X122.992 Y35.450 E14.81315
G1 X123.293 Y35.036 E14.83836
G1 X123.502 Y34.568 E14.86358
G1 X123.608 Y34.066 E14.88880
G1 X123.608 Y33.554 E14.91405
G1 X123.502 Y33.052 E14.93927
G1 X123.293 Y32.584 E14.96449
G1 X122.992 Y32.170 E14.98970
G1 X122.611 Y31.826 E15.01494
G1 X122.167 Y31.570 E15.04016
G1 X121.680 Y31.412 E15.06538
G1 X121.170 Y31.358 E15.09061
G1 X120.675 Y31.410 E15.11510
G1 X120.176 Y31.568 E15.14087
G1 X119.729 Y31.826 E15.16628
G1 X119.348 Y32.170 E15.19151
G1 X119.047 Y32.584 E15.21673
G1 X118.838 Y33.052 E15.24194
G1 X118.732 Y33.554 E15.26717
G1 X118.732 Y34.066 E15.29241
G1 X118.838 Y34.568 E15.31764
G1 X119.047 Y35.036 E15.34285
G1 X119.348 Y35.450 E15.36807
G1 X119.729 Y35.794 E15.39331
G1 X119.900 Y35.892 E15.40303
G1 X119.854 Y36.064 E15.41176
G1 X111.486 Y36.064 E15.82360
G1 X111.440 Y35.892 E15.83233
G1 X111.611 Y35.794 E15.84205
G1 X111.992 Y35.450 E15.86729
G1 X112.293 Y35.036 E15.89251
G1 X112.502 Y34.568 E15.91772
G1 X112.608 Y34.066 E15.94295
G1 X112.608 Y33.554 E15.96819
G1 X112.502 Y33.052 E15.99342
G1 X112.293 Y32.584 E16.01863
G1 X111.992 Y32.170 E16.04385
G1 X111.611 Y31.826 E16.06908
G1 X111.167 Y31.570 E16.09431
G1 X110.680 Y31.412 E16.11953
G1 X110.170 Y31.358 E16.14476
G1 X109.675 Y31.410 E16.16924
G1 X109.176 Y31.568 E16.19501
G1 X108.729 Y31.826 E16.22042
G1 X108.348 Y32.170 E16.24566
G1 X108.076 Y32.544 E16.26841
G1 X107.916 Y32.492 E16.27669
G1 X107.916 Y9.628 E17.40192
G1 X108.076 Y9.576 E17.41020
G1 X108.348 Y9.950 E17.43296
G1 X108.729 Y10.293 E17.45819
G1 X109.173 Y10.550 E17.48341
G1 X109.660 Y10.708 E17.50864
G1 X110.170 Y10.762 E17.53387
G1 X110.680 Y10.708 E17.55909
G1 X111.167 Y10.550 E17.58432
G1 X111.611 Y10.293 E17.60954
G1 X111.992 Y9.950 E17.63477
G1 X112.293 Y9.536 E17.66000
G1 X112.502 Y9.068 E17.68521
G1 X112.608 Y8.566 E17.71044
G1 X112.608 Y8.054 E17.73567
G1 X112.502 Y7.552 E17.76090
G1 X112.293 Y7.084 E17.78612
G1 X111.992 Y6.670 E17.81134
G1 X111.611 Y6.327 E17.83657
G1 X111.440 Y6.228 E17.84629
