; generated by Slic3r 1.2.9 on 2018-05-12 at 14:56:43

; external perimeters extrusion width = 0.40mm
; perimeters extrusion width = 0.62mm
; infill extrusion width = 0.33mm
; solid infill extrusion width = 0.62mm
; top infill extrusion width = 0.20mm

M106 S256; Turn on fan to 100% power
M104 S140; turn on extruder temperature at S value
M140 S60; turn on bed temperature at S value
G28; home all axes
M84; disable motors
G1 Z15 F15000; have Z move to 20mm at 15000 mm/min
M190 S55; turn on bed temperature at S value and wait
M140 S55; turn on bed temperature at S value (printing temperature)
M109 S200; turn on extruder temperature at S value and wait (printing temperature)
M104 S200; turn on extruder temperature at S value
G1 Z0 F12000; move Z back to home
G21 ; set units to millimeters
G90 ; use absolute coordinates
M82 ; use absolute distances for extrusion
G92 E0
M106 S255
;Layer change
G1 E-6.00000 F1800.00000
G92 E0
G1 Z0.300 F9000.000
G1 X101.829 Y8.273 F9000.000
G1 E6.00000 F1800.00000
G1 X101.932 Y7.605 E6.03329 F600.000
G1 X102.119 Y6.955 E6.06655
G1 X102.257 Y6.604 E6.08510
G1 X102.566 Y6.003 E6.11837
G1 X102.727 Y5.750 E6.13312
G1 X103.139 Y5.215 E6.16638
G1 X103.397 Y4.940 E6.18492
G1 X103.906 Y4.495 E6.21817
G1 X104.148 Y4.319 E6.23293
G1 X104.729 Y3.972 E6.26620
G1 X105.070 Y3.812 E6.28475
G1 X105.707 Y3.585 E6.31802
G1 X105.997 Y3.511 E6.33276
G1 X106.664 Y3.403 E6.36603
G1 X107.190 Y3.374 E6.39194
G1 X167.340 Y3.379 E9.35222
G1 X168.013 Y3.440 E9.38549 F600.000
G1 X168.383 Y3.511 E9.40403
G1 X168.673 Y3.585 E9.41878
G1 X169.310 Y3.812 E9.45205
G1 X169.914 Y4.117 E9.48532
G1 X170.232 Y4.319 E9.50386
G1 X170.474 Y4.495 E9.51862
G1 X170.983 Y4.940 E9.55187
G1 X171.431 Y5.445 E9.58512
G1 X171.653 Y5.750 E9.60367
G1 X171.820 Y6.015 E9.61911
G1 X172.123 Y6.604 E9.65169
G1 X172.261 Y6.955 E9.67023
G1 X172.448 Y7.605 E9.70350
G1 X172.504 Y7.899 E9.71826
G1 X172.570 Y8.572 E9.75152
G1 X172.570 Y34.448 E11.02505
G1 X172.504 Y35.121 E11.05831
G1 X172.354 Y35.780 E11.09158
G1 X172.261 Y36.065 E11.10634
G1 X171.995 Y36.686 E11.13959
G1 X171.814 Y37.017 E11.15813
G1 X171.431 Y37.575 E11.19142
G1 X171.240 Y37.805 E11.20616
G1 X170.765 Y38.285 E11.23939
G1 X170.231 Y38.702 E11.27271
G1 X169.651 Y39.048 E11.30596
G1 X169.310 Y39.208 E11.32451
G1 X168.674 Y39.435 E11.35775
G1 X168.383 Y39.509 E11.37255
G1 X167.716 Y39.617 E11.40577
G1 X167.190 Y39.646 E11.43170
G1 X107.190 Y39.646 E14.38461
G1 X106.664 Y39.617 E14.41053
G1 X105.997 Y39.509 E14.44376
G1 X105.348 Y39.318 E14.47709
G1 X104.729 Y39.047 E14.51033
G1 X104.149 Y38.702 E14.54358
G1 X103.615 Y38.285 E14.57690
G1 X103.140 Y37.805 E14.61013
G1 X102.727 Y37.270 E14.64340
G1 X102.385 Y36.686 E14.67669
G1 X102.119 Y36.066 E14.70993
G1 X101.932 Y35.415 E14.74322
G1 X101.829 Y34.747 E14.77649
G1 X101.810 Y34.448 E14.79123
G1 X101.810 Y8.572 E16.06476
G1 X101.825 Y8.333 E16.07653
G1 E10.07653 F1800.00000
G92 E0
G1 X120.164 Y33.864 F9000.000
G1 E6.00000 F1800.00000
G1 X120.200 Y34.153 E6.01433 F600.000
G1 X120.171 Y34.618 E6.03727
G1 X120.099 Y34.900 E6.05161
G1 X119.900 Y35.322 E6.07457
G1 X119.740 Y35.542 E6.08795
G1 X119.554 Y35.741 E6.10133
G1 X119.177 Y36.015 E6.12429
G1 X118.913 Y36.139 E6.13862
G1 X118.443 Y36.260 E6.16253
G1 X117.937 Y36.260 E6.18740
G1 X117.467 Y36.139 E6.21131
G1 X117.203 Y36.015 E6.22564
G1 X116.810 Y35.729 E6.24954
G1 X116.501 Y35.355 E6.27346
G1 X116.360 Y35.100 E6.28779
G1 X116.216 Y34.656 E6.31075
G1 X116.180 Y34.367 E6.32508
G1 X116.209 Y33.902 E6.34802
G1 X116.281 Y33.620 E6.36236
G1 X116.480 Y33.198 E6.38532
G1 X116.640 Y32.978 E6.39870
G1 X116.826 Y32.779 E6.41208
G1 X117.219 Y32.494 E6.43599
G1 X117.672 Y32.315 E6.45996
G1 X117.965 Y32.260 E6.47464 F600.000
G1 X118.443 Y32.260 E6.49816
G1 X118.913 Y32.381 E6.52206
G1 X119.177 Y32.505 E6.53639
G1 X119.570 Y32.791 E6.56029
G1 X119.879 Y33.165 E6.58421
G1 X120.020 Y33.420 E6.59854
G1 X120.145 Y33.807 E6.61855
G1 X119.786 Y33.948 F9000.000
G1 X119.813 Y34.165 E6.62929 F600.000
G1 X119.788 Y34.558 E6.64865
G1 X119.734 Y34.769 E6.65940
G1 X119.567 Y35.125 E6.67877
G1 X119.442 Y35.296 E6.68916
G1 X119.298 Y35.450 E6.69956
G1 X118.980 Y35.681 E6.71892
G1 X118.782 Y35.774 E6.72966
G1 X118.394 Y35.874 E6.74938
G1 X117.986 Y35.874 E6.76946
G1 X117.598 Y35.774 E6.78917
G1 X117.400 Y35.681 E6.79992
G1 X117.076 Y35.446 E6.81963
G1 X116.821 Y35.137 E6.83935
G1 X116.716 Y34.946 E6.85010
G1 X116.594 Y34.572 E6.86947
G1 X116.567 Y34.355 E6.88021
G1 X116.592 Y33.962 E6.89957
G1 X116.646 Y33.751 E6.91032
G1 X116.813 Y33.395 E6.92969
G1 X116.938 Y33.224 E6.94008
G1 X117.082 Y33.070 E6.95048
G1 X117.406 Y32.834 E6.97019
G1 X117.779 Y32.687 E6.98993
G1 X118.000 Y32.646 E7.00101 F600.000
G1 X118.394 Y32.646 E7.02038
G1 X118.782 Y32.746 E7.04009
G1 X118.980 Y32.839 E7.05084
G1 X119.304 Y33.074 E7.07055
G1 X119.559 Y33.383 E7.09027
G1 X119.664 Y33.574 E7.10102
G1 X119.767 Y33.891 E7.11743
G1 X119.992 Y34.020 F9000.000
G1 X120.632 Y34.121 F9000.000
G1 X120.304 Y33.009 E7.17447 F600.000
G1 X154.238 Y10.238 E9.18565
G1 X154.786 Y10.692 E9.22071
G1 X155.039 Y10.853 E9.23547
G1 X155.311 Y10.980 E9.25023
G1 X156.051 Y11.221 E9.28851
G1 X156.051 Y31.799 E10.30127
G1 X155.311 Y32.040 E10.33955
G1 X155.039 Y32.167 E10.35431
G1 X154.786 Y32.328 E10.36907
G1 X154.555 Y32.519 E10.38383
G1 X154.350 Y32.738 E10.39859
G1 X154.174 Y32.980 E10.41335
G1 X154.029 Y33.243 E10.42811
G1 X153.919 Y33.522 E10.44287
G1 X153.765 Y34.121 E10.47329
G1 X120.692 Y34.121 E12.10098
G1 X120.920 Y33.735 F9000.000
G1 X120.754 Y33.171 E12.12989 F600.000
G1 X154.213 Y10.719 E14.11299
G1 X154.559 Y11.005 E14.13507
G1 X154.853 Y11.191 E14.15222
G1 X155.169 Y11.340 E14.16937
G1 X155.665 Y11.501 E14.19506
G1 X155.665 Y31.519 E15.18024
G1 X155.169 Y31.680 E15.20593
G1 X154.853 Y31.829 E15.22308
G1 X154.559 Y32.015 E15.24022
G1 X154.291 Y32.237 E15.25737
G1 X154.052 Y32.491 E15.27452
G1 X153.847 Y32.773 E15.29167
G1 X153.679 Y33.079 E15.30882
G1 X153.551 Y33.403 E15.32596
G1 X153.466 Y33.735 E15.34285
G1 X120.980 Y33.735 E16.94163
G1 X120.528 Y33.811 F9000.000
G1 E10.94163 F1800.00000
G92 E0
G1 X108.120 Y31.481 F9000.000
G1 E6.00000 F1800.00000
G1 X107.905 Y31.981 E6.02678 F600.000
G1 X107.436 Y31.861 E6.05059
G1 X107.436 Y31.340 E6.07621
G1 X108.062 Y31.469 E6.10764
G1 X107.891 Y32.375 F9000.000
G1 X108.184 Y32.510 E6.12350 F600.000
G1 X108.570 Y32.791 E6.14701
G1 X108.879 Y33.165 E6.17090
G1 X109.020 Y33.420 E6.18524
G1 X109.164 Y33.864 E6.20820
G1 X109.200 Y34.153 E6.22253
G1 X109.171 Y34.618 E6.24547
G1 X109.099 Y34.900 E6.25981
G1 X108.900 Y35.322 E6.28277
G1 X108.740 Y35.542 E6.29615
G1 X108.554 Y35.741 E6.30953
G1 X108.177 Y36.015 E6.33248
G1 X107.913 Y36.139 E6.34682
G1 X107.443 Y36.260 E6.37073
G1 X106.937 Y36.260 E6.39560
G1 X106.467 Y36.139 E6.41951
G1 X106.203 Y36.015 E6.43384
G1 X105.810 Y35.729 E6.45774
G1 X105.501 Y35.355 E6.48165
G1 X105.360 Y35.100 E6.49599
G1 X105.216 Y34.656 E6.51895
G1 X105.180 Y34.367 E6.53328
G1 X105.209 Y33.902 E6.55622
G1 X105.281 Y33.620 E6.57054
G1 X105.476 Y33.205 E6.59311
G1 X105.639 Y32.979 E6.60683
G1 X105.826 Y32.779 E6.62028
G1 X106.219 Y32.494 E6.64419
G1 X106.672 Y32.315 E6.66816
G1 X106.965 Y32.260 E6.68284 F600.000
G1 X107.443 Y32.260 E6.70636
G1 X107.833 Y32.361 E6.72616
G1 X107.782 Y32.746 F9000.000
G1 X107.986 Y32.843 E6.73724 F600.000
G1 X108.304 Y33.074 E6.75660
G1 X108.559 Y33.383 E6.77631
G1 X108.664 Y33.574 E6.78706
G1 X108.786 Y33.948 E6.80643
G1 X108.813 Y34.165 E6.81717
G1 X108.788 Y34.558 E6.83653
G1 X108.734 Y34.769 E6.84728
G1 X108.567 Y35.125 E6.86665
G1 X108.442 Y35.296 E6.87704
G1 X108.298 Y35.450 E6.88744
G1 X107.980 Y35.681 E6.90680
G1 X107.782 Y35.774 E6.91755
G1 X107.394 Y35.874 E6.93727
G1 X106.986 Y35.874 E6.95734
G1 X106.598 Y35.774 E6.97706
G1 X106.400 Y35.681 E6.98780
G1 X106.076 Y35.446 E7.00752
G1 X105.821 Y35.137 E7.02724
G1 X105.716 Y34.946 E7.03798
G1 X105.594 Y34.572 E7.05735
G1 X105.567 Y34.355 E7.06809
G1 X105.592 Y33.962 E7.08745
G1 X105.646 Y33.751 E7.09819
G1 X105.810 Y33.401 E7.11721
G1 X105.937 Y33.224 E7.12794
G1 X106.082 Y33.070 E7.13836
G1 X106.406 Y32.834 E7.15807
G1 X106.779 Y32.687 E7.17781
G1 X107.000 Y32.646 E7.18889 F600.000
G1 X107.394 Y32.646 E7.20826
G1 X107.724 Y32.731 E7.22505
G1 X107.959 Y32.607 F9000.000
G1 X108.285 Y32.073 F9000.000
G1 X116.997 Y11.878 E8.30745 F600.000
G1 X118.051 Y12.096 E8.36042
G1 X118.051 Y31.799 E9.33012
G1 X117.311 Y32.040 E9.36840
G1 X117.039 Y32.167 E9.38317
G1 X116.786 Y32.328 E9.39792
G1 X116.555 Y32.519 E9.41268
G1 X116.350 Y32.738 E9.42744
G1 X116.174 Y32.980 E9.44220
G1 X116.029 Y33.243 E9.45696
G1 X115.919 Y33.522 E9.47172
G1 X115.765 Y34.121 E9.50214
G1 X109.615 Y34.121 E9.80483
G1 X109.461 Y33.522 E9.83525
G1 X109.351 Y33.243 E9.85000
G1 X109.206 Y32.980 E9.86476
G1 X109.030 Y32.738 E9.87952
G1 X108.825 Y32.519 E9.89429
G1 X108.332 Y32.111 E9.92579
G1 X108.754 Y31.960 F9000.000
G1 X117.226 Y12.319 E10.97851 F600.000
G1 X117.665 Y12.410 E11.00055
G1 X117.665 Y31.519 E11.94100
G1 X117.169 Y31.680 E11.96669
G1 X116.853 Y31.829 E11.98384
G1 X116.559 Y32.015 E12.00099
G1 X116.291 Y32.237 E12.01813
G1 X116.052 Y32.491 E12.03528
G1 X115.847 Y32.773 E12.05243
G1 X115.679 Y33.079 E12.06958
G1 X115.551 Y33.403 E12.08673
G1 X115.466 Y33.735 E12.10362
G1 X109.914 Y33.735 E12.37686
G1 X109.829 Y33.403 E12.39375
G1 X109.701 Y33.079 E12.41089
G1 X109.533 Y32.773 E12.42804
G1 X109.328 Y32.491 E12.44519
G1 X109.089 Y32.237 E12.46234
G1 X108.800 Y31.998 E12.48080
G1 X108.403 Y31.768 F9000.000
G1 X117.260 Y11.539 F9000.000
G1 X117.467 Y11.057 E12.50661 F600.000
G1 X117.944 Y11.150 E12.53051
G1 X117.944 Y11.680 E12.55658
G1 X117.318 Y11.551 E12.58801
G1 X117.601 Y10.678 F9000.000
G1 X117.219 Y10.526 E12.60828 F600.000
G1 X116.810 Y10.229 E12.63313
G1 X116.501 Y9.855 E12.65704
G1 X116.360 Y9.600 E12.67137
G1 X116.216 Y9.156 E12.69433
G1 X116.180 Y8.868 E12.70864
G1 X116.208 Y8.410 E12.73119
G1 X116.281 Y8.121 E12.74587
G1 X116.480 Y7.698 E12.76890
G1 X116.640 Y7.478 E12.78228
G1 X116.826 Y7.279 E12.79566
G1 X117.219 Y6.994 E12.81957
G1 X117.672 Y6.814 E12.84355
G1 X117.965 Y6.760 E12.85822 F600.000
G1 X118.443 Y6.761 E12.88174
G1 X118.915 Y6.882 E12.90570
G1 X119.184 Y7.010 E12.92037
G1 X119.570 Y7.291 E12.94389
G1 X119.879 Y7.665 E12.96778
G1 X120.020 Y7.920 E12.98211
G1 X120.164 Y8.364 E13.00507
G1 X120.200 Y8.653 E13.01940
G1 X120.171 Y9.118 E13.04235
G1 X120.099 Y9.400 E13.05668
G1 X119.900 Y9.822 E13.07964
G1 X119.740 Y10.042 E13.09302
G1 X119.554 Y10.241 E13.10640
G1 X119.161 Y10.526 E13.13031
G1 X118.709 Y10.705 E13.15422
G1 X118.423 Y10.760 E13.16856
G1 X117.955 Y10.760 E13.19158
G1 X117.657 Y10.700 E13.20654
G1 X117.744 Y10.320 F9000.000
G1 X117.406 Y10.185 E13.22443 F600.000
G1 X117.076 Y9.946 E13.24449
G1 X116.821 Y9.637 E13.26421
G1 X116.716 Y9.446 E13.27495
G1 X116.594 Y9.072 E13.29432
G1 X116.567 Y8.855 E13.30506
G1 X116.591 Y8.470 E13.32407
G1 X116.646 Y8.251 E13.33515
G1 X116.813 Y7.895 E13.35454
G1 X116.938 Y7.724 E13.36493
G1 X117.082 Y7.570 E13.37533
G1 X117.406 Y7.334 E13.39504
G1 X117.779 Y7.187 E13.41479
G1 X118.000 Y7.146 E13.42586 F600.000
G1 X118.394 Y7.146 E13.44523
G1 X118.782 Y7.246 E13.46497
G1 X118.986 Y7.343 E13.47604
G1 X119.304 Y7.574 E13.49541
G1 X119.559 Y7.883 E13.51512
G1 X119.664 Y8.074 E13.52587
G1 X119.786 Y8.448 E13.54523
G1 X119.813 Y8.665 E13.55598
G1 X119.788 Y9.058 E13.57534
G1 X119.734 Y9.269 E13.58609
G1 X119.567 Y9.625 E13.60545
G1 X119.442 Y9.796 E13.61585
G1 X119.298 Y9.950 E13.62624
G1 X118.974 Y10.186 E13.64596
G1 X118.601 Y10.333 E13.66568
G1 X118.387 Y10.374 E13.67642
G1 X117.993 Y10.374 E13.69582
G1 X117.801 Y10.337 E13.70542
G1 X117.471 Y10.560 F9000.000
G1 X118.329 Y11.221 F9000.000
G1 X119.069 Y10.980 E13.74371 F600.000
G1 X119.341 Y10.853 E13.75847
G1 X119.594 Y10.692 E13.77323
G1 X119.825 Y10.501 E13.78798
G1 X120.030 Y10.282 E13.80275
G1 X120.206 Y10.040 E13.81751
G1 X120.351 Y9.777 E13.83227
G1 X120.461 Y9.498 E13.84702
G1 X120.615 Y8.899 E13.87744
G1 X153.748 Y8.899 E15.50809
G1 X154.076 Y10.011 E15.56513
G1 X120.142 Y32.782 E17.57633
G1 X119.594 Y32.328 E17.61138
G1 X119.341 Y32.167 E17.62613
G1 X119.069 Y32.040 E17.64090
G1 X118.329 Y31.799 E17.67918
G1 X118.329 Y11.281 E18.68899
G1 X118.715 Y11.501 F9000.000
G1 X119.211 Y11.340 E18.71468 F600.000
G1 X119.527 Y11.191 E18.73182
G1 X119.821 Y11.005 E18.74897
G1 X120.089 Y10.783 E18.76612
G1 X120.328 Y10.529 E18.78327
G1 X120.533 Y10.247 E18.80042
G1 X120.701 Y9.941 E18.81756
G1 X120.829 Y9.617 E18.83471
G1 X120.914 Y9.285 E18.85160
G1 X153.460 Y9.285 E20.45333
G1 X153.626 Y9.848 E20.48225
G1 X120.166 Y32.301 E22.46535
G1 X119.821 Y32.015 E22.48743
G1 X119.527 Y31.829 E22.50457
G1 X119.211 Y31.680 E22.52173
G1 X118.715 Y31.519 E22.54741
G1 X118.715 Y11.561 E23.52965
G1 X118.632 Y11.110 F9000.000
G1 X117.095 Y10.947 F9000.000
G1 X108.383 Y31.142 E24.61205 F600.000
G1 X107.329 Y30.924 E24.66502
G1 X107.329 Y11.221 E25.63472
G1 X108.069 Y10.980 E25.67301
G1 X108.341 Y10.853 E25.68777
G1 X108.594 Y10.692 E25.70253
G1 X108.825 Y10.501 E25.71728
G1 X109.030 Y10.282 E25.73205
G1 X109.206 Y10.040 E25.74681
G1 X109.351 Y9.777 E25.76157
G1 X109.461 Y9.498 E25.77632
G1 X109.615 Y8.899 E25.80674
G1 X115.765 Y8.899 E26.10943
G1 X115.919 Y9.498 E26.13985
G1 X116.029 Y9.777 E26.15460
G1 X116.174 Y10.040 E26.16936
G1 X116.350 Y10.282 E26.18412
G1 X116.555 Y10.501 E26.19889
G1 X117.048 Y10.909 E26.23039
G1 X116.626 Y11.060 F9000.000
G1 X108.154 Y30.701 E27.28311 F600.000
G1 X107.715 Y30.610 E27.30515
G1 X107.715 Y11.501 E28.24561
G1 X108.211 Y11.340 E28.27130
G1 X108.527 Y11.191 E28.28845
G1 X108.821 Y11.005 E28.30560
G1 X109.089 Y10.783 E28.32274
G1 X109.328 Y10.529 E28.33989
G1 X109.533 Y10.247 E28.35704
G1 X109.701 Y9.941 E28.37419
G1 X109.829 Y9.617 E28.39133
G1 X109.914 Y9.285 E28.40822
G1 X115.466 Y9.285 E28.68146
G1 X115.551 Y9.617 E28.69835
G1 X115.679 Y9.941 E28.71550
G1 X115.847 Y10.247 E28.73265
G1 X116.052 Y10.529 E28.74980
G1 X116.291 Y10.783 E28.76695
G1 X116.580 Y11.022 E28.78541
G1 X116.977 Y11.252 F9000.000
G1 E22.78541 F1800.00000
G92 E0
G1 X109.164 Y9.145 F9000.000
G1 E6.00000 F1800.00000
G1 X109.099 Y9.400 E6.01297 F600.000
G1 X108.900 Y9.822 E6.03593
G1 X108.740 Y10.042 E6.04931
G1 X108.554 Y10.241 E6.06269
G1 X108.161 Y10.526 E6.08660
G1 X107.709 Y10.705 E6.11051
G1 X107.442 Y10.756 E6.12390
G1 X107.171 Y10.773 E6.13728
G1 X106.689 Y10.712 E6.16119
G1 X106.219 Y10.526 E6.18606
G1 X105.810 Y10.229 E6.21092
G1 X105.501 Y9.855 E6.23483
G1 X105.360 Y9.600 E6.24914
G1 X105.218 Y9.164 E6.27171
G1 X105.180 Y8.869 E6.28638
G1 X105.209 Y8.402 E6.30939
G1 X105.281 Y8.120 E6.32373
G1 X105.480 Y7.698 E6.34669
G1 X105.640 Y7.478 E6.36007
G1 X105.826 Y7.279 E6.37345
G1 X106.219 Y6.994 E6.39736
G1 X106.672 Y6.814 E6.42134
G1 X106.965 Y6.760 E6.43601 F600.000
G1 X107.443 Y6.761 E6.45953
G1 X107.915 Y6.882 E6.48349
G1 X108.184 Y7.010 E6.49816
G1 X108.570 Y7.291 E6.52168
G1 X108.879 Y7.665 E6.54557
G1 X109.020 Y7.920 E6.55991
G1 X109.164 Y8.364 E6.58286
G1 X109.200 Y8.653 E6.59719
G1 X109.173 Y9.086 E6.61855
G1 X108.788 Y9.058 F9000.000
G1 X108.734 Y9.269 E6.62930 F600.000
G1 X108.567 Y9.625 E6.64866
G1 X108.442 Y9.796 E6.65906
G1 X108.298 Y9.950 E6.66945
G1 X107.974 Y10.186 E6.68917
G1 X107.601 Y10.333 E6.70889
G1 X107.394 Y10.373 E6.71928
G1 X107.183 Y10.386 E6.72968
G1 X106.785 Y10.336 E6.74940
G1 X106.406 Y10.186 E6.76947
G1 X106.076 Y9.946 E6.78954
G1 X105.821 Y9.637 E6.80926
G1 X105.716 Y9.446 E6.82000
G1 X105.596 Y9.079 E6.83901
G1 X105.567 Y8.856 E6.85009
G1 X105.592 Y8.462 E6.86947
G1 X105.646 Y8.251 E6.88022
G1 X105.813 Y7.895 E6.89959
G1 X105.938 Y7.724 E6.90998
G1 X106.082 Y7.570 E6.92038
G1 X106.406 Y7.334 E6.94009
G1 X106.779 Y7.187 E6.95984
G1 X107.000 Y7.146 E6.97091 F600.000
G1 X107.394 Y7.146 E6.99028
G1 X107.782 Y7.246 E7.01002
G1 X107.986 Y7.343 E7.02109
G1 X108.304 Y7.574 E7.04046
G1 X108.559 Y7.883 E7.06017
G1 X108.664 Y8.074 E7.07092
G1 X108.786 Y8.448 E7.09028
G1 X108.813 Y8.665 E7.10103
G1 X108.792 Y8.998 E7.11744
G1 X108.954 Y9.200 F9000.000
G1 E1.11744 F1800.00000
G92 E0
