; generated by Slic3r 1.2.9 on 2017-05-28 at 12:40:03

; external perimeters extrusion width = 0.40mm
; perimeters extrusion width = 0.62mm
; infill extrusion width = 0.33mm
; solid infill extrusion width = 0.62mm
; top infill extrusion width = 0.20mm

M106 S256; Turn on fan to 100% power
M104 S140; turn on extruder temperature at S value
M140 S60; turn on bed temperature at S value
G28; home all axes
M84; disable motors
G1 Z15 F15000; have Z move to 20mm at 15000 mm/min
M190 S55; turn on bed temperature at S value and wait
M140 S55; turn on bed temperature at S value (printing temperature)
M109 S200; turn on extruder temperature at S value and wait (printing temperature)
M104 S200; turn on extruder temperature at S value
G1 Z0 F12000; move Z back to home
G21 ; set units to millimeters
G90 ; use absolute coordinates
M82 ; use absolute distances for extrusion
G92 E0
M106 S255
;Layer change
G1 E-6.00000 F1800.00000
G92 E0
G1 Z0.300 F9000.000
G1 X53.244 Y74.714 F9000.000
G1 E6.00000 F1800.00000
G1 X53.585 Y74.488 E6.02062 F600.000
G1 X54.123 Y74.182 E6.05176
G1 X54.684 Y73.923 E6.08291
G1 X55.170 Y73.742 E6.10906
G1 X55.562 Y73.624 E6.12967
G1 X56.165 Y73.486 E6.16083
G1 X56.778 Y73.400 E6.19198
G1 X57.370 Y73.366 E6.22188
G1 X127.500 Y73.364 E9.75453
G1 X128.810 Y73.756 E9.82339
G1 X129.689 Y74.802 E9.89224 F600.000
G1 X129.886 Y75.750 E9.94100
G1 X129.886 Y85.750 E10.44473
G1 X129.494 Y87.060 E10.51358
G1 X128.328 Y87.987 E10.58865
G1 X78.328 Y106.487 E13.27417
G1 X77.500 Y106.636 E13.31654
G1 X57.500 Y106.636 E14.32400
G1 X56.678 Y106.589 E14.36546
G1 X55.862 Y106.451 E14.40715
G1 X55.170 Y106.258 E14.44333
G1 X54.401 Y105.954 E14.48501
G1 X53.851 Y105.671 E14.51616
G1 X53.326 Y105.343 E14.54734
G1 X52.754 Y104.908 E14.58352
G1 X52.151 Y104.342 E14.62521
G1 X51.681 Y103.798 E14.66140
G1 X51.376 Y103.378 E14.68754
G1 X51.052 Y102.851 E14.71870
G1 X50.863 Y102.489 E14.73930
G1 X50.615 Y101.922 E14.77045
G1 X50.444 Y101.432 E14.79659
G1 X50.287 Y100.834 E14.82774
G1 X50.210 Y100.432 E14.84836
G1 X50.137 Y99.818 E14.87951
G1 X50.114 Y99.250 E14.90816
G1 X50.123 Y80.391 E15.85815
G1 X50.210 Y79.568 E15.89984
G1 X50.359 Y78.865 E15.93603
G1 X50.615 Y78.078 E15.97773
G1 X50.774 Y77.701 E15.99834
G1 X51.004 Y77.236 E16.02446
G1 X51.209 Y76.882 E16.04508
G1 X51.490 Y76.458 E16.07068
G1 X51.942 Y75.887 E16.10739
G1 X52.521 Y75.295 E16.14908
G1 X52.831 Y75.028 E16.16969
G1 X53.196 Y74.750 E16.19280
G1 E10.19280 F1800.00000
G92 E0
G1 X75.115 Y102.514 F9000.000
G1 E6.00000 F1800.00000
G1 X72.475 Y102.514 E6.13298 F600.000
G1 X72.475 Y100.498 E6.23454
G1 X71.876 Y100.498 E6.26469
G1 X71.876 Y102.514 E6.36624
G1 X69.236 Y102.514 E6.49922
G1 X69.236 Y98.275 E6.71275
G1 X68.105 Y98.275 E6.76972
G1 X68.105 Y102.514 E6.98326
G1 X62.904 Y102.514 E7.24528
G1 X62.904 Y99.993 E7.37229
G1 X63.829 Y99.993 E7.41890
G1 X63.828 Y99.171 E7.46031
G1 X61.369 Y98.757 E7.58593
G1 X61.762 Y97.259 E7.66395
G1 X61.914 Y96.910 E7.68311
G1 X62.109 Y96.596 E7.70175
G1 X62.371 Y96.298 E7.72173
G1 X62.791 Y95.991 E7.74795
G1 X63.152 Y95.831 E7.76786
G1 X63.523 Y95.733 E7.78719
G1 X64.029 Y95.688 E7.81278
G1 X64.369 Y95.704 E7.82989
G1 X64.760 Y95.774 E7.84994
G1 X65.146 Y95.912 E7.87059
G1 X65.465 Y96.098 E7.88918
G1 X65.465 Y95.754 E7.90652
G1 X71.876 Y95.754 E8.22946
G1 X71.876 Y97.963 E8.34076
G1 X72.475 Y97.963 E8.37091
G1 X72.475 Y95.754 E8.48221
G1 X75.115 Y95.754 E8.61519
G1 X75.115 Y102.454 E8.95271
G1 X74.729 Y102.129 F9000.000
G1 X72.860 Y102.129 E9.04685 F600.000
G1 X72.860 Y100.113 E9.14840
G1 X71.491 Y100.113 E9.21740
G1 X71.491 Y102.129 E9.31895
G1 X69.622 Y102.129 E9.41309
G1 X69.622 Y97.890 E9.62662
G1 X67.720 Y97.890 E9.72244
G1 X67.720 Y102.129 E9.93597
G1 X63.289 Y102.129 E10.15914
G1 X63.289 Y100.378 E10.24731
G1 X64.215 Y100.378 E10.29393
G1 X64.213 Y98.115 E10.40792
G1 X64.165 Y97.819 E10.42304
G1 X64.001 Y97.835 E10.43133
G1 X63.946 Y97.887 E10.43513
G1 X63.894 Y97.983 E10.44064
G1 X63.691 Y98.757 E10.48093
G1 X61.849 Y98.447 E10.57503
G1 X62.127 Y97.386 E10.63030
G1 X62.256 Y97.090 E10.64653
G1 X62.420 Y96.827 E10.66215
G1 X62.633 Y96.584 E10.67842
G1 X62.985 Y96.327 E10.70041
G1 X63.281 Y96.196 E10.71668
G1 X63.590 Y96.114 E10.73282
G1 X64.037 Y96.074 E10.75544
G1 X64.326 Y96.088 E10.76996
G1 X64.661 Y96.148 E10.78712
G1 X64.983 Y96.263 E10.80436
G1 X65.278 Y96.435 E10.82156
G1 X65.536 Y96.660 E10.83881
G1 X65.695 Y96.862 E10.85177
G1 X65.851 Y96.808 E10.86006
G1 X65.851 Y96.139 E10.89374
G1 X71.491 Y96.139 E11.17783
G1 X71.491 Y98.349 E11.28913
G1 X72.860 Y98.349 E11.35813
G1 X72.860 Y96.139 E11.46943
G1 X74.729 Y96.139 E11.56357
G1 X74.729 Y102.069 E11.86224
G1 X74.344 Y101.743 F9000.000
G1 X73.246 Y101.743 E11.91752 F600.000
G1 X73.246 Y99.727 E12.01908
G1 X71.105 Y99.727 E12.12693
G1 X71.105 Y101.743 E12.22848
G1 X70.008 Y101.743 E12.28376
G1 X70.008 Y96.525 E12.54661
G1 X71.105 Y96.525 E12.60189
G1 X71.105 Y98.735 E12.71319
G1 X73.246 Y98.735 E12.82104
G1 X73.246 Y96.525 E12.93234
G1 X74.344 Y96.525 E12.98762
G1 X74.344 Y101.683 E13.24745
G1 X74.344 Y102.143 F9000.000
G1 E7.24745 F1800.00000
G92 E0
G1 X69.757 Y97.504 F9000.000
G1 E6.00000 F1800.00000
G1 X67.334 Y97.504 E6.12203 F600.000
G1 X67.334 Y101.743 E6.33556
G1 X66.237 Y101.743 E6.39084
G1 X66.237 Y96.525 E6.65369
G1 X69.757 Y96.525 E6.83100
G1 X69.757 Y97.444 E6.87730
G1 X69.757 Y97.904 F9000.000
G1 E0.87730 F1800.00000
G92 E0
G1 X65.695 Y101.743 F9000.000
G1 E6.00000 F1800.00000
G1 X63.675 Y101.743 E6.10176 F600.000
G1 X63.675 Y100.764 E6.15107
G1 X64.601 Y100.764 E6.19771
G1 X64.599 Y98.084 E6.33272
G1 X64.551 Y97.793 E6.34756
G1 X64.465 Y97.621 E6.35725
G1 X64.371 Y97.529 E6.36390
G1 X64.233 Y97.461 E6.37162
G1 X64.090 Y97.439 E6.37891
G1 X63.923 Y97.454 E6.38734
G1 X63.768 Y97.523 E6.39588
G1 X63.637 Y97.650 E6.40509
G1 X63.533 Y97.839 E6.41597
G1 X63.408 Y98.318 E6.44089
G1 X62.329 Y98.137 E6.49598
G1 X62.492 Y97.512 E6.52849
G1 X62.598 Y97.270 E6.54179
G1 X62.730 Y97.058 E6.55440
G1 X62.895 Y96.871 E6.56695
G1 X63.179 Y96.662 E6.58471
G1 X63.409 Y96.561 E6.59734
G1 X63.657 Y96.495 E6.61029
G1 X64.046 Y96.461 E6.62994
G1 X64.282 Y96.472 E6.64188
G1 X64.561 Y96.522 E6.65615
G1 X64.820 Y96.614 E6.66997
G1 X65.052 Y96.750 E6.68353
G1 X65.256 Y96.927 E6.69713
G1 X65.424 Y97.140 E6.71081
G1 X65.550 Y97.380 E6.72448
G1 X65.621 Y97.583 E6.73530
G1 X65.677 Y97.865 E6.74974
G1 X65.694 Y98.093 E6.76129
G1 X65.695 Y101.683 E6.94212
G1 X65.695 Y102.143 F9000.000
G1 E0.94212 F1800.00000
G92 E0
G1 X60.324 Y100.238 F9000.000
G1 E6.00000 F1800.00000
G1 X60.291 Y100.355 E6.00612 F600.000
G1 X60.005 Y100.902 E6.03721
G1 X59.676 Y101.315 E6.06379
G1 X59.213 Y101.715 E6.09463
G1 X58.672 Y102.012 E6.12569
G1 X58.175 Y102.174 E6.15204
G1 X57.563 Y102.251 E6.18312
G1 X56.938 Y102.199 E6.21472
G1 X56.337 Y102.017 E6.24631
G1 X55.800 Y101.723 E6.27715
G1 X55.394 Y101.387 E6.30373
G1 X55.007 Y100.919 E6.33431
G1 X54.755 Y100.461 E6.36066
G1 X54.567 Y99.883 E6.39124
G1 X54.501 Y99.360 E6.41782
G1 X54.540 Y98.749 E6.44866
G1 X54.709 Y98.145 E6.48025
G1 X54.995 Y97.598 E6.51133
G1 X55.320 Y97.188 E6.53768
G1 X55.787 Y96.785 E6.56876
G1 X56.328 Y96.488 E6.59984
G1 X56.825 Y96.326 E6.62619
G1 X57.437 Y96.249 E6.65727 F600.000
G1 X58.062 Y96.301 E6.68887
G1 X58.663 Y96.483 E6.72048
G1 X59.204 Y96.780 E6.75157
G1 X59.607 Y97.113 E6.77791
G1 X60.000 Y97.589 E6.80899
G1 X60.291 Y98.145 E6.84060
G1 X60.457 Y98.739 E6.87168
G1 X60.500 Y99.251 E6.89753
G1 X60.456 Y99.766 E6.92358
G1 X60.340 Y100.181 E6.94528
G1 X59.952 Y100.134 F9000.000
G1 X59.930 Y100.213 E6.94937 F600.000
G1 X59.680 Y100.691 E6.97658
G1 X59.397 Y101.047 E6.99947
G1 X58.992 Y101.397 E7.02644
G1 X58.519 Y101.657 E7.05364
G1 X58.090 Y101.796 E7.07631
G1 X57.555 Y101.863 E7.10351
G1 X57.010 Y101.818 E7.13104
G1 X56.487 Y101.660 E7.15855
G1 X56.018 Y101.402 E7.18553
G1 X55.667 Y101.113 E7.20842
G1 X55.327 Y100.702 E7.23532
G1 X55.110 Y100.307 E7.25800
G1 X54.945 Y99.799 E7.28489
G1 X54.889 Y99.348 E7.30779
G1 X54.923 Y98.814 E7.33476
G1 X55.070 Y98.288 E7.36228
G1 X55.320 Y97.809 E7.38948
G1 X55.599 Y97.456 E7.41216
G1 X56.008 Y97.104 E7.43936
G1 X56.481 Y96.843 E7.46656
G1 X56.910 Y96.704 E7.48924
G1 X57.445 Y96.637 E7.51644 F600.000
G1 X57.990 Y96.682 E7.54396
G1 X58.513 Y96.840 E7.57149
G1 X58.986 Y97.100 E7.59869
G1 X59.333 Y97.387 E7.62137
G1 X59.677 Y97.803 E7.64857
G1 X59.930 Y98.288 E7.67610
G1 X60.076 Y98.808 E7.70330
G1 X60.113 Y99.250 E7.72567
G1 X60.075 Y99.697 E7.74825
G1 X59.968 Y100.077 E7.76811
G1 X59.581 Y100.030 F9000.000
G1 X59.355 Y100.480 E7.79345 F600.000
G1 X59.118 Y100.779 E7.81267
G1 X58.770 Y101.078 E7.83577
G1 X58.365 Y101.301 E7.85909
G1 X58.006 Y101.418 E7.87810
G1 X57.547 Y101.476 E7.90142
G1 X57.083 Y101.437 E7.92486
G1 X56.637 Y101.302 E7.94830
G1 X56.235 Y101.082 E7.97141
G1 X55.941 Y100.839 E7.99063
G1 X55.647 Y100.484 E8.01384
G1 X55.465 Y100.153 E8.03284
G1 X55.323 Y99.715 E8.05605
G1 X55.276 Y99.336 E8.07527
G1 X55.305 Y98.879 E8.09838
G1 X55.430 Y98.430 E8.12182
G1 X55.645 Y98.020 E8.14514
G1 X55.879 Y97.724 E8.16415
G1 X56.229 Y97.422 E8.18747
G1 X56.635 Y97.199 E8.21079
G1 X56.994 Y97.082 E8.22980
G1 X57.453 Y97.024 E8.25312 F600.000
G1 X57.917 Y97.063 E8.27656
G1 X58.363 Y97.198 E8.30001
G1 X58.768 Y97.421 E8.32333
G1 X59.059 Y97.661 E8.34234
G1 X59.354 Y98.018 E8.36566
G1 X59.570 Y98.430 E8.38911
G1 X59.694 Y98.876 E8.41243
G1 X59.726 Y99.250 E8.43132
G1 X59.694 Y99.628 E8.45042
G1 X59.597 Y99.973 E8.46845
G1 X59.822 Y100.350 F9000.000
G1 E2.46845 F1800.00000
G92 E0
G1 X76.504 Y103.254 F9000.000
G1 E6.00000 F1800.00000
G1 X57.526 Y103.254 E6.95596 F600.000
G1 X57.087 Y103.231 E6.97812
G1 X56.576 Y103.144 E7.00423
G1 X56.273 Y103.060 E7.02006
G1 X55.786 Y102.867 E7.04643
G1 X55.499 Y102.717 E7.06279
G1 X55.216 Y102.537 E7.07967
G1 X54.957 Y102.341 E7.09604
G1 X54.583 Y101.989 E7.12188
G1 X54.256 Y101.594 E7.14772
G1 X54.076 Y101.324 E7.16408
G1 X53.920 Y101.039 E7.18044
G1 X53.717 Y100.556 E7.20681
G1 X53.623 Y100.245 E7.22317
G1 X53.555 Y99.928 E7.23953
G1 X53.501 Y99.407 E7.26590
G1 X53.501 Y99.093 E7.28174
G1 X53.555 Y98.572 E7.30811
G1 X53.623 Y98.255 E7.32447
G1 X53.720 Y97.934 E7.34136
G1 X53.839 Y97.632 E7.35772
G1 X54.077 Y97.177 E7.38356
G1 X54.370 Y96.756 E7.40940
G1 X54.582 Y96.510 E7.42576
G1 X54.814 Y96.283 E7.44212
G1 X55.224 Y95.957 E7.46849
G1 X55.499 Y95.783 E7.48485
G1 X55.786 Y95.633 E7.50121
G1 X56.273 Y95.440 E7.52758
G1 X56.586 Y95.353 E7.54394
G1 X56.915 Y95.290 E7.56083
G1 X57.516 Y95.246 E7.59115
G1 X76.504 Y95.246 E8.54764
G1 X76.504 Y103.194 E8.94798
G1 X76.889 Y103.639 F9000.000
G1 X57.516 Y103.639 E9.92388 F600.000
G1 X57.044 Y103.615 E9.94767
G1 X56.492 Y103.521 E9.97591
G1 X56.150 Y103.426 E9.99378
G1 X55.626 Y103.218 E10.02218
G1 X55.306 Y103.051 E10.04038
G1 X54.995 Y102.854 E10.05889
G1 X54.708 Y102.636 E10.07709
G1 X54.301 Y102.254 E10.10517
G1 X53.946 Y101.824 E10.13325
G1 X53.746 Y101.524 E10.15144
G1 X53.572 Y101.207 E10.16964
G1 X53.353 Y100.687 E10.19804
G1 X53.249 Y100.341 E10.21624
G1 X53.174 Y99.988 E10.23443
G1 X53.115 Y99.427 E10.26283
G1 X53.115 Y99.073 E10.28070
G1 X53.174 Y98.512 E10.30911
G1 X53.249 Y98.159 E10.32730
G1 X53.355 Y97.807 E10.34582
G1 X53.488 Y97.471 E10.36401
G1 X53.747 Y96.977 E10.39209
G1 X54.065 Y96.519 E10.42018
G1 X54.301 Y96.246 E10.43837
G1 X54.559 Y95.993 E10.45656
G1 X55.001 Y95.643 E10.48497
G1 X55.306 Y95.449 E10.50316
G1 X55.626 Y95.282 E10.52135
G1 X56.150 Y95.074 E10.54976
G1 X56.498 Y94.977 E10.56795
G1 X56.859 Y94.908 E10.58647
G1 X57.510 Y94.861 E10.61933
G1 X76.889 Y94.861 E11.59555
G1 X76.889 Y103.579 E12.03474
G1 X77.275 Y104.025 F9000.000
G1 X57.506 Y104.025 E13.03057 F600.000
G1 X57.002 Y103.999 E13.05599
G1 X56.407 Y103.898 E13.08637
G1 X56.027 Y103.792 E13.10627
G1 X55.465 Y103.569 E13.13671
G1 X55.113 Y103.385 E13.15674
G1 X54.775 Y103.171 E13.17688
G1 X54.458 Y102.930 E13.19691
G1 X54.019 Y102.518 E13.22723
G1 X53.636 Y102.055 E13.25755
G1 X53.416 Y101.723 E13.27758
G1 X53.224 Y101.375 E13.29760
G1 X52.990 Y100.818 E13.32804
G1 X52.875 Y100.437 E13.34807
G1 X52.793 Y100.049 E13.36810
G1 X52.729 Y99.448 E13.39854
G1 X52.729 Y99.052 E13.41844
G1 X52.793 Y98.451 E13.44889
G1 X52.875 Y98.063 E13.46891
G1 X52.991 Y97.680 E13.48905
G1 X53.137 Y97.310 E13.50908
G1 X53.416 Y96.777 E13.53940
G1 X53.760 Y96.282 E13.56972
G1 X54.019 Y95.981 E13.58975
G1 X54.303 Y95.703 E13.60977
G1 X54.777 Y95.328 E13.64022
G1 X55.113 Y95.115 E13.66024
G1 X55.465 Y94.931 E13.68027
G1 X56.027 Y94.708 E13.71071
G1 X56.410 Y94.601 E13.73073
G1 X56.802 Y94.526 E13.75088
G1 X57.201 Y94.484 E13.77108
G1 X57.504 Y94.475 E13.78631
G1 X77.275 Y94.475 E14.78226
G1 X77.275 Y103.965 E15.26030
G1 X76.929 Y103.825 F9000.000
G1 X75.591 Y102.766 F9000.000
G1 X75.795 Y102.970 E15.27485 F600.000
G1 X76.220 Y102.848 E15.29720
G1 X75.591 Y102.219 E15.34213
G1 X75.399 Y101.479 E15.38079
G1 X76.220 Y102.300 E15.43950
G1 X76.220 Y101.753 E15.46716
G1 X75.399 Y100.932 E15.52587
G1 X75.399 Y100.385 E15.55354
G1 X76.220 Y101.206 E15.61225
G1 X76.220 Y100.659 E15.63991
G1 X75.399 Y99.837 E15.69862
G1 X75.399 Y99.290 E15.72628
G1 X76.220 Y100.112 E15.78499
G1 X76.220 Y99.564 E15.81266
G1 X75.399 Y98.743 E15.87137
G1 X75.399 Y98.196 E15.89903
G1 X76.220 Y99.017 E15.95774
G1 X76.220 Y98.470 E15.98540
G1 X75.399 Y97.648 E16.04412
G1 X75.399 Y97.101 E16.07178
G1 X76.220 Y97.923 E16.13049
G1 X76.220 Y97.375 E16.15815
G1 X75.399 Y96.554 E16.21686
G1 X75.401 Y96.009 E16.24442
G1 X76.220 Y96.828 E16.30299
G1 X76.220 Y96.281 E16.33065
G1 X75.591 Y95.652 E16.37558
G1 X76.016 Y95.530 E16.39793
G1 X76.220 Y95.734 E16.41249
G1 X75.308 Y95.500 F9000.000
G1 X72.282 Y95.500 E16.56489 F600.000
G1 X72.176 Y95.546 E16.57075
G1 X72.176 Y97.770 E16.68277
G1 X72.282 Y95.593 F9000.000
G1 X72.069 Y95.500 E16.69448 F600.000
G1 X65.273 Y95.500 E17.03684
G1 X65.143 Y95.569 E17.04422
G1 X64.823 Y95.514 E17.06056
G1 X64.397 Y95.476 E17.08213
G1 X64.027 Y95.467 E17.10078
G1 X63.477 Y95.492 E17.12852
G1 X63.044 Y95.548 E17.15049
G1 X62.567 Y95.649 E17.17506
G1 X62.277 Y95.742 F9000.000
G1 X62.068 Y95.532 E17.19033 F600.000
G1 X61.510 Y95.533 E17.21908
G1 X62.149 Y96.172 E17.26565
G1 X61.890 Y96.470 E17.28605
G1 X60.953 Y95.534 E17.35435
G1 X60.395 Y95.534 E17.38310
G1 X61.675 Y96.814 E17.47642
G1 X61.505 Y97.202 E17.49826
G1 X59.838 Y95.535 E17.61982
G1 X59.280 Y95.536 E17.64856
G1 X61.387 Y97.642 E17.80213
G1 X61.271 Y98.084 E17.82570
G1 X58.723 Y95.536 E18.01147
G1 X58.165 Y95.537 E18.04022
G1 X58.840 Y96.211 E18.08938
G1 X58.081 Y96.011 E18.12982
G1 X57.608 Y95.538 E18.16433
G1 X57.479 Y95.967 E18.18745
G1 X57.064 Y95.552 E18.21775
G1 X56.984 Y96.030 E18.24275
G1 X56.583 Y95.629 E18.27200
G1 X56.160 Y95.764 E18.29489
G1 X56.539 Y96.143 E18.32253
G1 X56.139 Y96.301 E18.34471
G1 X55.768 Y95.930 E18.37174
G1 X55.415 Y96.136 E18.39279
G1 X55.779 Y96.499 E18.41930
G1 X55.459 Y96.738 E18.43986
G1 X55.098 Y96.377 E18.46615
G1 X54.818 Y96.655 E18.48650
G1 X55.159 Y96.996 E18.51136
G1 X54.909 Y97.304 E18.53181
G1 X54.547 Y96.942 E18.55818
G1 X54.318 Y97.271 E18.57886
G1 X54.686 Y97.639 E18.60566
G1 X54.494 Y98.005 E18.62699
G1 X54.125 Y97.636 E18.65390
G1 X53.965 Y98.034 E18.67603
G1 X54.356 Y98.425 E18.70454
G1 X54.253 Y98.881 E18.72860
G1 X53.850 Y98.478 E18.75796
G1 X53.790 Y98.976 E18.78384
G1 X54.219 Y99.405 E18.81513
G1 X53.811 Y99.555 E18.83756
G1 X54.289 Y100.033 E18.87243
G1 X53.950 Y100.252 E18.89325
G1 X54.637 Y100.940 E18.94340
G1 X54.632 Y101.493 E18.97192
G1 X55.305 Y102.166 E19.02099
G1 X55.801 Y102.103 E19.04673
G1 X56.500 Y102.803 E19.09774
G1 X56.711 Y102.455 E19.11869
G1 X57.203 Y102.948 E19.15463
G1 X57.338 Y102.524 E19.17754
G1 X57.784 Y102.970 E19.21005
G1 X57.862 Y102.490 E19.23513
G1 X58.342 Y102.970 E19.27015
G1 X58.900 Y102.970 E19.29893
G1 X58.330 Y102.399 E19.34053
G1 X58.749 Y102.260 E19.36330
G1 X59.459 Y102.970 E19.41503
G1 X60.017 Y102.970 E19.44381
G1 X59.109 Y102.062 E19.50998
G1 X59.448 Y101.843 E19.53078
G1 X60.575 Y102.970 E19.61296
G1 X61.133 Y102.970 E19.64174
G1 X59.748 Y101.585 E19.74276
G1 X60.014 Y101.293 E19.76313
