; generated by Slic3r 1.2.9 on 2017-01-18 at 17:00:57

; external perimeters extrusion width = 0.40mm
; perimeters extrusion width = 0.56mm
; infill extrusion width = 0.31mm
; solid infill extrusion width = 0.56mm
; top infill extrusion width = 0.22mm

M106 S256; Turn on fan to 100% power
M104 S140; turn on extruder temperature at S value
M140 S67; turn on bed temperature at S value
G28; home all axes
M84; disable motors
G1 Z15 F15000; have Z move to 20mm at 15000 mm/min
M190 S55; turn on bed temperature at S value and wait
M140 S56; turn on bed temperature at S value (printing temperature)
M109 S205; turn on extruder temperature at S value and wait (printing temperature)
M104 S203; turn on extruder temperature at S value
G1 Z0 F12000; move Z back to home
G21 ; set units to millimeters
G90 ; use absolute coordinates
M82 ; use absolute distances for extrusion
G92 E0
M106 S255
;Layer change
G1 E-6.00000 F1800.00000
G92 E0
G1 Z0.400 F10800.000
G1 X55.870 Y34.771 F10800.000
G1 E6.00000 F1800.00000
G1 X57.502 Y32.347 E6.25862 F900.000
G1 X59.282 Y30.030 E6.51726
G1 X61.205 Y27.830 E6.77590
G1 X61.485 Y27.532 E6.81211
G1 X63.559 Y25.476 E7.07062
G1 X65.760 Y23.552 E7.32936
G1 X68.077 Y21.772 E7.58800
G1 X70.501 Y20.140 E7.84662
G1 X73.022 Y18.664 E8.10526
G1 X75.632 Y17.349 E8.36388
G1 X78.318 Y16.200 E8.62252
G1 X81.072 Y15.222 E8.88116
G1 X83.881 Y14.419 E9.13977
G1 X86.736 Y13.795 E9.39841
G1 X89.624 Y13.350 E9.65703
G1 X92.534 Y13.088 E9.91567
G1 X95.045 Y13.009 E10.13810
G1 X95.706 Y13.017 E10.19654
G1 X98.375 Y13.114 E10.43294 F900.000
G1 X100.876 Y13.350 E10.65536
G1 X103.764 Y13.795 E10.91399
G1 X104.166 Y13.871 E10.95022
G1 X106.619 Y14.419 E11.17264
G1 X109.428 Y15.222 E11.43125
G1 X112.182 Y16.200 E11.68989
G1 X114.868 Y17.349 E11.94853
G1 X115.239 Y17.523 E11.98475
G1 X117.836 Y18.861 E12.24335
G1 X119.999 Y20.140 E12.46584
G1 X122.423 Y21.772 E12.72443
G1 X124.740 Y23.552 E12.98307
G1 X126.940 Y25.475 E13.24170
G1 X127.238 Y25.755 E13.27792
G1 X129.295 Y27.830 E13.53653
G1 X130.957 Y29.715 E13.75895
G1 X132.604 Y31.817 E13.99535
G1 X132.998 Y32.347 E14.05378
G1 X134.411 Y34.426 E14.27624
G1 X135.909 Y36.934 E14.53487
G1 X136.106 Y37.292 E14.57109
G1 X137.247 Y39.531 E14.79350
G1 X138.419 Y42.208 E15.05213
G1 X139.421 Y44.953 E15.31077
G1 X139.548 Y45.342 E15.34701
G1 X140.351 Y48.151 E15.60561
G1 X140.975 Y51.006 E15.86425
G1 X141.420 Y53.894 E16.12287
G1 X141.656 Y56.395 E16.34530
G1 X141.682 Y56.804 E16.38154
G1 X141.761 Y59.724 E16.64013
G1 X141.656 Y62.645 E16.89879
G1 X141.420 Y65.146 E17.12122
G1 X140.975 Y68.034 E17.37984
G1 X140.899 Y68.436 E17.41607
G1 X140.249 Y71.285 E17.67467
G1 X139.421 Y74.087 E17.93332
G1 X138.570 Y76.452 E18.15575
G1 X137.421 Y79.138 E18.41438
G1 X136.106 Y81.748 E18.67301
G1 X135.909 Y82.106 E18.70922
G1 X134.411 Y84.615 E18.96786
G1 X132.998 Y86.693 E19.19027
G1 X131.376 Y88.805 E19.42605
G1 X130.957 Y89.325 E19.48514
G1 X129.295 Y91.210 E19.70756
G1 X129.015 Y91.508 E19.74377
G1 X126.941 Y93.564 E20.00228
G1 X125.055 Y95.227 E20.22483
G1 X122.754 Y97.028 E20.48345
G1 X122.423 Y97.268 E20.51968
G1 X119.999 Y98.900 E20.77830
G1 X117.478 Y100.376 E21.03694
G1 X114.868 Y101.691 E21.29556
G1 X112.562 Y102.689 E21.51798
G1 X109.817 Y103.691 E21.77662
G1 X107.015 Y104.519 E22.03526
G1 X104.166 Y105.169 E22.29387
G1 X103.764 Y105.245 E22.33010
G1 X101.282 Y105.639 E22.55252
G1 X98.375 Y105.926 E22.81115
G1 X95.455 Y106.031 E23.06979
G1 X92.534 Y105.952 E23.32841
G1 X92.125 Y105.926 E23.36464
G1 X89.624 Y105.690 E23.58706
G1 X86.736 Y105.245 E23.84569
G1 X83.881 Y104.621 E24.10433
G1 X81.072 Y103.818 E24.36293
G1 X80.683 Y103.691 E24.39917
G1 X78.318 Y102.840 E24.62159
G1 X77.719 Y102.595 E24.67888
G1 X75.262 Y101.517 E24.91640
G1 X73.022 Y100.376 E25.13886
G1 X70.501 Y98.900 E25.39753
G1 X68.077 Y97.268 E25.65612
G1 X67.746 Y97.028 E25.69234
G1 X65.445 Y95.227 E25.95099
G1 X63.560 Y93.565 E26.17341
G1 X61.485 Y91.508 E26.43202
G1 X59.543 Y89.325 E26.69065
G1 X59.282 Y89.010 E26.72687
G1 X57.742 Y87.024 E26.94930
G1 X57.172 Y86.209 E27.03735
G1 X55.870 Y84.269 E27.24414
G1 X54.591 Y82.106 E27.46657
G1 X53.367 Y79.732 E27.70295
G1 X53.079 Y79.138 E27.76141
G1 X52.081 Y76.832 E27.98383
G1 X51.079 Y74.087 E28.24247
G1 X50.251 Y71.285 E28.50111
G1 X49.601 Y68.436 E28.75972
G1 X49.525 Y68.034 E28.79595
G1 X49.080 Y65.146 E29.05458
G1 X48.818 Y62.236 E29.31322
G1 X48.739 Y59.316 E29.57181
G1 X48.818 Y56.804 E29.79427
G1 X49.080 Y53.894 E30.05290
G1 X49.525 Y51.006 E30.31152
G1 X49.601 Y50.604 E30.34775
G1 X50.149 Y48.151 E30.57018
G1 X50.952 Y45.342 E30.82878
G1 X51.930 Y42.588 E31.08743
G1 X52.081 Y42.208 E31.12365
G1 X53.253 Y39.531 E31.38229
G1 X54.394 Y37.292 E31.60470
G1 X55.839 Y34.823 E31.85803
G1 E25.85803 F1800.00000
G92 E0
G1 X97.312 Y58.704 F10800.000
G1 E6.00000 F1800.00000
G1 X97.429 Y59.104 E6.03695 F900.000
G1 X97.468 Y59.520 E6.07390
G1 X97.428 Y59.936 E6.11089
G1 X97.307 Y60.352 E6.14922
G1 X97.053 Y60.814 E6.19593
G1 X96.768 Y61.137 E6.23400
G1 X96.438 Y61.393 E6.27095
G1 X96.066 Y61.582 E6.30790
G1 X95.666 Y61.699 E6.34484
G1 X95.237 Y61.739 E6.38293
G1 X94.711 Y61.672 E6.42991
G1 X94.306 Y61.527 E6.46800
G1 X93.946 Y61.314 E6.50495
G1 X93.633 Y61.038 E6.54190
G1 X93.377 Y60.708 E6.57885
G1 X93.188 Y60.336 E6.61579
G1 X93.071 Y59.936 E6.65274
G1 X93.032 Y59.520 E6.68969
G1 X93.071 Y59.104 E6.72664
G1 X93.188 Y58.704 E6.76358
G1 X93.377 Y58.332 E6.80053
G1 X93.633 Y58.002 E6.83748
G1 X93.946 Y57.726 E6.87443
G1 X94.306 Y57.513 E6.91137
G1 X94.710 Y57.368 E6.94944
G1 X95.234 Y57.301 E6.99615 F900.000
G1 X95.665 Y57.341 E7.03449
G1 X96.066 Y57.458 E7.07148
G1 X96.438 Y57.647 E7.10843
G1 X96.778 Y57.911 E7.14652
G1 X97.117 Y58.320 E7.19349
G1 X97.285 Y58.650 E7.22628
G1 X96.832 Y58.894 F10800.000
G1 X96.921 Y59.201 E7.25462 F900.000
G1 X96.951 Y59.520 E7.28296
G1 X96.921 Y59.839 E7.31132
G1 X96.829 Y60.153 E7.34032
G1 X96.629 Y60.517 E7.37701
G1 X96.415 Y60.760 E7.40576
G1 X96.162 Y60.956 E7.43411
G1 X95.876 Y61.102 E7.46245
G1 X95.569 Y61.191 E7.49079
G1 X95.245 Y61.222 E7.51956
G1 X94.831 Y61.170 E7.55648
G1 X94.526 Y61.059 E7.58525
G1 X94.250 Y60.896 E7.61359
G1 X94.010 Y60.685 E7.64194
G1 X93.814 Y60.432 E7.67028
G1 X93.668 Y60.146 E7.69863
G1 X93.579 Y59.839 E7.72697
G1 X93.549 Y59.520 E7.75531
G1 X93.579 Y59.201 E7.78366
G1 X93.668 Y58.894 E7.81200
G1 X93.814 Y58.608 E7.84034
G1 X94.010 Y58.355 E7.86869
G1 X94.250 Y58.144 E7.89703
G1 X94.526 Y57.981 E7.92538
G1 X94.831 Y57.871 E7.95413
G1 X95.242 Y57.818 E7.99082 F900.000
G1 X95.569 Y57.849 E8.01982
G1 X95.876 Y57.938 E8.04818
G1 X96.162 Y58.084 E8.07652
G1 X96.418 Y58.283 E8.10529
G1 X96.684 Y58.604 E8.14221
G1 X96.805 Y58.840 E8.16567
G1 X97.147 Y58.950 F10800.000
G1 X123.018 Y49.642 F10800.000
G1 X123.761 Y52.200 E8.40144 F900.000
G1 X124.164 Y54.004 E8.56512
G1 X124.437 Y55.725 E8.71931
G1 X124.627 Y57.673 E8.89258
G1 X124.711 Y60.334 E9.12824
G1 X134.410 Y60.334 E9.98672
G1 X134.358 Y61.980 E10.13251
G1 X134.126 Y64.431 E10.35040
G1 X133.741 Y66.863 E10.56830
G1 X133.204 Y69.265 E10.78619
G1 X132.745 Y70.847 E10.93199
G1 X123.521 Y67.850 E11.79046
G1 X122.655 Y70.255 E12.01675
G1 X121.883 Y72.054 E12.19002
G1 X121.044 Y73.701 E12.35357
G1 X120.103 Y75.292 E12.51726
G1 X118.606 Y77.495 E12.75303
G1 X126.452 Y83.196 E13.61151
G1 X125.443 Y84.498 E13.75731
G1 X123.815 Y86.344 E13.97520
G1 X122.074 Y88.085 E14.19310
G1 X120.228 Y89.713 E14.41098
G1 X118.926 Y90.722 E14.55678
G1 X113.225 Y82.876 E15.41526
G1 X111.022 Y84.373 E15.65103
G1 X109.431 Y85.314 E15.81472
G1 X107.783 Y86.154 E15.97839
G1 X106.086 Y86.888 E16.14207
G1 X103.580 Y87.791 E16.37785
G1 X106.577 Y97.015 E17.23632
G1 X104.995 Y97.474 E17.38212
G1 X102.593 Y98.011 E17.60002
G1 X100.161 Y98.396 E17.81791
G1 X97.710 Y98.628 E18.03580
G1 X96.064 Y98.680 E18.18159
G1 X96.064 Y88.981 E19.04008
G1 X93.402 Y88.897 E19.27585
G1 X91.561 Y88.723 E19.43953
G1 X89.734 Y88.434 E19.60321
G1 X87.930 Y88.031 E19.76689
G1 X85.372 Y87.288 E20.00266
G1 X82.375 Y96.512 E20.86114
G1 X80.825 Y95.954 E21.00693
G1 X78.566 Y94.976 E21.22483
G1 X76.372 Y93.858 E21.44271
G1 X74.253 Y92.605 E21.66061
G1 X72.891 Y91.680 E21.80640
G1 X78.592 Y83.833 E22.66488
G1 X76.487 Y82.200 E22.90066
G1 X75.100 Y80.978 E23.06434
G1 X73.868 Y79.746 E23.21852
G1 X72.569 Y78.282 E23.39179
G1 X70.937 Y76.178 E23.62745
G1 X63.090 Y81.879 E24.48593
G1 X62.165 Y80.517 E24.63172
G1 X60.912 Y78.398 E24.84962
G1 X59.794 Y76.204 E25.06751
G1 X58.816 Y73.945 E25.28540
G1 X58.258 Y72.395 E25.43119
G1 X67.482 Y69.398 E26.28967
G1 X66.739 Y66.840 E26.52544
G1 X66.336 Y65.036 E26.68913
G1 X66.063 Y63.315 E26.84331
G1 X65.873 Y61.367 E27.01658
G1 X65.789 Y58.706 E27.25224
G1 X56.090 Y58.706 E28.11072
G1 X56.142 Y57.060 E28.25651
G1 X56.374 Y54.609 E28.47441
G1 X56.759 Y52.177 E28.69230
G1 X57.296 Y49.775 E28.91019
G1 X57.755 Y48.193 E29.05599
G1 X66.979 Y51.190 E29.91447
G1 X67.882 Y48.684 E30.15025
G1 X68.573 Y47.085 E30.30443
G1 X69.456 Y45.338 E30.47770
G1 X70.397 Y43.748 E30.64127
G1 X71.894 Y41.545 E30.87704
G1 X64.048 Y35.844 E31.73551
G1 X65.057 Y34.542 E31.88131
G1 X66.685 Y32.696 E32.09921
G1 X68.426 Y30.955 E32.31709
G1 X70.272 Y29.327 E32.53499
G1 X71.574 Y28.318 E32.68079
G1 X77.275 Y36.164 E33.53927
G1 X79.478 Y34.667 E33.77504
G1 X81.069 Y33.726 E33.93872
G1 X82.717 Y32.886 E34.10240
G1 X84.414 Y32.152 E34.26607
G1 X86.920 Y31.249 E34.50185
G1 X83.923 Y22.025 E35.36033
G1 X85.505 Y21.566 E35.50613
G1 X87.907 Y21.029 E35.72402
G1 X90.339 Y20.644 E35.94191
G1 X92.790 Y20.412 E36.15981
G1 X94.436 Y20.360 E36.30560
G1 X94.436 Y30.059 E37.16408
G1 X97.098 Y30.143 E37.39986
G1 X98.939 Y30.317 E37.56354
G1 X100.766 Y30.606 E37.72721
G1 X102.570 Y31.009 E37.89089
G1 X105.128 Y31.752 E38.12667
G1 X108.125 Y22.528 E38.98515
G1 X109.675 Y23.086 E39.13094
G1 X111.934 Y24.064 E39.34883
G1 X114.128 Y25.182 E39.56672
G1 X116.247 Y26.435 E39.78462
G1 X117.609 Y27.360 E39.93041
G1 X111.908 Y35.207 E40.78889
G1 X114.013 Y36.840 E41.02467
G1 X115.400 Y38.062 E41.18835
G1 X116.708 Y39.370 E41.35202
G1 X117.930 Y40.757 E41.51570
G1 X119.563 Y42.862 E41.75148
G1 X127.410 Y37.161 E42.60996
G1 X128.335 Y38.523 E42.75574
G1 X129.588 Y40.642 E42.97364
G1 X130.706 Y42.836 E43.19153
G1 X131.684 Y45.095 E43.40943
G1 X132.242 Y46.645 E43.55522
G1 X123.075 Y49.623 E44.40838
G1 X123.650 Y49.977 F10800.000
G1 X124.259 Y52.072 E44.60149 F900.000
G1 X124.669 Y53.908 E44.76803
G1 X124.947 Y55.660 E44.92500
G1 X125.141 Y57.640 E45.10113
G1 X125.209 Y59.820 E45.29419
G1 X134.940 Y59.820 E46.15553
G1 X134.872 Y62.013 E46.34972
G1 X134.637 Y64.496 E46.57047
G1 X134.247 Y66.959 E46.79122
G1 X133.703 Y69.393 E47.01198
G1 X133.091 Y71.500 E47.20617
G1 X123.836 Y68.493 E48.06751
G1 X123.133 Y70.444 E48.25105
G1 X122.349 Y72.272 E48.42718
G1 X121.495 Y73.948 E48.59367
G1 X120.537 Y75.568 E48.76022
G1 X119.311 Y77.372 E48.95331
G1 X127.184 Y83.092 E49.81465
G1 X125.839 Y84.826 E50.00885
G1 X124.190 Y86.696 E50.22960
G1 X122.426 Y88.460 E50.45035
G1 X120.556 Y90.109 E50.67110
G1 X118.822 Y91.454 E50.86529
G1 X113.102 Y83.581 E51.72663
G1 X111.298 Y84.807 E51.91973
G1 X109.678 Y85.765 E52.08628
G1 X108.002 Y86.619 E52.25281
G1 X106.275 Y87.367 E52.41935
G1 X104.223 Y88.106 E52.61246
G1 X107.230 Y97.361 E53.47380
G1 X105.123 Y97.973 E53.66799
G1 X102.689 Y98.517 E53.88874
G1 X100.226 Y98.907 E54.10949
G1 X97.743 Y99.142 E54.33025
G1 X95.550 Y99.210 E54.52443
G1 X95.550 Y89.479 E55.38577
G1 X93.369 Y89.411 E55.57888
G1 X91.496 Y89.234 E55.74542
G1 X89.638 Y88.939 E55.91196
G1 X87.802 Y88.529 E56.07850
G1 X85.707 Y87.920 E56.27160
G1 X82.700 Y97.175 E57.13294
G1 X80.635 Y96.432 E57.32712
G1 X78.347 Y95.442 E57.54788
G1 X76.124 Y94.309 E57.76863
G1 X73.978 Y93.040 E57.98939
G1 X72.163 Y91.807 E58.18357
G1 X77.883 Y83.934 E59.04491
G1 X76.159 Y82.597 E59.23802
G1 X74.748 Y81.352 E59.40456
G1 X73.494 Y80.099 E59.56152
G1 X72.173 Y78.610 E59.73765
G1 X70.836 Y76.887 E59.93072
G1 X62.963 Y82.607 E60.79206
G1 X61.730 Y80.792 E60.98624
G1 X60.461 Y78.646 E61.20700
G1 X59.328 Y76.423 E61.42775
G1 X58.338 Y74.135 E61.64850
G1 X57.595 Y72.070 E61.84269
G1 X66.850 Y69.063 E62.70402
G1 X66.241 Y66.968 E62.89713
G1 X65.831 Y65.132 E63.06367
G1 X65.553 Y63.380 E63.22064
G1 X65.359 Y61.400 E63.39677
G1 X65.291 Y59.220 E63.58983
G1 X55.560 Y59.220 E64.45117
G1 X55.628 Y57.027 E64.64536
G1 X55.863 Y54.544 E64.86611
G1 X56.253 Y52.081 E65.08687
G1 X56.797 Y49.647 E65.30762
G1 X57.409 Y47.540 E65.50181
G1 X66.664 Y50.547 E66.36315
G1 X67.403 Y48.495 E66.55626
G1 X68.108 Y46.867 E66.71323
G1 X69.005 Y45.091 E66.88936
G1 X69.963 Y43.472 E67.05586
G1 X71.189 Y41.668 E67.24896
G1 X63.316 Y35.948 E68.11030
G1 X64.661 Y34.214 E68.30449
G1 X66.310 Y32.344 E68.52524
G1 X68.074 Y30.580 E68.74599
G1 X69.944 Y28.931 E68.96674
G1 X71.678 Y27.586 E69.16094
G1 X77.398 Y35.459 E70.02227
G1 X79.202 Y34.233 E70.21537
G1 X80.822 Y33.275 E70.38192
G1 X82.498 Y32.421 E70.54846
G1 X84.225 Y31.673 E70.71499
G1 X86.277 Y30.934 E70.90810
G1 X83.270 Y21.679 E71.76944
G1 X85.377 Y21.067 E71.96363
G1 X87.811 Y20.523 E72.18438
G1 X90.274 Y20.133 E72.40514
G1 X92.757 Y19.898 E72.62589
G1 X94.950 Y19.830 E72.82008
G1 X94.950 Y29.561 E73.68142
G1 X97.131 Y29.629 E73.87452
G1 X99.004 Y29.806 E74.04106
G1 X100.862 Y30.101 E74.20760
G1 X102.698 Y30.511 E74.37414
G1 X104.793 Y31.120 E74.56724
G1 X107.800 Y21.865 E75.42858
G1 X109.865 Y22.608 E75.62277
G1 X112.153 Y23.598 E75.84352
G1 X114.376 Y24.731 E76.06427
G1 X116.522 Y26.000 E76.28503
G1 X118.337 Y27.233 E76.47921
G1 X112.617 Y35.106 E77.34055
G1 X114.341 Y36.443 E77.53366
G1 X115.752 Y37.688 E77.70020
G1 X117.083 Y39.018 E77.86673
G1 X118.327 Y40.429 E78.03327
G1 X119.664 Y42.153 E78.22638
G1 X127.537 Y36.433 E79.08772
G1 X128.770 Y38.248 E79.28190
G1 X130.039 Y40.394 E79.50266
G1 X131.172 Y42.617 E79.72341
G1 X132.162 Y44.905 E79.94416
G1 X132.905 Y46.970 E80.13835
G1 X123.707 Y49.958 E80.99438
G1 X123.267 Y50.092 F10800.000
G1 E74.99438 F1800.00000
G92 E0
G1 X63.092 Y82.884 F10800.000
G1 E6.00000 F1800.00000
G1 X64.622 Y84.858 E6.22104 F900.000
G1 X66.279 Y86.736 E6.44276
G1 X68.039 Y88.496 E6.66309
G1 X69.907 Y90.143 E6.88344
G1 X71.886 Y91.678 E7.10516
G1 X82.967 Y97.324 F10800.000
G1 X85.372 Y98.023 E7.32689 F900.000
G1 X87.802 Y98.566 E7.54723
G1 X90.260 Y98.955 E7.76757
G1 X92.754 Y99.192 E7.98929
G1 X95.250 Y99.270 E8.21033
G1 X107.533 Y97.324 F10800.000
G1 X109.883 Y96.479 E8.43135 F900.000
G1 X112.182 Y95.483 E8.65308
G1 X114.400 Y94.353 E8.87341
G1 X116.542 Y93.086 E9.09376
G1 X118.614 Y91.678 E9.31548
G1 X127.407 Y82.883 F10800.000
G1 X128.812 Y80.819 E9.53652 F900.000
G1 X130.087 Y78.663 E9.75822
G1 X131.217 Y76.445 E9.97856
G1 X132.206 Y74.160 E10.19890
G1 X133.054 Y71.803 E10.42062
G1 X135.000 Y59.520 F10800.000
G1 X134.922 Y57.024 E10.64166 F900.000
G1 X134.685 Y54.530 E10.86338
G1 X134.296 Y52.072 E11.08372
G1 X133.753 Y49.642 E11.30406
G1 X133.055 Y47.237 E11.52579
G1 X127.408 Y36.156 F10800.000
G1 X125.878 Y34.182 E11.74682 F900.000
G1 X124.221 Y32.304 E11.96854
G1 X122.461 Y30.544 E12.18888
G1 X120.593 Y28.897 E12.40923
G1 X118.614 Y27.362 E12.63095
G1 X107.533 Y21.715 F10800.000
G1 X105.128 Y21.017 E12.85268 F900.000
G1 X102.698 Y20.474 E13.07302
G1 X100.240 Y20.085 E13.29335
G1 X97.746 Y19.848 E13.51508
G1 X95.250 Y19.770 E13.73611
G1 X82.967 Y21.716 F10800.000
G1 X80.617 Y22.561 E13.95714 F900.000
G1 X78.318 Y23.557 E14.17887
G1 X76.100 Y24.687 E14.39920
G1 X73.958 Y25.954 E14.61954
G1 X71.886 Y27.362 E14.84126
G1 X63.092 Y36.156 F10800.000
G1 X61.684 Y38.228 E15.06299 F900.000
G1 X60.417 Y40.370 E15.28333
G1 X59.287 Y42.588 E15.50366
G1 X58.291 Y44.887 E15.72539
G1 X57.446 Y47.237 E15.94642
G1 X55.500 Y59.520 F10800.000
G1 X55.578 Y62.016 E16.16745 F900.000
G1 X55.815 Y64.510 E16.38917
G1 X56.204 Y66.968 E16.60951
G1 X56.747 Y69.398 E16.82985
G1 X57.446 Y71.803 E17.05158
G1 X59.550 Y74.603 F10800.000
G1 X65.027 Y80.081 E17.74063 F900.000
G1 X65.451 Y79.773 E17.78716
G1 X59.032 Y73.355 E18.59459
G1 X58.932 Y72.524 E18.66897
G1 X65.874 Y79.466 E19.54215
G1 X66.297 Y79.159 E19.58868
