; generated by Slic3r 1.2.9 on 2018-05-10 at 21:57:46

; external perimeters extrusion width = 0.40mm
; perimeters extrusion width = 0.62mm
; infill extrusion width = 0.33mm
; solid infill extrusion width = 0.62mm
; top infill extrusion width = 0.20mm

M106 S256; Turn on fan to 100% power
M104 S140; turn on extruder temperature at S value
M140 S60; turn on bed temperature at S value
G28; home all axes
M84; disable motors
G1 Z15 F15000; have Z move to 20mm at 15000 mm/min
M190 S55; turn on bed temperature at S value and wait
M140 S55; turn on bed temperature at S value (printing temperature)
M109 S200; turn on extruder temperature at S value and wait (printing temperature)
M104 S200; turn on extruder temperature at S value
G1 Z0 F12000; move Z back to home
G21 ; set units to millimeters
G90 ; use absolute coordinates
M82 ; use absolute distances for extrusion
G92 E0
M106 S255
;Layer change
G1 E-6.00000 F1800.00000
G92 E0
G1 Z0.300 F9000.000
G1 X55.102 Y164.651 F9000.000
G1 E6.00000 F1800.00000
G1 X55.864 Y164.462 E6.03863 F600.000
G1 X123.531 Y159.172 E9.37904
G1 X124.175 Y159.157 E9.41071
G1 X124.607 Y159.175 E9.43202 F600.000
G1 X125.087 Y159.226 E9.45578
G1 X125.563 Y159.306 E9.47953
G1 X126.034 Y159.416 E9.50330
G1 X126.496 Y159.555 E9.52706
G1 X126.949 Y159.723 E9.55082
G1 X127.390 Y159.919 E9.57457
G1 X127.818 Y160.142 E9.59833
G1 X128.231 Y160.392 E9.62209
G1 X128.628 Y160.667 E9.64588
G1 X129.006 Y160.967 E9.66960
G1 X129.365 Y161.290 E9.69338
G1 X129.703 Y161.634 E9.71713
G1 X130.019 Y161.999 E9.74089
G1 X130.498 Y162.659 E9.78104
G1 X130.748 Y163.072 E9.80478
G1 X130.971 Y163.500 E9.82853
G1 X131.167 Y163.942 E9.85232
G1 X131.335 Y164.394 E9.87606
G1 X131.512 Y165.002 E9.90720
G1 X131.612 Y165.474 E9.93095
G1 X131.683 Y165.951 E9.95473
G1 X131.724 Y166.432 E9.97846
G1 X131.734 Y166.915 E10.00225
G1 X131.715 Y167.397 E10.02598
G1 X131.664 Y167.878 E10.04976
G1 X131.584 Y168.353 E10.07350
G1 X131.474 Y168.824 E10.09727
G1 X131.335 Y169.286 E10.12104
G1 X131.167 Y169.738 E10.14478
G1 X130.971 Y170.180 E10.16856
G1 X130.748 Y170.608 E10.19232
G1 X130.498 Y171.021 E10.21605
G1 X130.223 Y171.417 E10.23983
G1 X129.923 Y171.796 E10.26359
G1 X129.600 Y172.155 E10.28734
G1 X129.256 Y172.493 E10.31112
G1 X128.891 Y172.808 E10.33485
G1 X115.470 Y182.757 E11.15705
G1 X114.050 Y183.226 E11.23063
G1 X80.550 Y183.226 E12.87933
G1 X55.856 Y181.218 E14.09867
G1 X54.582 Y180.721 E14.16594
G1 X53.791 Y179.606 E14.23321
G1 X53.664 Y178.840 E14.27145
G1 X53.664 Y166.840 E14.86203
G1 X54.056 Y165.530 E14.92930
G1 X55.056 Y164.689 E14.99362
G1 E8.99362 F1800.00000
G92 E0
G1 X83.402 Y175.183 F9000.000
G1 E6.00000 F1800.00000
G1 X83.050 Y175.216 E6.01738 F600.000
G1 X82.698 Y175.183 E6.03476
G1 X82.359 Y175.084 E6.05213
G1 X82.044 Y174.924 E6.06953
G1 X81.763 Y174.704 E6.08712
G1 X81.605 Y174.535 E6.09848
G1 X81.464 Y174.342 E6.11024
G1 X81.306 Y174.031 E6.12744
G1 X81.207 Y173.692 E6.14482
G1 X81.174 Y173.340 E6.16220
G1 X81.207 Y172.988 E6.17958
G1 X81.306 Y172.649 E6.19696
G1 X81.466 Y172.335 E6.21433
G1 X81.682 Y172.056 E6.23171
G1 X81.947 Y171.822 E6.24909
G1 X82.251 Y171.643 E6.26647
G1 X82.580 Y171.524 E6.28367
G1 X82.815 Y171.479 E6.29543
G1 X83.045 Y171.465 E6.30679 F600.000
G1 X83.401 Y171.497 E6.32438
G1 X83.741 Y171.596 E6.34178
G1 X84.055 Y171.756 E6.35915
G1 X84.334 Y171.972 E6.37653
G1 X84.568 Y172.237 E6.39391
G1 X84.747 Y172.541 E6.41129
G1 X84.866 Y172.870 E6.42849
G1 X84.911 Y173.105 E6.44026
G1 X84.925 Y173.340 E6.45185
G1 X84.911 Y173.575 E6.46344
G1 X84.866 Y173.810 E6.47520
G1 X84.747 Y174.139 E6.49241
G1 X84.568 Y174.443 E6.50978
G1 X84.334 Y174.708 E6.52716
G1 X84.055 Y174.924 E6.54454
G1 X83.741 Y175.084 E6.56192
G1 X83.459 Y175.166 E6.57634
G1 X83.275 Y175.512 F9000.000
G1 E0.57634 F1800.00000
G92 E0
G1 X81.161 Y171.229 F9000.000
G1 E6.00000 F1800.00000
G1 X78.661 Y171.229 E6.12304 F600.000
G1 X78.661 Y168.229 E6.27068
G1 X77.661 Y168.229 E6.31990
G1 X77.661 Y167.451 E6.35822
G1 X85.439 Y167.451 E6.74106
G1 X85.439 Y172.759 E7.00231
G1 X85.248 Y172.792 E7.01188
G1 X85.098 Y172.376 E7.03365
G1 X84.881 Y172.010 E7.05462
G1 X84.599 Y171.690 E7.07558
G1 X84.263 Y171.429 E7.09655
G1 X83.883 Y171.236 E7.11751
G1 X83.473 Y171.116 E7.13852
G1 X83.051 Y171.078 E7.15941
G1 X82.766 Y171.096 E7.17344
G1 X82.478 Y171.151 E7.18787
G1 X82.086 Y171.292 E7.20836
G1 X81.720 Y171.509 E7.22933
G1 X81.400 Y171.791 E7.25029
G1 X81.317 Y171.898 E7.25696
G1 X81.161 Y171.844 E7.26510
G1 X81.161 Y171.289 E7.29240
G1 E1.29240 F1800.00000
G92 E0
G1 X106.787 Y173.340 F9000.000
G1 E6.00000 F1800.00000
G1 X106.827 Y172.916 E6.02097 F600.000
G1 X106.946 Y172.507 E6.04193
G1 X107.139 Y172.127 E6.06290
G1 X107.400 Y171.791 E6.08386
G1 X107.720 Y171.509 E6.10483
G1 X108.086 Y171.292 E6.12579
G1 X108.478 Y171.151 E6.14628
G1 X108.766 Y171.096 E6.16072
G1 X109.051 Y171.078 E6.17474 F600.000
G1 X109.473 Y171.116 E6.19563
G1 X109.883 Y171.236 E6.21664
G1 X110.263 Y171.429 E6.23761
G1 X110.600 Y171.691 E6.25862
G1 X110.880 Y172.010 E6.27951
G1 X111.032 Y172.251 E6.29354
G1 X111.157 Y172.516 E6.30797
G1 X111.273 Y172.916 E6.32846
G1 X111.312 Y173.330 E6.34895
G1 X111.294 Y173.623 E6.36340
G1 X111.239 Y173.912 E6.37786
G1 X111.098 Y174.304 E6.39835
G1 X110.881 Y174.670 E6.41931
G1 X110.599 Y174.990 E6.44028
G1 X110.263 Y175.251 E6.46124
G1 X109.883 Y175.444 E6.48221
G1 X109.474 Y175.563 E6.50317
G1 X109.050 Y175.603 E6.52414
G1 X108.636 Y175.564 E6.54463
G1 X108.351 Y175.491 E6.55906
G1 X108.086 Y175.387 E6.57309
G1 X107.720 Y175.172 E6.59398
G1 X107.400 Y174.889 E6.61499
G1 X107.139 Y174.553 E6.63595
G1 X106.946 Y174.173 E6.65692
G1 X106.827 Y173.764 E6.67789
G1 X106.792 Y173.400 E6.69590
G1 X107.174 Y173.340 F9000.000
G1 X107.207 Y172.988 E6.71328 F600.000
G1 X107.306 Y172.649 E6.73065
G1 X107.466 Y172.335 E6.74803
G1 X107.682 Y172.056 E6.76541
G1 X107.947 Y171.822 E6.78279
G1 X108.251 Y171.643 E6.80016
G1 X108.580 Y171.524 E6.81737
G1 X108.815 Y171.479 E6.82912
G1 X109.045 Y171.465 E6.84049 F600.000
G1 X109.401 Y171.497 E6.85808
G1 X109.741 Y171.596 E6.87548
G1 X110.055 Y171.756 E6.89285
G1 X110.334 Y171.973 E6.91025
G1 X110.570 Y172.241 E6.92784
G1 X110.694 Y172.437 E6.93920
G1 X110.795 Y172.653 E6.95096
G1 X110.893 Y172.988 E6.96816
G1 X110.926 Y173.336 E6.98537
G1 X110.911 Y173.575 E6.99713
G1 X110.866 Y173.810 E7.00890
G1 X110.747 Y174.139 E7.02610
G1 X110.568 Y174.443 E7.04348
G1 X110.334 Y174.708 E7.06086
G1 X110.055 Y174.924 E7.07823
G1 X109.741 Y175.084 E7.09561
G1 X109.402 Y175.183 E7.11299
G1 X109.050 Y175.216 E7.13037
G1 X108.702 Y175.183 E7.14757
G1 X108.471 Y175.124 E7.15933
G1 X108.256 Y175.039 E7.17069
G1 X107.948 Y174.858 E7.18828
G1 X107.682 Y174.624 E7.20568
G1 X107.466 Y174.345 E7.22306
G1 X107.306 Y174.031 E7.24043
G1 X107.207 Y173.692 E7.25781
G1 X107.180 Y173.400 E7.27223
G1 X106.874 Y173.154 F9000.000
G1 X103.661 Y176.451 F9000.000
G1 X103.661 Y167.451 E7.71517 F600.000
G1 X113.439 Y167.451 E8.19643
G1 X113.439 Y180.229 E8.82534
G1 X81.161 Y180.229 E10.41394
G1 X81.161 Y174.625 E10.68976
G1 X81.502 Y174.989 E10.71432
G1 X81.836 Y175.251 E10.73522
G1 X82.217 Y175.444 E10.75623
G1 X82.626 Y175.563 E10.77719
G1 X83.050 Y175.603 E10.79816
G1 X83.474 Y175.563 E10.81912
G1 X83.883 Y175.444 E10.84009
G1 X84.263 Y175.251 E10.86105
G1 X84.599 Y174.990 E10.88202
G1 X84.881 Y174.670 E10.90298
G1 X85.098 Y174.304 E10.92395
G1 X85.248 Y173.888 E10.94572
G1 X85.439 Y173.921 E10.95529
G1 X85.439 Y176.451 E11.07979
G1 X103.601 Y176.451 E11.97359
G1 X103.275 Y176.065 F9000.000
G1 X103.275 Y167.065 E12.41653 F600.000
G1 X113.825 Y167.065 E12.93575
G1 X113.825 Y180.615 E13.60261
G1 X80.775 Y180.615 E15.22917
G1 X80.775 Y171.615 E15.67211
G1 X78.275 Y171.615 E15.79514
G1 X78.275 Y168.615 E15.94279
G1 X77.275 Y168.615 E15.99200
G1 X77.275 Y167.065 E16.06829
G1 X85.825 Y167.065 E16.48908
G1 X85.825 Y176.065 E16.93201
G1 X103.215 Y176.065 E17.78786
G1 X103.675 Y176.065 F9000.000
G1 X106.582 Y174.034 F9000.000
G1 X103.944 Y171.396 E17.97331 F600.000
G1 X103.944 Y170.845 E18.00070
G1 X106.503 Y173.404 E18.18056
G1 X106.555 Y172.905 E18.20549
G1 X103.944 Y170.294 E18.38901
G1 X103.944 Y169.743 E18.41639
G1 X106.679 Y172.478 E18.60862
G1 X106.861 Y172.109 E18.62906
G1 X103.944 Y169.193 E18.83411
G1 X103.944 Y168.642 E18.86149
G1 X107.087 Y171.785 E19.08243
G1 X107.353 Y171.499 E19.10181
G1 X103.944 Y168.091 E19.34140
G1 X104.139 Y167.734 E19.36158
G1 X107.656 Y171.252 E19.60886
G1 X108.002 Y171.047 E19.62885
G1 X104.690 Y167.734 E19.86173
G1 X105.240 Y167.734 E19.88911
G1 X108.406 Y170.900 E20.11163
G1 X108.867 Y170.810 E20.13500
G1 X105.791 Y167.734 E20.35123
G1 X106.342 Y167.734 E20.37861
G1 X109.427 Y170.819 E20.59549
G1 X110.170 Y171.012 E20.63363
G1 X106.893 Y167.734 E20.86401
G1 X107.444 Y167.734 E20.89139
G1 X113.156 Y173.446 E21.29294
G1 X113.156 Y172.895 E21.32032
G1 X107.995 Y167.734 E21.68313
G1 X108.545 Y167.734 E21.71052
G1 X113.156 Y172.345 E22.03461
G1 X113.156 Y171.794 E22.06199
G1 X109.096 Y167.734 E22.34737
G1 X109.647 Y167.734 E22.37475
G1 X113.156 Y171.243 E22.62140
G1 X113.156 Y170.692 E22.64878
G1 X110.198 Y167.734 E22.85670
G1 X110.749 Y167.734 E22.88409
G1 X113.156 Y170.141 E23.05329
G1 X113.156 Y169.590 E23.08067
G1 X111.300 Y167.734 E23.21115
G1 X111.850 Y167.734 E23.23853
G1 X113.156 Y169.040 E23.33029
G1 X113.156 Y168.489 E23.35767
G1 X112.401 Y167.734 E23.41071
G1 X112.952 Y167.734 E23.43809
G1 X113.156 Y167.938 E23.45240
G1 X113.156 Y173.997 F9000.000
G1 X111.379 Y172.220 E23.57733 F600.000
G1 X111.571 Y172.963 E23.61549
G1 X113.156 Y174.548 E23.72689
G1 X113.156 Y175.099 E23.75427
G1 X111.580 Y173.523 E23.86506
G1 X111.490 Y173.984 E23.88842
G1 X113.156 Y175.650 E24.00549
G1 X113.156 Y176.200 E24.03287
G1 X111.343 Y174.388 E24.16031
G1 X111.138 Y174.734 E24.18030
G1 X113.156 Y176.751 E24.32212
G1 X113.156 Y177.302 E24.34951
G1 X110.891 Y175.037 E24.50871
G1 X110.605 Y175.303 E24.52808
G1 X113.156 Y177.853 E24.70736
G1 X113.156 Y178.404 E24.73474
G1 X110.281 Y175.529 E24.93685
G1 X109.912 Y175.711 E24.95729
G1 X113.156 Y178.955 E25.18530
G1 X113.156 Y179.505 E25.21268
G1 X109.485 Y175.835 E25.47069
G1 X108.986 Y175.887 E25.49563
G1 X113.045 Y179.946 E25.78094
G1 X112.494 Y179.946 E25.80832
G1 X108.358 Y175.810 E26.09908
G1 X107.193 Y175.195 F9000.000
G1 X103.944 Y171.947 E26.32746 F600.000
G1 X107.102 Y175.104 F9000.000
G1 X111.943 Y179.946 E26.66780 F600.000
G1 X111.393 Y179.946 E26.69518
G1 X103.944 Y172.497 E27.21878
G1 X103.944 Y173.048 E27.24616
G1 X110.842 Y179.946 E27.73103
G1 X110.291 Y179.946 E27.75841
G1 X103.944 Y173.599 E28.20457
G1 X103.944 Y174.150 E28.23195
G1 X109.740 Y179.946 E28.63938
G1 X109.189 Y179.946 E28.66676
G1 X103.944 Y174.701 E29.03547
G1 X103.944 Y175.252 E29.06285
G1 X108.638 Y179.946 E29.39283
G1 X108.088 Y179.946 E29.42021
G1 X103.944 Y175.802 E29.71148
G1 X103.944 Y176.353 E29.73886
G1 X107.537 Y179.946 E29.99140
G1 X106.986 Y179.946 E30.01878
G1 X103.775 Y176.734 E30.24452
G1 X103.224 Y176.734 E30.27190
G1 X106.435 Y179.946 E30.49765
G1 X105.884 Y179.946 E30.52503
G1 X102.673 Y176.734 E30.75077
G1 X102.122 Y176.734 E30.77815
G1 X105.333 Y179.946 E31.00390
G1 X104.783 Y179.946 E31.03128
G1 X101.571 Y176.734 E31.25702
G1 X101.021 Y176.734 E31.28440
G1 X104.232 Y179.946 E31.51015
G1 X103.681 Y179.946 E31.53753
G1 X100.470 Y176.734 E31.76327
G1 X99.919 Y176.734 E31.79065
G1 X103.130 Y179.946 E32.01640
G1 X102.579 Y179.946 E32.04378
G1 X99.368 Y176.734 E32.26952
G1 X98.817 Y176.734 E32.29690
G1 X102.028 Y179.946 E32.52265
G1 X101.478 Y179.946 E32.55003
G1 X98.267 Y176.734 E32.77577
G1 X97.716 Y176.734 E32.80315
G1 X100.927 Y179.946 E33.02890
G1 X100.376 Y179.946 E33.05628
G1 X97.165 Y176.734 E33.28202
G1 X96.614 Y176.734 E33.30940
G1 X99.825 Y179.946 E33.53515
G1 X99.274 Y179.946 E33.56253
G1 X96.063 Y176.734 E33.78827
G1 X95.512 Y176.734 E33.81565
G1 X98.724 Y179.946 E34.04140
G1 X98.173 Y179.946 E34.06878
G1 X94.962 Y176.734 E34.29452
G1 X94.411 Y176.734 E34.32190
G1 X97.622 Y179.946 E34.54765
G1 X97.071 Y179.946 E34.57503
G1 X93.860 Y176.734 E34.80077
G1 X93.309 Y176.734 E34.82815
G1 X96.520 Y179.946 E35.05390
G1 X95.969 Y179.946 E35.08128
G1 X92.758 Y176.734 E35.30702
G1 X92.207 Y176.734 E35.33440
G1 X95.419 Y179.946 E35.56015
G1 X94.868 Y179.946 E35.58753
G1 X91.657 Y176.734 E35.81327
G1 X91.106 Y176.734 E35.84065
G1 X94.317 Y179.946 E36.06640
G1 X93.766 Y179.946 E36.09378
G1 X90.555 Y176.734 E36.31952
G1 X90.004 Y176.734 E36.34690
G1 X93.215 Y179.946 E36.57264
G1 X92.664 Y179.946 E36.60003
G1 X89.453 Y176.734 E36.82577
G1 X88.902 Y176.734 E36.85315
G1 X92.114 Y179.946 E37.07889
G1 X91.563 Y179.946 E37.10628
G1 X88.352 Y176.734 E37.33202
G1 X87.801 Y176.734 E37.35940
G1 X91.012 Y179.946 E37.58514
G1 X90.461 Y179.946 E37.61253
G1 X87.250 Y176.734 E37.83827
G1 X86.699 Y176.734 E37.86565
G1 X89.910 Y179.946 E38.09139
G1 X89.360 Y179.946 E38.11878
G1 X86.148 Y176.734 E38.34452
G1 X85.598 Y176.734 E38.37190
G1 X88.809 Y179.946 E38.59764
G1 X88.258 Y179.946 E38.62503
G1 X83.989 Y175.677 E38.92510
G1 X84.354 Y175.491 E38.94546
G1 X85.156 Y176.292 E39.00179
G1 X85.156 Y175.742 E39.02917
G1 X84.668 Y175.254 E39.06344
G1 X84.943 Y174.978 E39.08280
G1 X85.156 Y175.191 E39.09774
G1 X83.572 Y175.810 F9000.000
G1 X87.707 Y179.946 E39.38847 F600.000
G1 X87.156 Y179.946 E39.41585
G1 X83.088 Y175.877 E39.70184
G1 X82.505 Y175.845 E39.73088
G1 X86.605 Y179.946 E40.01915
G1 X86.055 Y179.946 E40.04653
G1 X81.619 Y175.510 E40.35836
G1 X81.444 Y175.886 E40.37898
G1 X85.504 Y179.946 E40.66435
G1 X84.953 Y179.946 E40.69173
G1 X81.444 Y176.437 E40.93837
G1 X81.444 Y176.988 E40.96576
G1 X84.402 Y179.946 E41.17368
G1 X83.851 Y179.946 E41.20106
G1 X81.444 Y177.539 E41.37026
G1 X81.444 Y178.090 E41.39764
G1 X83.300 Y179.946 E41.52812
G1 X82.750 Y179.946 E41.55550
G1 X81.444 Y178.640 E41.64726
G1 X81.444 Y179.191 E41.67464
G1 X82.199 Y179.946 E41.72767
G1 X81.648 Y179.946 E41.75505
G1 X81.444 Y179.742 E41.76936
G1 E35.76936 F1800.00000
G92 E0
G1 X84.404 Y171.131 F9000.000
G1 E6.00000 F1800.00000
G1 X81.008 Y167.734 E6.24425 F600.000
G1 X81.571 Y167.734 E6.27290
G1 X85.156 Y171.319 E6.53065
G1 X85.156 Y170.755 E6.55930
G1 X82.135 Y167.734 E6.77653
G1 X82.698 Y167.734 E6.80518
G1 X85.156 Y170.192 E6.98189
G1 X85.156 Y169.628 E7.01054
G1 X83.262 Y167.734 E7.14673
G1 X83.825 Y167.734 E7.17538
G1 X85.156 Y169.065 E7.27106
G1 X85.156 Y168.501 E7.29971
G1 X84.389 Y167.734 E7.35487
G1 X84.952 Y167.734 E7.38352
G1 X85.156 Y167.938 E7.39816
G1 X83.540 Y170.830 F9000.000
G1 X80.444 Y167.734 E7.62075 F600.000
G1 X79.881 Y167.734 E7.64940
G1 X82.951 Y170.805 E7.87020
G1 X82.462 Y170.879 E7.89535
G1 X79.318 Y167.734 E8.12150
G1 X79.137 Y168.118 E8.14303
G1 X82.048 Y171.028 E8.35236
G1 X81.689 Y171.233 E8.37337
G1 X79.030 Y168.574 E8.56457
G1 X78.944 Y169.052 E8.58925
G1 X80.838 Y170.946 E8.72544
G1 X80.275 Y170.946 E8.75409
G1 X78.944 Y169.615 E8.84977
G1 X78.944 Y170.179 E8.87842
G1 X79.711 Y170.946 E8.93358
G1 X79.148 Y170.946 E8.96223
G1 X78.944 Y170.742 E8.97687
G1 X81.169 Y172.051 F9000.000
G1 X81.048 Y172.556 E9.00241 F600.000
G1 X80.993 Y172.945 E9.02178
G1 X80.981 Y173.200 E9.03431
G1 X80.981 Y173.480 F9000.000
G1 X80.993 Y173.735 E9.04684 F600.000
G1 X81.046 Y174.106 E9.06531
G1 X81.326 Y174.501 E9.08913
G1 E3.08913 F1800.00000
G92 E0
G1 X78.853 Y167.840 F9000.000
G1 E6.00000 F1800.00000
G1 X77.853 Y167.840 E6.10665 F600.000
G1 E0.10665 F1800.00000
G92 E0
G1 X62.463 Y172.640 F9000.000
G1 E6.00000 F1800.00000
G1 X62.428 Y173.017 E6.01865 F600.000
G1 X62.322 Y173.381 E6.03730
G1 X62.150 Y173.720 E6.05599
G1 X61.906 Y174.032 E6.07547
G1 X61.537 Y174.336 E6.09901
G1 X61.191 Y174.512 E6.11811
G1 X60.827 Y174.618 E6.13676
G1 X60.450 Y174.653 E6.15541
G1 X60.073 Y174.618 E6.17406
G1 X59.709 Y174.512 E6.19271
G1 X59.363 Y174.336 E6.21184
G1 X58.988 Y174.026 E6.23574
G1 X58.750 Y173.719 E6.25487
G1 X58.578 Y173.381 E6.27352
G1 X58.472 Y173.017 E6.29217
G1 X58.437 Y172.640 E6.31082
G1 X58.472 Y172.266 E6.32930
G1 X58.579 Y171.881 E6.34896
G1 X58.754 Y171.556 E6.36715
G1 X58.982 Y171.262 E6.38547
