; generated by Slic3r 1.2.9 on 2018-05-11 at 13:26:02

; external perimeters extrusion width = 0.40mm
; perimeters extrusion width = 0.62mm
; infill extrusion width = 0.33mm
; solid infill extrusion width = 0.62mm
; top infill extrusion width = 0.20mm

M106 S256; Turn on fan to 100% power
M104 S140; turn on extruder temperature at S value
M140 S60; turn on bed temperature at S value
G28; home all axes
M84; disable motors
G1 Z15 F15000; have Z move to 20mm at 15000 mm/min
M190 S55; turn on bed temperature at S value and wait
M140 S55; turn on bed temperature at S value (printing temperature)
M109 S200; turn on extruder temperature at S value and wait (printing temperature)
M104 S200; turn on extruder temperature at S value
G1 Z0 F12000; move Z back to home
G21 ; set units to millimeters
G90 ; use absolute coordinates
M82 ; use absolute distances for extrusion
G92 E0
M106 S255
;Layer change
G1 E-6.00000 F1800.00000
G92 E0
G1 Z0.300 F9000.000
G1 X113.424 Y12.830 F9000.000
G1 E6.00000 F1800.00000
G1 X114.123 Y11.143 E6.08986 F600.000
G1 X117.123 Y8.143 E6.29866
G1 X118.810 Y7.444 E6.38852
G1 X153.810 Y7.444 E8.11105
G1 X155.497 Y8.143 E8.20091
G1 X158.497 Y11.143 E8.40971 F600.000
G1 X159.196 Y12.830 E8.49957
G1 X159.196 Y27.030 E9.19843
G1 X158.497 Y28.717 E9.28829
G1 X155.497 Y31.717 E9.49709
G1 X153.810 Y32.416 E9.58695
G1 X118.810 Y32.416 E11.30948
G1 X117.123 Y31.717 E11.39934
G1 X114.123 Y28.717 E11.60814
G1 X113.424 Y27.030 E11.69800
G1 X113.424 Y12.890 E12.39390
G1 E6.39390 F1800.00000
G92 E0
G1 X137.035 Y24.805 F9000.000
G1 E6.00000 F1800.00000
G1 X137.035 Y29.255 E6.21901 F600.000
G1 X127.585 Y29.255 E6.68409
G1 X127.585 Y24.805 E6.90310
G1 X136.975 Y24.805 E7.36523
G1 X137.435 Y24.805 F9000.000
G1 X119.933 Y24.431 F9000.000
G1 X119.908 Y24.831 E7.38494 F600.000
G1 X119.822 Y25.129 E7.40018
G1 X119.683 Y25.401 E7.41524
G1 X119.495 Y25.643 E7.43030
G1 X119.266 Y25.845 E7.44537
G1 X119.002 Y26.001 E7.46043
G1 X118.714 Y26.105 E7.47549
G1 X118.412 Y26.153 E7.49055
G1 X118.103 Y26.143 E7.50579
G1 X117.715 Y26.043 E7.52551
G1 X117.439 Y25.903 E7.54074
G1 X117.197 Y25.715 E7.55581
G1 X116.995 Y25.486 E7.57087
G1 X116.839 Y25.222 E7.58593
G1 X116.735 Y24.934 E7.60099
G1 X116.687 Y24.629 E7.61623
G1 X116.712 Y24.229 E7.63594
G1 X116.798 Y23.931 E7.65118
G1 X116.937 Y23.659 E7.66624
G1 X117.125 Y23.417 E7.68131
G1 X117.354 Y23.215 E7.69637
G1 X117.618 Y23.059 E7.71143
G1 X117.906 Y22.955 E7.72649
G1 X118.208 Y22.907 E7.74155 F600.000
G1 X118.517 Y22.917 E7.75679
G1 X118.905 Y23.017 E7.77651
G1 X119.181 Y23.157 E7.79174
G1 X119.423 Y23.345 E7.80681
G1 X119.625 Y23.574 E7.82187
G1 X119.781 Y23.838 E7.83693
G1 X119.885 Y24.126 E7.85199
G1 X119.924 Y24.372 E7.86428
G1 X120.282 Y24.628 F9000.000
G1 E1.86428 F1800.00000
G92 E0
G1 X117.220 Y26.419 F9000.000
G1 E6.00000 F1800.00000
G1 X116.421 Y26.419 E6.03935 F600.000
G1 X116.421 Y25.607 E6.07931
G1 X116.591 Y25.561 E6.08800
G1 X116.681 Y25.713 E6.09673
G1 X116.932 Y25.998 E6.11538
G1 X117.274 Y26.263 E6.13668
G1 X117.240 Y26.363 E6.14186
G1 E0.14186 F1800.00000
G92 E0
G1 X117.585 Y21.255 F9000.000
G1 E6.00000 F1800.00000
G1 X117.585 Y13.805 E6.36665 F600.000
G1 X121.035 Y13.805 E6.53644
G1 X121.035 Y21.255 E6.90310
G1 X117.645 Y21.255 E7.06994
G1 X117.185 Y21.255 F9000.000
G1 X142.225 Y23.577 F9000.000
G1 X142.371 Y22.923 E7.10293 F600.000
G1 X142.542 Y22.492 E7.12573
G1 X142.765 Y22.086 E7.14853
G1 X143.176 Y21.557 E7.18152
G1 X143.686 Y21.107 E7.21499
G1 X144.272 Y20.761 E7.24846
G1 X144.911 Y20.530 E7.28193
G1 X145.583 Y20.424 E7.31540 F600.000
G1 X146.263 Y20.445 E7.34887
G1 X146.927 Y20.594 E7.38235
G1 X147.551 Y20.864 E7.41582
G1 X148.105 Y21.240 E7.44881
G1 X148.443 Y21.558 E7.47161
G1 X148.738 Y21.914 E7.49441
G1 X149.079 Y22.492 E7.52740
G1 X149.310 Y23.131 E7.56087
G1 X149.416 Y23.803 E7.59435
G1 X149.395 Y24.483 E7.62781
G1 X149.249 Y25.137 E7.66081
G1 X149.078 Y25.568 E7.68361
G1 X148.855 Y25.974 E7.70640
G1 X148.444 Y26.503 E7.73940
G1 X147.934 Y26.953 E7.77287
G1 X147.348 Y27.299 E7.80634
G1 X146.709 Y27.530 E7.83981
G1 X146.037 Y27.636 E7.87328
G1 X145.357 Y27.615 E7.90675
G1 X144.693 Y27.466 E7.94023
G1 X144.069 Y27.196 E7.97370
G1 X143.515 Y26.820 E8.00669
G1 X143.177 Y26.502 E8.02949
G1 X142.882 Y26.146 E8.05228
G1 X142.541 Y25.568 E8.08528
G1 X142.310 Y24.929 E8.11875
G1 X142.204 Y24.257 E8.15222
G1 X142.223 Y23.637 E8.18274
G1 X142.609 Y23.626 F9000.000
G1 X142.741 Y23.037 E8.21245 F600.000
G1 X142.892 Y22.657 E8.23256
G1 X143.088 Y22.299 E8.25267
G1 X143.458 Y21.822 E8.28237
G1 X143.914 Y21.420 E8.31226
G1 X144.436 Y21.111 E8.34214
G1 X145.008 Y20.905 E8.37202
G1 X145.607 Y20.810 E8.40190 F600.000
G1 X146.214 Y20.829 E8.43179
G1 X146.807 Y20.962 E8.46167
G1 X147.364 Y21.203 E8.49156
G1 X147.863 Y21.542 E8.52126
G1 X148.161 Y21.822 E8.54137
G1 X148.422 Y22.137 E8.56148
G1 X148.729 Y22.656 E8.59119
G1 X148.935 Y23.228 E8.62107
G1 X149.030 Y23.827 E8.65096
G1 X149.011 Y24.434 E8.68084
G1 X148.879 Y25.023 E8.71054
G1 X148.728 Y25.403 E8.73065
G1 X148.532 Y25.761 E8.75076
G1 X148.162 Y26.238 E8.78047
G1 X147.706 Y26.640 E8.81035
G1 X147.184 Y26.949 E8.84024
G1 X146.612 Y27.155 E8.87012
G1 X146.013 Y27.250 E8.90000
G1 X145.406 Y27.231 E8.92989
G1 X144.813 Y27.098 E8.95977
G1 X144.256 Y26.857 E8.98965
G1 X143.757 Y26.518 E9.01936
G1 X143.459 Y26.238 E9.03947
G1 X143.198 Y25.923 E9.05958
G1 X142.891 Y25.404 E9.08929
G1 X142.685 Y24.832 E9.11917
G1 X142.590 Y24.233 E9.14905
G1 X142.608 Y23.686 E9.17598
G1 X142.299 Y23.374 F9000.000
G1 E3.17598 F1800.00000
G92 E0
G1 X150.199 Y25.641 F9000.000
G1 E6.00000 F1800.00000
G1 X150.199 Y16.419 E6.45382 F600.000
G1 X154.421 Y16.419 E6.66157
G1 X154.421 Y25.641 E7.11540
G1 X150.259 Y25.641 E7.32019
G1 X150.585 Y25.255 F9000.000
G1 X150.585 Y16.805 E7.73606 F600.000
G1 X154.035 Y16.805 E7.90585
G1 X154.035 Y25.255 E8.32172
G1 X150.645 Y25.255 E8.48856
G1 X150.185 Y25.255 F9000.000
G1 X150.810 Y15.043 F9000.000
G1 X150.433 Y15.008 E8.50720 F600.000
G1 X150.069 Y14.902 E8.52585
G1 X149.723 Y14.726 E8.54496
G1 X149.354 Y14.422 E8.56850
G1 X149.110 Y14.110 E8.58797
G1 X148.938 Y13.771 E8.60667
G1 X148.832 Y13.407 E8.62532
G1 X148.797 Y13.030 E8.64397
G1 X148.832 Y12.653 E8.66261
G1 X148.938 Y12.289 E8.68126
G1 X149.110 Y11.951 E8.69992
G1 X149.342 Y11.652 E8.71857
G1 X149.627 Y11.401 E8.73722
G1 X149.953 Y11.208 E8.75587
G1 X150.318 Y11.077 E8.77497
G1 X150.792 Y11.016 E8.79850 F600.000
G1 X151.186 Y11.052 E8.81798
G1 X151.551 Y11.158 E8.83667
G1 X151.889 Y11.330 E8.85533
G1 X152.188 Y11.562 E8.87398
G1 X152.439 Y11.847 E8.89263
G1 X152.632 Y12.174 E8.91132
G1 X152.765 Y12.546 E8.93080
G1 X152.825 Y13.031 E8.95482
G1 X152.763 Y13.522 E8.97917
G1 X152.632 Y13.887 E8.99830
G1 X152.439 Y14.213 E9.01695
G1 X152.188 Y14.498 E9.03560
G1 X151.889 Y14.730 E9.05425
G1 X151.551 Y14.902 E9.07290
G1 X151.187 Y15.008 E9.09155
G1 X150.870 Y15.038 E9.10725
G1 X150.810 Y14.656 F9000.000
G1 X150.505 Y14.627 E9.12231 F600.000
G1 X150.211 Y14.542 E9.13737
G1 X149.936 Y14.401 E9.15260
G1 X149.632 Y14.151 E9.17198
G1 X149.437 Y13.902 E9.18755
G1 X149.298 Y13.629 E9.20263
G1 X149.213 Y13.335 E9.21769
G1 X149.184 Y13.030 E9.23275
G1 X149.213 Y12.725 E9.24781
G1 X149.298 Y12.431 E9.26287
G1 X149.437 Y12.159 E9.27793
G1 X149.625 Y11.917 E9.29300
G1 X149.854 Y11.715 E9.30806
G1 X150.118 Y11.559 E9.32312
G1 X150.409 Y11.454 E9.33835
G1 X150.799 Y11.404 E9.35772 F600.000
G1 X151.114 Y11.433 E9.37329
G1 X151.409 Y11.518 E9.38837
G1 X151.681 Y11.657 E9.40343
G1 X151.923 Y11.845 E9.41850
G1 X152.125 Y12.074 E9.43356
G1 X152.281 Y12.338 E9.44864
G1 X152.388 Y12.636 E9.46421
G1 X152.437 Y13.030 E9.48376
G1 X152.386 Y13.431 E9.50364
G1 X152.281 Y13.722 E9.51888
G1 X152.125 Y13.986 E9.53394
G1 X151.923 Y14.215 E9.54900
G1 X151.681 Y14.403 E9.56407
G1 X151.409 Y14.542 E9.57913
G1 X151.115 Y14.627 E9.59419
G1 X150.870 Y14.650 E9.60630
G1 X150.649 Y14.916 F9000.000
G1 X153.199 Y13.441 F9000.000
G1 X156.199 Y13.441 E9.75394 F600.000
G1 X156.199 Y26.419 E10.39270
G1 X153.199 Y26.419 E10.54034
G1 X153.199 Y29.419 E10.68799
G1 X137.421 Y29.419 E11.46454
G1 X137.421 Y24.419 E11.71061
G1 X127.199 Y24.419 E12.21365
G1 X127.199 Y29.419 E12.45973
G1 X119.421 Y29.419 E12.84256
G1 X119.421 Y26.419 E12.99021
G1 X119.387 Y26.419 E12.99184
G1 X119.341 Y26.249 E13.00053
G1 X119.493 Y26.159 E13.00925
G1 X119.778 Y25.908 E13.02790
G1 X120.010 Y25.609 E13.04655
G1 X120.182 Y25.271 E13.06520
G1 X120.290 Y24.898 E13.08433
G1 X120.321 Y24.413 E13.10824
G1 X120.260 Y24.029 E13.12736
G1 X120.132 Y23.673 E13.14601
G1 X119.939 Y23.347 E13.16466
G1 X119.688 Y23.062 E13.18331
G1 X119.389 Y22.830 E13.20196
G1 X119.043 Y22.654 E13.22109
G1 X118.572 Y22.533 E13.24500
G1 X118.184 Y22.521 E13.26412
G1 X117.809 Y22.580 E13.28277
G1 X117.453 Y22.708 E13.30142
G1 X117.127 Y22.901 E13.32007
G1 X116.842 Y23.152 E13.33872
G1 X116.577 Y23.494 E13.36002
G1 X116.421 Y23.440 E13.36816
G1 X116.421 Y13.441 E13.86029
G1 X117.199 Y13.441 E13.89862
G1 X117.199 Y21.641 E14.30218
G1 X121.421 Y21.641 E14.50993
G1 X121.421 Y13.419 E14.91454
G1 X119.421 Y13.419 E15.01297
G1 X119.421 Y10.441 E15.15957
G1 X153.199 Y10.441 E16.82199
G1 X153.199 Y13.381 E16.96669
G1 X153.585 Y13.055 F9000.000
G1 X156.585 Y13.055 E17.11433 F600.000
G1 X156.585 Y26.805 E17.79104
G1 X153.585 Y26.805 E17.93868
G1 X153.585 Y29.805 E18.08633
G1 X119.035 Y29.805 E19.78671
G1 X119.035 Y26.805 E19.93436
G1 X116.035 Y26.805 E20.08200
G1 X116.035 Y13.055 E20.75871
G1 X119.035 Y13.055 E20.90635
G1 X119.035 Y10.055 E21.05400
G1 X153.585 Y10.055 E22.75438
G1 X153.585 Y12.995 E22.89907
G1 X153.585 Y13.455 F9000.000
G1 X152.896 Y11.805 F9000.000
G1 X152.675 Y11.584 E22.92431 F600.000
G1 X152.712 Y10.724 E22.99399
G1 X152.916 Y10.928 E23.01729
G1 X151.883 Y11.097 F9000.000
G1 X151.814 Y11.040 E23.02169 F600.000
G1 X151.724 Y10.820 E23.03338
G1 X151.255 Y10.750 E23.05676
G1 X150.777 Y10.728 E23.08031
G1 X150.256 Y10.761 E23.10598
G1 X149.714 Y10.854 E23.13304
G1 X149.400 Y11.267 F9000.000
G1 X148.857 Y10.724 E23.17120 F600.000
G1 X148.306 Y10.724 E23.19857
G1 X149.116 Y11.534 E23.25548
G1 X148.877 Y11.846 E23.27500
G1 X147.756 Y10.724 E23.35381
G1 X147.205 Y10.724 E23.38118
G1 X148.691 Y12.211 E23.48563
G1 X148.563 Y12.633 E23.50757
G1 X146.654 Y10.724 E23.64171
G1 X146.104 Y10.724 E23.66908
G1 X148.513 Y13.134 E23.83845
G1 X148.622 Y13.793 E23.87165
G1 X145.553 Y10.724 E24.08735
G1 X145.002 Y10.724 E24.11472
G1 X150.413 Y16.136 E24.49503
G1 X150.964 Y16.136 E24.52240
G1 X150.047 Y15.218 E24.58688
G1 X150.706 Y15.327 E24.62008
G1 X151.515 Y16.136 E24.67693
G1 X152.065 Y16.136 E24.70430
G1 X151.207 Y15.277 E24.76464
G1 X151.629 Y15.149 E24.78659
G1 X152.616 Y16.136 E24.85593
G1 X153.167 Y16.136 E24.88330
G1 X151.994 Y14.963 E24.96571
G1 X152.306 Y14.724 E24.98523
G1 X153.718 Y16.136 E25.08445
G1 X154.268 Y16.136 E25.11182
G1 X152.573 Y14.440 E25.23099
G1 X152.794 Y14.111 E25.25071
G1 X155.916 Y17.232 E25.47010
G1 X155.916 Y16.682 E25.49747
G1 X152.965 Y13.731 E25.70483
G1 X153.509 Y13.724 E25.73186
G1 X155.916 Y16.131 E25.90099
G1 X155.916 Y15.580 E25.92836
G1 X154.060 Y13.724 E26.05879
G1 X154.611 Y13.724 E26.08616
G1 X155.916 Y15.029 E26.17788
G1 X155.916 Y14.479 E26.20525
G1 X155.161 Y13.724 E26.25826
G1 X155.712 Y13.724 E26.28563
G1 X155.916 Y13.928 E26.29994
G1 X155.916 Y17.783 F9000.000
G1 X154.704 Y16.572 E26.38507 F600.000
G1 X154.704 Y17.122 E26.41244
G1 X155.916 Y18.334 E26.49756
G1 X155.916 Y18.884 E26.52493
G1 X154.704 Y17.673 E26.61006
G1 X154.704 Y18.224 E26.63742
G1 X155.916 Y19.435 E26.72255
G1 X155.916 Y19.986 E26.74992
G1 X154.704 Y18.775 E26.83504
G1 X154.704 Y19.325 E26.86241
G1 X155.916 Y20.536 E26.94754
G1 X155.916 Y21.087 E26.97491
G1 X154.704 Y19.876 E27.06003
G1 X154.704 Y20.427 E27.08740
G1 X155.916 Y21.638 E27.17253
G1 X155.916 Y22.189 E27.19989
G1 X154.704 Y20.977 E27.28502
G1 X154.704 Y21.528 E27.31239
G1 X155.916 Y22.739 E27.39751
G1 X155.916 Y23.290 E27.42488
G1 X154.704 Y22.079 E27.51001
G1 X154.704 Y22.629 E27.53738
G1 X155.916 Y23.841 E27.62250
G1 X155.916 Y24.391 E27.64987
G1 X154.704 Y23.180 E27.73500
G1 X154.704 Y23.731 E27.76237
G1 X155.916 Y24.942 E27.84749
G1 X155.916 Y25.493 E27.87486
G1 X154.704 Y24.282 E27.95998
G1 X154.704 Y24.832 E27.98735
G1 X155.916 Y26.043 E28.07248
G1 X155.457 Y26.136 E28.09572
G1 X154.897 Y25.576 E28.13507
G1 X152.723 Y26.155 F9000.000
G1 X152.492 Y25.924 E28.15126 F600.000
G1 X151.942 Y25.924 E28.17863
G1 X152.723 Y26.706 E28.23353
G1 X152.916 Y27.449 E28.27171
G1 X151.391 Y25.924 E28.37886
G1 X150.840 Y25.924 E28.40623
G1 X152.916 Y28.000 E28.55209
G1 X152.916 Y28.550 E28.57946
G1 X150.290 Y25.924 E28.76403
G1 X149.916 Y25.550 F9000.000
G1 X149.715 Y25.350 E28.77813 F600.000
G1 X149.364 Y25.550 E28.79819
G1 X152.913 Y29.098 E29.04760
G1 X152.399 Y29.136 E29.07318
G1 X149.178 Y25.914 E29.29959
G1 X148.960 Y26.247 E29.31936
G1 X151.849 Y29.136 E29.52236
G1 X151.298 Y29.136 E29.54973
G1 X148.720 Y26.557 E29.73094
G1 X148.446 Y26.835 E29.75029
G1 X150.747 Y29.136 E29.91200
G1 X150.197 Y29.136 E29.93937
G1 X148.154 Y27.093 E30.08294
G1 X147.823 Y27.313 E30.10267
G1 X149.646 Y29.136 E30.23076
G1 X149.095 Y29.136 E30.25813
G1 X147.477 Y27.518 E30.37183
G1 X147.082 Y27.673 E30.39295
G1 X148.544 Y29.136 E30.49576
G1 X147.994 Y29.136 E30.52313
G1 X146.670 Y27.811 E30.61619
G1 X146.194 Y27.887 E30.64012
G1 X147.443 Y29.136 E30.72789
G1 X146.892 Y29.136 E30.75526
G1 X145.668 Y27.911 E30.84132
G1 X145.067 Y27.861 E30.87128
G1 X146.342 Y29.136 E30.96085
G1 X145.791 Y29.136 E30.98822
G1 X144.306 Y27.651 E31.09257
G1 X145.240 Y29.136 F9000.000
G1 X126.829 Y10.724 E32.38657 F600.000
G1 X126.278 Y10.724 E32.41394
G1 X144.689 Y29.136 E33.70795
G1 X144.139 Y29.136 E33.73531
G1 X125.728 Y10.724 E35.02932
G1 X125.177 Y10.724 E35.05669
G1 X143.588 Y29.136 E36.35070
G1 X143.037 Y29.136 E36.37806
G1 X124.626 Y10.724 E37.67207
G1 X124.076 Y10.724 E37.69944
G1 X137.487 Y24.136 E38.64203
G1 X137.704 Y24.353 F9000.000
G1 X142.487 Y29.136 E38.97814 F600.000
G1 X141.936 Y29.136 E39.00551
G1 X137.704 Y24.904 E39.30292
G1 X137.704 Y25.455 E39.33029
G1 X141.385 Y29.136 E39.58900
G1 X140.835 Y29.136 E39.61637
G1 X137.704 Y26.005 E39.83637
G1 X137.704 Y26.556 E39.86374
G1 X140.284 Y29.136 E40.04503
G1 X139.733 Y29.136 E40.07240
G1 X137.704 Y27.107 E40.21499
G1 X137.704 Y27.658 E40.24236
G1 X139.182 Y29.136 E40.34624
G1 X138.632 Y29.136 E40.37361
G1 X137.704 Y28.208 E40.43879
G1 X137.704 Y28.759 E40.46616
G1 X138.081 Y29.136 E40.49263
G1 X136.936 Y24.136 F9000.000
G1 X123.525 Y10.724 E41.43522 F600.000
G1 X122.974 Y10.724 E41.46259
G1 X136.385 Y24.136 E42.40518
G1 X135.835 Y24.136 E42.43255
G1 X122.423 Y10.724 E43.37513
G1 X121.873 Y10.724 E43.40250
G1 X135.284 Y24.136 E44.34509
G1 X134.733 Y24.136 E44.37246
G1 X121.322 Y10.724 E45.31505
G1 X120.771 Y10.724 E45.34241
G1 X134.182 Y24.136 E46.28500
G1 X133.632 Y24.136 E46.31237
G1 X120.221 Y10.724 E47.25496
G1 X119.707 Y10.762 E47.28054
G1 X133.081 Y24.136 E48.22051
G1 X132.530 Y24.136 E48.24788
G1 X119.704 Y11.310 E49.14934
G1 X119.704 Y11.860 E49.17671
G1 X120.980 Y13.136 E49.26634
G1 X120.429 Y13.136 E49.29371
G1 X119.704 Y12.411 E49.34463
G1 X119.704 Y12.962 E49.37200
G1 X119.878 Y13.136 E49.38422
G1 X121.704 Y13.860 F9000.000
G1 X131.980 Y24.136 E50.10641 F600.000
G1 X131.429 Y24.136 E50.13377
G1 X121.704 Y14.411 E50.81725
G1 X121.704 Y14.962 E50.84462
G1 X130.878 Y24.136 E51.48940
G1 X130.328 Y24.136 E51.51677
G1 X121.704 Y15.512 E52.12283
G1 X121.704 Y16.063 E52.15020
G1 X129.777 Y24.136 E52.71757
G1 X129.226 Y24.136 E52.74494
G1 X121.704 Y16.614 E53.27359
G1 X121.704 Y17.165 E53.30096
G1 X128.675 Y24.136 E53.79092
G1 X128.125 Y24.136 E53.81828
G1 X121.704 Y17.715 E54.26953
G1 X121.704 Y18.266 E54.29690
G1 X127.574 Y24.136 E54.70944
G1 X127.023 Y24.136 E54.73681
G1 X121.704 Y18.817 E55.11065
G1 X121.704 Y19.367 E55.13802
G1 X126.916 Y24.578 E55.50428
G1 X126.916 Y25.129 E55.53165
G1 X121.704 Y19.918 E55.89791
G1 X121.704 Y20.469 E55.92527
G1 X126.916 Y25.680 E56.29153
G1 X126.916 Y26.231 E56.31890
G1 X121.704 Y21.019 E56.68516
