; generated by Slic3r 1.2.9 on 2017-01-27 at 13:45:51

; external perimeters extrusion width = 0.40mm
; perimeters extrusion width = 0.56mm
; infill extrusion width = 0.38mm
; solid infill extrusion width = 0.56mm
; top infill extrusion width = 0.22mm

M106 S256; Turn on fan to 100% power
M104 S140; turn on extruder temperature at S value
M140 S60; turn on bed temperature at S value
G28; home all axes
M84; disable motors
G1 Z15 F15000; have Z move to 20mm at 15000 mm/min
M190 S55; turn on bed temperature at S value and wait
M140 S55; turn on bed temperature at S value (printing temperature)
M109 S205; turn on extruder temperature at S value and wait (printing temperature)
M104 S205; turn on extruder temperature at S value
G1 Z0 F12000; move Z back to home
G21 ; set units to millimeters
G90 ; use absolute coordinates
M82 ; use absolute distances for extrusion
G92 E0
M106 S255
;Layer change
G1 E-6.00000 F1800.00000
G92 E0
G1 Z0.300 F9000.000
G1 X49.145 Y12.217 F9000.000
G1 E6.00000 F1800.00000
G1 X49.158 Y12.165 E6.00269 F600.000
G1 X50.249 Y10.948 E6.08402
G1 X52.150 Y10.364 E6.18304
G1 X127.850 Y10.364 E9.95206
G1 X129.435 Y10.758 E10.03340
G1 X130.652 Y11.849 E10.11473 F600.000
G1 X131.236 Y13.750 E10.21375
G1 X131.236 Y166.250 E17.80657
G1 X130.842 Y167.835 E17.88790
G1 X129.751 Y169.052 E17.96923
G1 X127.850 Y169.636 E18.06825
G1 X52.150 Y169.636 E21.83728
G1 X50.565 Y169.242 E21.91861
G1 X49.348 Y168.151 E21.99994
G1 X48.764 Y166.250 E22.09896
G1 X48.764 Y13.750 E29.69178
G1 X49.131 Y12.275 E29.76744
G1 E23.76744 F1800.00000
G92 E0
G1 X60.238 Y155.969 F9000.000
G1 E6.00000 F1800.00000
G1 X60.549 Y156.090 E6.01659 F600.000
G1 X61.033 Y156.397 E6.04513
G1 X61.424 Y156.814 E6.07360
G1 X61.619 Y157.122 E6.09174
G1 X61.818 Y157.624 E6.11862
G1 X61.886 Y157.988 E6.13703
G1 X61.885 Y158.551 E6.16509
G1 X61.735 Y159.134 E6.19506
G1 X61.460 Y159.636 E6.22355
G1 X61.249 Y159.891 E6.24004
G1 X61.007 Y160.119 E6.25660
G1 X60.523 Y160.426 E6.28512
G1 X59.980 Y160.602 E6.31354
G1 X59.620 Y160.647 E6.33162
G1 X59.087 Y160.614 E6.35818
G1 X58.762 Y160.531 E6.37491
G1 X58.451 Y160.410 E6.39150
G1 X57.967 Y160.103 E6.42004
G1 X57.576 Y159.686 E6.44851
G1 X57.381 Y159.378 E6.46665
G1 X57.182 Y158.876 E6.49353
G1 X57.114 Y158.512 E6.51194
G1 X57.115 Y157.949 E6.54000
G1 X57.265 Y157.366 E6.56997
G1 X57.540 Y156.864 E6.59846
G1 X57.751 Y156.609 E6.61495
G1 X57.993 Y156.381 E6.63151
G1 X58.477 Y156.074 E6.66003
G1 X59.020 Y155.898 E6.68845
G1 X59.380 Y155.853 E6.70653 F600.000
G1 X59.913 Y155.886 E6.73309
G1 X60.180 Y155.954 E6.74683
G1 X60.120 Y156.337 F9000.000
G1 X60.374 Y156.436 E6.76039 F600.000
G1 X60.785 Y156.697 E6.78464
G1 X61.118 Y157.052 E6.80886
G1 X61.273 Y157.298 E6.82337
G1 X61.445 Y157.732 E6.84660
G1 X61.500 Y158.023 E6.86137
G1 X61.500 Y158.502 E6.88523
G1 X61.374 Y158.991 E6.91036
G1 X61.140 Y159.418 E6.93459
G1 X60.967 Y159.627 E6.94808
G1 X60.769 Y159.813 E6.96163
G1 X60.358 Y160.074 E6.98587
G1 X59.896 Y160.224 E7.01005
G1 X59.607 Y160.260 E7.02452
G1 X59.147 Y160.232 E7.04747
G1 X58.880 Y160.163 E7.06121
G1 X58.626 Y160.064 E7.07476
G1 X58.215 Y159.803 E7.09901
G1 X57.882 Y159.448 E7.12323
G1 X57.727 Y159.202 E7.13775
G1 X57.555 Y158.768 E7.16098
G1 X57.500 Y158.477 E7.17575
G1 X57.500 Y157.998 E7.19960
G1 X57.626 Y157.509 E7.22474
G1 X57.860 Y157.082 E7.24897
G1 X58.033 Y156.873 E7.26246
G1 X58.231 Y156.687 E7.27600
G1 X58.642 Y156.426 E7.30025
G1 X59.104 Y156.276 E7.32443
G1 X59.393 Y156.240 E7.33890 F600.000
G1 X59.853 Y156.268 E7.36185
G1 X60.062 Y156.322 E7.37260
G1 X60.002 Y156.704 F9000.000
G1 X60.198 Y156.781 E7.38311 F600.000
G1 X60.537 Y156.996 E7.40308
G1 X60.811 Y157.289 E7.42304
G1 X60.928 Y157.474 E7.43393
G1 X61.073 Y157.839 E7.45352
G1 X61.114 Y158.059 E7.46465
G1 X61.114 Y158.454 E7.48429
G1 X61.013 Y158.848 E7.50459
G1 X60.819 Y159.200 E7.52457
G1 X60.685 Y159.362 E7.53506
G1 X60.531 Y159.507 E7.54559
G1 X60.193 Y159.722 E7.56556
G1 X59.811 Y159.846 E7.58550
G1 X59.595 Y159.873 E7.59636
G1 X59.207 Y159.849 E7.61570
G1 X58.998 Y159.796 E7.62644
G1 X58.802 Y159.719 E7.63695
G1 X58.463 Y159.504 E7.65692
G1 X58.189 Y159.211 E7.67689
G1 X58.072 Y159.026 E7.68778
G1 X57.927 Y158.661 E7.70736
G1 X57.886 Y158.441 E7.71849
G1 X57.886 Y158.046 E7.73814
G1 X57.987 Y157.652 E7.75843
G1 X58.181 Y157.300 E7.77841
G1 X58.315 Y157.138 E7.78890
G1 X58.469 Y156.993 E7.79943
G1 X58.807 Y156.778 E7.81940
G1 X59.189 Y156.654 E7.83934
G1 X59.405 Y156.627 E7.85020 F600.000
G1 X59.793 Y156.651 E7.86954
G1 X59.944 Y156.690 E7.87729
G1 X60.161 Y156.566 F9000.000
G1 X118.115 Y157.981 F9000.000
G1 X118.177 Y157.654 E7.89388 F600.000
G1 X118.280 Y157.338 E7.91041
G1 X118.555 Y156.837 E7.93885
G1 X118.967 Y156.397 E7.96887
G1 X119.477 Y156.074 E7.99892
G1 X120.020 Y155.898 E8.02734
G1 X120.380 Y155.853 E8.04542 F600.000
G1 X120.913 Y155.886 E8.07198
G1 X121.238 Y155.969 E8.08871
G1 X121.549 Y156.090 E8.10530
G1 X122.033 Y156.397 E8.13384
G1 X122.424 Y156.814 E8.16232
G1 X122.619 Y157.122 E8.18045
G1 X122.817 Y157.623 E8.20725
G1 X122.885 Y157.981 E8.22540
G1 X122.885 Y158.519 E8.25221
G1 X122.823 Y158.846 E8.26879
G1 X122.720 Y159.162 E8.28533
G1 X122.445 Y159.663 E8.31376
G1 X122.033 Y160.103 E8.34379
G1 X121.523 Y160.426 E8.37383
G1 X120.980 Y160.602 E8.40226
G1 X120.620 Y160.647 E8.42033
G1 X120.087 Y160.614 E8.44689
G1 X119.762 Y160.531 E8.46362
G1 X119.451 Y160.410 E8.48022
G1 X118.967 Y160.103 E8.50875
G1 X118.576 Y159.686 E8.53723
G1 X118.381 Y159.378 E8.55536
G1 X118.183 Y158.877 E8.58216
G1 X118.115 Y158.519 E8.60031
G1 X118.115 Y158.041 E8.62413
G1 X118.500 Y158.017 F9000.000
G1 X118.551 Y157.750 E8.63769 F600.000
G1 X118.635 Y157.492 E8.65121
G1 X118.869 Y157.065 E8.67541
G1 X119.215 Y156.697 E8.70058
G1 X119.642 Y156.426 E8.72576
G1 X120.104 Y156.276 E8.74994
G1 X120.393 Y156.240 E8.76441 F600.000
G1 X120.853 Y156.268 E8.78736
G1 X121.120 Y156.337 E8.80109
G1 X121.374 Y156.436 E8.81465
G1 X121.785 Y156.697 E8.83890
G1 X122.118 Y157.052 E8.86312
G1 X122.273 Y157.298 E8.87763
G1 X122.445 Y157.731 E8.90081
G1 X122.500 Y158.017 E8.91534
G1 X122.500 Y158.483 E8.93851
G1 X122.449 Y158.750 E8.95207
G1 X122.365 Y159.008 E8.96559
G1 X122.131 Y159.435 E8.98979
G1 X121.785 Y159.803 E9.01496
G1 X121.358 Y160.074 E9.04014
G1 X120.896 Y160.224 E9.06432
G1 X120.607 Y160.260 E9.07879
G1 X120.147 Y160.232 E9.10174
G1 X119.880 Y160.163 E9.11547
G1 X119.626 Y160.064 E9.12903
G1 X119.215 Y159.803 E9.15328
G1 X118.882 Y159.448 E9.17750
G1 X118.727 Y159.202 E9.19201
G1 X118.555 Y158.769 E9.21519
G1 X118.500 Y158.483 E9.22971
G1 X118.500 Y158.077 E9.24990
G1 X118.886 Y158.054 F9000.000
G1 X118.926 Y157.846 E9.26043 F600.000
G1 X118.991 Y157.645 E9.27094
G1 X119.184 Y157.294 E9.29090
G1 X119.463 Y156.996 E9.31122
G1 X119.807 Y156.778 E9.33153
G1 X120.189 Y156.654 E9.35147
G1 X120.405 Y156.627 E9.36233 F600.000
G1 X120.793 Y156.651 E9.38167
G1 X121.002 Y156.704 E9.39241
G1 X121.198 Y156.781 E9.40292
G1 X121.537 Y156.996 E9.42289
G1 X121.811 Y157.289 E9.44286
G1 X121.928 Y157.474 E9.45375
G1 X122.073 Y157.839 E9.47331
G1 X122.114 Y158.054 E9.48420
G1 X122.114 Y158.446 E9.50375
G1 X122.074 Y158.654 E9.51428
G1 X122.009 Y158.855 E9.52478
G1 X121.816 Y159.206 E9.54475
G1 X121.537 Y159.504 E9.56506
G1 X121.193 Y159.722 E9.58537
G1 X120.811 Y159.846 E9.60531
G1 X120.595 Y159.873 E9.61617
G1 X120.207 Y159.849 E9.63551
G1 X119.998 Y159.796 E9.64625
G1 X119.802 Y159.719 E9.65677
G1 X119.463 Y159.504 E9.67674
G1 X119.189 Y159.211 E9.69670
G1 X119.072 Y159.026 E9.70759
G1 X118.927 Y158.661 E9.72716
G1 X118.886 Y158.446 E9.73805
G1 X118.886 Y158.114 E9.75460
G1 X118.717 Y157.926 F9000.000
G1 X110.197 Y148.801 F9000.000
G1 X108.165 Y150.708 E9.89334 F600.000
G1 X105.270 Y152.812 E10.07153
G1 X102.134 Y154.536 E10.24973
G1 X98.806 Y155.853 E10.42791
G1 X95.340 Y156.744 E10.60609
G1 X91.789 Y157.192 E10.78428
G1 X88.211 Y157.192 E10.96247
G1 X84.660 Y156.744 E11.14066
G1 X81.194 Y155.853 E11.31885
G1 X77.866 Y154.536 E11.49703
G1 X74.730 Y152.812 E11.67522
G1 X71.835 Y150.708 E11.85341
G1 X69.226 Y148.258 E12.03159
G1 X66.944 Y145.501 E12.20979
G1 X65.027 Y142.479 E12.38798
G1 X63.503 Y139.240 E12.56617
G1 X62.397 Y135.836 E12.74440
G1 X61.721 Y132.241 E12.92652
G1 X61.502 Y128.750 E13.10068
G1 X61.726 Y125.178 E13.27888
G1 X62.397 Y121.663 E13.45706
G1 X63.503 Y118.260 E13.63522
G1 X65.027 Y115.021 E13.81342
G1 X66.944 Y111.999 E13.99161
G1 X69.226 Y109.242 E14.16980
G1 X71.835 Y106.792 E14.34798
G1 X74.730 Y104.688 E14.52617
G1 X77.866 Y102.964 E14.70436
G1 X81.194 Y101.647 E14.88254
G1 X84.660 Y100.757 E15.06073
G1 X88.211 Y100.308 E15.23892
G1 X91.789 Y100.308 E15.41710 F600.000
G1 X95.340 Y100.757 E15.59529
G1 X98.806 Y101.647 E15.77348
G1 X102.134 Y102.964 E15.95166
G1 X105.270 Y104.688 E16.12985
G1 X108.165 Y106.792 E16.30804
G1 X110.774 Y109.242 E16.48622
G1 X113.056 Y111.999 E16.66441
G1 X114.973 Y115.021 E16.84261
G1 X116.497 Y118.260 E17.02080
G1 X117.603 Y121.664 E17.19904
G1 X118.279 Y125.259 E17.38115
G1 X118.498 Y128.750 E17.55531
G1 X118.274 Y132.322 E17.73352
G1 X117.603 Y135.837 E17.91169
G1 X116.497 Y139.240 E18.08985
G1 X114.973 Y142.479 E18.26805
G1 X113.056 Y145.501 E18.44624
G1 X110.774 Y148.258 E18.62443
G1 X110.241 Y148.760 E18.66088
G1 X109.933 Y148.520 F9000.000
G1 X107.919 Y150.410 E18.79842 F600.000
G1 X105.063 Y152.486 E18.97419
G1 X101.969 Y154.187 E19.14997
G1 X98.687 Y155.486 E19.32573
G1 X95.268 Y156.364 E19.50150
G1 X91.765 Y156.807 E19.67728
G1 X88.235 Y156.807 E19.85305
G1 X84.732 Y156.364 E20.02882
G1 X81.313 Y155.486 E20.20459
G1 X78.031 Y154.187 E20.38036
G1 X74.937 Y152.486 E20.55613
G1 X72.081 Y150.410 E20.73191
G1 X69.507 Y147.994 E20.90768
G1 X67.257 Y145.274 E21.08345
G1 X65.365 Y142.293 E21.25923
G1 X63.862 Y139.098 E21.43501
G1 X62.771 Y135.740 E21.61080
G1 X62.105 Y132.193 E21.79049
G1 X61.888 Y128.750 E21.96227
G1 X62.110 Y125.226 E22.13805
G1 X62.771 Y121.759 E22.31381
G1 X63.862 Y118.402 E22.48956
G1 X65.365 Y115.207 E22.66534
G1 X67.257 Y112.226 E22.84112
G1 X69.507 Y109.506 E23.01689
G1 X72.081 Y107.089 E23.19266
G1 X74.937 Y105.014 E23.36843
G1 X78.031 Y103.314 E23.54420
G1 X81.313 Y102.014 E23.71997
G1 X84.732 Y101.136 E23.89574
G1 X88.235 Y100.694 E24.07151
G1 X91.765 Y100.694 E24.24728 F600.000
G1 X95.268 Y101.136 E24.42306
G1 X98.687 Y102.014 E24.59883
G1 X101.969 Y103.314 E24.77460
G1 X105.063 Y105.014 E24.95037
G1 X107.919 Y107.089 E25.12614
G1 X110.493 Y109.506 E25.30191
G1 X112.743 Y112.226 E25.47768
G1 X114.635 Y115.207 E25.65346
G1 X116.138 Y118.402 E25.82924
G1 X117.229 Y121.760 E26.00503
G1 X117.895 Y125.307 E26.18473
G1 X118.112 Y128.750 E26.35650
G1 X117.890 Y132.274 E26.53229
G1 X117.229 Y135.741 E26.70805
G1 X116.138 Y139.098 E26.88379
G1 X114.635 Y142.293 E27.05957
G1 X112.743 Y145.274 E27.23535
G1 X110.493 Y147.994 E27.41112
G1 X109.977 Y148.478 E27.44637
G1 X109.669 Y148.238 F9000.000
G1 X107.673 Y150.113 E27.58269 F600.000
G1 X104.856 Y152.159 E27.75605
G1 X101.805 Y153.837 E27.92942
G1 X98.568 Y155.118 E28.10276
G1 X95.195 Y155.984 E28.27612
G1 X91.741 Y156.421 E28.44948
G1 X88.259 Y156.421 E28.62283
G1 X84.805 Y155.984 E28.79619
G1 X81.432 Y155.118 E28.96954
G1 X78.195 Y153.837 E29.14289
G1 X75.144 Y152.159 E29.31625
G1 X72.327 Y150.113 E29.48961
G1 X69.789 Y147.729 E29.66296
G1 X67.570 Y145.047 E29.83632
G1 X65.704 Y142.107 E30.00968
G1 X64.221 Y138.956 E30.18305
G1 X63.146 Y135.645 E30.35639
G1 X62.488 Y132.145 E30.53367
G1 X62.275 Y128.750 E30.70306
G1 X62.493 Y125.275 E30.87643
G1 X63.146 Y121.855 E31.04977
G1 X64.221 Y118.544 E31.22310
G1 X65.704 Y115.393 E31.39647
G1 X67.570 Y112.453 E31.56983
G1 X69.789 Y109.771 E31.74319
G1 X72.327 Y107.387 E31.91654
G1 X75.144 Y105.341 E32.08990
G1 X78.195 Y103.663 E32.26325
G1 X81.432 Y102.381 E32.43661
G1 X84.805 Y101.516 E32.60996
G1 X88.259 Y101.079 E32.78332
G1 X91.741 Y101.079 E32.95667 F600.000
G1 X95.195 Y101.516 E33.13003
G1 X98.568 Y102.381 E33.30338
G1 X101.805 Y103.663 E33.47674
G1 X104.856 Y105.341 E33.65009
G1 X107.673 Y107.387 E33.82345
G1 X110.211 Y109.771 E33.99680
G1 X112.430 Y112.453 E34.17016
G1 X114.296 Y115.393 E34.34352
G1 X115.779 Y118.544 E34.51688
G1 X116.854 Y121.855 E34.69023
G1 X117.512 Y125.355 E34.86751
G1 X117.725 Y128.750 E35.03690
G1 X117.507 Y132.225 E35.21027
G1 X116.854 Y135.645 E35.38361
G1 X115.779 Y138.956 E35.55694
G1 X114.296 Y142.107 E35.73031
G1 X112.430 Y145.047 E35.90367
G1 X110.211 Y147.729 E36.07702
G1 X109.713 Y148.197 E36.11106
G1 X109.760 Y148.628 F9000.000
G1 E30.11106 F1800.00000
G92 E0
G1 X108.446 Y94.346 F9000.000
G1 E6.00000 F1800.00000
G1 X87.454 Y94.346 E7.04519 F600.000
G1 X87.454 Y60.354 E8.73765
G1 X108.446 Y60.354 E9.78284
G1 X108.446 Y94.286 E11.47230
G1 X108.061 Y93.961 F9000.000
G1 X87.839 Y93.961 E12.47910 F600.000
G1 X87.839 Y60.739 E14.13315
G1 X108.061 Y60.739 E15.13995
G1 X108.061 Y93.901 E16.79101
G1 X107.675 Y93.575 F9000.000
G1 X88.225 Y93.575 E17.75941 F600.000
G1 X88.225 Y61.125 E19.37506
G1 X107.675 Y61.125 E20.34346
G1 X107.675 Y93.515 E21.95612
G1 X107.675 Y93.975 F9000.000
G1 E15.95612 F1800.00000
G92 E0
G1 X90.712 Y21.852 F9000.000
G1 E6.00000 F1800.00000
G1 X90.182 Y21.953 E6.02685 F600.000
G1 X89.818 Y21.953 E6.04498
G1 X89.257 Y21.846 E6.07341
G1 X88.740 Y21.603 E6.10184
G1 X88.424 Y21.374 E6.12129
G1 X88.052 Y20.968 E6.14870
G1 X87.779 Y20.471 E6.17692
G1 X87.666 Y20.120 E6.19531
G1 X87.596 Y19.560 E6.22342
G1 X87.667 Y18.994 E6.25182
G1 X87.771 Y18.676 E6.26847
G1 X87.916 Y18.370 E6.28529
G1 X88.248 Y17.914 E6.31340
G1 X88.687 Y17.550 E6.34180
G1 X88.979 Y17.390 E6.35836
G1 X89.288 Y17.268 E6.37493
G1 X89.849 Y17.161 E6.40336 F600.000
G1 X90.450 Y17.198 E6.43336
G1 X90.994 Y17.375 E6.46179
G1 X91.313 Y17.550 E6.47992
G1 X91.753 Y17.914 E6.50835
G1 X92.088 Y18.376 E6.53677
G1 X92.231 Y18.679 E6.55342
G1 X92.334 Y19.000 E6.57024
G1 X92.404 Y19.560 E6.59835
G1 X92.333 Y20.126 E6.62675
G1 X92.220 Y20.473 E6.64488
G1 X91.960 Y20.945 E6.67173
G1 X91.728 Y21.226 E6.68986
G1 X91.313 Y21.570 E6.71671
G1 X91.021 Y21.730 E6.73328
G1 X90.768 Y21.830 E6.74685
G1 X90.604 Y21.480 F9000.000
G1 X90.146 Y21.568 E6.77007 F600.000
G1 X89.854 Y21.568 E6.78458
G1 X89.377 Y21.477 E6.80876
G1 X88.938 Y21.270 E6.83295
G1 X88.682 Y21.085 E6.84866
G1 X88.368 Y20.741 E6.87184
G1 X88.135 Y20.318 E6.89589
G1 X88.044 Y20.036 E6.91064
G1 X87.985 Y19.560 E6.93454
G1 X88.045 Y19.078 E6.95872
G1 X88.130 Y18.818 E6.97231
G1 X88.249 Y18.568 E6.98610
G1 X88.531 Y18.180 E7.01000
G1 X88.905 Y17.871 E7.03417
G1 X89.143 Y17.740 E7.04771
G1 X89.396 Y17.640 E7.06125
G1 X89.873 Y17.549 E7.08544 F600.000
G1 X90.378 Y17.580 E7.11059
G1 X90.840 Y17.730 E7.13478
G1 X91.095 Y17.871 E7.14928
G1 X91.469 Y18.180 E7.17347
G1 X91.755 Y18.573 E7.19765
G1 X91.871 Y18.820 E7.21124
G1 X91.956 Y19.084 E7.22503
G1 X92.015 Y19.560 E7.24893
G1 X91.955 Y20.042 E7.27311
G1 X91.865 Y20.319 E7.28761
G1 X91.640 Y20.728 E7.31083
G1 X91.454 Y20.952 E7.32533
G1 X91.095 Y21.249 E7.34855
G1 X90.857 Y21.380 E7.36209
G1 X90.660 Y21.458 E7.37264
G1 X90.496 Y21.109 F9000.000
G1 X90.109 Y21.182 E7.39223 F600.000
G1 X89.891 Y21.182 E7.40310
G1 X89.497 Y21.107 E7.42305
G1 X89.135 Y20.937 E7.44300
G1 X88.940 Y20.795 E7.45496
G1 X88.683 Y20.515 E7.47390
G1 X88.491 Y20.165 E7.49380
G1 X88.422 Y19.952 E7.50491
G1 X88.373 Y19.560 E7.52460
G1 X88.423 Y19.163 E7.54455
G1 X88.489 Y18.961 E7.55508
G1 X88.581 Y18.766 E7.56584
G1 X88.814 Y18.446 E7.58553
G1 X89.123 Y18.191 E7.60547
G1 X89.308 Y18.089 E7.61599
G1 X89.504 Y18.011 E7.62651
G1 X89.898 Y17.936 E7.64645 F600.000
G1 X90.305 Y17.962 E7.66676
G1 X90.686 Y18.086 E7.68670
G1 X90.877 Y18.191 E7.69757
G1 X91.186 Y18.446 E7.71752
G1 X91.421 Y18.771 E7.73747
G1 X91.511 Y18.962 E7.74800
G1 X91.578 Y19.168 E7.75876
G1 X91.627 Y19.560 E7.77845
G1 X91.577 Y19.957 E7.79840
G1 X91.509 Y20.165 E7.80927
G1 X91.320 Y20.510 E7.82886
G1 X91.180 Y20.678 E7.83973
G1 X90.877 Y20.929 E7.85932
G1 X90.551 Y21.086 E7.87733
G1 X90.398 Y21.490 F9000.000
G1 X126.854 Y14.746 F9000.000
G1 X126.854 Y165.254 E15.37095 F600.000
G1 X53.146 Y165.254 E19.04078
G1 X53.146 Y14.746 E26.53439
