; generated by Slic3r 1.2.9 on 2017-01-21 at 13:31:41

; external perimeters extrusion width = 0.40mm
; perimeters extrusion width = 0.56mm
; infill extrusion width = 0.38mm
; solid infill extrusion width = 0.56mm
; top infill extrusion width = 0.22mm

M106 S256; Turn on fan to 100% power
M104 S140; turn on extruder temperature at S value
M140 S60; turn on bed temperature at S value
G28; home all axes
M84; disable motors
G1 Z15 F15000; have Z move to 20mm at 15000 mm/min
M190 S55; turn on bed temperature at S value and wait
M140 S55; turn on bed temperature at S value (printing temperature)
M109 S205; turn on extruder temperature at S value and wait (printing temperature)
M104 S205; turn on extruder temperature at S value
G1 Z0 F12000; move Z back to home
G21 ; set units to millimeters
G90 ; use absolute coordinates
M82 ; use absolute distances for extrusion
G92 E0
M106 S255
;Layer change
G1 E-6.00000 F1800.00000
G92 E0
G1 Z0.300 F9000.000
G1 X46.844 Y40.776 F9000.000
G1 E6.00000 F1800.00000
G1 X48.970 Y38.365 E6.16005 F600.000
G1 X51.491 Y35.828 E6.33814
G1 X54.166 Y33.454 E6.51624
G1 X56.986 Y31.252 E6.69434
G1 X59.938 Y29.232 E6.87243
G1 X63.011 Y27.402 E7.05052
G1 X66.521 Y25.613 E7.24666
G1 X69.471 Y24.337 E7.40671
G1 X72.833 Y23.114 E7.58480
G1 X76.264 Y22.105 E7.76290
G1 X79.753 Y21.314 E7.94099
G1 X83.284 Y20.743 E8.11908
G1 X86.844 Y20.395 E8.29718
G1 X90.419 Y20.272 E8.47528
G1 X93.829 Y20.367 E8.64515
G1 X94.356 Y20.395 E8.67142 F600.000
G1 X97.556 Y20.698 E8.83147
G1 X101.447 Y21.314 E9.02760
G1 X104.936 Y22.105 E9.20569
G1 X108.023 Y23.002 E9.36575
G1 X111.392 Y24.203 E9.54384
G1 X114.679 Y25.613 E9.72193
G1 X118.189 Y27.402 E9.91807
G1 X121.262 Y29.232 E10.09616
G1 X123.921 Y31.039 E10.25621
G1 X127.034 Y33.454 E10.45235
G1 X129.709 Y35.828 E10.63044
G1 X131.982 Y38.101 E10.79049
G1 X134.356 Y40.776 E10.96859
G1 X136.771 Y43.889 E11.16473
G1 X138.772 Y46.854 E11.34281
G1 X140.408 Y49.621 E11.50287
G1 X142.042 Y52.803 E11.68097
G1 X143.607 Y56.418 E11.87710
G1 X144.808 Y59.787 E12.05519
G1 X145.795 Y63.225 E12.23328
G1 X146.496 Y66.363 E12.39334
G1 X147.067 Y69.894 E12.57143
G1 X147.437 Y73.816 E12.76757
G1 X147.538 Y77.029 E12.92762
G1 X147.437 Y80.604 E13.10571
G1 X147.112 Y84.166 E13.28381
G1 X146.496 Y88.057 E13.47994
G1 X145.795 Y91.195 E13.64000
G1 X144.808 Y94.633 E13.81809
G1 X143.607 Y98.002 E13.99618
G1 X142.042 Y101.617 E14.19232
G1 X140.408 Y104.799 E14.37041
G1 X138.772 Y107.566 E14.53047
G1 X136.558 Y110.824 E14.72660
G1 X134.587 Y113.364 E14.88665
G1 X132.230 Y116.055 E15.06474
G1 X129.709 Y118.592 E15.24284
G1 X126.754 Y121.197 E15.43897
G1 X123.921 Y123.381 E15.61707
G1 X121.262 Y125.188 E15.77712
G1 X118.189 Y127.018 E15.95521
G1 X114.679 Y128.807 E16.15135
G1 X111.392 Y130.217 E16.32944
G1 X108.367 Y131.306 E16.48949
G1 X104.585 Y132.405 E16.68562
G1 X101.091 Y133.174 E16.86372
G1 X97.556 Y133.722 E17.04181
G1 X94.356 Y134.025 E17.20186
G1 X90.781 Y134.148 E17.37996
G1 X86.844 Y134.025 E17.57609
G1 X83.644 Y133.722 E17.73615
G1 X80.109 Y133.174 E17.91424
G1 X76.615 Y132.405 E18.09234
G1 X72.833 Y131.306 E18.28847
G1 X69.471 Y130.083 E18.46656
G1 X66.193 Y128.652 E18.64465
G1 X63.329 Y127.193 E18.80471
G1 X59.938 Y125.188 E19.00084
G1 X57.279 Y123.381 E19.16089
G1 X54.446 Y121.197 E19.33899
G1 X51.491 Y118.592 E19.53512
G1 X48.970 Y116.055 E19.71322
G1 X46.844 Y113.644 E19.87327
G1 X44.642 Y110.824 E20.05136
G1 X42.622 Y107.872 E20.22946
G1 X40.617 Y104.481 E20.42559
G1 X39.158 Y101.617 E20.58564
G1 X37.727 Y98.339 E20.76374
G1 X36.504 Y94.977 E20.94183
G1 X35.405 Y91.195 E21.13796
G1 X34.704 Y88.057 E21.29802
G1 X34.133 Y84.526 E21.47611
G1 X33.785 Y80.966 E21.65421
G1 X33.662 Y77.029 E21.85034
G1 X33.785 Y73.454 E22.02844
G1 X34.133 Y69.894 E22.20653
G1 X34.636 Y66.719 E22.36658
G1 X35.495 Y62.874 E22.56271
G1 X36.392 Y59.787 E22.72277
G1 X37.593 Y56.418 E22.90086
G1 X39.158 Y52.803 E23.09699
G1 X40.792 Y49.621 E23.27509
G1 X42.428 Y46.854 E23.43514
G1 X44.429 Y43.889 E23.61323
G1 X46.806 Y40.823 E23.80638
G1 X47.133 Y41.031 F9000.000
G1 X49.259 Y38.620 E23.96643 F600.000
G1 X51.763 Y36.100 E24.14332
G1 X54.421 Y33.743 E24.32021
G1 X57.222 Y31.557 E24.49710
G1 X60.155 Y29.551 E24.67399
G1 X63.207 Y27.734 E24.85088
G1 X66.674 Y25.967 E25.04460
G1 X69.624 Y24.691 E25.20465
G1 X72.963 Y23.477 E25.38154
G1 X76.372 Y22.476 E25.55843
G1 X79.837 Y21.690 E25.73532
G1 X83.344 Y21.124 E25.91220
G1 X86.880 Y20.779 E26.08909
G1 X90.431 Y20.657 E26.26598
G1 X93.817 Y20.753 E26.43466
G1 X94.320 Y20.779 E26.45971 F600.000
G1 X97.520 Y21.082 E26.61976
G1 X101.363 Y21.690 E26.81349
G1 X104.500 Y22.392 E26.97354
G1 X104.986 Y22.522 E26.99859
G1 X108.237 Y23.477 E27.16727
G1 X111.261 Y24.566 E27.32732
G1 X114.526 Y25.967 E27.50421
G1 X117.993 Y27.734 E27.69793
G1 X121.045 Y29.551 E27.87482
G1 X123.704 Y31.358 E28.03487
G1 X126.779 Y33.743 E28.22860
G1 X129.436 Y36.100 E28.40548
G1 X131.710 Y38.373 E28.56553
G1 X134.067 Y41.031 E28.74243
G1 X136.452 Y44.106 E28.93615
G1 X138.440 Y47.050 E29.11303
G1 X140.076 Y49.817 E29.27309
G1 X141.699 Y52.978 E29.44998
G1 X143.244 Y56.549 E29.64370
G1 X144.437 Y59.895 E29.82059
G1 X145.418 Y63.310 E29.99747
G1 X146.120 Y66.447 E30.15753
G1 X146.686 Y69.954 E30.33442
G1 X147.052 Y73.828 E30.52814
G1 X147.153 Y77.041 E30.68819
G1 X147.052 Y80.592 E30.86508
G1 X146.728 Y84.130 E31.04197
G1 X146.120 Y87.973 E31.23569
G1 X145.418 Y91.110 E31.39575
G1 X144.437 Y94.525 E31.57263
G1 X143.244 Y97.871 E31.74952
G1 X141.699 Y101.442 E31.94324
G1 X140.076 Y104.603 E32.12013
G1 X138.440 Y107.370 E32.28019
G1 X136.452 Y110.314 E32.45707
G1 X134.067 Y113.389 E32.65080
G1 X131.941 Y115.800 E32.81085
G1 X129.436 Y118.320 E32.98774
G1 X126.518 Y120.893 E33.18146
G1 X123.704 Y123.062 E33.35835
G1 X121.045 Y124.869 E33.51840
G1 X117.993 Y126.686 E33.69529
G1 X114.526 Y128.453 E33.88901
G1 X111.261 Y129.854 E34.06590
G1 X108.237 Y130.943 E34.22595
G1 X104.500 Y132.028 E34.41967
G1 X101.031 Y132.793 E34.59656
G1 X97.856 Y133.296 E34.75661
G1 X94.320 Y133.641 E34.93350
G1 X90.769 Y133.763 E35.11039
G1 X86.880 Y133.641 E35.30412
G1 X83.680 Y133.338 E35.46417
G1 X80.169 Y132.793 E35.64106
G1 X76.700 Y132.028 E35.81795
G1 X73.285 Y131.047 E35.99483
G1 X69.624 Y129.729 E36.18856
G1 X66.368 Y128.309 E36.36544
G1 X63.504 Y126.849 E36.52550
G1 X60.155 Y124.869 E36.71922
G1 X57.496 Y123.062 E36.87927
G1 X54.682 Y120.893 E37.05616
G1 X51.764 Y118.320 E37.24988
G1 X49.259 Y115.800 E37.42677
G1 X47.133 Y113.389 E37.58682
G1 X44.947 Y110.588 E37.76371
G1 X42.941 Y107.655 E37.94061
G1 X40.961 Y104.306 E38.13432
G1 X39.501 Y101.442 E38.29438
G1 X38.081 Y98.186 E38.47126
G1 X36.867 Y94.847 E38.64815
G1 X35.782 Y91.110 E38.84187
G1 X35.080 Y87.973 E39.00193
G1 X34.514 Y84.466 E39.17881
G1 X34.169 Y80.930 E39.35570
G1 X34.047 Y77.041 E39.54943
G1 X34.169 Y73.490 E39.72632
G1 X34.472 Y70.290 E39.88637
G1 X35.017 Y66.779 E40.06326
G1 X35.866 Y62.982 E40.25698
G1 X36.763 Y59.895 E40.41703
G1 X37.956 Y56.549 E40.59392
G1 X39.501 Y52.978 E40.78764
G1 X41.124 Y49.817 E40.96453
G1 X42.760 Y47.050 E41.12458
G1 X44.748 Y44.106 E41.30147
G1 X47.095 Y41.078 E41.49221
G1 E35.49221 F1800.00000
G92 E0
G1 X50.367 Y83.214 F9000.000
G1 E6.00000 F1800.00000
G1 X130.833 Y83.214 E10.00629 F600.000
G1 X130.576 Y84.836 E10.08805
G1 X130.018 Y87.331 E10.21535
G1 X129.305 Y89.786 E10.34264
G1 X128.439 Y92.191 E10.46993
G1 X127.423 Y94.538 E10.59722
G1 X126.263 Y96.816 E10.72451
G1 X124.961 Y99.016 E10.85181
G1 X123.524 Y101.131 E10.97910
G1 X121.957 Y103.151 E11.10639
G1 X120.267 Y105.069 E11.23368
G1 X118.459 Y106.877 E11.36098
G1 X116.541 Y108.567 E11.48827
G1 X114.521 Y110.134 E11.61556
G1 X112.406 Y111.571 E11.74285
G1 X110.206 Y112.873 E11.87014
G1 X107.928 Y114.033 E11.99744
G1 X105.581 Y115.049 E12.12473
G1 X103.176 Y115.915 E12.25202
G1 X100.721 Y116.628 E12.37931
G1 X98.226 Y117.186 E12.50660
G1 X95.701 Y117.586 E12.63389
G1 X93.155 Y117.826 E12.76119
G1 X90.600 Y117.907 E12.88848
G1 X88.045 Y117.826 E13.01577
G1 X85.499 Y117.586 E13.14306
G1 X82.974 Y117.186 E13.27036
G1 X80.479 Y116.628 E13.39765
G1 X78.024 Y115.915 E13.52494
G1 X75.737 Y115.092 E13.64595
G1 X73.274 Y114.034 E13.77944
G1 X70.994 Y112.873 E13.90680
G1 X68.794 Y111.571 E14.03410
G1 X66.679 Y110.134 E14.16139
G1 X64.659 Y108.567 E14.28868
G1 X62.741 Y106.877 E14.41597
G1 X60.933 Y105.069 E14.54327
G1 X59.243 Y103.151 E14.67056
G1 X57.676 Y101.131 E14.79785
G1 X56.239 Y99.016 E14.92514
G1 X54.937 Y96.816 E15.05243
G1 X53.777 Y94.538 E15.17973
G1 X52.761 Y92.191 E15.30702
G1 X51.895 Y89.786 E15.43431
G1 X51.182 Y87.331 E15.56160
G1 X50.624 Y84.836 E15.68890
G1 X50.377 Y83.273 E15.76767
G1 X50.819 Y83.599 F9000.000
G1 X130.381 Y83.599 E19.72900 F600.000
G1 X130.197 Y84.763 E19.78768
G1 X129.645 Y87.235 E19.91377
G1 X128.938 Y89.667 E20.03986
G1 X128.080 Y92.049 E20.16594
G1 X127.074 Y94.374 E20.29203
G1 X125.925 Y96.630 E20.41811
G1 X124.636 Y98.810 E20.54420
G1 X123.212 Y100.904 E20.67028
G1 X121.660 Y102.905 E20.79637
G1 X119.985 Y104.805 E20.92245
G1 X118.195 Y106.595 E21.04854
G1 X116.295 Y108.270 E21.17463
G1 X114.294 Y109.822 E21.30071
G1 X112.200 Y111.246 E21.42680
G1 X110.020 Y112.535 E21.55288
G1 X107.764 Y113.684 E21.67897
G1 X105.439 Y114.690 E21.80505
G1 X103.057 Y115.548 E21.93113
G1 X100.625 Y116.255 E22.05722
G1 X98.154 Y116.807 E22.18331
G1 X95.652 Y117.203 E22.30939
G1 X93.131 Y117.441 E22.43548
G1 X90.600 Y117.521 E22.56156
G1 X88.069 Y117.441 E22.68765
G1 X85.548 Y117.203 E22.81373
G1 X83.046 Y116.807 E22.93982
G1 X80.575 Y116.255 E23.06590
G1 X78.143 Y115.548 E23.19199
G1 X75.879 Y114.733 E23.31182
G1 X73.437 Y113.685 E23.44410
G1 X71.180 Y112.535 E23.57023
G1 X69.000 Y111.246 E23.69632
G1 X66.906 Y109.822 E23.82240
G1 X64.905 Y108.270 E23.94849
G1 X63.005 Y106.595 E24.07457
G1 X61.215 Y104.805 E24.20066
G1 X59.540 Y102.905 E24.32675
G1 X57.988 Y100.904 E24.45283
G1 X56.564 Y98.810 E24.57892
G1 X55.275 Y96.630 E24.70500
G1 X54.126 Y94.374 E24.83109
G1 X53.120 Y92.049 E24.95717
G1 X52.262 Y89.667 E25.08326
G1 X51.555 Y87.235 E25.20934
G1 X51.003 Y84.763 E25.33543
G1 X50.828 Y83.659 E25.39112
G1 X51.270 Y83.985 F9000.000
G1 X129.930 Y83.985 E29.30750 F600.000
G1 X129.818 Y84.691 E29.34310
G1 X129.271 Y87.139 E29.46798
G1 X128.571 Y89.548 E29.59286
G1 X127.721 Y91.907 E29.71773
G1 X126.725 Y94.209 E29.84261
G1 X125.587 Y96.444 E29.96749
G1 X124.310 Y98.603 E30.09237
G1 X122.900 Y100.677 E30.21725
G1 X121.363 Y102.659 E30.34213
G1 X119.704 Y104.541 E30.46700
G1 X117.931 Y106.314 E30.59189
G1 X116.049 Y107.973 E30.71677
G1 X114.067 Y109.510 E30.84164
G1 X111.993 Y110.920 E30.96652
G1 X109.834 Y112.197 E31.09140
G1 X107.599 Y113.335 E31.21628
G1 X105.297 Y114.331 E31.34116
G1 X102.938 Y115.181 E31.46603
G1 X100.529 Y115.881 E31.59091
G1 X98.081 Y116.428 E31.71579
G1 X95.604 Y116.820 E31.84067
G1 X93.107 Y117.056 E31.96555
G1 X90.600 Y117.135 E32.09043
G1 X88.093 Y117.056 E32.21531
G1 X85.596 Y116.820 E32.34019
G1 X83.119 Y116.428 E32.46506
G1 X80.671 Y115.881 E32.58994
G1 X78.262 Y115.181 E32.71482
G1 X76.020 Y114.374 E32.83347
G1 X73.601 Y113.335 E32.96455
G1 X71.366 Y112.197 E33.08944
G1 X69.207 Y110.920 E33.21432
G1 X67.133 Y109.510 E33.33920
G1 X65.151 Y107.973 E33.46408
G1 X63.269 Y106.314 E33.58896
G1 X61.496 Y104.541 E33.71384
G1 X59.837 Y102.659 E33.83872
G1 X58.300 Y100.677 E33.96360
G1 X56.890 Y98.603 E34.08847
G1 X55.613 Y96.444 E34.21335
G1 X54.475 Y94.209 E34.33823
G1 X53.479 Y91.907 E34.46311
G1 X52.629 Y89.548 E34.58799
G1 X51.929 Y87.139 E34.71287
G1 X51.382 Y84.691 E34.83775
G1 X51.280 Y84.044 E34.87036
G1 X51.249 Y83.586 F9000.000
G1 X50.367 Y71.206 F9000.000
G1 X50.624 Y69.584 E34.95212 F600.000
G1 X51.182 Y67.089 E35.07941
G1 X51.895 Y64.634 E35.20671
G1 X52.761 Y62.229 E35.33400
G1 X53.777 Y59.882 E35.46129
G1 X54.937 Y57.604 E35.58858
G1 X56.239 Y55.404 E35.71587
G1 X57.676 Y53.289 E35.84317
G1 X59.243 Y51.269 E35.97046
G1 X60.933 Y49.351 E36.09775
G1 X62.741 Y47.543 E36.22505
G1 X64.659 Y45.853 E36.35234
G1 X66.679 Y44.286 E36.47963
G1 X68.794 Y42.849 E36.60692
G1 X70.994 Y41.547 E36.73421
G1 X73.272 Y40.387 E36.86151
G1 X75.619 Y39.371 E36.98880
G1 X78.024 Y38.505 E37.11609
G1 X80.479 Y37.792 E37.24338
G1 X82.974 Y37.234 E37.37067
G1 X85.499 Y36.834 E37.49796
G1 X88.045 Y36.594 E37.62526
G1 X90.474 Y36.517 E37.74627
G1 X93.154 Y36.593 E37.87975
G1 X95.701 Y36.834 E38.00712
G1 X98.226 Y37.234 E38.13441
G1 X100.721 Y37.792 E38.26171
G1 X103.176 Y38.505 E38.38900
G1 X105.581 Y39.371 E38.51629
G1 X107.928 Y40.387 E38.64358
G1 X110.206 Y41.547 E38.77087
G1 X112.406 Y42.849 E38.89817
G1 X114.521 Y44.286 E39.02546
G1 X116.541 Y45.853 E39.15275
G1 X118.459 Y47.543 E39.28004
G1 X120.267 Y49.351 E39.40734
G1 X121.957 Y51.269 E39.53463
G1 X123.524 Y53.289 E39.66192
G1 X124.961 Y55.404 E39.78921
G1 X126.263 Y57.604 E39.91650
G1 X127.423 Y59.882 E40.04380
G1 X128.439 Y62.229 E40.17109
G1 X129.305 Y64.634 E40.29838
G1 X130.018 Y67.089 E40.42567
G1 X130.576 Y69.584 E40.55297
G1 X130.833 Y71.206 E40.63473
G1 X50.427 Y71.206 E44.63803
G1 X50.819 Y70.821 F9000.000
G1 X51.003 Y69.657 E44.69671 F600.000
G1 X51.555 Y67.185 E44.82280
G1 X52.262 Y64.753 E44.94888
G1 X53.120 Y62.371 E45.07497
G1 X54.126 Y60.046 E45.20105
G1 X55.275 Y57.790 E45.32714
G1 X56.564 Y55.610 E45.45322
G1 X57.988 Y53.516 E45.57931
G1 X59.540 Y51.515 E45.70539
G1 X61.215 Y49.615 E45.83148
G1 X63.005 Y47.825 E45.95757
G1 X64.905 Y46.150 E46.08365
G1 X66.906 Y44.598 E46.20974
G1 X69.000 Y43.174 E46.33582
G1 X71.180 Y41.885 E46.46191
G1 X73.436 Y40.736 E46.58799
G1 X75.761 Y39.730 E46.71408
G1 X78.143 Y38.872 E46.84016
G1 X80.575 Y38.165 E46.96625
G1 X83.046 Y37.613 E47.09233
G1 X85.548 Y37.217 E47.21842
G1 X88.069 Y36.979 E47.34450
G1 X90.474 Y36.903 E47.46433
G1 X93.130 Y36.978 E47.59662
G1 X95.652 Y37.217 E47.72275
G1 X98.154 Y37.613 E47.84883
G1 X100.625 Y38.165 E47.97492
G1 X103.057 Y38.872 E48.10101
G1 X105.439 Y39.730 E48.22709
G1 X107.764 Y40.736 E48.35317
G1 X110.020 Y41.885 E48.47926
G1 X112.200 Y43.174 E48.60534
G1 X114.294 Y44.598 E48.73143
G1 X116.295 Y46.150 E48.85751
G1 X118.195 Y47.825 E48.98360
G1 X119.985 Y49.615 E49.10969
G1 X121.660 Y51.515 E49.23577
G1 X123.212 Y53.516 E49.36186
G1 X124.636 Y55.610 E49.48794
G1 X125.925 Y57.790 E49.61403
G1 X127.074 Y60.046 E49.74011
G1 X128.080 Y62.371 E49.86620
G1 X128.938 Y64.753 E49.99228
G1 X129.645 Y67.185 E50.11837
G1 X130.197 Y69.657 E50.24446
G1 X130.381 Y70.821 E50.30314
G1 X50.879 Y70.821 E54.26148
G1 X51.270 Y70.435 F9000.000
G1 X51.382 Y69.729 E54.29708 F600.000
G1 X51.929 Y67.281 E54.42196
G1 X52.629 Y64.872 E54.54684
G1 X53.479 Y62.513 E54.67171
G1 X54.475 Y60.211 E54.79659
G1 X55.613 Y57.976 E54.92147
G1 X56.890 Y55.817 E55.04635
G1 X58.300 Y53.743 E55.17123
G1 X59.837 Y51.761 E55.29611
G1 X61.496 Y49.879 E55.42099
G1 X63.269 Y48.106 E55.54587
G1 X65.151 Y46.447 E55.67075
G1 X67.133 Y44.910 E55.79562
G1 X69.207 Y43.500 E55.92050
G1 X71.366 Y42.223 E56.04538
G1 X73.601 Y41.085 E56.17026
G1 X75.903 Y40.089 E56.29514
G1 X78.262 Y39.239 E56.42001
G1 X80.671 Y38.539 E56.54490
G1 X83.119 Y37.992 E56.66977
G1 X85.596 Y37.600 E56.79465
G1 X88.093 Y37.364 E56.91953
G1 X90.475 Y37.289 E57.03818
G1 X93.107 Y37.364 E57.16926
G1 X95.604 Y37.600 E57.29416
G1 X98.081 Y37.992 E57.41903
G1 X100.529 Y38.539 E57.54391
G1 X102.938 Y39.239 E57.66879
G1 X105.297 Y40.089 E57.79367
G1 X107.599 Y41.085 E57.91855
G1 X109.834 Y42.223 E58.04343
G1 X111.993 Y43.500 E58.16830
G1 X114.067 Y44.910 E58.29318
G1 X116.049 Y46.447 E58.41806
G1 X117.931 Y48.106 E58.54294
G1 X119.704 Y49.879 E58.66782
G1 X121.363 Y51.761 E58.79270
G1 X122.900 Y53.743 E58.91758
G1 X124.310 Y55.817 E59.04246
G1 X125.587 Y57.976 E59.16734
G1 X126.725 Y60.211 E59.29221
G1 X127.721 Y62.513 E59.41709
G1 X128.571 Y64.872 E59.54197
G1 X129.271 Y67.281 E59.66685
G1 X129.818 Y69.729 E59.79173
G1 X129.930 Y70.435 E59.82733
G1 X51.330 Y70.435 E63.74071
G1 X50.872 Y70.393 F9000.000
G1 X41.153 Y68.833 F9000.000
G1 X41.315 Y67.808 E63.79234 F600.000
G1 X42.003 Y64.732 E63.94927
G1 X42.882 Y61.706 E64.10621
G1 X43.950 Y58.740 E64.26314
