; generated by Slic3r 1.2.9 on 2017-02-04 at 22:52:38

; external perimeters extrusion width = 0.40mm
; perimeters extrusion width = 0.56mm
; infill extrusion width = 0.38mm
; solid infill extrusion width = 0.56mm
; top infill extrusion width = 0.22mm

M106 S256; Turn on fan to 100% power
M104 S140; turn on extruder temperature at S value
M140 S60; turn on bed temperature at S value
G28; home all axes
M84; disable motors
G1 Z15 F15000; have Z move to 20mm at 15000 mm/min
M190 S55; turn on bed temperature at S value and wait
M140 S55; turn on bed temperature at S value (printing temperature)
M109 S200; turn on extruder temperature at S value and wait (printing temperature)
M104 S200; turn on extruder temperature at S value
G1 Z0 F12000; move Z back to home
G21 ; set units to millimeters
G90 ; use absolute coordinates
M82 ; use absolute distances for extrusion
G92 E0
M106 S255
;Layer change
G1 E-6.00000 F1800.00000
G92 E0
G1 Z0.300 F9000.000
G1 X54.823 Y39.820 F9000.000
G1 E6.00000 F1800.00000
G1 X55.925 Y38.492 E6.08591 F600.000
G1 X58.200 Y37.729 E6.20539
G1 X121.800 Y37.729 E9.37197
G1 X123.480 Y38.123 E9.45787
G1 X124.808 Y39.225 E9.54378 F600.000
G1 X125.571 Y41.500 E9.66326
G1 X125.571 Y138.500 E14.49280
G1 X125.177 Y140.180 E14.57870
G1 X124.075 Y141.508 E14.66461
G1 X121.800 Y142.271 E14.78409
G1 X58.200 Y142.271 E17.95067
G1 X56.520 Y141.877 E18.03658
G1 X55.192 Y140.775 E18.12248
G1 X54.429 Y138.500 E18.24196
G1 X54.429 Y41.500 E23.07150
G1 X54.810 Y39.879 E23.15442
G1 X55.208 Y39.916 F9000.000
G1 X56.299 Y38.698 E23.23581 F600.000
G1 X58.200 Y38.114 E23.33482
G1 X121.800 Y38.114 E26.50140
G1 X123.385 Y38.508 E26.58274
G1 X124.602 Y39.599 E26.66407 F600.000
G1 X125.186 Y41.500 E26.76309
G1 X125.186 Y138.500 E31.59262
G1 X124.792 Y140.085 E31.67395
G1 X123.701 Y141.302 E31.75529
G1 X121.800 Y141.886 E31.85430
G1 X58.200 Y141.886 E35.02088
G1 X56.615 Y141.492 E35.10221
G1 X55.398 Y140.401 E35.18355
G1 X54.814 Y138.500 E35.28256
G1 X54.814 Y41.500 E40.11210
G1 X55.194 Y39.974 E40.19038
G1 E34.19038 F1800.00000
G92 E0
G1 X104.196 Y54.004 F9000.000
G1 E6.00000 F1800.00000
G1 X104.196 Y105.996 E8.58865 F600.000
G1 X72.204 Y105.996 E10.18153
G1 X72.204 Y54.004 E12.77018
G1 X104.136 Y54.004 E14.36007
G1 X103.811 Y54.389 F9000.000
G1 X103.811 Y105.611 E16.91032 F600.000
G1 X72.589 Y105.611 E18.46480
G1 X72.589 Y54.389 E21.01505
G1 X103.751 Y54.389 E22.56654
G1 X103.425 Y54.775 F9000.000
G1 X103.425 Y105.225 E25.07839 F600.000
G1 X72.975 Y105.225 E26.59447
G1 X72.975 Y54.775 E29.10632
G1 X103.365 Y54.775 E30.61941
G1 X103.825 Y54.775 F9000.000
G1 X120.804 Y42.496 F9000.000
G1 X120.804 Y137.504 E35.34974 F600.000
G1 X59.196 Y137.504 E38.41712
G1 X59.196 Y42.496 E43.14745
G1 X120.744 Y42.496 E46.21184
G1 X121.189 Y42.111 F9000.000
G1 X121.189 Y137.889 E50.98057 F600.000
G1 X58.811 Y137.889 E54.08634
G1 X58.811 Y42.111 E58.85507
G1 X121.129 Y42.111 E61.95786
G1 X121.575 Y41.725 F9000.000
G1 X121.575 Y138.275 E66.76499 F600.000
G1 X58.425 Y138.275 E69.90916
G1 X58.425 Y41.725 E74.71629
G1 X121.515 Y41.725 E77.85748
G1 X121.375 Y42.071 F9000.000
G1 X120.520 Y42.984 F9000.000
G1 X120.316 Y42.780 E77.87184 F600.000
G1 X119.770 Y42.780 E77.89906
G1 X120.520 Y43.530 E77.95191
G1 X120.520 Y44.076 E77.97913
G1 X119.224 Y42.780 E78.07047
G1 X118.678 Y42.780 E78.09769
G1 X120.520 Y44.622 E78.22753
G1 X120.520 Y45.168 E78.25475
G1 X118.132 Y42.780 E78.42309
G1 X117.586 Y42.780 E78.45031
G1 X120.520 Y45.714 E78.65714
G1 X120.520 Y46.260 E78.68436
G1 X117.040 Y42.780 E78.92969
G1 X116.494 Y42.780 E78.95691
G1 X120.520 Y46.806 E79.24073
G1 X120.520 Y47.352 E79.26795
G1 X115.948 Y42.780 E79.59027
G1 X115.402 Y42.780 E79.61749
G1 X120.520 Y47.898 E79.97830
G1 X120.520 Y48.444 E80.00552
G1 X114.856 Y42.780 E80.40483
G1 X114.310 Y42.780 E80.43205
G1 X120.520 Y48.990 E80.86986
G1 X120.520 Y49.536 E80.89708
G1 X113.764 Y42.780 E81.37338
G1 X113.218 Y42.780 E81.40060
G1 X120.520 Y50.082 E81.91539
G1 X120.520 Y50.628 E81.94261
G1 X112.672 Y42.780 E82.49590
G1 X112.126 Y42.780 E82.52312
G1 X120.520 Y51.174 E83.11491
G1 X120.520 Y51.720 E83.14213
G1 X111.580 Y42.780 E83.77241
G1 X111.034 Y42.780 E83.79963
G1 X120.520 Y52.266 E84.46841
G1 X120.520 Y52.812 E84.49563
G1 X110.488 Y42.780 E85.20290
G1 X109.942 Y42.780 E85.23012
G1 X120.520 Y53.358 E85.97589
G1 X120.520 Y53.904 E86.00311
G1 X109.396 Y42.780 E86.78737
G1 X108.850 Y42.780 E86.81459
G1 X120.520 Y54.450 E87.63735
G1 X120.520 Y54.996 E87.66457
G1 X108.304 Y42.780 E88.52582
G1 X107.758 Y42.780 E88.55304
G1 X120.520 Y55.542 E89.45279
G1 X120.520 Y56.088 E89.48001
G1 X107.212 Y42.780 E90.41826
G1 X106.666 Y42.780 E90.44548
G1 X120.520 Y56.634 E91.42222
G1 X120.520 Y57.180 E91.44944
G1 X106.120 Y42.780 E92.46468
G1 X105.574 Y42.780 E92.49190
G1 X120.520 Y57.726 E93.54563
G1 X120.520 Y58.273 E93.57285
G1 X105.027 Y42.780 E94.66507
G1 X104.481 Y42.780 E94.69230
G1 X120.520 Y58.819 E95.82302
G1 X120.520 Y59.365 E95.85024
G1 X103.935 Y42.780 E97.01946
G1 X103.389 Y42.780 E97.04668
G1 X120.520 Y59.911 E98.25439
G1 X120.520 Y60.457 E98.28161
G1 X102.843 Y42.780 E99.52782
G1 X102.297 Y42.780 E99.55504
G1 X120.520 Y61.003 E100.83974
G1 X120.520 Y61.549 E100.86696
G1 X101.751 Y42.780 E102.19016
G1 X101.205 Y42.780 E102.21738
G1 X120.520 Y62.095 E103.57908
G1 X120.520 Y62.641 E103.60630
G1 X100.659 Y42.780 E105.00649
G1 X100.113 Y42.780 E105.03371
G1 X120.520 Y63.187 E106.47239
G1 X120.520 Y63.733 E106.49961
G1 X99.567 Y42.780 E107.97679
G1 X99.021 Y42.780 E108.00401
G1 X120.520 Y64.279 E109.51969
G1 X120.520 Y64.825 E109.54691
G1 X98.475 Y42.780 E111.10108
G1 X97.929 Y42.780 E111.12830
G1 X120.520 Y65.371 E112.72097
G1 X120.520 Y65.917 E112.74819
G1 X97.383 Y42.780 E114.37935
G1 X96.837 Y42.780 E114.40657
G1 X120.520 Y66.463 E116.07623
G1 X120.520 Y67.009 E116.10345
G1 X96.291 Y42.780 E117.81161
G1 X95.745 Y42.780 E117.83883
G1 X120.520 Y67.555 E119.58548
G1 X120.520 Y68.101 E119.61270
G1 X95.199 Y42.780 E121.39784
G1 X94.653 Y42.780 E121.42506
G1 X120.520 Y68.647 E123.24870
G1 X120.520 Y69.193 E123.27592
G1 X94.107 Y42.780 E125.13806
G1 X93.561 Y42.780 E125.16528
G1 X120.520 Y69.739 E127.06591
G1 X120.520 Y70.285 E127.09313
G1 X104.480 Y54.245 E128.22395
G1 X104.480 Y54.791 E128.25117
G1 X120.520 Y70.831 E129.38200
G1 X120.520 Y71.377 E129.40922
G1 X104.480 Y55.337 E130.54004
G1 X104.480 Y55.883 E130.56726
G1 X120.520 Y71.923 E131.69808
G1 X120.520 Y72.469 E131.72530
G1 X104.480 Y56.429 E132.85613
G1 X104.480 Y56.975 E132.88335
G1 X120.520 Y73.015 E134.01417
G1 X120.520 Y73.561 E134.04139
G1 X104.480 Y57.521 E135.17221
G1 X104.480 Y58.067 E135.19943
G1 X120.520 Y74.107 E136.33026
G1 X120.520 Y74.653 E136.35748
G1 X104.480 Y58.614 E137.48830
G1 X104.480 Y59.160 E137.51552
G1 X120.520 Y75.199 E138.64634
G1 X120.520 Y75.746 E138.67356
G1 X104.480 Y59.706 E139.80439
G1 X104.480 Y60.252 E139.83161
G1 X120.520 Y76.292 E140.96243
G1 X120.520 Y76.838 E140.98965
G1 X104.480 Y60.798 E142.12047
G1 X104.480 Y61.344 E142.14770
G1 X120.520 Y77.384 E143.27852
G1 X120.520 Y77.930 E143.30574
G1 X104.480 Y61.890 E144.43656
G1 X104.480 Y62.436 E144.46378
G1 X120.520 Y78.476 E145.59461
G1 X120.520 Y79.022 E145.62183
G1 X104.480 Y62.982 E146.75265
G1 X104.480 Y63.528 E146.77987
G1 X120.520 Y79.568 E147.91069
G1 X120.520 Y80.114 E147.93791
G1 X104.480 Y64.074 E149.06874
G1 X104.480 Y64.620 E149.09596
G1 X120.520 Y80.660 E150.22678
G1 X120.520 Y81.206 E150.25400
G1 X104.480 Y65.166 E151.38482
G1 X104.480 Y65.712 E151.41204
G1 X120.520 Y81.752 E152.54287
G1 X120.520 Y82.298 E152.57009
G1 X104.480 Y66.258 E153.70091
G1 X104.480 Y66.804 E153.72813
G1 X120.520 Y82.844 E154.85895
G1 X120.520 Y83.390 E154.88617
G1 X104.480 Y67.350 E156.01700
G1 X104.480 Y67.896 E156.04422
G1 X120.520 Y83.936 E157.17504
G1 X120.520 Y84.482 E157.20226
G1 X104.480 Y68.442 E158.33308
G1 X104.480 Y68.988 E158.36030
G1 X120.520 Y85.028 E159.49113
G1 X120.520 Y85.574 E159.51835
G1 X104.480 Y69.534 E160.64917
G1 X104.480 Y70.080 E160.67639
G1 X120.520 Y86.120 E161.80721
G1 X120.520 Y86.666 E161.83443
G1 X104.480 Y70.626 E162.96526
G1 X104.480 Y71.172 E162.99248
G1 X120.520 Y87.212 E164.12330
G1 X120.520 Y87.758 E164.15052
G1 X104.480 Y71.718 E165.28134
G1 X104.480 Y72.264 E165.30856
G1 X120.520 Y88.304 E166.43939
G1 X120.520 Y88.850 E166.46661
G1 X104.480 Y72.810 E167.59743
G1 X104.480 Y73.356 E167.62465
G1 X120.520 Y89.396 E168.75547
G1 X120.520 Y89.942 E168.78269
G1 X104.480 Y73.902 E169.91352
G1 X104.480 Y74.448 E169.94074
G1 X120.520 Y90.488 E171.07156
G1 X120.520 Y91.034 E171.09878
G1 X104.480 Y74.994 E172.22960
G1 X104.480 Y75.540 E172.25682
G1 X120.520 Y91.580 E173.38765
G1 X120.520 Y92.126 E173.41487
G1 X104.480 Y76.087 E174.54569
G1 X104.480 Y76.633 E174.57291
G1 X120.520 Y92.672 E175.70373
G1 X120.520 Y93.219 E175.73095
G1 X104.480 Y77.179 E176.86178
G1 X104.480 Y77.725 E176.88900
G1 X120.520 Y93.765 E178.01982
G1 X120.520 Y94.311 E178.04704
G1 X104.480 Y78.271 E179.17786
G1 X104.480 Y78.817 E179.20508
G1 X120.520 Y94.857 E180.33591
G1 X120.520 Y95.403 E180.36313
G1 X104.480 Y79.363 E181.49395
G1 X104.480 Y79.909 E181.52117
G1 X120.520 Y95.949 E182.65199
G1 X120.520 Y96.495 E182.67922
G1 X104.480 Y80.455 E183.81004
G1 X104.480 Y81.001 E183.83726
G1 X120.520 Y97.041 E184.96808
G1 X120.520 Y97.587 E184.99530
G1 X104.480 Y81.547 E186.12613
G1 X104.480 Y82.093 E186.15335
G1 X120.520 Y98.133 E187.28417
G1 X120.520 Y98.679 E187.31139
G1 X104.480 Y82.639 E188.44221
G1 X104.480 Y83.185 E188.46943
G1 X120.520 Y99.225 E189.60026
G1 X120.520 Y99.771 E189.62748
G1 X104.480 Y83.731 E190.75830
G1 X104.480 Y84.277 E190.78552
G1 X120.520 Y100.317 E191.91634
G1 X120.520 Y100.863 E191.94356
G1 X104.480 Y84.823 E193.07439
G1 X104.480 Y85.369 E193.10161
G1 X120.520 Y101.409 E194.23243
G1 X120.520 Y101.955 E194.25965
G1 X104.480 Y85.915 E195.39047
G1 X104.480 Y86.461 E195.41769
G1 X120.520 Y102.501 E196.54852
G1 X120.520 Y103.047 E196.57574
G1 X104.480 Y87.007 E197.70656
G1 X104.480 Y87.553 E197.73378
G1 X120.520 Y103.593 E198.86460
G1 X120.520 Y104.139 E198.89182
G1 X104.480 Y88.099 E200.02265
G1 X104.480 Y88.645 E200.04987
G1 X120.520 Y104.685 E201.18069
G1 X120.520 Y105.231 E201.20791
G1 X104.480 Y89.191 E202.33873
G1 X104.480 Y89.737 E202.36595
G1 X120.520 Y105.777 E203.49678
G1 X120.520 Y106.323 E203.52400
G1 X104.480 Y90.283 E204.65482
G1 X104.480 Y90.829 E204.68204
G1 X120.520 Y106.869 E205.81286
G1 X120.520 Y107.415 E205.84008
G1 X104.480 Y91.375 E206.97091
G1 X104.480 Y91.921 E206.99813
G1 X120.520 Y107.961 E208.12895
G1 X120.520 Y108.507 E208.15617
G1 X104.480 Y92.467 E209.28699
G1 X104.480 Y93.013 E209.31421
G1 X120.520 Y109.053 E210.44504
G1 X120.520 Y109.599 E210.47226
G1 X104.480 Y93.559 E211.60308
G1 X104.480 Y94.106 E211.63030
G1 X120.520 Y110.145 E212.76112
G1 X120.520 Y110.691 E212.78834
G1 X104.480 Y94.652 E213.91917
G1 X104.480 Y95.198 E213.94639
G1 X120.520 Y111.238 E215.07721
G1 X120.520 Y111.784 E215.10443
G1 X104.480 Y95.744 E216.23525
G1 X104.480 Y96.290 E216.26247
G1 X120.520 Y112.330 E217.39330
G1 X120.520 Y112.876 E217.42052
G1 X104.480 Y96.836 E218.55134
G1 X104.480 Y97.382 E218.57856
G1 X120.520 Y113.422 E219.70938
G1 X120.520 Y113.968 E219.73660
G1 X104.480 Y97.928 E220.86743
G1 X104.480 Y98.474 E220.89465
G1 X120.520 Y114.514 E222.02547
G1 X120.520 Y115.060 E222.05269
G1 X104.480 Y99.020 E223.18351
G1 X104.480 Y99.566 E223.21074
G1 X120.520 Y115.606 E224.34156
G1 X120.520 Y116.152 E224.36878
G1 X104.480 Y100.112 E225.49960
G1 X104.480 Y100.658 E225.52682
G1 X120.520 Y116.698 E226.65765
G1 X120.520 Y117.244 E226.68487
G1 X104.480 Y101.204 E227.81569
G1 X104.480 Y101.750 E227.84291
G1 X120.520 Y117.790 E228.97373
G1 X120.520 Y118.336 E229.00095
G1 X104.480 Y102.296 E230.13178
G1 X104.480 Y102.842 E230.15900
G1 X120.520 Y118.882 E231.28982
G1 X120.520 Y119.428 E231.31704
G1 X104.480 Y103.388 E232.44786
G1 X104.480 Y103.934 E232.47508
G1 X120.520 Y119.974 E233.60591
G1 X120.520 Y120.520 E233.63313
G1 X104.480 Y104.480 E234.76395
G1 X104.480 Y105.026 E234.79117
G1 X120.520 Y121.066 E235.92199
G1 X120.520 Y121.612 E235.94921
G1 X104.480 Y105.572 E237.08004
G1 X104.480 Y106.118 E237.10726
G1 X120.520 Y122.158 E238.23808
G1 X120.520 Y122.704 E238.26530
G1 X104.096 Y106.280 E239.42321
G1 X103.550 Y106.280 E239.45043
G1 X120.520 Y123.250 E240.64684
G1 X120.520 Y123.796 E240.67406
G1 X103.004 Y106.280 E241.90896
G1 X102.458 Y106.280 E241.93618
G1 X120.520 Y124.342 E243.20957
G1 X120.520 Y124.888 E243.23679
G1 X101.912 Y106.280 E244.54869
G1 X101.366 Y106.280 E244.57591
G1 X120.520 Y125.434 E245.92629
G1 X120.520 Y125.980 E245.95351
G1 X100.820 Y106.280 E247.34240
G1 X100.274 Y106.280 E247.36962
G1 X120.520 Y126.526 E248.79699
G1 X120.520 Y127.072 E248.82421
G1 X99.728 Y106.280 E250.29009
G1 X99.182 Y106.280 E250.31731
G1 X120.520 Y127.618 E251.82168
G1 X120.520 Y128.164 E251.84890
G1 X98.636 Y106.280 E253.39176
G1 X98.089 Y106.280 E253.41898
G1 X120.520 Y128.711 E255.00034
G1 X120.520 Y129.257 E255.02756
G1 X97.543 Y106.280 E256.64742
G1 X96.997 Y106.280 E256.67464
G1 X120.520 Y129.803 E258.33299
G1 X120.520 Y130.349 E258.36021
G1 X96.451 Y106.280 E260.05706
G1 X95.905 Y106.280 E260.08428
G1 X120.520 Y130.895 E261.81962
G1 X120.520 Y131.441 E261.84684
G1 X95.359 Y106.280 E263.62068
G1 X94.813 Y106.280 E263.64790
G1 X120.520 Y131.987 E265.46023
G1 X120.520 Y132.533 E265.48745
G1 X94.267 Y106.280 E267.33828
G1 X93.721 Y106.280 E267.36550
G1 X120.520 Y133.079 E269.25482
G1 X120.520 Y133.625 E269.28204
G1 X93.175 Y106.280 E271.20986
G1 X92.629 Y106.280 E271.23708
G1 X120.520 Y134.171 E273.20339
G1 X120.520 Y134.717 E273.23061
G1 X92.083 Y106.280 E275.23542
G1 X91.537 Y106.280 E275.26264
G1 X120.520 Y135.263 E277.30595
G1 X120.520 Y135.809 E277.33317
G1 X90.991 Y106.280 E279.41497
G1 X90.445 Y106.280 E279.44219
G1 X120.520 Y136.355 E281.56249
G1 X120.520 Y136.901 E281.58971
G1 X89.899 Y106.280 E283.74850
G1 X89.353 Y106.280 E283.77572
G1 X120.293 Y137.220 E285.95700
G1 X119.747 Y137.220 E285.98422
G1 X88.807 Y106.280 E288.16550
G1 X88.261 Y106.280 E288.19272
G1 X119.201 Y137.220 E290.37400
G1 X118.655 Y137.220 E290.40122
G1 X87.715 Y106.280 E292.58250
G1 X87.169 Y106.280 E292.60972
G1 X118.109 Y137.220 E294.79100
G1 X117.563 Y137.220 E294.81822
G1 X86.623 Y106.280 E296.99950
G1 X86.077 Y106.280 E297.02672
G1 X117.017 Y137.220 E299.20800
G1 X116.471 Y137.220 E299.23522
G1 X85.531 Y106.280 E301.41650
G1 X84.985 Y106.280 E301.44372
G1 X115.925 Y137.220 E303.62500
G1 X115.379 Y137.220 E303.65222
G1 X84.439 Y106.280 E305.83350
G1 X83.893 Y106.280 E305.86072
G1 X114.833 Y137.220 E308.04199
G1 X114.287 Y137.220 E308.06922
G1 X83.347 Y106.280 E310.25049
G1 X82.801 Y106.280 E310.27771
G1 X113.741 Y137.220 E312.45899
G1 X113.194 Y137.220 E312.48621
G1 X82.255 Y106.280 E314.66749
G1 X81.709 Y106.280 E314.69471
G1 X112.648 Y137.220 E316.87599
G1 X112.102 Y137.220 E316.90321
G1 X81.163 Y106.280 E319.08449
G1 X80.616 Y106.280 E319.11171
G1 X111.556 Y137.220 E321.29299
G1 X111.010 Y137.220 E321.32021
G1 X80.070 Y106.280 E323.50149
G1 X79.524 Y106.280 E323.52871
G1 X110.464 Y137.220 E325.70999
G1 X109.918 Y137.220 E325.73721
G1 X78.978 Y106.280 E327.91849
G1 X78.432 Y106.280 E327.94571
G1 X109.372 Y137.220 E330.12699
G1 X108.826 Y137.220 E330.15421
G1 X77.886 Y106.280 E332.33549
G1 X77.340 Y106.280 E332.36271
G1 X108.280 Y137.220 E334.54399
G1 X107.734 Y137.220 E334.57121
G1 X76.794 Y106.280 E336.75249
G1 X76.248 Y106.280 E336.77971
G1 X107.188 Y137.220 E338.96099
G1 X106.642 Y137.220 E338.98821
G1 X75.702 Y106.280 E341.16949
G1 X75.156 Y106.280 E341.19671
G1 X106.096 Y137.220 E343.37799
G1 X105.550 Y137.220 E343.40521
G1 X74.610 Y106.280 E345.58649
G1 X74.064 Y106.280 E345.61371
G1 X105.004 Y137.220 E347.79499
G1 X104.458 Y137.220 E347.82221
G1 X73.518 Y106.280 E350.00349
G1 X72.972 Y106.280 E350.03071
G1 X103.912 Y137.220 E352.21199
G1 X103.366 Y137.220 E352.23921
G1 X72.426 Y106.280 E354.42049
G1 X71.920 Y106.320 E354.44579
G1 X59.480 Y93.880 E355.32281
G1 X59.480 Y94.426 E355.35003
G1 X102.274 Y137.220 E358.36702
