; generated by Slic3r 1.2.9 on 2017-02-04 at 15:09:12

; external perimeters extrusion width = 0.40mm
; perimeters extrusion width = 0.56mm
; infill extrusion width = 0.38mm
; solid infill extrusion width = 0.56mm
; top infill extrusion width = 0.22mm

M106 S256; Turn on fan to 100% power
M104 S140; turn on extruder temperature at S value
M140 S60; turn on bed temperature at S value
G28; home all axes
M84; disable motors
G1 Z15 F15000; have Z move to 20mm at 15000 mm/min
M190 S55; turn on bed temperature at S value and wait
M140 S55; turn on bed temperature at S value (printing temperature)
M109 S200; turn on extruder temperature at S value and wait (printing temperature)
M104 S200; turn on extruder temperature at S value
G1 Z0 F12000; move Z back to home
G21 ; set units to millimeters
G90 ; use absolute coordinates
M82 ; use absolute distances for extrusion
G92 E0
M106 S255
;Layer change
G1 E-6.00000 F1800.00000
G92 E0
G1 Z0.300 F9000.000
G1 X61.583 Y26.830 F9000.000
G1 E6.00000 F1800.00000
G1 X62.685 Y25.502 E6.08591 F600.000
G1 X64.960 Y24.739 E6.20539
G1 X112.960 Y24.739 E8.59526
G1 X114.640 Y25.133 E8.68117
G1 X115.968 Y26.235 E8.76707 F600.000
G1 X116.731 Y28.510 E8.88655
G1 X116.731 Y57.110 E10.31052
G1 X116.337 Y58.790 E10.39643
G1 X115.235 Y60.118 E10.48233
G1 X112.960 Y60.881 E10.60181
G1 X64.960 Y60.881 E12.99169
G1 X63.280 Y60.487 E13.07759
G1 X61.952 Y59.385 E13.16350
G1 X61.189 Y57.110 E13.28298
G1 X61.189 Y28.510 E14.70694
G1 X61.570 Y26.889 E14.78986
G1 X61.968 Y26.926 F9000.000
G1 X63.059 Y25.708 E14.87125 F600.000
G1 X64.960 Y25.124 E14.97027
G1 X112.960 Y25.124 E17.36014
G1 X114.545 Y25.518 E17.44148
G1 X115.762 Y26.609 E17.52281 F600.000
G1 X116.346 Y28.510 E17.62182
G1 X116.346 Y57.110 E19.04579
G1 X115.952 Y58.695 E19.12712
G1 X114.861 Y59.912 E19.20846
G1 X112.960 Y60.496 E19.30747
G1 X64.960 Y60.496 E21.69734
G1 X63.375 Y60.102 E21.77868
G1 X62.158 Y59.011 E21.86001
G1 X61.574 Y57.110 E21.95902
G1 X61.574 Y28.510 E23.38299
G1 X61.954 Y26.984 E23.46127
G1 E17.46127 F1800.00000
G92 E0
G1 X106.383 Y54.144 F9000.000
G1 E6.00000 F1800.00000
G1 X106.371 Y54.339 E6.00970 F600.000
G1 X106.328 Y54.564 E6.02111
G1 X106.257 Y54.782 E6.03252
G1 X106.160 Y54.989 E6.04394
G1 X106.037 Y55.183 E6.05536
G1 X105.891 Y55.360 E6.06677
G1 X105.724 Y55.517 E6.07818
G1 X105.538 Y55.651 E6.08959
G1 X105.337 Y55.762 E6.10101
G1 X105.124 Y55.846 E6.11242
G1 X104.902 Y55.903 E6.12384
G1 X104.675 Y55.932 E6.13525
G1 X104.445 Y55.932 E6.14666
G1 X104.218 Y55.903 E6.15807
G1 X103.996 Y55.846 E6.16949
G1 X103.783 Y55.762 E6.18090
G1 X103.582 Y55.651 E6.19231
G1 X103.396 Y55.517 E6.20373
G1 X103.229 Y55.360 E6.21514
G1 X103.083 Y55.183 E6.22655
G1 X102.960 Y54.989 E6.23797
G1 X102.863 Y54.782 E6.24938
G1 X102.792 Y54.564 E6.26079
G1 X102.749 Y54.339 E6.27221
G1 X102.735 Y54.110 E6.28362
G1 X102.749 Y53.881 E6.29504
G1 X102.792 Y53.656 E6.30645
G1 X102.863 Y53.438 E6.31786
G1 X102.961 Y53.229 E6.32934
G1 X103.101 Y53.014 E6.34212
G1 X103.391 Y52.707 E6.36315
G1 X103.582 Y52.569 E6.37490
G1 X103.783 Y52.458 E6.38631
G1 X103.996 Y52.374 E6.39772
G1 X104.218 Y52.317 E6.40914
G1 X104.445 Y52.288 E6.42055
G1 X104.675 Y52.288 E6.43196 F600.000
G1 X104.902 Y52.317 E6.44337
G1 X105.150 Y52.381 E6.45612
G1 X105.533 Y52.565 E6.47730
G1 X105.724 Y52.703 E6.48902
G1 X105.891 Y52.860 E6.50043
G1 X106.037 Y53.037 E6.51184
G1 X106.160 Y53.231 E6.52326
G1 X106.257 Y53.438 E6.53467
G1 X106.328 Y53.656 E6.54608
G1 X106.371 Y53.881 E6.55750
G1 X106.384 Y54.085 E6.56764
G1 X106.549 Y54.246 F9000.000
G1 E0.56764 F1800.00000
G92 E0
G1 X95.090 Y50.642 F9000.000
G1 E6.00000 F1800.00000
G1 X94.945 Y51.090 E6.02343 F600.000
G1 X94.745 Y51.516 E6.04687
G1 X94.492 Y51.913 E6.07030
G1 X94.192 Y52.276 E6.09374
G1 X93.849 Y52.598 E6.11718
G1 X93.468 Y52.875 E6.14061
G1 X93.056 Y53.102 E6.16405
G1 X92.706 Y53.240 E6.18277
G1 X92.706 Y53.456 E6.19354
G1 X85.214 Y53.456 E6.56659
G1 X85.214 Y53.240 E6.57736
G1 X84.864 Y53.102 E6.59608
G1 X84.452 Y52.875 E6.61952
G1 X84.071 Y52.598 E6.64295
G1 X83.728 Y52.276 E6.66639
G1 X83.424 Y51.909 E6.69011
G1 X83.158 Y51.479 E6.71525
G1 X82.975 Y51.090 E6.73669
G1 X82.830 Y50.642 E6.76012
G1 X82.741 Y50.180 E6.78355
G1 X82.714 Y49.741 E6.80543
G1 X82.714 Y34.479 E7.56534
G1 X82.741 Y34.040 E7.58722
G1 X82.830 Y33.578 E7.61065
G1 X82.975 Y33.130 E7.63409
G1 X83.175 Y32.704 E7.65752
G1 X83.428 Y32.307 E7.68096
G1 X83.728 Y31.944 E7.70439
G1 X84.071 Y31.622 E7.72783
G1 X84.452 Y31.345 E7.75127
G1 X84.864 Y31.119 E7.77470
G1 X85.214 Y30.980 E7.79343
G1 X85.214 Y30.764 E7.80420
G1 X92.706 Y30.764 E8.17724 F600.000
G1 X92.706 Y30.980 E8.18801
G1 X93.056 Y31.119 E8.20673
G1 X93.468 Y31.345 E8.23017
G1 X93.849 Y31.622 E8.25361
G1 X94.192 Y31.944 E8.27704
G1 X94.492 Y32.307 E8.30048
G1 X94.745 Y32.704 E8.32391
G1 X94.945 Y33.130 E8.34735
G1 X95.090 Y33.578 E8.37078
G1 X95.179 Y34.040 E8.39422
G1 X95.206 Y34.479 E8.41609
G1 X95.206 Y49.741 E9.17600
G1 X95.179 Y50.180 E9.19788
G1 X95.102 Y50.583 E9.21833
G1 X94.716 Y50.546 F9000.000
G1 X94.586 Y50.948 E9.23935 F600.000
G1 X94.406 Y51.330 E9.26037
G1 X94.180 Y51.686 E9.28139
G1 X93.911 Y52.011 E9.30241
G1 X93.603 Y52.300 E9.32343
G1 X93.261 Y52.548 E9.34445
G1 X92.891 Y52.752 E9.36547
G1 X92.499 Y52.907 E9.38649
G1 X92.321 Y52.953 E9.39565
G1 X92.321 Y53.071 E9.40150
G1 X85.599 Y53.071 E9.73615
G1 X85.599 Y52.953 E9.74200
G1 X85.421 Y52.907 E9.75116
G1 X85.029 Y52.752 E9.77218
G1 X84.659 Y52.548 E9.79320
G1 X84.317 Y52.300 E9.81422
G1 X84.009 Y52.011 E9.83524
G1 X83.738 Y51.683 E9.85644
G1 X83.498 Y51.295 E9.87917
G1 X83.334 Y50.948 E9.89829
G1 X83.204 Y50.546 E9.91931
G1 X83.125 Y50.131 E9.94033
G1 X83.099 Y49.729 E9.96039
G1 X83.099 Y34.491 E10.71910
G1 X83.125 Y34.089 E10.73916
G1 X83.204 Y33.674 E10.76018
G1 X83.334 Y33.272 E10.78120
G1 X83.514 Y32.890 E10.80222
G1 X83.740 Y32.534 E10.82324
G1 X84.009 Y32.209 E10.84426
G1 X84.317 Y31.920 E10.86528
G1 X84.659 Y31.672 E10.88630
G1 X85.029 Y31.468 E10.90732
G1 X85.421 Y31.313 E10.92834
G1 X85.599 Y31.267 E10.93750
G1 X85.599 Y31.149 E10.94336
G1 X92.321 Y31.149 E11.27800 F600.000
G1 X92.321 Y31.267 E11.28385
G1 X92.499 Y31.313 E11.29302
G1 X92.891 Y31.468 E11.31404
G1 X93.261 Y31.672 E11.33506
G1 X93.603 Y31.920 E11.35608
G1 X93.911 Y32.209 E11.37710
G1 X94.180 Y32.534 E11.39812
G1 X94.406 Y32.890 E11.41914
G1 X94.586 Y33.272 E11.44016
G1 X94.716 Y33.674 E11.46118
G1 X94.795 Y34.089 E11.48220
G1 X94.821 Y34.491 E11.50226
G1 X94.821 Y49.729 E12.26096
G1 X94.795 Y50.131 E12.28103
G1 X94.727 Y50.487 E12.29906
G1 X94.342 Y50.450 F9000.000
G1 X94.226 Y50.805 E12.31766 F600.000
G1 X94.067 Y51.143 E12.33627
G1 X93.867 Y51.459 E12.35487
G1 X93.629 Y51.747 E12.37348
G1 X93.357 Y52.003 E12.39208
G1 X93.054 Y52.222 E12.41068
G1 X92.727 Y52.402 E12.42929
G1 X92.379 Y52.540 E12.44789
G1 X91.935 Y52.654 E12.47074
G1 X91.935 Y52.685 E12.47229
G1 X85.985 Y52.685 E12.76853
G1 X85.985 Y52.654 E12.77008
G1 X85.541 Y52.540 E12.79292
G1 X85.193 Y52.402 E12.81153
G1 X84.866 Y52.222 E12.83013
G1 X84.563 Y52.003 E12.84874
G1 X84.291 Y51.747 E12.86734
G1 X84.052 Y51.458 E12.88601
G1 X83.837 Y51.111 E12.90632
G1 X83.694 Y50.805 E12.92314
G1 X83.578 Y50.450 E12.94174
G1 X83.508 Y50.083 E12.96035
G1 X83.485 Y49.717 E12.97860
G1 X83.485 Y34.503 E13.73610
G1 X83.508 Y34.137 E13.75435
G1 X83.578 Y33.770 E13.77295
G1 X83.694 Y33.415 E13.79156
G1 X83.853 Y33.077 E13.81016
G1 X84.053 Y32.761 E13.82876
G1 X84.291 Y32.473 E13.84737
G1 X84.563 Y32.217 E13.86597
G1 X84.866 Y31.998 E13.88458
G1 X85.193 Y31.818 E13.90318
G1 X85.541 Y31.680 E13.92178
G1 X85.985 Y31.566 E13.94463
G1 X85.985 Y31.535 E13.94618
G1 X91.935 Y31.535 E14.24242 F600.000
G1 X91.935 Y31.566 E14.24397
G1 X92.379 Y31.680 E14.26682
G1 X92.727 Y31.818 E14.28542
G1 X93.054 Y31.998 E14.30403
G1 X93.357 Y32.217 E14.32263
G1 X93.629 Y32.473 E14.34123
G1 X93.867 Y32.761 E14.35984
G1 X94.067 Y33.077 E14.37844
G1 X94.226 Y33.415 E14.39705
G1 X94.342 Y33.770 E14.41565
G1 X94.412 Y34.137 E14.43425
G1 X94.435 Y34.503 E14.45251
G1 X94.435 Y49.717 E15.21000
G1 X94.412 Y50.083 E15.22826
G1 X94.353 Y50.391 E15.24387
G1 X94.603 Y50.717 F9000.000
G1 E9.24387 F1800.00000
G92 E0
G1 X75.603 Y43.664 F9000.000
G1 E6.00000 F1800.00000
G1 X75.448 Y43.994 E6.01813 F600.000
G1 X75.113 Y44.456 E6.04655
G1 X74.673 Y44.820 E6.07498
G1 X74.353 Y44.995 E6.09312
G1 X73.840 Y45.162 E6.11997
G1 X73.479 Y45.207 E6.13810
G1 X72.941 Y45.174 E6.16493
G1 X72.589 Y45.083 E6.18307
G1 X72.100 Y44.853 E6.20993
G1 X71.831 Y44.658 E6.22649
G1 X71.589 Y44.430 E6.24305
G1 X71.276 Y44.000 E6.26952
G1 X71.125 Y43.691 E6.28665
G1 X70.975 Y43.113 E6.31639
G1 X70.975 Y42.509 E6.34648
G1 X71.117 Y41.956 E6.37491
G1 X71.272 Y41.626 E6.39304
G1 X71.607 Y41.164 E6.42146
G1 X72.047 Y40.800 E6.44989
G1 X72.365 Y40.626 E6.46794
G1 X72.855 Y40.465 E6.49364
G1 X73.235 Y40.412 E6.51271 F600.000
G1 X73.779 Y40.446 E6.53984
G1 X74.131 Y40.537 E6.55797
G1 X74.620 Y40.767 E6.58484
G1 X74.889 Y40.962 E6.60139
G1 X75.131 Y41.190 E6.61795
G1 X75.448 Y41.626 E6.64480
G1 X75.603 Y41.956 E6.66293
G1 X75.745 Y42.509 E6.69136
G1 X75.745 Y43.111 E6.72137
G1 X75.618 Y43.606 E6.74682
G1 X75.239 Y43.533 F9000.000
G1 X75.115 Y43.797 E6.76132 F600.000
G1 X74.829 Y44.190 E6.78550
G1 X74.455 Y44.499 E6.80969
G1 X74.200 Y44.640 E6.82420
G1 X73.756 Y44.784 E6.84742
G1 X73.467 Y44.820 E6.86192
G1 X73.002 Y44.791 E6.88513
G1 X72.720 Y44.719 E6.89963
G1 X72.298 Y44.520 E6.92286
G1 X72.078 Y44.360 E6.93640
G1 X71.879 Y44.174 E6.94993
G1 X71.608 Y43.800 E6.97292
G1 X71.489 Y43.556 E6.98645
G1 X71.360 Y43.064 E7.01180
G1 X71.360 Y42.557 E7.03701
G1 X71.481 Y42.087 E7.06120
G1 X71.605 Y41.823 E7.07570
G1 X71.891 Y41.430 E7.09988
G1 X72.265 Y41.121 E7.12407
G1 X72.519 Y40.981 E7.13853
G1 X72.943 Y40.842 E7.16070
G1 X73.249 Y40.800 E7.17612 F600.000
G1 X73.718 Y40.829 E7.19951
G1 X74.000 Y40.901 E7.21401
G1 X74.422 Y41.100 E7.23724
G1 X74.642 Y41.260 E7.25077
G1 X74.841 Y41.446 E7.26431
G1 X75.115 Y41.823 E7.28753
G1 X75.239 Y42.087 E7.30203
G1 X75.360 Y42.557 E7.32622
G1 X75.360 Y43.063 E7.35138
G1 X75.254 Y43.475 E7.37258
G1 X74.874 Y43.402 F9000.000
G1 X74.781 Y43.600 E7.38345 F600.000
G1 X74.546 Y43.924 E7.40340
G1 X74.237 Y44.179 E7.42335
G1 X74.046 Y44.284 E7.43422
G1 X73.672 Y44.406 E7.45381
G1 X73.455 Y44.433 E7.46468
G1 X73.062 Y44.408 E7.48427
G1 X72.851 Y44.354 E7.49514
G1 X72.495 Y44.187 E7.51474
G1 X72.324 Y44.062 E7.52525
G1 X72.170 Y43.918 E7.53577
G1 X71.940 Y43.601 E7.55527
G1 X71.852 Y43.422 E7.56520
G1 X71.746 Y43.014 E7.58616
G1 X71.746 Y42.606 E7.60649
G1 X71.846 Y42.218 E7.62644
G1 X71.939 Y42.020 E7.63731
G1 X72.174 Y41.696 E7.65725
G1 X72.483 Y41.441 E7.67720
G1 X72.674 Y41.336 E7.68806
G1 X73.030 Y41.219 E7.70671
G1 X73.264 Y41.187 E7.71847 F600.000
G1 X73.658 Y41.212 E7.73812
G1 X73.869 Y41.266 E7.74899
G1 X74.225 Y41.433 E7.76859
G1 X74.396 Y41.558 E7.77910
G1 X74.550 Y41.702 E7.78962
G1 X74.781 Y42.020 E7.80921
G1 X74.874 Y42.218 E7.82008
G1 X74.974 Y42.606 E7.84003
G1 X74.974 Y43.014 E7.86033
G1 X74.889 Y43.344 E7.87729
G1 X75.010 Y43.573 F9000.000
G1 E1.87729 F1800.00000
G92 E0
G1 X102.175 Y43.111 F9000.000
G1 E6.00000 F1800.00000
G1 X102.175 Y42.509 E6.03001 F600.000
G1 X102.317 Y41.956 E6.05844
G1 X102.472 Y41.626 E6.07657
G1 X102.807 Y41.164 E6.10499
G1 X103.247 Y40.800 E6.13343
G1 X103.567 Y40.625 E6.15156
G1 X104.080 Y40.458 E6.17842
G1 X104.441 Y40.413 E6.19654 F600.000
G1 X104.979 Y40.446 E6.22338
G1 X105.331 Y40.537 E6.24151
G1 X105.820 Y40.767 E6.26837
G1 X106.089 Y40.962 E6.28493
G1 X106.331 Y41.190 E6.30149
G1 X106.648 Y41.626 E6.32834
G1 X106.803 Y41.955 E6.34647
G1 X106.945 Y42.509 E6.37490
G1 X106.945 Y43.111 E6.40491
G1 X106.803 Y43.665 E6.43335
G1 X106.648 Y43.994 E6.45147
G1 X106.313 Y44.456 E6.47989
G1 X105.873 Y44.820 E6.50833
G1 X105.553 Y44.995 E6.52646
G1 X105.040 Y45.162 E6.55332
G1 X104.679 Y45.207 E6.57144
G1 X104.141 Y45.174 E6.59828
G1 X103.789 Y45.083 E6.61641
G1 X103.300 Y44.853 E6.64328
G1 X103.031 Y44.658 E6.65983
G1 X102.789 Y44.430 E6.67639
G1 X102.472 Y43.994 E6.70324
G1 X102.317 Y43.664 E6.72137
G1 X102.190 Y43.170 E6.74681
G1 X102.560 Y43.063 F9000.000
G1 X102.560 Y42.557 E6.77197 F600.000
G1 X102.681 Y42.087 E6.79616
G1 X102.805 Y41.823 E6.81066
G1 X103.091 Y41.430 E6.83484
G1 X103.465 Y41.121 E6.85904
G1 X103.720 Y40.980 E6.87354
G1 X104.164 Y40.836 E6.89676
G1 X104.453 Y40.800 E6.91126 F600.000
G1 X104.918 Y40.829 E6.93447
G1 X105.200 Y40.901 E6.94897
G1 X105.622 Y41.100 E6.97220
G1 X105.842 Y41.260 E6.98574
G1 X106.041 Y41.446 E6.99928
G1 X106.315 Y41.823 E7.02250
G1 X106.439 Y42.087 E7.03700
G1 X106.560 Y42.557 E7.06119
G1 X106.560 Y43.063 E7.08635
G1 X106.439 Y43.533 E7.11054
G1 X106.315 Y43.797 E7.12504
G1 X106.029 Y44.190 E7.14922
G1 X105.655 Y44.499 E7.17341
G1 X105.400 Y44.640 E7.18791
G1 X104.956 Y44.784 E7.21114
G1 X104.667 Y44.820 E7.22563
G1 X104.202 Y44.791 E7.24885
G1 X103.920 Y44.719 E7.26335
G1 X103.498 Y44.520 E7.28658
G1 X103.278 Y44.360 E7.30012
G1 X103.079 Y44.174 E7.31365
G1 X102.805 Y43.797 E7.33687
G1 X102.681 Y43.533 E7.35137
G1 X102.575 Y43.121 E7.37257
G1 X102.946 Y43.014 F9000.000
G1 X102.946 Y42.606 E7.39288 F600.000
G1 X103.046 Y42.218 E7.41283
G1 X103.139 Y42.020 E7.42370
G1 X103.374 Y41.696 E7.44364
G1 X103.683 Y41.441 E7.46359
G1 X103.874 Y41.336 E7.47447
G1 X104.248 Y41.214 E7.49406
G1 X104.465 Y41.187 E7.50493 F600.000
G1 X104.858 Y41.212 E7.52451
G1 X105.069 Y41.266 E7.53539
G1 X105.425 Y41.433 E7.55498
G1 X105.596 Y41.558 E7.56550
G1 X105.750 Y41.702 E7.57601
G1 X105.981 Y42.020 E7.59560
G1 X106.074 Y42.218 E7.60647
G1 X106.174 Y42.606 E7.62642
G1 X106.174 Y43.014 E7.64673
G1 X106.074 Y43.402 E7.66668
G1 X105.981 Y43.600 E7.67755
G1 X105.746 Y43.924 E7.69749
G1 X105.437 Y44.179 E7.71744
G1 X105.246 Y44.284 E7.72831
G1 X104.872 Y44.406 E7.74791
G1 X104.655 Y44.433 E7.75878
G1 X104.262 Y44.408 E7.77836
G1 X104.051 Y44.354 E7.78923
G1 X103.695 Y44.187 E7.80883
G1 X103.524 Y44.062 E7.81935
G1 X103.370 Y43.918 E7.82986
G1 X103.139 Y43.600 E7.84945
G1 X103.046 Y43.402 E7.86032
G1 X102.961 Y43.072 E7.87728
G1 X102.584 Y42.844 F9000.000
G1 X102.906 Y56.114 F9000.000
G1 X75.014 Y56.114 E9.26597 F600.000
G1 X75.254 Y55.889 E9.28235
G1 X75.462 Y55.637 E9.29859
G1 X75.637 Y55.362 E9.31485
G1 X75.776 Y55.066 E9.33109
G1 X75.877 Y54.756 E9.34732
G1 X75.938 Y54.436 E9.36357
G1 X75.958 Y54.110 E9.37982
G1 X75.938 Y53.784 E9.39607
G1 X75.877 Y53.464 E9.41232
G1 X75.776 Y53.154 E9.42855
G1 X75.637 Y52.858 E9.44480
G1 X75.462 Y52.583 E9.46106
G1 X75.254 Y52.331 E9.47730
G1 X75.016 Y52.108 E9.49354
G1 X74.752 Y51.916 E9.50979
G1 X74.466 Y51.759 E9.52603
G1 X74.163 Y51.639 E9.54227
G1 X73.847 Y51.558 E9.55853
G1 X73.523 Y51.517 E9.57477
G1 X73.197 Y51.517 E9.59100
G1 X72.873 Y51.558 E9.60725
G1 X72.557 Y51.639 E9.62351
G1 X72.254 Y51.759 E9.63975
G1 X71.968 Y51.916 E9.65599
G1 X71.704 Y52.108 E9.67224
G1 X71.466 Y52.331 E9.68848
G1 X71.258 Y52.583 E9.70472
G1 X71.083 Y52.858 E9.72098
G1 X70.944 Y53.154 E9.73722
G1 X70.843 Y53.464 E9.75346
G1 X70.782 Y53.784 E9.76971
G1 X70.762 Y54.110 E9.78596
G1 X70.782 Y54.436 E9.80220
G1 X70.843 Y54.756 E9.81845
G1 X70.944 Y55.066 E9.83469
G1 X71.083 Y55.362 E9.85093
G1 X71.258 Y55.637 E9.86719
G1 X71.466 Y55.889 E9.88343
G1 X71.706 Y56.114 E9.89980
G1 X65.956 Y56.114 E10.18607
G1 X65.956 Y29.506 E11.51083
G1 X71.706 Y29.506 E11.79709
G1 X71.466 Y29.731 E11.81347
G1 X71.258 Y29.983 E11.82970
G1 X71.083 Y30.258 E11.84596
G1 X70.944 Y30.554 E11.86220
G1 X70.843 Y30.864 E11.87844
G1 X70.782 Y31.184 E11.89469
G1 X70.762 Y31.510 E11.91094
G1 X70.782 Y31.836 E11.92719
G1 X70.843 Y32.156 E11.94343
G1 X70.944 Y32.466 E11.95967
G1 X71.083 Y32.762 E11.97592
G1 X71.258 Y33.037 E11.99217
G1 X71.466 Y33.289 E12.00841
G1 X71.704 Y33.512 E12.02465
G1 X71.968 Y33.704 E12.04091
G1 X72.254 Y33.861 E12.05715
G1 X72.557 Y33.981 E12.07339
G1 X72.895 Y34.068 E12.09074
G1 X73.446 Y34.113 E12.11830
G1 X73.847 Y34.062 E12.13840
G1 X74.163 Y33.981 E12.15465
G1 X74.466 Y33.861 E12.17089
G1 X74.752 Y33.704 E12.18713
G1 X75.016 Y33.512 E12.20339
G1 X75.254 Y33.289 E12.21963
