; generated by Slic3r 1.2.9 on 2017-02-04 at 22:32:54

; external perimeters extrusion width = 0.40mm
; perimeters extrusion width = 0.56mm
; infill extrusion width = 0.38mm
; solid infill extrusion width = 0.56mm
; top infill extrusion width = 0.22mm

M106 S256; Turn on fan to 100% power
M104 S140; turn on extruder temperature at S value
M140 S60; turn on bed temperature at S value
G28; home all axes
M84; disable motors
G1 Z15 F15000; have Z move to 20mm at 15000 mm/min
M190 S55; turn on bed temperature at S value and wait
M140 S55; turn on bed temperature at S value (printing temperature)
M109 S200; turn on extruder temperature at S value and wait (printing temperature)
M104 S200; turn on extruder temperature at S value
G1 Z0 F12000; move Z back to home
G21 ; set units to millimeters
G90 ; use absolute coordinates
M82 ; use absolute distances for extrusion
G92 E0
M106 S255
;Layer change
G1 E-6.00000 F1800.00000
G92 E0
G1 Z0.300 F9000.000
G1 X62.986 Y30.870 F9000.000
G1 E6.00000 F1800.00000
G1 X63.820 Y29.359 E6.08591 F600.000
G1 X65.240 Y28.379 E6.17181
G1 X66.381 Y28.126 E6.22998
G1 X129.580 Y24.169 E9.38277
G1 X130.792 Y24.120 E9.44315
G1 X132.064 Y24.212 E9.50669 F600.000
G1 X133.223 Y24.428 E9.56535
G1 X133.816 Y24.586 E9.59592
G1 X134.927 Y24.976 E9.65455
G1 X136.078 Y25.530 E9.71813
G1 X137.075 Y26.157 E9.77680
G1 X137.568 Y26.523 E9.80735
G1 X138.460 Y27.296 E9.86611
G1 X139.323 Y28.232 E9.92953
G1 X140.020 Y29.183 E9.98822
G1 X140.345 Y29.705 E10.01880
G1 X140.888 Y30.750 E10.07749
G1 X141.346 Y31.940 E10.14094
G1 X141.645 Y33.081 E10.19966
G1 X141.754 Y33.685 E10.23023
G1 X141.847 Y34.481 E10.27016
G1 X141.888 Y35.390 E10.31544
G1 X141.888 Y119.390 E14.49772
G1 X141.847 Y120.299 E14.54301
G1 X141.695 Y121.465 E14.60158
G1 X141.453 Y122.478 E14.65342
G1 X141.269 Y123.063 E14.68396
G1 X140.830 Y124.157 E14.74265
G1 X140.345 Y125.075 E14.79436
G1 X140.020 Y125.597 E14.82494
G1 X139.411 Y126.439 E14.87666
G1 X138.625 Y127.316 E14.93533
G1 X138.181 Y127.741 E14.96591
G1 X137.382 Y128.404 E15.01761
G1 X136.402 Y129.059 E15.07629
G1 X135.867 Y129.359 E15.10686
G1 X134.927 Y129.804 E15.15863
G1 X133.816 Y130.194 E15.21726
G1 X133.223 Y130.352 E15.24783
G1 X132.437 Y130.510 E15.28775
G1 X131.828 Y130.592 E15.31832
G1 X130.651 Y130.661 E15.37702
G1 X129.580 Y130.611 E15.43041
G1 X66.381 Y126.654 E18.58320
G1 X64.729 Y126.155 E18.66911
G1 X63.472 Y124.973 E18.75501
G1 X62.986 Y123.910 E18.81319
G1 X50.811 Y80.594 E21.05342
G1 X50.624 Y79.871 E21.09063
G1 X50.520 Y79.364 E21.11639
G1 X50.400 Y78.473 E21.16113
G1 X50.352 Y77.721 E21.19867
G1 X50.360 Y76.822 E21.24342
G1 X50.400 Y76.307 E21.26917
G1 X50.483 Y75.650 E21.30212
G1 X50.624 Y74.909 E21.33966
G1 X50.811 Y74.186 E21.37687
G1 X62.970 Y30.927 E23.61412
G1 X63.357 Y30.974 F9000.000
G1 X64.165 Y29.554 E23.69546 F600.000
G1 X65.544 Y28.679 E23.77679
G1 X66.405 Y28.511 E23.82043
G1 X129.604 Y24.554 E26.97323
G1 X130.788 Y24.506 E27.03222
G1 X132.012 Y24.594 E27.09335 F600.000
G1 X133.147 Y24.806 E27.15081
G1 X133.693 Y24.952 E27.17896
G1 X134.782 Y25.333 E27.23639
G1 X135.889 Y25.866 E27.29756
G1 X136.866 Y26.481 E27.35502
G1 X137.320 Y26.817 E27.38316
G1 X138.193 Y27.574 E27.44071
G1 X139.024 Y28.476 E27.50173
G1 X139.706 Y29.407 E27.55921
G1 X140.005 Y29.887 E27.58738
G1 X140.538 Y30.911 E27.64486
G1 X140.979 Y32.055 E27.70590
G1 X141.270 Y33.173 E27.76341
G1 X141.371 Y33.730 E27.79157
G1 X141.464 Y34.526 E27.83150
G1 X141.502 Y35.390 E27.87455
G1 X141.502 Y119.390 E32.05683
G1 X141.464 Y120.254 E32.09988
G1 X141.315 Y121.397 E32.15726
G1 X141.078 Y122.385 E32.20788
G1 X140.909 Y122.924 E32.23602
G1 X140.479 Y123.996 E32.29350
G1 X140.005 Y124.893 E32.34400
G1 X139.706 Y125.373 E32.37217
G1 X139.112 Y126.196 E32.42269
G1 X138.341 Y127.055 E32.48015
G1 X137.933 Y127.446 E32.50832
G1 X137.153 Y128.094 E32.55881
G1 X136.193 Y128.735 E32.61629
G1 X135.700 Y129.012 E32.64445
G1 X134.782 Y129.447 E32.69501
G1 X133.693 Y129.828 E32.75243
G1 X133.147 Y129.974 E32.78059
G1 X132.361 Y130.132 E32.82051
G1 X131.800 Y130.208 E32.84867
G1 X130.648 Y130.275 E32.90616
G1 X129.604 Y130.226 E32.95818
G1 X66.405 Y126.269 E36.11097
G1 X64.847 Y125.777 E36.19230
G1 X63.701 Y124.612 E36.27364
G1 X63.357 Y123.806 E36.31728
G1 X51.182 Y80.490 E38.55752
G1 X50.998 Y79.775 E38.59429
G1 X50.899 Y79.292 E38.61884
G1 X50.782 Y78.425 E38.66238
G1 X50.738 Y77.721 E38.69751
G1 X50.745 Y76.846 E38.74105
G1 X50.782 Y76.355 E38.76560
G1 X50.865 Y75.698 E38.79855
G1 X50.998 Y75.005 E38.83368
G1 X51.182 Y74.290 E38.87045
G1 X63.341 Y31.032 E41.10770
G1 E35.10770 F1800.00000
G92 E0
G1 X130.145 Y117.040 F9000.000
G1 E6.00000 F1800.00000
G1 X130.589 Y116.990 E6.02227 F600.000
G1 X131.043 Y117.031 E6.04494
G1 X131.479 Y117.150 E6.06746
G1 X131.882 Y117.354 E6.08994
G1 X132.243 Y117.625 E6.11242
G1 X132.543 Y117.963 E6.13491
G1 X132.785 Y118.358 E6.15799
G1 X132.969 Y118.906 E6.18677
G1 X133.014 Y119.368 E6.20986
G1 X132.978 Y119.830 E6.23294
G1 X132.804 Y120.381 E6.26172
G1 X132.569 Y120.781 E6.28482
G1 X132.276 Y121.125 E6.30730
G1 X131.920 Y121.402 E6.32978
G1 X131.521 Y121.614 E6.35226
G1 X131.088 Y121.740 E6.37474
G1 X130.639 Y121.791 E6.39722
G1 X130.189 Y121.749 E6.41971
G1 X129.753 Y121.630 E6.44219
G1 X129.351 Y121.426 E6.46466
G1 X128.989 Y121.155 E6.48715
G1 X128.690 Y120.817 E6.50963
G1 X128.448 Y120.422 E6.53271
G1 X128.264 Y119.874 E6.56150
G1 X128.219 Y119.412 E6.58458
G1 X128.255 Y118.950 E6.60766
G1 X128.429 Y118.399 E6.63645
G1 X128.664 Y117.999 E6.65954
G1 X128.957 Y117.655 E6.68203
G1 X129.313 Y117.378 E6.70450
G1 X129.712 Y117.166 E6.72699
G1 X130.087 Y117.056 E6.74646
G1 X130.221 Y117.419 F9000.000
G1 X130.593 Y117.377 E6.76512 F600.000
G1 X130.974 Y117.412 E6.78415
G1 X131.340 Y117.512 E6.80302
G1 X131.677 Y117.683 E6.82187
G1 X131.981 Y117.910 E6.84073
G1 X132.232 Y118.193 E6.85958
G1 X132.434 Y118.522 E6.87880
G1 X132.589 Y118.987 E6.90320
G1 X132.626 Y119.371 E6.92242
G1 X132.597 Y119.756 E6.94164
G1 X132.450 Y120.224 E6.96604
G1 X132.254 Y120.556 E6.98527
G1 X132.008 Y120.845 E7.00412
G1 X131.709 Y121.077 E7.02297
G1 X131.375 Y121.255 E7.04182
G1 X131.011 Y121.361 E7.06067
G1 X130.635 Y121.403 E7.07952
G1 X130.258 Y121.368 E7.09838
G1 X129.893 Y121.268 E7.11723
G1 X129.555 Y121.097 E7.13607
G1 X129.252 Y120.870 E7.15493
G1 X129.001 Y120.587 E7.17379
G1 X128.799 Y120.258 E7.19300
G1 X128.643 Y119.793 E7.21740
G1 X128.606 Y119.409 E7.23662
G1 X128.636 Y119.024 E7.25584
G1 X128.783 Y118.556 E7.28025
G1 X128.979 Y118.224 E7.29947
G1 X129.225 Y117.935 E7.31833
G1 X129.523 Y117.703 E7.33717
G1 X129.858 Y117.525 E7.35603
G1 X130.163 Y117.436 E7.37188
G1 X130.297 Y117.799 F9000.000
G1 X130.598 Y117.765 E7.38693 F600.000
G1 X130.905 Y117.793 E7.40232
G1 X131.201 Y117.873 E7.41755
G1 X131.473 Y118.011 E7.43277
G1 X131.718 Y118.195 E7.44799
G1 X131.921 Y118.424 E7.46321
G1 X132.082 Y118.687 E7.47857
G1 X132.210 Y119.068 E7.49859
G1 X132.239 Y119.375 E7.51394
G1 X132.215 Y119.682 E7.52930
G1 X132.095 Y120.066 E7.54932
G1 X131.938 Y120.332 E7.56468
G1 X131.740 Y120.564 E7.57991
G1 X131.499 Y120.752 E7.59512
G1 X131.229 Y120.896 E7.61035
G1 X130.935 Y120.981 E7.62557
G1 X130.632 Y121.015 E7.64079
G1 X130.327 Y120.987 E7.65601
G1 X130.032 Y120.907 E7.67123
G1 X129.760 Y120.769 E7.68645
G1 X129.515 Y120.585 E7.70168
G1 X129.312 Y120.356 E7.71690
G1 X129.151 Y120.093 E7.73225
G1 X129.023 Y119.712 E7.75227
G1 X128.993 Y119.405 E7.76763
G1 X129.017 Y119.098 E7.78299
G1 X129.138 Y118.714 E7.80301
G1 X129.294 Y118.448 E7.81837
G1 X129.493 Y118.216 E7.83359
G1 X129.734 Y118.028 E7.84881
G1 X130.004 Y117.884 E7.86403
G1 X130.240 Y117.815 E7.87626
G1 X130.402 Y117.515 F9000.000
G1 X63.795 Y78.400 F9000.000
G1 X63.556 Y78.799 E7.89942 F600.000
G1 X63.259 Y79.139 E7.92190
G1 X62.901 Y79.415 E7.94438
G1 X62.500 Y79.621 E7.96686
G1 X62.066 Y79.745 E7.98934
G1 X61.616 Y79.790 E8.01182
G1 X61.167 Y79.745 E8.03430
G1 X60.733 Y79.621 E8.05678
G1 X60.332 Y79.415 E8.07926
G1 X59.974 Y79.139 E8.10173
G1 X59.677 Y78.799 E8.12421
G1 X59.438 Y78.400 E8.14737
G1 X59.260 Y77.853 E8.17600
G1 X59.219 Y77.390 E8.19916
G1 X59.260 Y76.927 E8.22232
G1 X59.438 Y76.380 E8.25094
G1 X59.677 Y75.981 E8.27410
G1 X59.974 Y75.641 E8.29658
G1 X60.332 Y75.365 E8.31905
G1 X60.733 Y75.159 E8.34153
G1 X61.167 Y75.035 E8.36400
G1 X61.612 Y74.991 E8.38627 F600.000
G1 X62.065 Y75.034 E8.40892
G1 X62.500 Y75.159 E8.43145
G1 X62.901 Y75.365 E8.45393
G1 X63.259 Y75.641 E8.47641
G1 X63.556 Y75.981 E8.49889
G1 X63.795 Y76.380 E8.52205
G1 X63.972 Y76.927 E8.55067
G1 X64.014 Y77.390 E8.57383
G1 X63.972 Y77.853 E8.59699
G1 X63.813 Y78.343 E8.62262
G1 X63.441 Y78.240 F9000.000
G1 X63.243 Y78.572 E8.64189 F600.000
G1 X62.994 Y78.857 E8.66074
G1 X62.694 Y79.088 E8.67958
G1 X62.357 Y79.261 E8.69843
G1 X61.993 Y79.365 E8.71728
G1 X61.616 Y79.402 E8.73613
G1 X61.240 Y79.365 E8.75498
G1 X60.876 Y79.261 E8.77383
G1 X60.539 Y79.088 E8.79268
G1 X60.239 Y78.857 E8.81153
G1 X59.990 Y78.572 E8.83038
G1 X59.791 Y78.240 E8.84964
G1 X59.641 Y77.775 E8.87394
G1 X59.606 Y77.390 E8.89321
G1 X59.641 Y77.005 E8.91248
G1 X59.791 Y76.540 E8.93678
G1 X59.990 Y76.208 E8.95604
G1 X60.239 Y75.923 E8.97489
G1 X60.539 Y75.692 E8.99374
G1 X60.876 Y75.519 E9.01259
G1 X61.239 Y75.415 E9.03143
G1 X61.612 Y75.378 E9.05009 F600.000
G1 X61.993 Y75.415 E9.06911
G1 X62.357 Y75.519 E9.08798
G1 X62.694 Y75.692 E9.10683
G1 X62.994 Y75.923 E9.12568
G1 X63.243 Y76.208 E9.14453
G1 X63.441 Y76.540 E9.16380
G1 X63.592 Y77.005 E9.18810
G1 X63.627 Y77.390 E9.20736
G1 X63.592 Y77.775 E9.22663
G1 X63.460 Y78.182 E9.24794
G1 X63.088 Y78.079 F9000.000
G1 X62.930 Y78.344 E9.26331 F600.000
G1 X62.729 Y78.574 E9.27853
G1 X62.486 Y78.761 E9.29375
G1 X62.214 Y78.901 E9.30897
G1 X61.921 Y78.985 E9.32419
G1 X61.616 Y79.015 E9.33941
G1 X61.312 Y78.985 E9.35463
G1 X61.018 Y78.901 E9.36985
G1 X60.746 Y78.761 E9.38507
G1 X60.504 Y78.574 E9.40029
G1 X60.303 Y78.344 E9.41551
G1 X60.145 Y78.079 E9.43088
G1 X60.021 Y77.698 E9.45086
G1 X59.993 Y77.390 E9.46623
G1 X60.021 Y77.082 E9.48160
G1 X60.145 Y76.701 E9.50158
G1 X60.303 Y76.436 E9.51695
G1 X60.504 Y76.206 E9.53217
G1 X60.746 Y76.019 E9.54739
G1 X61.018 Y75.879 E9.56261
G1 X61.312 Y75.795 E9.57783
G1 X61.613 Y75.765 E9.59287 F600.000
G1 X61.920 Y75.795 E9.60826
G1 X62.214 Y75.879 E9.62349
G1 X62.486 Y76.019 E9.63871
G1 X62.729 Y76.206 E9.65393
G1 X62.930 Y76.436 E9.66915
G1 X63.088 Y76.701 E9.68452
G1 X63.212 Y77.082 E9.70450
G1 X63.240 Y77.390 E9.71987
G1 X63.212 Y77.698 E9.73524
G1 X63.107 Y78.022 E9.75223
G1 X63.258 Y78.337 F9000.000
G1 X128.664 Y36.781 F9000.000
G1 X128.429 Y36.381 E9.77532 F600.000
G1 X128.255 Y35.830 E9.80411
G1 X128.219 Y35.368 E9.82719
G1 X128.264 Y34.906 E9.85027
G1 X128.448 Y34.358 E9.87906
G1 X128.690 Y33.963 E9.90214
G1 X128.989 Y33.625 E9.92462
G1 X129.351 Y33.354 E9.94711
G1 X129.753 Y33.150 E9.96958
G1 X130.189 Y33.031 E9.99205
G1 X130.634 Y32.990 E10.01433 F600.000
G1 X131.087 Y33.039 E10.03698
G1 X131.521 Y33.166 E10.05951
G1 X131.920 Y33.378 E10.08199
G1 X132.276 Y33.655 E10.10447
G1 X132.569 Y33.999 E10.12695
G1 X132.804 Y34.399 E10.15005
G1 X132.978 Y34.950 E10.17883
G1 X133.014 Y35.412 E10.20191
G1 X132.969 Y35.874 E10.22499
G1 X132.785 Y36.422 E10.25378
G1 X132.543 Y36.817 E10.27686
G1 X132.243 Y37.155 E10.29935
G1 X131.882 Y37.426 E10.32183
G1 X131.479 Y37.630 E10.34431
G1 X131.044 Y37.749 E10.36678
G1 X130.594 Y37.791 E10.38927
G1 X130.145 Y37.740 E10.41175
G1 X129.712 Y37.614 E10.43423
G1 X129.313 Y37.402 E10.45672
G1 X128.957 Y37.125 E10.47919
G1 X128.703 Y36.827 E10.49869
G1 X128.979 Y36.556 F9000.000
G1 X128.783 Y36.224 E10.51792 F600.000
G1 X128.636 Y35.756 E10.54232
G1 X128.606 Y35.371 E10.56154
G1 X128.643 Y34.987 E10.58076
G1 X128.799 Y34.522 E10.60516
G1 X129.001 Y34.193 E10.62438
G1 X129.252 Y33.910 E10.64323
G1 X129.555 Y33.683 E10.66209
G1 X129.893 Y33.512 E10.68093
G1 X130.258 Y33.412 E10.69977
G1 X130.631 Y33.377 E10.71844 F600.000
G1 X131.011 Y33.419 E10.73746
G1 X131.375 Y33.525 E10.75634
G1 X131.709 Y33.703 E10.77519
G1 X132.008 Y33.935 E10.79404
G1 X132.254 Y34.224 E10.81289
G1 X132.450 Y34.556 E10.83212
G1 X132.597 Y35.024 E10.85652
G1 X132.626 Y35.409 E10.87574
G1 X132.589 Y35.793 E10.89496
G1 X132.434 Y36.258 E10.91936
G1 X132.232 Y36.587 E10.93858
G1 X131.981 Y36.870 E10.95743
G1 X131.677 Y37.097 E10.97629
G1 X131.340 Y37.268 E10.99514
G1 X130.975 Y37.368 E11.01399
G1 X130.597 Y37.403 E11.03284
G1 X130.221 Y37.361 E11.05169
G1 X129.858 Y37.255 E11.07054
G1 X129.523 Y37.077 E11.08940
G1 X129.225 Y36.845 E11.10824
G1 X129.018 Y36.602 E11.12411
G1 X129.294 Y36.332 F9000.000
G1 X129.138 Y36.066 E11.13947 F600.000
G1 X129.017 Y35.682 E11.15949
G1 X128.993 Y35.375 E11.17485
G1 X129.023 Y35.068 E11.19020
G1 X129.151 Y34.687 E11.21023
G1 X129.312 Y34.424 E11.22558
G1 X129.515 Y34.195 E11.24080
G1 X129.760 Y34.011 E11.25603
G1 X130.032 Y33.873 E11.27125
G1 X130.327 Y33.793 E11.28646
G1 X130.628 Y33.765 E11.30151 F600.000
G1 X130.935 Y33.798 E11.31690
G1 X131.229 Y33.884 E11.33213
G1 X131.499 Y34.028 E11.34735
G1 X131.740 Y34.216 E11.36257
G1 X131.938 Y34.448 E11.37780
G1 X132.095 Y34.714 E11.39316
G1 X132.215 Y35.098 E11.41317
G1 X132.239 Y35.405 E11.42853
G1 X132.210 Y35.712 E11.44389
G1 X132.082 Y36.093 E11.46391
G1 X131.921 Y36.356 E11.47926
G1 X131.718 Y36.585 E11.49449
G1 X131.473 Y36.769 E11.50971
G1 X131.201 Y36.907 E11.52493
G1 X130.906 Y36.987 E11.54015
G1 X130.601 Y37.015 E11.55537
G1 X130.297 Y36.981 E11.57059
G1 X130.004 Y36.896 E11.58581
G1 X129.734 Y36.752 E11.60104
G1 X129.493 Y36.564 E11.61626
G1 X129.333 Y36.377 E11.62849
G1 X128.986 Y36.352 F9000.000
G1 X67.613 Y32.886 F9000.000
G1 X122.221 Y32.886 E14.34740 F600.000
G1 X127.590 Y29.635 E14.65989
G1 X128.336 Y29.301 E14.70061
G1 X129.122 Y29.062 E14.74150
G1 X129.797 Y28.940 E14.77563
G1 X130.614 Y28.889 E14.81642
G1 X131.561 Y28.957 E14.86368
G1 X132.229 Y29.091 E14.89760
G1 X133.005 Y29.343 E14.93825
G1 X133.863 Y29.757 E14.98564
G1 X134.434 Y30.127 E15.01955
G1 X135.064 Y30.647 E15.06020
G1 X135.709 Y31.347 E15.10759
G1 X136.104 Y31.902 E15.14151
G1 X136.497 Y32.618 E15.18216
G1 X136.839 Y33.506 E15.22954
G1 X137.002 Y34.167 E15.26346
G1 X137.105 Y34.983 E15.30441
G1 X137.120 Y36.386 E15.37428
G1 X137.120 Y118.394 E19.45735
G1 X137.105 Y119.802 E19.52744
G1 X137.026 Y120.484 E19.56166
G1 X136.836 Y121.283 E19.60255
G1 X136.552 Y122.043 E19.64297
G1 X136.103 Y122.878 E19.69012
G1 X135.626 Y123.534 E19.73054
G1 X135.067 Y124.130 E19.77120
G1 X134.438 Y124.650 E19.81185
G1 X133.749 Y125.088 E19.85250
G1 X133.010 Y125.435 E19.89315
G1 X132.233 Y125.688 E19.93381
G1 X131.431 Y125.841 E19.97446
G1 X130.616 Y125.892 E20.01511
G1 X129.801 Y125.841 E20.05576
G1 X128.995 Y125.687 E20.09665
G1 X128.341 Y125.481 E20.13080
G1 X127.590 Y125.145 E20.17175
G1 X122.221 Y121.894 E20.48424
G1 X67.613 Y121.894 E23.20315
G1 X67.613 Y88.654 E24.85813
G1 X58.256 Y82.958 E25.40350
G1 X57.694 Y82.577 E25.43733
G1 X57.261 Y82.219 E25.46529
G1 X56.685 Y81.627 E25.50640
G1 X56.193 Y80.976 E25.54706
G1 X55.775 Y80.249 E25.58881
G1 X55.690 Y80.068 E25.59872
G1 X55.393 Y79.274 E25.64094
G1 X55.255 Y78.737 E25.66858
G1 X55.133 Y77.898 E25.71079
G1 X55.120 Y77.699 E25.72071
G1 X55.136 Y76.860 E25.76246
G1 X55.255 Y76.043 E25.80358
G1 X55.393 Y75.506 E25.83122
G1 X55.690 Y74.711 E25.87344
G1 X55.775 Y74.531 E25.88335
G1 X56.193 Y73.804 E25.92510
G1 X56.691 Y73.145 E25.96622
G1 X57.071 Y72.741 E25.99386
G1 X57.702 Y72.198 E26.03529
G1 X58.256 Y71.822 E26.06866
G1 X67.613 Y66.126 E26.61402
G1 X67.613 Y32.946 E28.26603
G1 X67.227 Y32.501 F9000.000
G1 X122.113 Y32.501 E30.99875 F600.000
G1 X127.411 Y29.293 E31.30709
G1 X128.201 Y28.939 E31.35020
G1 X129.031 Y28.686 E31.39341
G1 X129.750 Y28.556 E31.42979
G1 X130.616 Y28.502 E31.47298
G1 X131.613 Y28.574 E31.52275
G1 X132.327 Y28.717 E31.55899
G1 X133.149 Y28.985 E31.60206
G1 X134.052 Y29.420 E31.65195
G1 X134.663 Y29.816 E31.68820
G1 X135.329 Y30.367 E31.73126
G1 X136.009 Y31.104 E31.78115
G1 X136.431 Y31.697 E31.81740
G1 X136.848 Y32.455 E31.86047
G1 X137.208 Y33.390 E31.91036
