; generated by Slic3r 1.2.9 on 2017-02-05 at 12:25:51

; external perimeters extrusion width = 0.40mm
; perimeters extrusion width = 0.56mm
; infill extrusion width = 0.38mm
; solid infill extrusion width = 0.56mm
; top infill extrusion width = 0.22mm

M106 S256; Turn on fan to 100% power
M104 S140; turn on extruder temperature at S value
M140 S60; turn on bed temperature at S value
G28; home all axes
M84; disable motors
G1 Z15 F15000; have Z move to 20mm at 15000 mm/min
M190 S55; turn on bed temperature at S value and wait
M140 S55; turn on bed temperature at S value (printing temperature)
M109 S200; turn on extruder temperature at S value and wait (printing temperature)
M104 S200; turn on extruder temperature at S value
G1 Z0 F12000; move Z back to home
G21 ; set units to millimeters
G90 ; use absolute coordinates
M82 ; use absolute distances for extrusion
G92 E0
M106 S255
;Layer change
G1 E-6.00000 F1800.00000
G92 E0
G1 Z0.300 F9000.000
G1 X57.700 Y41.969 F9000.000
G1 E6.00000 F1800.00000
G1 X59.120 Y40.989 E6.08591 F600.000
G1 X60.261 Y40.736 E6.14408
G1 X123.460 Y36.779 E9.29687
G1 X124.672 Y36.730 E9.35724
G1 X125.944 Y36.822 E9.42078 F600.000
G1 X127.103 Y37.038 E9.47945
G1 X127.696 Y37.196 E9.51001
G1 X128.807 Y37.586 E9.56864
G1 X129.958 Y38.140 E9.63222
G1 X130.955 Y38.767 E9.69089
G1 X131.448 Y39.133 E9.72145
G1 X132.340 Y39.906 E9.78021
G1 X133.203 Y40.842 E9.84361
G1 X133.900 Y41.793 E9.90232
G1 X134.225 Y42.315 E9.93290
G1 X134.768 Y43.360 E9.99158
G1 X135.226 Y44.550 E10.05503
G1 X135.525 Y45.691 E10.11375
G1 X135.634 Y46.295 E10.14432
G1 X135.727 Y47.091 E10.18425
G1 X135.768 Y48.000 E10.22954
G1 X135.768 Y132.000 E14.41181
G1 X135.727 Y132.909 E14.45710
G1 X135.575 Y134.075 E14.51565
G1 X135.333 Y135.088 E14.56751
G1 X135.148 Y135.673 E14.59806
G1 X134.710 Y136.767 E14.65674
G1 X134.225 Y137.685 E14.70846
G1 X133.900 Y138.207 E14.73904
G1 X133.291 Y139.049 E14.79077
G1 X132.505 Y139.926 E14.84943
G1 X132.061 Y140.351 E14.88000
G1 X131.262 Y141.014 E14.93171
G1 X130.282 Y141.669 E14.99039
G1 X129.747 Y141.969 E15.02095
G1 X128.807 Y142.414 E15.07273
G1 X127.696 Y142.804 E15.13135
G1 X127.103 Y142.962 E15.16192
G1 X126.317 Y143.120 E15.20184
G1 X125.708 Y143.202 E15.23241
G1 X124.531 Y143.271 E15.29111
G1 X123.460 Y143.221 E15.34451
G1 X60.261 Y139.264 E18.49730
G1 X58.609 Y138.765 E18.58320
G1 X57.352 Y137.583 E18.66911
G1 X56.866 Y136.520 E18.72728
G1 X44.691 Y93.204 E20.96752
G1 X44.504 Y92.481 E21.00473
G1 X44.363 Y91.740 E21.04227
G1 X44.257 Y90.848 E21.08701
G1 X44.232 Y90.331 E21.11277
G1 X44.232 Y89.669 E21.14572
G1 X44.280 Y88.917 E21.18326
G1 X44.400 Y88.026 E21.22800
G1 X44.504 Y87.519 E21.25376
G1 X44.691 Y86.796 E21.29097
G1 X56.866 Y43.480 E23.53121
G1 X57.671 Y42.022 E23.61412
G1 X58.045 Y42.166 F9000.000
G1 X59.424 Y41.289 E23.69552 F600.000
G1 X60.285 Y41.121 E23.73916
G1 X123.484 Y37.164 E26.89195
G1 X124.668 Y37.116 E26.95095
G1 X125.892 Y37.204 E27.01207 F600.000
G1 X127.027 Y37.416 E27.06953
G1 X127.573 Y37.562 E27.09769
G1 X128.662 Y37.943 E27.15512
G1 X129.769 Y38.476 E27.21628
G1 X130.746 Y39.091 E27.27375
G1 X131.200 Y39.427 E27.30189
G1 X132.073 Y40.184 E27.35943
G1 X132.904 Y41.085 E27.42044
G1 X133.586 Y42.017 E27.47794
G1 X133.885 Y42.497 E27.50610
G1 X134.418 Y43.521 E27.56359
G1 X134.859 Y44.665 E27.62463
G1 X135.150 Y45.783 E27.68214
G1 X135.251 Y46.340 E27.71029
G1 X135.344 Y47.136 E27.75022
G1 X135.382 Y48.000 E27.79328
G1 X135.382 Y132.000 E31.97556
G1 X135.344 Y132.864 E32.01861
G1 X135.195 Y134.006 E32.07597
G1 X134.958 Y134.995 E32.12661
G1 X134.789 Y135.534 E32.15475
G1 X134.359 Y136.606 E32.21223
G1 X133.885 Y137.503 E32.26273
G1 X133.586 Y137.983 E32.29090
G1 X132.992 Y138.806 E32.34142
G1 X132.221 Y139.665 E32.39888
G1 X131.813 Y140.056 E32.42704
G1 X131.033 Y140.705 E32.47755
G1 X130.073 Y141.345 E32.53502
G1 X129.580 Y141.622 E32.56317
G1 X128.662 Y142.057 E32.61374
G1 X127.573 Y142.438 E32.67116
G1 X127.027 Y142.584 E32.69932
G1 X126.241 Y142.742 E32.73924
G1 X125.680 Y142.818 E32.76740
G1 X124.528 Y142.885 E32.82489
G1 X123.484 Y142.836 E32.87691
G1 X60.285 Y138.879 E36.02970
G1 X58.727 Y138.387 E36.11103
G1 X57.581 Y137.222 E36.19236
G1 X57.237 Y136.416 E36.23601
G1 X45.062 Y93.100 E38.47625
G1 X44.878 Y92.385 E38.51302
G1 X44.745 Y91.692 E38.54815
G1 X44.642 Y90.823 E38.59169
G1 X44.618 Y90.331 E38.61624
G1 X44.618 Y89.669 E38.64919
G1 X44.662 Y88.965 E38.68432
G1 X44.779 Y88.098 E38.72786
G1 X44.878 Y87.615 E38.75241
G1 X45.062 Y86.900 E38.78918
G1 X57.237 Y43.584 E41.02942
G1 X58.015 Y42.218 E41.10770
G1 E35.10770 F1800.00000
G92 E0
G1 X124.025 Y129.650 F9000.000
G1 E6.00000 F1800.00000
G1 X124.469 Y129.600 E6.02227 F600.000
G1 X124.923 Y129.641 E6.04494
G1 X125.359 Y129.760 E6.06746
G1 X125.762 Y129.964 E6.08994
G1 X126.123 Y130.235 E6.11242
G1 X126.423 Y130.573 E6.13491
G1 X126.665 Y130.968 E6.15799
G1 X126.849 Y131.516 E6.18677
G1 X126.894 Y131.978 E6.20985
G1 X126.858 Y132.440 E6.23294
G1 X126.684 Y132.991 E6.26172
G1 X126.449 Y133.391 E6.28481
G1 X126.156 Y133.735 E6.30730
G1 X125.800 Y134.012 E6.32978
G1 X125.401 Y134.224 E6.35226
G1 X124.968 Y134.350 E6.37474
G1 X124.519 Y134.401 E6.39722
G1 X124.069 Y134.359 E6.41971
G1 X123.633 Y134.240 E6.44219
G1 X123.231 Y134.036 E6.46466
G1 X122.869 Y133.765 E6.48715
G1 X122.570 Y133.427 E6.50963
G1 X122.328 Y133.032 E6.53271
G1 X122.144 Y132.484 E6.56150
G1 X122.099 Y132.022 E6.58458
G1 X122.135 Y131.560 E6.60766
G1 X122.308 Y131.009 E6.63644
G1 X122.544 Y130.609 E6.65954
G1 X122.837 Y130.265 E6.68203
G1 X123.193 Y129.988 E6.70450
G1 X123.592 Y129.776 E6.72699
G1 X123.967 Y129.666 E6.74646
G1 X124.101 Y130.029 F9000.000
G1 X124.473 Y129.987 E6.76512 F600.000
G1 X124.854 Y130.022 E6.78415
G1 X125.220 Y130.122 E6.80302
G1 X125.557 Y130.293 E6.82187
G1 X125.861 Y130.520 E6.84073
G1 X126.112 Y130.803 E6.85958
G1 X126.314 Y131.132 E6.87880
G1 X126.469 Y131.597 E6.90320
G1 X126.506 Y131.981 E6.92242
G1 X126.477 Y132.366 E6.94164
G1 X126.330 Y132.834 E6.96604
G1 X126.134 Y133.166 E6.98527
G1 X125.888 Y133.455 E7.00412
G1 X125.589 Y133.687 E7.02297
G1 X125.255 Y133.865 E7.04182
G1 X124.891 Y133.971 E7.06067
G1 X124.515 Y134.013 E7.07952
G1 X124.138 Y133.978 E7.09838
G1 X123.773 Y133.878 E7.11723
G1 X123.435 Y133.707 E7.13607
G1 X123.132 Y133.480 E7.15493
G1 X122.881 Y133.197 E7.17379
G1 X122.679 Y132.868 E7.19300
G1 X122.523 Y132.403 E7.21741
G1 X122.486 Y132.019 E7.23662
G1 X122.516 Y131.634 E7.25584
G1 X122.663 Y131.166 E7.28024
G1 X122.859 Y130.834 E7.29947
G1 X123.105 Y130.545 E7.31833
G1 X123.403 Y130.313 E7.33717
G1 X123.738 Y130.135 E7.35603
G1 X124.043 Y130.046 E7.37188
G1 X124.177 Y130.409 F9000.000
G1 X124.478 Y130.375 E7.38692 F600.000
G1 X124.785 Y130.403 E7.40232
G1 X125.081 Y130.483 E7.41755
G1 X125.353 Y130.621 E7.43276
G1 X125.598 Y130.805 E7.44799
G1 X125.801 Y131.034 E7.46321
G1 X125.962 Y131.297 E7.47857
G1 X126.090 Y131.678 E7.49859
G1 X126.119 Y131.985 E7.51394
G1 X126.095 Y132.292 E7.52930
G1 X125.975 Y132.676 E7.54932
G1 X125.818 Y132.942 E7.56468
G1 X125.620 Y133.174 E7.57990
G1 X125.379 Y133.362 E7.59512
G1 X125.109 Y133.506 E7.61035
G1 X124.815 Y133.591 E7.62557
G1 X124.512 Y133.625 E7.64079
G1 X124.207 Y133.597 E7.65601
G1 X123.912 Y133.517 E7.67123
G1 X123.640 Y133.379 E7.68645
G1 X123.395 Y133.195 E7.70167
G1 X123.192 Y132.966 E7.71690
G1 X123.031 Y132.703 E7.73225
G1 X122.903 Y132.322 E7.75227
G1 X122.873 Y132.015 E7.76763
G1 X122.897 Y131.708 E7.78299
G1 X123.018 Y131.324 E7.80301
G1 X123.174 Y131.058 E7.81837
G1 X123.373 Y130.826 E7.83359
G1 X123.614 Y130.638 E7.84881
G1 X123.884 Y130.494 E7.86403
G1 X124.120 Y130.425 E7.87626
G1 X124.282 Y130.125 F9000.000
G1 X57.675 Y91.010 F9000.000
G1 X57.436 Y91.409 E7.89942 F600.000
G1 X57.139 Y91.749 E7.92190
G1 X56.781 Y92.025 E7.94438
G1 X56.380 Y92.231 E7.96686
G1 X55.946 Y92.355 E7.98934
G1 X55.496 Y92.400 E8.01182
G1 X55.047 Y92.355 E8.03430
G1 X54.613 Y92.231 E8.05677
G1 X54.212 Y92.025 E8.07925
G1 X53.854 Y91.749 E8.10173
G1 X53.557 Y91.409 E8.12421
G1 X53.318 Y91.010 E8.14737
G1 X53.140 Y90.463 E8.17599
G1 X53.099 Y90.000 E8.19915
G1 X53.140 Y89.537 E8.22231
G1 X53.318 Y88.990 E8.25093
G1 X53.557 Y88.591 E8.27410
G1 X53.854 Y88.251 E8.29657
G1 X54.212 Y87.975 E8.31905
G1 X54.613 Y87.769 E8.34153
G1 X55.047 Y87.645 E8.36399
G1 X55.492 Y87.601 E8.38627 F600.000
G1 X55.945 Y87.644 E8.40892
G1 X56.380 Y87.769 E8.43145
G1 X56.781 Y87.975 E8.45393
G1 X57.139 Y88.251 E8.47640
G1 X57.436 Y88.591 E8.49888
G1 X57.675 Y88.990 E8.52204
G1 X57.852 Y89.537 E8.55066
G1 X57.894 Y90.000 E8.57382
G1 X57.852 Y90.463 E8.59699
G1 X57.693 Y90.953 E8.62262
G1 X57.321 Y90.850 F9000.000
G1 X57.123 Y91.182 E8.64188 F600.000
G1 X56.874 Y91.467 E8.66073
G1 X56.574 Y91.698 E8.67958
G1 X56.237 Y91.871 E8.69843
G1 X55.873 Y91.975 E8.71728
G1 X55.496 Y92.012 E8.73613
G1 X55.120 Y91.975 E8.75498
G1 X54.756 Y91.871 E8.77383
G1 X54.419 Y91.698 E8.79268
G1 X54.119 Y91.467 E8.81153
G1 X53.870 Y91.182 E8.83038
G1 X53.671 Y90.850 E8.84964
G1 X53.521 Y90.385 E8.87394
G1 X53.486 Y90.000 E8.89321
G1 X53.521 Y89.615 E8.91248
G1 X53.671 Y89.150 E8.93677
G1 X53.870 Y88.818 E8.95604
G1 X54.119 Y88.533 E8.97489
G1 X54.419 Y88.302 E8.99374
G1 X54.756 Y88.129 E9.01259
G1 X55.119 Y88.025 E9.03143
G1 X55.492 Y87.988 E9.05008 F600.000
G1 X55.873 Y88.025 E9.06911
G1 X56.237 Y88.129 E9.08798
G1 X56.574 Y88.302 E9.10683
G1 X56.874 Y88.533 E9.12568
G1 X57.123 Y88.818 E9.14453
G1 X57.321 Y89.150 E9.16380
G1 X57.472 Y89.615 E9.18810
G1 X57.507 Y90.000 E9.20736
G1 X57.472 Y90.385 E9.22663
G1 X57.340 Y90.792 E9.24794
G1 X56.968 Y90.689 F9000.000
G1 X56.810 Y90.954 E9.26331 F600.000
G1 X56.609 Y91.184 E9.27853
G1 X56.366 Y91.371 E9.29375
G1 X56.094 Y91.511 E9.30897
G1 X55.801 Y91.595 E9.32419
G1 X55.496 Y91.625 E9.33941
G1 X55.192 Y91.595 E9.35463
G1 X54.898 Y91.511 E9.36985
G1 X54.626 Y91.371 E9.38507
G1 X54.384 Y91.184 E9.40029
G1 X54.183 Y90.954 E9.41551
G1 X54.025 Y90.689 E9.43088
G1 X53.901 Y90.308 E9.45086
G1 X53.873 Y90.000 E9.46623
G1 X53.901 Y89.692 E9.48160
G1 X54.025 Y89.311 E9.50158
G1 X54.183 Y89.046 E9.51695
G1 X54.384 Y88.816 E9.53217
G1 X54.626 Y88.629 E9.54739
G1 X54.898 Y88.489 E9.56261
G1 X55.192 Y88.405 E9.57783
G1 X55.493 Y88.375 E9.59287 F600.000
G1 X55.800 Y88.405 E9.60826
G1 X56.094 Y88.489 E9.62349
G1 X56.366 Y88.629 E9.63870
G1 X56.609 Y88.816 E9.65392
G1 X56.810 Y89.046 E9.66914
G1 X56.968 Y89.311 E9.68452
G1 X57.092 Y89.692 E9.70449
G1 X57.120 Y90.000 E9.71987
G1 X57.092 Y90.308 E9.73524
G1 X56.987 Y90.632 E9.75223
G1 X57.138 Y90.947 F9000.000
G1 X122.544 Y49.391 F9000.000
G1 X122.308 Y48.991 E9.77533 F600.000
G1 X122.135 Y48.440 E9.80411
G1 X122.099 Y47.978 E9.82719
G1 X122.144 Y47.516 E9.85027
G1 X122.328 Y46.968 E9.87906
G1 X122.570 Y46.573 E9.90214
G1 X122.869 Y46.235 E9.92462
G1 X123.231 Y45.964 E9.94711
G1 X123.633 Y45.760 E9.96959
G1 X124.069 Y45.641 E9.99205
G1 X124.514 Y45.600 E10.01433 F600.000
G1 X124.967 Y45.649 E10.03698
G1 X125.401 Y45.776 E10.05951
G1 X125.800 Y45.988 E10.08199
G1 X126.156 Y46.265 E10.10447
G1 X126.449 Y46.609 E10.12695
G1 X126.684 Y47.009 E10.15005
G1 X126.858 Y47.560 E10.17883
G1 X126.894 Y48.022 E10.20191
G1 X126.849 Y48.484 E10.22500
G1 X126.665 Y49.032 E10.25378
G1 X126.423 Y49.427 E10.27686
G1 X126.123 Y49.765 E10.29935
G1 X125.762 Y50.036 E10.32183
G1 X125.359 Y50.240 E10.34431
G1 X124.924 Y50.359 E10.36678
G1 X124.474 Y50.401 E10.38928
G1 X124.025 Y50.350 E10.41176
G1 X123.592 Y50.224 E10.43423
G1 X123.193 Y50.012 E10.45672
G1 X122.837 Y49.735 E10.47919
G1 X122.583 Y49.437 E10.49869
G1 X122.859 Y49.166 F9000.000
G1 X122.663 Y48.834 E10.51792 F600.000
G1 X122.516 Y48.366 E10.54232
G1 X122.486 Y47.981 E10.56154
G1 X122.523 Y47.597 E10.58076
G1 X122.679 Y47.132 E10.60516
G1 X122.881 Y46.803 E10.62438
G1 X123.132 Y46.520 E10.64323
G1 X123.435 Y46.293 E10.66209
G1 X123.773 Y46.122 E10.68093
G1 X124.138 Y46.022 E10.69977
G1 X124.511 Y45.987 E10.71844 F600.000
G1 X124.891 Y46.029 E10.73746
G1 X125.255 Y46.135 E10.75634
G1 X125.589 Y46.313 E10.77519
G1 X125.888 Y46.545 E10.79404
G1 X126.134 Y46.834 E10.81289
G1 X126.330 Y47.166 E10.83212
G1 X126.477 Y47.634 E10.85652
G1 X126.506 Y48.019 E10.87574
G1 X126.469 Y48.403 E10.89496
G1 X126.314 Y48.868 E10.91936
G1 X126.112 Y49.197 E10.93858
G1 X125.861 Y49.480 E10.95743
G1 X125.557 Y49.707 E10.97629
G1 X125.220 Y49.878 E10.99514
G1 X124.855 Y49.978 E11.01399
G1 X124.477 Y50.013 E11.03284
G1 X124.101 Y49.971 E11.05169
G1 X123.738 Y49.865 E11.07054
G1 X123.403 Y49.687 E11.08940
G1 X123.105 Y49.455 E11.10824
G1 X122.898 Y49.212 E11.12411
G1 X123.174 Y48.942 F9000.000
G1 X123.018 Y48.676 E11.13947 F600.000
G1 X122.897 Y48.292 E11.15949
G1 X122.873 Y47.985 E11.17485
G1 X122.903 Y47.678 E11.19020
G1 X123.031 Y47.297 E11.21022
G1 X123.192 Y47.034 E11.22558
G1 X123.395 Y46.805 E11.24080
G1 X123.640 Y46.621 E11.25603
G1 X123.912 Y46.483 E11.27124
G1 X124.207 Y46.403 E11.28646
G1 X124.508 Y46.375 E11.30151 F600.000
G1 X124.815 Y46.409 E11.31690
G1 X125.109 Y46.494 E11.33213
G1 X125.379 Y46.638 E11.34735
G1 X125.620 Y46.826 E11.36257
G1 X125.818 Y47.058 E11.37780
G1 X125.975 Y47.324 E11.39315
G1 X126.095 Y47.708 E11.41317
G1 X126.119 Y48.015 E11.42853
G1 X126.090 Y48.322 E11.44389
G1 X125.962 Y48.703 E11.46391
G1 X125.801 Y48.966 E11.47926
G1 X125.598 Y49.195 E11.49449
G1 X125.353 Y49.379 E11.50971
G1 X125.081 Y49.517 E11.52493
G1 X124.786 Y49.597 E11.54015
G1 X124.481 Y49.625 E11.55537
G1 X124.177 Y49.591 E11.57059
G1 X123.884 Y49.506 E11.58581
G1 X123.614 Y49.362 E11.60104
G1 X123.373 Y49.174 E11.61626
G1 X123.213 Y48.987 E11.62849
G1 X122.866 Y48.962 F9000.000
G1 X61.493 Y45.496 F9000.000
G1 X116.101 Y45.496 E14.34740 F600.000
G1 X121.470 Y42.245 E14.65989
G1 X122.216 Y41.911 E14.70061
G1 X123.002 Y41.672 E14.74150
G1 X123.677 Y41.550 E14.77563
G1 X124.494 Y41.499 E14.81642
G1 X125.441 Y41.567 E14.86368
G1 X126.109 Y41.701 E14.89759
G1 X126.885 Y41.953 E14.93825
G1 X127.738 Y42.365 E14.98540
G1 X128.420 Y42.815 E15.02606
G1 X128.940 Y43.254 E15.05997
G1 X129.589 Y43.957 E15.10759
G1 X129.984 Y44.512 E15.14150
G1 X130.377 Y45.228 E15.18216
G1 X130.719 Y46.116 E15.22954
G1 X130.882 Y46.777 E15.26346
G1 X130.985 Y47.593 E15.30441
G1 X131.000 Y48.996 E15.37428
G1 X131.000 Y131.004 E19.45735
G1 X130.985 Y132.412 E19.52744
G1 X130.906 Y133.094 E19.56166
G1 X130.716 Y133.893 E19.60255
G1 X130.432 Y134.653 E19.64297
G1 X129.983 Y135.488 E19.69012
G1 X129.506 Y136.144 E19.73054
G1 X128.947 Y136.740 E19.77120
G1 X128.318 Y137.260 E19.81185
G1 X127.629 Y137.698 E19.85250
G1 X126.890 Y138.045 E19.89315
G1 X126.113 Y138.298 E19.93381
G1 X125.311 Y138.451 E19.97446
G1 X124.496 Y138.502 E20.01511
G1 X123.681 Y138.451 E20.05576
G1 X122.875 Y138.297 E20.09665
G1 X122.221 Y138.091 E20.13080
G1 X121.470 Y137.755 E20.17175
G1 X116.101 Y134.504 E20.48424
G1 X61.493 Y134.504 E23.20315
G1 X61.493 Y101.264 E24.85813
G1 X52.136 Y95.568 E25.40350
G1 X51.574 Y95.187 E25.43733
G1 X51.141 Y94.829 E25.46529
G1 X50.565 Y94.237 E25.50640
G1 X50.060 Y93.568 E25.54815
G1 X49.953 Y93.400 E25.55807
G1 X49.563 Y92.658 E25.59982
G1 X49.273 Y91.884 E25.64094
G1 X49.135 Y91.347 E25.66858
G1 X49.013 Y90.508 E25.71079
G1 X49.000 Y90.309 E25.72071
G1 X49.016 Y89.470 E25.76246
G1 X49.135 Y88.653 E25.80358
G1 X49.273 Y88.116 E25.83122
G1 X49.570 Y87.322 E25.87344
G1 X49.655 Y87.141 E25.88335
G1 X50.073 Y86.414 E25.92510
G1 X50.571 Y85.755 E25.96622
G1 X50.951 Y85.351 E25.99386
G1 X51.582 Y84.808 E26.03529
G1 X52.136 Y84.432 E26.06866
G1 X61.493 Y78.736 E26.61402
G1 X61.493 Y45.556 E28.26603
G1 X61.107 Y45.111 F9000.000
G1 X115.993 Y45.111 E30.99875 F600.000
G1 X121.291 Y41.903 E31.30709
G1 X122.081 Y41.549 E31.35020
G1 X122.911 Y41.297 E31.39341
G1 X123.630 Y41.166 E31.42979
G1 X124.496 Y41.112 E31.47299
G1 X125.493 Y41.184 E31.52275
G1 X126.207 Y41.327 E31.55899
G1 X127.029 Y41.595 E31.60206
G1 X127.929 Y42.029 E31.65181
G1 X128.651 Y42.506 E31.69488
G1 X129.207 Y42.975 E31.73112
G1 X129.889 Y43.714 E31.78116
G1 X130.311 Y44.307 E31.81740
G1 X130.728 Y45.065 E31.86047
G1 X131.088 Y46.000 E31.91036
