; generated by Slic3r 1.2.9 on 2017-01-16 at 15:50:38

; external perimeters extrusion width = 0.40mm
; perimeters extrusion width = 0.56mm
; infill extrusion width = 0.31mm
; solid infill extrusion width = 0.56mm
; top infill extrusion width = 0.22mm

M107
M106 S256; Turn on fan to 100% power
M104 S141; turn on extruder temperature at S value
M140 S45; turn on bed temperature at S value
G28; home all axes
M84; disable motors
G1 Z15 F15000; have Z move to 20mm at 15000 mm/min
M190 S50; turn on bed temperature at S value and wait
M140 S55; turn on bed temperature at S value (printing temperature)
M109 S205; turn on extruder temperature at S value and wait (printing temperature)
M104 S204; turn on extruder temperature at S value
G1 Z0 F12000; move Z back to home
G21 ; set units to millimeters
G90 ; use absolute coordinates
M82 ; use absolute distances for extrusion
G92 E0
;Layer change
G1 E-6.00000 F1800.00000
G92 E0
G1 Z0.300 F10800.000
G1 X47.775 Y11.641 F10800.000
G1 E6.00000 F1800.00000
G1 X47.912 Y11.078 E6.02884 F900.000
G1 X48.357 Y9.865 E6.09317
G1 X48.957 Y8.663 E6.16007
G1 X49.661 Y7.579 E6.22441
G1 X50.514 Y6.541 E6.29131
G1 X51.441 Y5.640 E6.35565
G1 X52.503 Y4.818 E6.42255
G1 X53.607 Y4.147 E6.48690
G1 X54.826 Y3.581 E6.55379
G1 X56.052 Y3.172 E6.61813
G1 X57.192 Y2.930 E6.67614
G1 X57.366 Y2.893 E6.68503
G1 X58.653 Y2.767 E6.74937
G1 X59.996 Y2.786 E6.81627 F900.000
G1 X61.278 Y2.950 E6.88061
G1 X62.583 Y3.268 E6.94751
G1 X63.751 Y3.689 E7.00930
G1 X64.862 Y4.232 E7.07088
G1 X65.660 Y4.697 E7.11685
G1 X70.821 Y8.098 E7.42458
G1 X76.302 Y12.101 E7.76254
G1 X81.418 Y16.237 E8.09007
G1 X86.123 Y20.425 E8.40368
G1 X90.824 Y25.027 E8.73120
G1 X95.296 Y29.851 E9.05873
G1 X99.704 Y35.104 E9.40017
G1 X103.678 Y40.346 E9.72770
G1 X107.356 Y45.716 E10.05175
G1 X110.754 Y51.226 E10.37406
G1 X111.046 Y51.785 E10.40545
G1 X111.556 Y52.912 E10.46703
G1 X111.943 Y54.091 E10.52883
G1 X112.223 Y55.405 E10.59572
G1 X112.349 Y56.691 E10.66007
G1 X112.329 Y58.034 E10.72697
G1 X112.166 Y59.316 E10.79131
G1 X111.848 Y60.622 E10.85820
G1 X111.403 Y61.835 E10.92255
G1 X110.803 Y63.037 E10.98944
G1 X110.099 Y64.121 E11.05379
G1 X109.286 Y65.111 E11.11755
G1 X108.868 Y65.576 E11.14871
G1 X108.319 Y66.060 E11.18512
G1 X107.257 Y66.882 E11.25202
G1 X106.153 Y67.553 E11.31636
G1 X104.934 Y68.119 E11.38326
G1 X103.708 Y68.528 E11.44760
G1 X102.394 Y68.807 E11.51450
G1 X101.192 Y68.934 E11.57467
G1 X99.764 Y68.914 E11.64576
G1 X98.482 Y68.750 E11.71011
G1 X97.177 Y68.432 E11.77700
G1 X96.009 Y68.011 E11.83879
G1 X94.898 Y67.468 E11.90038
G1 X94.347 Y67.160 E11.93177
G1 X89.309 Y63.852 E12.23187
G1 X88.768 Y63.482 E12.26453
G1 X83.680 Y59.769 E12.57813
G1 X78.555 Y55.644 E12.90566
G1 X73.637 Y51.275 E13.23319
G1 X68.897 Y46.634 E13.56348
G1 X64.279 Y41.640 E13.90216
G1 X60.230 Y36.814 E14.21577
G1 X56.246 Y31.580 E14.54329
G1 X52.404 Y25.984 E14.88126
G1 X49.006 Y20.474 E15.20357
G1 X48.714 Y19.915 E15.23496
G1 X48.204 Y18.788 E15.29655
G1 X47.817 Y17.609 E15.35834
G1 X47.537 Y16.295 E15.42524
G1 X47.410 Y15.093 E15.48541
G1 X47.431 Y13.666 E15.55650
G1 X47.594 Y12.384 E15.62084
G1 X47.761 Y11.699 E15.65592
G1 X48.150 Y11.732 F10800.000
G1 X48.287 Y11.169 E15.68476 F900.000
G1 X48.702 Y10.037 E15.74480
G1 X49.302 Y8.835 E15.81169
G1 X49.959 Y7.824 E15.87174
G1 X50.812 Y6.786 E15.93863
G1 X51.677 Y5.945 E15.99868
G1 X52.739 Y5.123 E16.06557
G1 X53.770 Y4.496 E16.12562
G1 X54.989 Y3.931 E16.19251
G1 X56.133 Y3.550 E16.25256
G1 X57.272 Y3.307 E16.31057
G1 X57.447 Y3.270 E16.31946
G1 X58.647 Y3.152 E16.37950
G1 X59.990 Y3.172 E16.44640 F900.000
G1 X61.187 Y3.324 E16.50644
G1 X62.492 Y3.642 E16.57334
G1 X63.581 Y4.036 E16.63100
G1 X64.693 Y4.579 E16.69258
G1 X65.450 Y5.020 E16.73622
G1 X70.605 Y8.417 E17.04360
G1 X76.060 Y12.401 E17.37993
G1 X81.161 Y16.525 E17.70653
G1 X85.866 Y20.713 E18.02014
G1 X90.554 Y25.302 E18.34673
G1 X95.013 Y30.112 E18.67333
G1 X99.397 Y35.337 E19.01291
G1 X103.360 Y40.564 E19.33951
G1 X107.030 Y45.922 E19.66286
G1 X110.423 Y51.422 E19.98459
G1 X110.694 Y51.944 E20.01389
G1 X111.205 Y53.071 E20.07547
G1 X111.566 Y54.171 E20.13313
G1 X111.846 Y55.485 E20.20003
G1 X111.964 Y56.685 E20.26007
G1 X111.944 Y58.029 E20.32697
G1 X111.791 Y59.225 E20.38701
G1 X111.473 Y60.530 E20.45391
G1 X111.058 Y61.663 E20.51395
G1 X110.458 Y62.865 E20.58085
G1 X109.801 Y63.876 E20.64089
G1 X108.988 Y64.866 E20.70465
G1 X108.595 Y65.304 E20.73395
G1 X108.083 Y65.755 E20.76792
G1 X107.021 Y66.577 E20.83482
G1 X105.990 Y67.204 E20.89487
G1 X104.771 Y67.769 E20.96176
G1 X103.627 Y68.151 E21.02181
G1 X102.313 Y68.430 E21.08870
G1 X101.192 Y68.548 E21.14485
G1 X99.770 Y68.528 E21.21567
G1 X98.573 Y68.376 E21.27571
G1 X97.268 Y68.058 E21.34261
G1 X96.179 Y67.664 E21.40027
G1 X95.067 Y67.121 E21.46185
G1 X94.554 Y66.834 E21.49115
G1 X89.525 Y63.533 E21.79066
G1 X88.995 Y63.170 E21.82262
G1 X83.907 Y59.458 E22.13623
G1 X78.798 Y55.344 E22.46283
G1 X73.894 Y50.987 E22.78942
G1 X69.170 Y46.362 E23.11860
G1 X64.574 Y41.392 E23.45561
G1 X60.363 Y36.363 E23.78220
G1 X56.553 Y31.347 E24.09581
G1 X52.730 Y25.778 E24.43215
G1 X49.337 Y20.278 E24.75388
G1 X49.066 Y19.756 E24.78317
G1 X48.555 Y18.629 E24.84476
G1 X48.194 Y17.529 E24.90242
G1 X47.914 Y16.215 E24.96932
G1 X47.796 Y15.093 E25.02547
G1 X47.816 Y13.671 E25.09628
G1 X47.969 Y12.475 E25.15633
G1 X48.135 Y11.790 E25.19140
G1 E19.19140 F1800.00000
G92 E0
G1 X100.838 Y52.456 F10800.000
G1 E6.00000 F1800.00000
G1 X102.107 Y52.694 E6.06429 F900.000
G1 X103.265 Y53.265 E6.12858
G1 X104.226 Y54.128 E6.19287
G1 X104.346 Y54.317 E6.20404
G1 X104.918 Y55.218 E6.25716
G1 X105.291 Y56.454 E6.32145
G1 X105.316 Y57.745 E6.38573
G1 X104.992 Y58.995 E6.45002
G1 X104.353 Y60.093 E6.51326
G1 X103.907 Y60.589 E6.54650
G1 X103.398 Y61.021 E6.57973
G1 X102.282 Y61.627 E6.64297
G1 X101.023 Y61.914 E6.70726
G1 X99.733 Y61.852 E6.77155
G1 X98.508 Y61.443 E6.83584
G1 X97.439 Y60.719 E6.90012
G1 X96.605 Y59.734 E6.96441
G1 X96.511 Y59.530 E6.97558
G1 X96.067 Y58.560 E7.02870
G1 X95.867 Y57.284 E7.09299
G1 X96.017 Y56.002 E7.15728
G1 X96.509 Y54.807 E7.22157
G1 X97.304 Y53.790 E7.28586
G1 X98.344 Y53.025 E7.35015
G1 X99.552 Y52.569 E7.41444
G1 X99.775 Y52.549 E7.42561
G1 X100.778 Y52.461 E7.47574 F900.000
G1 X100.819 Y52.844 F10800.000
G1 X101.984 Y53.063 E7.53475 F900.000
G1 X103.047 Y53.587 E7.59376
G1 X103.929 Y54.379 E7.65277
G1 X104.021 Y54.524 E7.66130
G1 X104.564 Y55.380 E7.71178
G1 X104.906 Y56.515 E7.77079
G1 X104.929 Y57.700 E7.82981
G1 X104.632 Y58.847 E7.88882
G1 X104.040 Y59.865 E7.94744
G1 X103.638 Y60.312 E7.97739
G1 X103.179 Y60.701 E8.00734
G1 X102.144 Y61.263 E8.06596
G1 X100.989 Y61.527 E8.12497
G1 X99.805 Y61.469 E8.18398
G1 X98.681 Y61.094 E8.24300
G1 X97.699 Y60.429 E8.30201
G1 X96.933 Y59.525 E8.36102
G1 X96.862 Y59.369 E8.36955
G1 X96.440 Y58.447 E8.42003
G1 X96.256 Y57.276 E8.47904
G1 X96.394 Y56.099 E8.53805
G1 X96.845 Y55.003 E8.59706
G1 X97.575 Y54.069 E8.65607
G1 X98.530 Y53.367 E8.71509
G1 X99.638 Y52.948 E8.77410
G1 X99.809 Y52.933 E8.78263
G1 X100.759 Y52.850 E8.83012 F900.000
G1 X101.051 Y52.518 F10800.000
G1 X100.335 Y51.688 F10800.000
G1 X98.919 Y52.075 E8.90322 F900.000
G1 X97.809 Y52.590 E8.96413
G1 X96.855 Y53.328 E9.02418
G1 X96.089 Y54.260 E9.08422
G1 X95.542 Y55.354 E9.14514
G1 X95.114 Y56.759 E9.21824
G1 X89.386 Y52.603 E9.57058
G1 X84.525 Y48.697 E9.88105
G1 X79.862 Y44.557 E10.19152
G1 X75.409 Y40.192 E10.50199
G1 X71.176 Y35.613 E10.81245
G1 X67.174 Y30.832 E11.12292
G1 X63.412 Y25.859 E11.43339
G1 X59.425 Y20.012 E11.78574
G1 X60.841 Y19.625 E11.85883
G1 X61.951 Y19.110 E11.91975
G1 X62.905 Y18.372 E11.97980
G1 X63.670 Y17.441 E12.03978
G1 X64.227 Y16.315 E12.10232
G1 X64.646 Y14.941 E12.17383
G1 X70.374 Y19.097 E12.52618
G1 X75.235 Y23.003 E12.83664
G1 X79.898 Y27.143 E13.14711
G1 X84.351 Y31.508 E13.45758
G1 X88.584 Y36.087 E13.76805
G1 X92.586 Y40.868 E14.07851
G1 X96.348 Y45.841 E14.38898
G1 X100.301 Y51.639 E14.73834
G1 X99.712 Y51.459 F10800.000
G1 X98.786 Y51.712 E14.78613 F900.000
G1 X97.607 Y52.258 E14.85082
G1 X96.585 Y53.050 E14.91519
G1 X95.764 Y54.049 E14.97956
G1 X95.183 Y55.211 E15.04426
G1 X94.903 Y56.129 E15.09205
G1 X89.620 Y52.297 E15.41700
G1 X84.774 Y48.403 E15.72652
G1 X80.125 Y44.275 E16.03604
G1 X75.686 Y39.923 E16.34557
G1 X71.466 Y35.359 E16.65509
G1 X67.476 Y30.591 E16.96461
G1 X63.725 Y25.634 E17.27413
G1 X60.048 Y20.241 E17.59908
G1 X60.974 Y19.988 E17.64687
G1 X62.153 Y19.442 E17.71157
G1 X63.175 Y18.650 E17.77594
G1 X63.996 Y17.652 E17.84028
G1 X64.587 Y16.458 E17.90661
G1 X64.857 Y15.571 E17.95277
G1 X70.140 Y19.403 E18.27772
G1 X74.986 Y23.297 E18.58724
G1 X79.635 Y27.425 E18.89676
G1 X84.074 Y31.777 E19.20629
G1 X88.294 Y36.341 E19.51581
G1 X92.284 Y41.109 E19.82533
G1 X96.035 Y46.066 E20.13485
G1 X99.678 Y51.409 E20.45682
G1 X99.859 Y51.831 F10800.000
G1 E14.45682 F1800.00000
G92 E0
G1 X64.223 Y13.682 F10800.000
G1 E6.00000 F1800.00000
G1 X63.508 Y16.030 E6.12220 F900.000
G1 X63.018 Y17.020 E6.17720
G1 X62.364 Y17.815 E6.22845
G1 X61.548 Y18.447 E6.27984
G1 X60.576 Y18.898 E6.33321
G1 X58.179 Y19.553 E6.45692
G1 X62.785 Y26.309 E6.86405
G1 X66.570 Y31.312 E7.17641
G1 X70.597 Y36.123 E7.48877
G1 X74.856 Y40.730 E7.80113
G1 X79.336 Y45.121 E8.11349
G1 X84.027 Y49.287 E8.42585
G1 X88.918 Y53.216 E8.73821
G1 X95.158 Y57.743 E9.12205
G1 X95.322 Y58.784 E9.17452
G1 X95.490 Y59.151 E9.19461
G1 X95.358 Y59.265 E9.20329
G1 X92.957 Y57.684 E9.34638
G1 X87.923 Y54.011 E9.65667
G1 X83.073 Y50.098 E9.96694
G1 X78.418 Y45.954 E10.27721
G1 X73.969 Y41.590 E10.58749
G1 X69.737 Y37.016 E10.89776
G1 X65.732 Y32.242 E11.20803
G1 X61.962 Y27.280 E11.51827
G1 X58.353 Y22.009 E11.83637
G1 X55.194 Y16.884 E12.13611
G1 X54.782 Y15.973 E12.18587
G1 X54.566 Y14.958 E12.23758
G1 X54.581 Y13.926 E12.28897
G1 X54.825 Y12.923 E12.34036
G1 X55.286 Y12.000 E12.39175
G1 X55.942 Y11.202 E12.44314
G1 X56.758 Y10.570 E12.49453
G1 X57.694 Y10.136 E12.54592
G1 X58.704 Y9.921 E12.59732
G1 X59.736 Y9.936 E12.64871
G1 X60.745 Y10.182 E12.70041
G1 X61.643 Y10.621 E12.75016
G1 X66.803 Y14.016 E13.05771
G1 X71.837 Y17.689 E13.36798
G1 X76.687 Y21.602 E13.67826
G1 X81.342 Y25.746 E13.98853
G1 X85.673 Y29.994 E14.29060
G1 X90.023 Y34.684 E14.60907
G1 X94.028 Y39.458 E14.91934
G1 X97.798 Y44.420 E15.22961
G1 X101.323 Y49.559 E15.53989
G1 X102.831 Y52.004 E15.68292
G1 X102.714 Y52.133 E15.69160
G1 X102.353 Y51.955 E15.71161
G1 X101.318 Y51.761 E15.76407
G1 X96.975 Y45.391 E16.14792
G1 X93.190 Y40.388 E16.46028
G1 X89.163 Y35.577 E16.77264
G1 X84.904 Y30.970 E17.08500
G1 X80.424 Y26.579 E17.39736
G1 X75.733 Y22.413 E17.70971
G1 X70.842 Y18.484 E18.02207
G1 X64.272 Y13.717 E18.42622
G1 X64.435 Y14.312 F10800.000
G1 X63.867 Y16.173 E18.52307 F900.000
G1 X63.344 Y17.231 E18.58184
G1 X62.635 Y18.094 E18.63746
G1 X61.750 Y18.778 E18.69318
G1 X60.709 Y19.261 E18.75032
G1 X58.802 Y19.782 E18.84872
G1 X63.098 Y26.084 E19.22846
G1 X66.872 Y31.072 E19.53988
G1 X70.887 Y35.868 E19.85129
G1 X75.132 Y40.461 E20.16270
G1 X79.599 Y44.839 E20.47412
G1 X84.276 Y48.992 E20.78553
G1 X89.152 Y52.910 E21.09694
G1 X95.375 Y57.424 E21.47971
G1 X95.500 Y57.433 E21.48594
G1 X95.695 Y58.672 E21.54840
G1 X96.276 Y59.942 E21.61796
G1 X96.566 Y60.284 E21.64026
G1 X96.433 Y60.434 E21.65024
G1 X92.737 Y58.001 E21.87051
G1 X87.688 Y54.317 E22.18173
G1 X82.824 Y50.392 E22.49293
G1 X78.155 Y46.236 E22.80413
G1 X73.693 Y41.859 E23.11534
G1 X69.448 Y37.271 E23.42654
G1 X65.430 Y32.483 E23.73775
G1 X61.650 Y27.506 E24.04893
G1 X58.030 Y22.219 E24.36796
G1 X54.853 Y17.065 E24.66938
G1 X54.413 Y16.095 E24.72244
G1 X54.179 Y14.996 E24.77838
G1 X54.196 Y13.877 E24.83410
G1 X54.461 Y12.789 E24.88982
G1 X54.961 Y11.788 E24.94554
G1 X55.671 Y10.924 E25.00125
G1 X56.556 Y10.239 E25.05697
G1 X57.571 Y9.768 E25.11269
G1 X58.666 Y9.535 E25.16841
G1 X59.785 Y9.551 E25.22412
G1 X60.877 Y9.817 E25.28007
G1 X61.834 Y10.285 E25.33312
G1 X67.023 Y13.699 E25.64236
G1 X72.072 Y17.383 E25.95356
G1 X76.936 Y21.308 E26.26477
G1 X81.605 Y25.464 E26.57597
G1 X86.067 Y29.841 E26.88718
G1 X90.312 Y34.429 E27.19838
G1 X94.330 Y39.217 E27.50958
G1 X98.111 Y44.194 E27.82079
G1 X101.646 Y49.349 E28.13199
G1 X103.967 Y53.110 E28.35205
G1 X103.813 Y53.239 E28.36202
G1 X103.483 Y52.943 E28.38408
G1 X102.230 Y52.324 E28.45365
G1 X100.997 Y52.093 E28.51610
G1 X100.992 Y51.968 E28.52233
G1 X96.662 Y45.616 E28.90510
G1 X92.888 Y40.628 E29.21651
G1 X88.873 Y35.832 E29.52793
G1 X84.628 Y31.239 E29.83934
G1 X80.161 Y26.861 E30.15075
G1 X75.484 Y22.708 E30.46217
G1 X70.608 Y18.790 E30.77358
G1 X64.483 Y14.347 E31.15033
G1 X65.710 Y12.374 F10800.000
G1 X67.242 Y13.382 E31.24168 F900.000
G1 X72.307 Y17.077 E31.55381
G1 X77.186 Y21.014 E31.86594
G1 X81.869 Y25.182 E32.17808
G1 X86.344 Y29.572 E32.49021
G1 X90.602 Y34.174 E32.80235
G1 X94.631 Y38.976 E33.11448
G1 X98.423 Y43.968 E33.42662
G1 X101.969 Y49.138 E33.73875
G1 X105.248 Y54.453 E34.04968
G1 X105.715 Y55.484 E34.10604
G1 X105.967 Y56.667 E34.16622
G1 X105.949 Y57.872 E34.22626
G1 X105.664 Y59.044 E34.28631
G1 X105.125 Y60.123 E34.34635
G1 X104.359 Y61.055 E34.40639
G1 X103.405 Y61.793 E34.46644
G1 X102.311 Y62.300 E34.52648
G1 X101.132 Y62.551 E34.58653
G1 X99.926 Y62.534 E34.64657
G1 X98.752 Y62.247 E34.70675
G1 X97.731 Y61.749 E34.76329
G1 X92.518 Y58.318 E35.07404
G1 X87.453 Y54.623 E35.38618
G1 X82.574 Y50.686 E35.69831
G1 X77.891 Y46.518 E36.01044
G1 X73.416 Y42.128 E36.32258
G1 X69.158 Y37.526 E36.63471
G1 X65.129 Y32.724 E36.94685
G1 X61.337 Y27.732 E37.25897
G1 X57.706 Y22.429 E37.57893
G1 X54.512 Y17.247 E37.88204
G1 X54.045 Y16.216 E37.93840
G1 X53.793 Y15.033 E37.99858
G1 X53.811 Y13.828 E38.05862
G1 X54.096 Y12.656 E38.11867
G1 X54.635 Y11.577 E38.17871
G1 X55.401 Y10.645 E38.23876
G1 X56.355 Y9.907 E38.29880
G1 X57.449 Y9.400 E38.35884
G1 X58.628 Y9.149 E38.41889
G1 X59.834 Y9.166 E38.47893
G1 X61.008 Y9.453 E38.53911 F900.000
G1 X62.025 Y9.949 E38.59547
G1 X65.660 Y12.341 E38.81207
G1 X65.922 Y12.051 F10800.000
G1 X67.462 Y13.065 E38.90388 F900.000
G1 X72.541 Y16.771 E39.21694
G1 X77.435 Y20.720 E39.53001
G1 X82.132 Y24.900 E39.84307
G1 X86.621 Y29.303 E40.15614
G1 X90.891 Y33.919 E40.46920
G1 X94.933 Y38.736 E40.78227
G1 X98.736 Y43.743 E41.09533
G1 X102.293 Y48.928 E41.40840
G1 X105.589 Y54.272 E41.72102
G1 X106.084 Y55.363 E41.78067
G1 X106.353 Y56.629 E41.84510
G1 X106.334 Y57.921 E41.90947
G1 X106.028 Y59.178 E41.97384
G1 X105.450 Y60.334 E42.03821
G1 X104.630 Y61.333 E42.10258
G1 X103.607 Y62.124 E42.16695
G1 X102.434 Y62.668 E42.23132
G1 X101.170 Y62.937 E42.29569
G1 X99.877 Y62.919 E42.36006
G1 X98.620 Y62.612 E42.42448
G1 X97.542 Y62.086 E42.48421
G1 X92.298 Y58.635 E42.79676
G1 X87.219 Y54.929 E43.10983
G1 X82.325 Y50.980 E43.42289
G1 X77.628 Y46.800 E43.73596
G1 X73.139 Y42.397 E44.04902
G1 X68.869 Y37.781 E44.36209
G1 X64.827 Y32.964 E44.67515
G1 X61.024 Y27.958 E44.98821
G1 X57.383 Y22.639 E45.30911
G1 X54.171 Y17.428 E45.61390
G1 X53.676 Y16.337 E45.67356
G1 X53.407 Y15.071 E45.73798
G1 X53.426 Y13.779 E45.80235
G1 X53.732 Y12.522 E45.86672
G1 X54.310 Y11.366 E45.93109
G1 X55.130 Y10.367 E45.99546
G1 X56.153 Y9.576 E46.05983
G1 X57.326 Y9.032 E46.12420
G1 X58.590 Y8.763 E46.18857
G1 X59.845 Y8.781 E46.25107
G1 X61.140 Y9.088 E46.31732 F900.000
G1 X62.217 Y9.614 E46.37698
G1 X65.872 Y12.018 E46.59480
G1 X65.898 Y12.451 F10800.000
G1 X65.115 Y13.292 F10800.000
G1 X67.416 Y15.593 E46.76015 F900.000
G1 X66.801 Y14.421 F10800.000
G1 X69.443 Y17.064 E46.95009 F900.000
G1 X68.860 Y15.924 F10800.000
G1 X71.604 Y18.668 E47.14732 F900.000
