; generated by Slic3r 1.2.9 on 2017-01-15 at 20:42:22

; external perimeters extrusion width = 0.40mm
; perimeters extrusion width = 0.56mm
; infill extrusion width = 0.31mm
; solid infill extrusion width = 0.56mm
; top infill extrusion width = 0.22mm

M107
M106 S256; Turn on fan to 100% power
M104 S141; turn on extruder temperature at S value
M140 S45; turn on bed temperature at S value
G28; home all axes
M84; disable motors
G1 Z15 F15000; have Z move to 20mm at 15000 mm/min
M190 S50; turn on bed temperature at S value and wait
M140 S55; turn on bed temperature at S value (printing temperature)
M109 S196; turn on extruder temperature at S value and wait (printing temperature)
M104 S195; turn on extruder temperature at S value
G1 Z0 F12000; move Z back to home
G21 ; set units to millimeters
G90 ; use absolute coordinates
M82 ; use absolute distances for extrusion
G92 E0
;Layer change
G1 E-6.00000 F1800.00000
G92 E0
G1 Z0.400 F10800.000
G1 X61.359 Y96.461 F10800.000
G1 E6.00000 F1800.00000
G1 X62.605 Y95.703 E6.04244 F900.000
G1 X63.824 Y95.137 E6.08154
G1 X65.208 Y94.676 E6.12398
G1 X66.522 Y94.396 E6.16307
G1 X67.973 Y94.254 E6.20551
G1 X69.233 Y94.272 E6.24216
G1 X70.764 Y94.458 E6.28703 F900.000
G1 X72.069 Y94.776 E6.32612
G1 X73.387 Y95.252 E6.36688
G1 X74.498 Y95.795 E6.40287
G1 X75.120 Y96.142 E6.42358
G1 X80.547 Y99.712 E6.61258
G1 X85.828 Y103.561 E6.80273
G1 X91.222 Y107.912 E7.00436
G1 X96.157 Y112.315 E7.19680
G1 X100.874 Y116.953 E7.38925
G1 X105.151 Y121.576 E7.57251
G1 X109.409 Y126.638 E7.76496
G1 X113.416 Y131.900 E7.95740
G1 X117.294 Y137.548 E8.15673
G1 X120.704 Y143.077 E8.34574
G1 X121.032 Y143.708 E8.36645
G1 X121.543 Y144.835 E8.40243
G1 X121.980 Y146.166 E8.44319
G1 X122.260 Y147.480 E8.48229
G1 X122.402 Y148.932 E8.52473
G1 X122.382 Y150.275 E8.56382
G1 X122.198 Y151.722 E8.60626
G1 X121.900 Y152.946 E8.64291
G1 X121.378 Y154.397 E8.68778
G1 X120.777 Y155.599 E8.72687
G1 X119.983 Y156.823 E8.76931
G1 X119.130 Y157.861 E8.80840
G1 X118.084 Y158.877 E8.85085
G1 X117.021 Y159.700 E8.88994
G1 X115.775 Y160.457 E8.93238
G1 X114.556 Y161.023 E8.97148
G1 X113.172 Y161.484 E9.01391
G1 X111.940 Y161.747 E9.05056
G1 X110.407 Y161.906 E9.09543
G1 X109.063 Y161.887 E9.13453
G1 X107.616 Y161.702 E9.17696
G1 X106.311 Y161.384 E9.21606
G1 X104.993 Y160.908 E9.25682
G1 X103.882 Y160.365 E9.29281
G1 X103.260 Y160.018 E9.31351
G1 X97.640 Y156.312 E9.50940
G1 X92.552 Y152.599 E9.69267
G1 X87.399 Y148.452 E9.88511
G1 X82.223 Y143.845 E10.08674
G1 X77.726 Y139.434 E10.27000
G1 X73.229 Y134.584 E10.46245
G1 X68.774 Y129.275 E10.66407
G1 X64.964 Y124.260 E10.84734
G1 X61.217 Y118.810 E11.03978
G1 X57.676 Y113.083 E11.23567
G1 X57.348 Y112.452 E11.25638
G1 X56.837 Y111.325 E11.29237
G1 X56.400 Y109.994 E11.33313
G1 X56.120 Y108.680 E11.37222
G1 X55.978 Y107.228 E11.41466
G1 X55.998 Y105.885 E11.45375
G1 X56.182 Y104.438 E11.49619
G1 X56.500 Y103.132 E11.53529
G1 X57.002 Y101.763 E11.57773
G1 X57.565 Y100.636 E11.61437
G1 X58.397 Y99.337 E11.65925
G1 X59.250 Y98.299 E11.69834
G1 X60.296 Y97.283 E11.74078
G1 X61.311 Y96.497 E11.77813
G1 E5.77813 F1800.00000
G92 E0
G1 X111.481 Y153.564 F10800.000
G1 E6.00000 F1800.00000
G1 X110.305 Y153.832 E6.03508 F900.000
G1 X109.101 Y153.773 E6.07017
G1 X107.957 Y153.392 E6.10525
G1 X106.959 Y152.716 E6.14034
G1 X106.180 Y151.795 E6.17542
G1 X105.678 Y150.699 E6.21051
G1 X105.490 Y149.508 E6.24559
G1 X105.631 Y148.310 E6.28068
G1 X106.090 Y147.195 E6.31576
G1 X106.832 Y146.245 E6.35085
G1 X107.803 Y145.531 E6.38593
G1 X108.932 Y145.105 E6.42101
G1 X109.159 Y145.085 E6.42766
G1 X110.133 Y144.999 E6.45610 F900.000
G1 X111.318 Y145.221 E6.49118
G1 X112.399 Y145.755 E6.52627
G1 X113.296 Y146.560 E6.56135
G1 X113.943 Y147.578 E6.59644
G1 X114.291 Y148.733 E6.63152
G1 X114.315 Y149.938 E6.66661
G1 X114.012 Y151.106 E6.70169
G1 X113.411 Y152.139 E6.73647
G1 X113.000 Y152.596 E6.75435
G1 X112.532 Y152.993 E6.77222
G1 X111.534 Y153.535 E6.80526
G1 X111.398 Y153.955 F10800.000
G1 E0.80526 F1800.00000
G92 E0
G1 X104.254 Y148.481 F10800.000
G1 E6.00000 F1800.00000
G1 X98.885 Y144.586 E6.19301 F900.000
G1 X94.036 Y140.690 E6.37399
G1 X89.384 Y136.560 E6.55498
G1 X84.942 Y132.206 E6.73596
G1 X80.719 Y127.638 E6.91695
G1 X76.727 Y122.868 E7.09793
G1 X72.974 Y117.907 E7.27891
G1 X69.237 Y112.427 E7.47192
G1 X70.258 Y112.148 E7.50273
G1 X71.424 Y111.607 E7.54010
G1 X72.433 Y110.826 E7.57723
G1 X73.242 Y109.841 E7.61433
G1 X73.830 Y108.650 E7.65297
G1 X74.126 Y107.679 E7.68251
G1 X79.495 Y111.574 E7.87552
G1 X84.344 Y115.470 E8.05650
G1 X88.996 Y119.600 E8.23749
G1 X93.438 Y123.954 E8.41847
G1 X97.661 Y128.522 E8.59946
G1 X101.653 Y133.292 E8.78044
G1 X105.406 Y138.253 E8.96143
G1 X109.143 Y143.733 E9.15443
G1 X108.122 Y144.012 E9.18524
G1 X106.956 Y144.553 E9.22261
G1 X105.947 Y145.334 E9.25974
G1 X105.137 Y146.320 E9.29686
G1 X104.563 Y147.469 E9.33424
G1 X104.272 Y148.424 E9.36330
G1 X104.056 Y148.829 F10800.000
G1 X104.536 Y149.321 F10800.000
G1 X104.822 Y148.383 E9.39183 F900.000
G1 X105.098 Y148.441 E9.40004
G1 X104.971 Y149.518 E9.43160
G1 X105.181 Y150.849 E9.47080
G1 X105.741 Y152.074 E9.51000
G1 X106.681 Y153.184 E9.55233
G1 X106.504 Y153.384 E9.56010
G1 X101.944 Y150.381 E9.71898
G1 X96.887 Y146.691 E9.90110
G1 X92.016 Y142.761 E10.08321
G1 X87.340 Y138.599 E10.26533
G1 X82.872 Y134.216 E10.44745
G1 X78.621 Y129.622 E10.62956
G1 X74.598 Y124.827 E10.81168
G1 X70.812 Y119.843 E10.99378
G1 X67.159 Y114.504 E11.18200
G1 X64.002 Y109.381 E11.35708
G1 X63.549 Y108.382 E11.38900
G1 X63.307 Y107.243 E11.42286
G1 X63.324 Y106.083 E11.45662
G1 X63.599 Y104.956 E11.49037
G1 X64.117 Y103.919 E11.52413
G1 X64.854 Y103.022 E11.55788
G1 X65.771 Y102.312 E11.59163
G1 X66.823 Y101.824 E11.62539
G1 X67.958 Y101.583 E11.65914
G1 X69.118 Y101.600 E11.69290
G1 X70.249 Y101.875 E11.72676
G1 X71.234 Y102.357 E11.75867
G1 X76.436 Y105.779 E11.93985
G1 X81.493 Y109.469 E12.12197
G1 X86.364 Y113.399 E12.30408
G1 X91.040 Y117.561 E12.48620
G1 X95.508 Y121.944 E12.66832
G1 X99.759 Y126.538 E12.85043
G1 X103.782 Y131.333 E13.03255
G1 X107.568 Y136.318 E13.21467
G1 X111.109 Y141.479 E13.39678
G1 X113.972 Y146.120 E13.55544
G1 X113.767 Y146.292 E13.56322
G1 X112.690 Y145.325 E13.60531
G1 X111.482 Y144.729 E13.64451
G1 X110.158 Y144.480 E13.68371
G1 X109.077 Y144.576 E13.71527
G1 X109.028 Y144.298 E13.72348
G1 X109.974 Y144.039 E13.75202
G1 X105.824 Y137.952 E13.96637
G1 X102.056 Y132.971 E14.14809
G1 X98.047 Y128.182 E14.32981
G1 X93.807 Y123.596 E14.51154
G1 X89.347 Y119.224 E14.69326
G1 X84.676 Y115.077 E14.87498
G1 X79.807 Y111.165 E15.05670
G1 X73.844 Y106.839 E15.27105
G1 X73.350 Y108.460 E15.32035
G1 X72.807 Y109.560 E15.35605
G1 X72.072 Y110.455 E15.38974
G1 X71.155 Y111.165 E15.42350
G1 X70.081 Y111.663 E15.45793
G1 X68.406 Y112.121 E15.50845
G1 X72.556 Y118.208 E15.72281
G1 X76.324 Y123.189 E15.90453
G1 X80.333 Y127.978 E16.08625
G1 X84.573 Y132.564 E16.26797
G1 X89.033 Y136.936 E16.44969
G1 X93.704 Y141.083 E16.63141
G1 X98.573 Y144.995 E16.81313
G1 X104.487 Y149.286 E17.02574
G1 X102.982 Y151.680 F10800.000
G1 X101.651 Y150.803 E17.07212 F900.000
G1 X96.574 Y147.099 E17.25497
G1 X91.683 Y143.153 E17.43781
G1 X86.989 Y138.975 E17.62065
G1 X82.503 Y134.574 E17.80349
G1 X78.235 Y129.962 E17.98633
G1 X74.196 Y125.148 E18.16917
G1 X70.395 Y120.144 E18.35201
G1 X66.728 Y114.784 E18.54096
G1 X63.547 Y109.623 E18.71735
G1 X63.058 Y108.543 E18.75184
G1 X62.792 Y107.294 E18.78900
G1 X62.811 Y106.018 E18.82613
G1 X63.113 Y104.778 E18.86325
G1 X63.683 Y103.637 E18.90038
G1 X64.493 Y102.651 E18.93750
G1 X65.502 Y101.870 E18.97463
G1 X66.660 Y101.333 E19.01175
G1 X67.908 Y101.068 E19.04888
G1 X69.133 Y101.086 E19.08454
G1 X70.425 Y101.389 E19.12313 F900.000
G1 X71.490 Y101.909 E19.15762
G1 X76.729 Y105.357 E19.34011
G1 X81.806 Y109.061 E19.52295
G1 X86.697 Y113.007 E19.70580
G1 X91.391 Y117.185 E19.88864
G1 X95.877 Y121.586 E20.07148
G1 X100.145 Y126.198 E20.25432
G1 X104.184 Y131.012 E20.43716
G1 X107.985 Y136.016 E20.62000
G1 X111.540 Y141.199 E20.80285
G1 X114.833 Y146.537 E20.98534
G1 X115.322 Y147.617 E21.01983
G1 X115.588 Y148.866 E21.05699
G1 X115.569 Y150.142 E21.09412
G1 X115.267 Y151.382 E21.13124
G1 X114.697 Y152.523 E21.16837
G1 X113.887 Y153.509 E21.20549
G1 X112.878 Y154.290 E21.24262
G1 X111.720 Y154.827 E21.27974
G1 X110.472 Y155.092 E21.31687
G1 X109.196 Y155.074 E21.35399
G1 X107.955 Y154.771 E21.39116
G1 X106.889 Y154.250 E21.42570
G1 X103.032 Y151.713 E21.56001
G1 X103.005 Y151.281 F10800.000
G1 X104.962 Y151.704 F10800.000
G1 X105.433 Y152.254 E21.58108 F900.000
G1 X105.856 Y152.631 E21.59757
G1 X106.817 Y153.419 F10800.000
G1 X107.211 Y153.678 E21.62728 F900.000
G1 X107.638 Y153.926 E21.65845
G1 X108.179 Y154.154 E21.69542
G1 X108.938 Y154.373 E21.74528
G1 X109.279 Y154.429 E21.76702
G1 X110.410 Y154.458 E21.83838
G1 X111.516 Y154.214 E21.90977
G1 X111.747 Y154.128 E21.92534
G1 X112.538 Y153.730 E21.98111
G1 X112.911 Y153.482 E22.00938
G1 X113.442 Y153.051 E22.05252
G1 X113.889 Y152.533 E22.09566
G1 X114.148 Y152.167 E22.12393
G1 X114.568 Y151.388 E22.17970
G1 X114.661 Y151.159 E22.19527
G1 X114.937 Y150.061 E22.26666
G1 X114.941 Y148.929 E22.33803
G1 X114.895 Y148.588 E22.35977
G1 X114.698 Y147.822 E22.40962
G1 X114.486 Y147.275 E22.44659
G1 X114.254 Y146.845 E22.47740
G1 X113.996 Y146.435 E22.50794
G1 X113.239 Y145.452 F10800.000
G1 X112.879 Y145.023 E22.52423 F900.000
G1 X112.341 Y144.534 E22.54537
G1 X108.799 Y144.481 F10800.000
G1 X108.347 Y144.628 E22.57538 F900.000
G1 X107.462 Y145.007 E22.63605
G1 X107.293 Y145.107 E22.64843
G1 X106.390 Y145.790 E22.71982
G1 X105.681 Y146.672 E22.79120
G1 X105.576 Y146.838 E22.80358
G1 X105.171 Y147.712 E22.86425
G1 X105.011 Y148.160 E22.89427
G1 X103.906 Y149.413 F10800.000
G1 X104.697 Y150.204 E22.92716 F900.000
G1 X102.533 Y150.245 F10800.000
G1 X94.957 Y142.669 E23.24234 F900.000
G1 X93.290 Y143.208 F10800.000
G1 X76.668 Y126.586 E23.93387 F900.000
G1 X77.042 Y124.755 F10800.000
G1 X69.644 Y117.356 E24.24168 F900.000
G1 X70.574 Y116.081 F10800.000
G1 X65.532 Y111.039 E24.45145 F900.000
G1 X66.713 Y112.955 F10800.000
G1 X72.149 Y118.391 E24.67763 F900.000
G1 X71.307 Y119.754 F10800.000
G1 X81.824 Y130.272 E25.11521 F900.000
G1 X82.749 Y133.403 F10800.000
G1 X84.800 Y135.453 E25.20052 F900.000
G1 X89.650 Y138.098 F10800.000
G1 X99.868 Y148.316 E25.62563 F900.000
G1 X101.228 Y147.470 F10800.000
G1 X104.834 Y151.076 E25.77565 F900.000
G1 X104.612 Y151.589 E25.79210
G1 X98.550 Y145.528 E26.04429
G1 X97.095 Y146.278 F10800.000
G1 X73.630 Y122.813 E27.02050 F900.000
G1 X74.373 Y121.350 F10800.000
G1 X68.051 Y115.028 E27.28351 F900.000
G1 X68.999 Y113.770 F10800.000
G1 X64.351 Y109.123 E27.47688 F900.000
G1 X67.881 Y111.917 F10800.000
G1 X63.833 Y107.870 E27.64527 F900.000
G1 X63.669 Y106.970 E27.67218
G1 X68.458 Y111.760 E27.87145
G1 X69.036 Y111.602 E27.88906
G1 X63.679 Y106.245 E28.11191
G1 X63.784 Y105.615 E28.13070
G1 X69.613 Y111.444 E28.37320
G1 X70.170 Y111.265 E28.39039
G1 X63.929 Y105.024 E28.65004
G1 X64.171 Y104.531 E28.66620
G1 X70.672 Y111.032 E28.93666
G1 X71.147 Y110.772 E28.95260
G1 X64.420 Y104.046 E29.23246
G1 X64.752 Y103.642 E29.24782
G1 X71.562 Y110.452 E29.53113
G1 X71.951 Y110.106 E29.54645
G1 X65.099 Y103.254 E29.83154
G1 X65.501 Y102.920 E29.84690
G1 X72.283 Y109.703 E30.12907
G1 X72.589 Y109.274 E30.14457
G1 X65.917 Y102.601 E30.42217
G1 X66.419 Y102.368 E30.43846
G1 X72.832 Y108.781 E30.70527
G1 X73.060 Y108.274 E30.72163
G1 X66.933 Y102.147 E30.97650
G1 X67.540 Y102.018 E30.99473
G1 X73.231 Y107.710 E31.23153
G1 X73.403 Y107.147 E31.24886
G1 X68.204 Y101.947 E31.46518
G1 X68.950 Y101.958 E31.48713
G1 X73.575 Y106.583 E31.67955
G1 X74.474 Y106.747 F10800.000
G1 X69.922 Y102.195 E31.86893 F900.000
G1 X71.549 Y103.087 F10800.000
G1 X77.152 Y108.690 E32.10202 F900.000
G1 X78.512 Y107.844 F10800.000
G1 X88.730 Y118.062 E32.52713 F900.000
G1 X93.579 Y120.706 F10800.000
G1 X95.631 Y122.758 E32.61248 F900.000
G1 X96.556 Y125.888 F10800.000
G1 X107.073 Y136.406 E33.05005 F900.000
G1 X106.231 Y137.769 F10800.000
G1 X111.661 Y143.199 E33.27598 F900.000
G1 X111.298 Y144.306 F10800.000
G1 X109.381 Y142.390 E33.35571 F900.000
G1 X110.354 Y141.156 F10800.000
G1 X104.007 Y134.810 E33.61974 F900.000
G1 X104.750 Y133.347 F10800.000
G1 X81.285 Y109.882 E34.59595 F900.000
G1 X79.830 Y110.632 F10800.000
G1 X73.698 Y104.501 E34.85103 F900.000
G1 X75.848 Y105.915 F10800.000
G1 X83.423 Y113.491 E35.16619 F900.000
G1 X85.090 Y112.952 F10800.000
G1 X101.712 Y129.574 E35.85772 F900.000
G1 X101.338 Y131.405 F10800.000
G1 X108.748 Y138.816 E36.16601 F900.000
G1 X107.806 Y140.079 F10800.000
G1 X112.072 Y144.345 E36.34350 F900.000
M104 S195 ; set temperature
;Layer change
G1 E30.34350 F1800.00000
G92 E0
G1 Z0.650 F10800.000
G1 X105.364 Y150.794 F10800.000
G1 E6.00000 F1800.00000
G1 X105.163 Y149.514 E6.02302 F900.000
G1 X105.314 Y148.228 E6.04605
G1 X105.533 Y147.694 E6.05631
G1 X105.806 Y147.030 E6.06907
G1 X106.604 Y146.010 E6.09209
G1 X107.647 Y145.243 E6.11512
G1 X108.859 Y144.785 E6.13814 F900.000
G1 X110.149 Y144.672 E6.16116
G1 X111.422 Y144.910 E6.18418
G1 X112.583 Y145.483 E6.20721
G1 X113.546 Y146.349 E6.23023
G1 X114.241 Y147.442 E6.25325
G1 X114.615 Y148.682 E6.27628
G1 X114.640 Y149.977 E6.29930
G1 X114.315 Y151.230 E6.32232
G1 X113.675 Y152.331 E6.34496
G1 X113.227 Y152.829 E6.35687
G1 X112.716 Y153.262 E6.36878
G1 X111.597 Y153.870 E6.39142
G1 X110.334 Y154.158 E6.41444
G1 X109.041 Y154.095 E6.43746
G1 X107.812 Y153.686 E6.46049
G1 X106.740 Y152.960 E6.48351
G1 X105.903 Y151.971 E6.50653
G1 X105.389 Y150.848 E6.52849
G1 X105.774 Y150.670 F10800.000
G1 X105.591 Y149.506 E6.54292 F900.000
G1 X105.729 Y148.336 E6.55736
G1 X105.926 Y147.856 E6.56372
G1 X106.177 Y147.246 E6.57179
G1 X106.902 Y146.317 E6.58623
G1 X107.852 Y145.619 E6.60066
G1 X108.954 Y145.203 E6.61510 F900.000
G1 X110.128 Y145.100 E6.62953
G1 X111.286 Y145.317 E6.64397
G1 X112.343 Y145.838 E6.65840
G1 X113.219 Y146.626 E6.67283
G1 X113.851 Y147.620 E6.68727
G1 X114.191 Y148.748 E6.70170
G1 X114.214 Y149.927 E6.71614
G1 X113.919 Y151.067 E6.73057
G1 X113.330 Y152.080 E6.74492
G1 X112.931 Y152.524 E6.75224
G1 X112.475 Y152.910 E6.75955
G1 X111.445 Y153.469 E6.77390
G1 X110.297 Y153.732 E6.78834
G1 X109.120 Y153.674 E6.80277
G1 X108.002 Y153.301 E6.81721
G1 X107.026 Y152.641 E6.83164
G1 X106.265 Y151.741 E6.84607
G1 X105.799 Y150.724 E6.85977
G1 X105.389 Y150.561 F10800.000
G1 X104.432 Y149.011 F10800.000
G1 X98.688 Y144.844 E6.98594 F3600.000
G1 X93.826 Y140.938 E7.09680
G1 X89.163 Y136.797 E7.20767
G1 X84.709 Y132.432 E7.31854
G1 X80.476 Y127.853 E7.42941
G1 X76.473 Y123.070 E7.54028
G1 X72.710 Y118.097 E7.65115
G1 X68.713 Y112.233 E7.77731
G1 X70.147 Y111.842 E7.80373
G1 X71.254 Y111.328 E7.82544
G1 X72.205 Y110.592 E7.84682
G1 X72.969 Y109.663 E7.86820
G1 X73.515 Y108.571 E7.88991
G1 X73.948 Y107.149 E7.91633
G1 X79.692 Y111.316 E8.04249
G1 X84.554 Y115.222 E8.15336
G1 X89.217 Y119.363 E8.26423
G1 X93.671 Y123.728 E8.37510
G1 X97.904 Y128.307 E8.48597
G1 X101.907 Y133.090 E8.59684
G1 X105.670 Y138.063 E8.70771
G1 X109.667 Y143.927 E8.83387
G1 X108.233 Y144.318 E8.86029
G1 X107.126 Y144.832 E8.88199
G1 X106.175 Y145.568 E8.90338
G1 X105.411 Y146.497 E8.92476
G1 X104.865 Y147.589 E8.94647
G1 X104.449 Y148.954 E8.97182
G1 X104.199 Y148.318 F10800.000
G1 X98.945 Y144.507 E9.05134 F1800.000
G1 X94.100 Y140.614 E9.12747
G1 X89.453 Y136.487 E9.20361
G1 X85.014 Y132.136 E9.27975
G1 X80.795 Y127.572 E9.35588
G1 X76.805 Y122.806 E9.43202
G1 X73.055 Y117.849 E9.50816
