; generated by Slic3r 1.2.9 on 2017-01-16 at 00:13:26

; external perimeters extrusion width = 0.40mm
; perimeters extrusion width = 0.56mm
; infill extrusion width = 0.31mm
; solid infill extrusion width = 0.56mm
; top infill extrusion width = 0.22mm

M107
M106 S256; Turn on fan to 100% power
M104 S141; turn on extruder temperature at S value
M140 S45; turn on bed temperature at S value
G28; home all axes
M84; disable motors
G1 Z15 F15000; have Z move to 20mm at 15000 mm/min
M190 S50; turn on bed temperature at S value and wait
M140 S55; turn on bed temperature at S value (printing temperature)
M109 S196; turn on extruder temperature at S value and wait (printing temperature)
M104 S195; turn on extruder temperature at S value
G1 Z0 F12000; move Z back to home
G21 ; set units to millimeters
G90 ; use absolute coordinates
M82 ; use absolute distances for extrusion
G92 E0
;Layer change
G1 E-6.00000 F1800.00000
G92 E0
G1 Z0.400 F10800.000
G1 X39.895 Y51.263 F10800.000
G1 E6.00000 F1800.00000
G1 X60.006 Y35.612 E8.17896 F900.000
G1 X61.447 Y34.762 E8.32201
G1 X67.859 Y32.026 E8.91808
G1 X101.296 Y18.994 E11.98657
G1 X101.768 Y18.831 E12.02928
G1 X103.269 Y18.375 E12.16342
G1 X104.527 Y18.124 E12.27310
G1 X106.088 Y17.971 E12.40722
G1 X107.359 Y17.971 E12.51588
G1 X108.920 Y18.124 E12.64999 F900.000
G1 X110.178 Y18.375 E12.75967
G1 X111.679 Y18.831 E12.89381
G1 X112.854 Y19.317 E13.00253
G1 X114.238 Y20.056 E13.13668
G1 X115.072 Y20.586 E13.22116
G1 X125.182 Y28.149 E14.30073
G1 X130.417 Y32.344 E14.87436
G1 X135.516 Y36.846 E15.45600
G1 X140.390 Y41.590 E16.03750
G1 X145.236 Y46.798 E16.64580
G1 X149.613 Y51.997 E17.22687
G1 X153.733 Y57.402 E17.80798
G1 X157.500 Y62.866 E18.37547
G1 X160.329 Y67.190 E18.81730
G1 X160.624 Y67.688 E18.86681
G1 X161.363 Y69.072 E19.00096
G1 X161.849 Y70.247 E19.10968
G1 X162.305 Y71.748 E19.24384
G1 X162.556 Y73.006 E19.35350
G1 X162.709 Y74.567 E19.48762
G1 X162.709 Y75.838 E19.59627
G1 X162.556 Y77.399 E19.73039
G1 X162.432 Y78.174 E19.79751
G1 X152.980 Y120.788 E23.52977
G1 X152.657 Y121.825 E23.62266
G1 X150.143 Y128.025 E24.19471
G1 X149.494 Y129.239 E24.31239
G1 X145.742 Y134.760 E24.88316
G1 X144.888 Y135.776 E24.99671
G1 X140.104 Y140.412 E25.56632
G1 X139.097 Y141.211 E25.67621
G1 X133.506 Y144.811 E26.24480
G1 X132.402 Y145.381 E26.35101
G1 X126.240 Y147.850 E26.91861
G1 X125.559 Y148.081 E26.98011
G1 X76.579 Y161.670 E31.32634
G1 X75.473 Y161.876 E31.42254
G1 X73.912 Y162.029 E31.55666
G1 X72.641 Y162.029 E31.66532
G1 X71.080 Y161.876 E31.79943
G1 X69.822 Y161.625 E31.90912
G1 X68.321 Y161.169 E32.04327
G1 X67.146 Y160.683 E32.15197
G1 X65.762 Y159.944 E32.28612
G1 X64.979 Y159.451 E32.36525
G1 X60.162 Y155.920 E32.87594
G1 X54.962 Y152.059 E33.42973
G1 X49.703 Y147.751 E34.01096
G1 X44.661 Y143.197 E34.59197
G1 X39.842 Y138.398 E35.17345
G1 X35.261 Y133.374 E35.75481
G1 X30.928 Y128.131 E36.33637
G1 X26.807 Y122.621 E36.92473
G1 X19.857 Y113.079 E37.93410
G1 X19.376 Y112.312 E38.01149
G1 X18.637 Y110.928 E38.14565
G1 X18.151 Y109.753 E38.25437
G1 X17.695 Y108.252 E38.38851
G1 X17.444 Y106.994 E38.49818
G1 X17.291 Y105.433 E38.63231
G1 X17.291 Y104.162 E38.74096
G1 X17.474 Y102.351 E38.89658
G1 X22.092 Y68.685 E41.80215
G1 X22.443 Y67.291 E41.92509
G1 X22.622 Y66.858 E41.96515
G1 X22.896 Y66.254 E42.02189
G1 X23.293 Y65.512 E42.09381
G1 X23.838 Y64.751 E42.17384
G1 X25.287 Y63.020 E42.36687
G1 X25.609 Y62.682 E42.40681
G1 X26.904 Y61.417 E42.56160
G1 X27.415 Y60.976 E42.61928
G1 X39.848 Y51.300 E43.96639
G1 E37.96639 F1800.00000
G92 E0
G1 X72.102 Y142.627 F10800.000
G1 E6.00000 F1800.00000
G1 X72.399 Y142.601 E6.02549 F900.000
G1 X73.444 Y142.509 E6.11520 F900.000
G1 X74.768 Y142.757 E6.23037
G1 X75.977 Y143.353 E6.34563
G1 X76.979 Y144.254 E6.46079
G1 X77.702 Y145.390 E6.57594
G1 X78.091 Y146.680 E6.69121
G1 X78.118 Y148.028 E6.80645
G1 X77.778 Y149.331 E6.92162
G1 X77.101 Y150.497 E7.03686
G1 X76.134 Y151.435 E7.15204
G1 X74.951 Y152.077 E7.26719
G1 X73.638 Y152.377 E7.38234
G1 X72.292 Y152.312 E7.49754
G1 X71.014 Y151.885 E7.61278
G1 X69.898 Y151.131 E7.72791
G1 X69.028 Y150.102 E7.84318
G1 X68.468 Y148.878 E7.95830
G1 X68.258 Y147.547 E8.07350
G1 X68.415 Y146.208 E8.18871
G1 X68.927 Y144.962 E8.30391
G1 X69.757 Y143.901 E8.41913
G1 X70.842 Y143.103 E8.53429
G1 X72.046 Y142.649 E8.64432
G1 X72.218 Y143.133 F10800.000
G1 X72.445 Y143.113 E8.66377 F900.000
G1 X73.419 Y143.027 E8.74743 F900.000
G1 X74.604 Y143.249 E8.85052
G1 X75.686 Y143.783 E8.95368
G1 X76.583 Y144.589 E9.05676
G1 X77.230 Y145.606 E9.15986
G1 X77.579 Y146.761 E9.26302
G1 X77.602 Y147.967 E9.36614
G1 X77.298 Y149.134 E9.46923
G1 X76.692 Y150.177 E9.57240
G1 X75.827 Y151.016 E9.67548
G1 X74.767 Y151.592 E9.77856
G1 X73.592 Y151.860 E9.88164
G1 X72.388 Y151.802 E9.98475
G1 X71.243 Y151.420 E10.08790
G1 X70.245 Y150.745 E10.19095
G1 X69.466 Y149.824 E10.29411
G1 X68.965 Y148.728 E10.39716
G1 X68.777 Y147.536 E10.50028
G1 X68.917 Y146.339 E10.60341
G1 X69.376 Y145.223 E10.70652
G1 X70.119 Y144.273 E10.80964
G1 X71.090 Y143.559 E10.91271
G1 X72.162 Y143.154 E11.01069
G1 X72.295 Y142.919 F10800.000
G1 X72.135 Y140.418 F10800.000
G1 X70.528 Y140.906 E11.15434 F900.000
G1 X69.285 Y141.570 E11.27481
G1 X68.196 Y142.463 E11.39522
G1 X67.303 Y143.552 E11.51563
G1 X66.639 Y144.795 E11.63609
G1 X66.217 Y146.185 E11.76035
G1 X61.859 Y143.024 E12.22068
G1 X56.990 Y139.112 E12.75476
G1 X52.320 Y134.964 E13.28882
G1 X47.859 Y130.593 E13.82282
G1 X43.620 Y126.006 E14.35685
G1 X39.611 Y121.217 E14.89091
G1 X35.843 Y116.236 E15.42495
G1 X32.905 Y111.927 E15.87087
G1 X34.525 Y111.435 E16.01567
G1 X35.768 Y110.771 E16.13613
G1 X36.857 Y109.878 E16.25654
G1 X37.749 Y108.790 E16.37683
G1 X38.422 Y107.520 E16.49971
G1 X38.849 Y106.114 E16.62540
G1 X43.094 Y109.193 E17.07380
G1 X47.963 Y113.105 E17.60789
G1 X52.633 Y117.253 E18.14194
G1 X57.094 Y121.624 E18.67595
G1 X61.333 Y126.211 E19.20998
G1 X65.342 Y131.000 E19.74403
G1 X69.110 Y135.981 E20.27807
G1 X72.101 Y140.368 E20.73210
G1 X71.316 Y140.129 F10800.000
G1 X70.330 Y140.429 E20.82023 F900.000
G1 X68.998 Y141.140 E20.94933
G1 X67.831 Y142.098 E21.07842
G1 X66.873 Y143.265 E21.20751
G1 X66.162 Y144.597 E21.33662
G1 X65.935 Y145.345 E21.40348
G1 X62.171 Y142.615 E21.80102
G1 X57.322 Y138.719 E22.33294
G1 X52.671 Y134.588 E22.86483
G1 X48.228 Y130.235 E23.39667
G1 X44.006 Y125.667 E23.92853
G1 X40.014 Y120.896 E24.46042
G1 X36.261 Y115.936 E24.99230
G1 X33.724 Y112.216 E25.37730
G1 X34.723 Y111.912 E25.46657
G1 X36.055 Y111.201 E25.59568
G1 X37.222 Y110.243 E25.72477
G1 X38.179 Y109.077 E25.85381
G1 X38.899 Y107.717 E25.98533
G1 X39.131 Y106.954 E26.05355
G1 X42.782 Y109.602 E26.43917
G1 X47.631 Y113.498 E26.97109
G1 X52.282 Y117.629 E27.50298
G1 X56.725 Y121.982 E28.03482
G1 X60.947 Y126.550 E28.56668
G1 X64.939 Y131.321 E29.09857
G1 X68.692 Y136.281 E29.63045
G1 X71.282 Y140.080 E30.02355
G1 X71.470 Y140.498 F10800.000
G1 X75.200 Y137.450 F10800.000
G1 X76.420 Y139.219 E30.20731 F900.000
G1 X78.664 Y142.838 E30.57137
G1 X79.250 Y143.552 E30.65034
G1 X79.914 Y144.795 E30.77080
G1 X80.323 Y146.142 E30.89122
G1 X80.460 Y147.544 E31.01163
G1 X80.323 Y148.945 E31.13203
G1 X79.914 Y150.292 E31.25245
G1 X79.250 Y151.535 E31.37291
G1 X78.357 Y152.624 E31.49332
G1 X77.268 Y153.517 E31.61373
G1 X76.025 Y154.181 E31.73419
G1 X74.678 Y154.590 E31.85461
G1 X73.276 Y154.727 E31.97502
G1 X71.875 Y154.590 E32.09542
G1 X70.528 Y154.181 E32.21584
G1 X69.285 Y153.517 E32.33630
G1 X68.196 Y152.624 E32.45671
G1 X68.002 Y152.387 E32.48293
G1 X64.517 Y150.025 E32.84287
G1 X59.347 Y146.187 E33.39346
G1 X54.368 Y142.100 E33.94421
G1 X49.594 Y137.777 E34.49492
G1 X45.033 Y133.225 E35.04591
G1 X40.696 Y128.457 E35.59699
G1 X36.594 Y123.484 E36.14822
G1 X32.737 Y118.314 E36.69973
G1 X29.132 Y112.963 E37.25143
G1 X27.793 Y110.778 E37.47058
G1 X26.696 Y109.878 E37.59188
G1 X25.803 Y108.789 E37.71229
G1 X25.139 Y107.546 E37.83275
G1 X24.730 Y106.199 E37.95317
G1 X24.593 Y104.797 E38.07357
G1 X24.730 Y103.396 E38.19398
G1 X25.139 Y102.049 E38.31440
G1 X25.803 Y100.806 E38.43486
G1 X26.696 Y99.717 E38.55527
G1 X27.785 Y98.824 E38.67568
G1 X29.028 Y98.160 E38.79614
G1 X30.375 Y97.751 E38.91656
G1 X31.776 Y97.614 E39.03697
G1 X33.155 Y97.749 E39.15536
G1 X34.525 Y98.160 E39.27775 F900.000
G1 X35.768 Y98.824 E39.39821
G1 X36.857 Y99.717 E39.51862
G1 X37.544 Y100.554 E39.61119
G1 X40.617 Y102.565 E39.92526
G1 X45.838 Y106.354 E40.47686
G1 X50.870 Y110.389 E41.02833
G1 X55.698 Y114.662 E41.57963
G1 X60.311 Y119.163 E42.13067
G1 X64.701 Y123.880 E42.68166
G1 X68.855 Y128.802 E43.23239
G1 X72.765 Y133.920 E43.78307
G1 X75.166 Y137.401 E44.14465
G1 X75.623 Y137.158 F10800.000
G1 X76.850 Y138.938 E44.32948 F900.000
G1 X79.083 Y142.538 E44.69171
G1 X79.680 Y143.265 E44.77212
G1 X80.391 Y144.597 E44.90122
G1 X80.830 Y146.041 E45.03031
G1 X80.977 Y147.544 E45.15937
G1 X80.830 Y149.046 E45.28843
G1 X80.391 Y150.490 E45.41751
G1 X79.680 Y151.822 E45.54662
G1 X78.722 Y152.989 E45.67570
G1 X77.555 Y153.947 E45.80479
G1 X76.223 Y154.658 E45.93390
G1 X74.779 Y155.097 E46.06298
G1 X73.276 Y155.244 E46.19204
G1 X71.774 Y155.097 E46.32110
G1 X70.330 Y154.658 E46.45018
G1 X68.998 Y153.947 E46.57929
G1 X67.831 Y152.989 E46.70837
G1 X67.651 Y152.771 E46.73256
G1 X64.219 Y150.445 E47.08706
G1 X59.030 Y146.592 E47.63967
G1 X54.032 Y142.489 E48.19255
G1 X49.239 Y138.150 E48.74539
G1 X44.661 Y133.580 E49.29852
G1 X40.307 Y128.794 E49.85172
G1 X36.190 Y123.801 E50.40509
G1 X32.317 Y118.612 E50.95873
G1 X28.699 Y113.241 E51.51244
G1 X27.400 Y111.120 E51.72513
G1 X26.331 Y110.243 E51.84334
G1 X25.373 Y109.076 E51.97243
G1 X24.662 Y107.744 E52.10154
G1 X24.223 Y106.300 E52.23062
G1 X24.076 Y104.797 E52.35968
G1 X24.223 Y103.295 E52.48874
G1 X24.662 Y101.851 E52.61782
G1 X25.373 Y100.519 E52.74693
G1 X26.331 Y99.352 E52.87601
G1 X27.498 Y98.394 E53.00510
G1 X28.830 Y97.683 E53.13421
G1 X30.274 Y97.244 E53.26329
G1 X31.777 Y97.097 E53.39235
G1 X33.205 Y97.237 E53.51506
G1 X33.279 Y97.244 E53.52141 F900.000
G1 X34.723 Y97.683 E53.65049
G1 X36.055 Y98.394 E53.77960
G1 X37.222 Y99.352 E53.90869
G1 X37.891 Y100.167 E53.99885
G1 X40.909 Y102.142 E54.30724
G1 X46.150 Y105.945 E54.86096
G1 X51.201 Y109.996 E55.41456
G1 X56.048 Y114.285 E55.96799
G1 X60.679 Y118.803 E56.52116
G1 X65.086 Y123.539 E57.07428
G1 X69.256 Y128.480 E57.62715
G1 X73.181 Y133.618 E58.17996
G1 X75.589 Y137.109 E58.54261
G1 X75.451 Y137.520 F10800.000
G1 X73.997 Y136.483 F10800.000
G1 X40.657 Y103.143 E62.62202 F900.000
G1 X38.443 Y101.665 F10800.000
G1 X75.633 Y138.854 E67.17252 F900.000
G1 X76.969 Y140.926 F10800.000
G1 X58.412 Y122.369 E69.44309 F900.000
G1 X60.465 Y120.007 F10800.000
G1 X58.705 Y118.247 E69.65843 F900.000
G1 X53.088 Y117.045 F10800.000
G1 X34.864 Y98.821 E71.88824 F900.000
G1 X40.858 Y107.023 F10800.000
G1 X31.826 Y97.991 E72.99336 F900.000
G1 X31.128 Y98.028 E73.05388
G1 X38.667 Y105.568 E73.97643
G1 X38.496 Y106.132 E74.02746
G1 X30.458 Y98.094 E75.01102
G1 X29.878 Y98.249 E75.06299
G1 X38.325 Y106.696 E76.09655
G1 X38.153 Y107.261 E76.14758
G1 X29.313 Y98.421 E77.22922
G1 X28.801 Y98.645 E77.27756
G1 X37.926 Y107.770 E78.39408
G1 X37.672 Y108.251 E78.44118
G1 X28.322 Y98.901 E79.58522
G1 X27.857 Y99.172 E79.63177
G1 X37.402 Y108.717 E80.79969
G1 X37.071 Y109.121 E80.84492
G1 X27.453 Y99.503 E82.02173
G1 X27.051 Y99.838 E82.06693
G1 X36.739 Y109.525 E83.25231
G1 X36.358 Y109.880 E83.29735
G1 X26.694 Y100.216 E84.47983
G1 X26.362 Y100.620 E84.52506
G1 X35.954 Y110.212 E85.69865
G1 X35.537 Y110.531 E85.74406
G1 X26.043 Y101.037 E86.90572
G1 X25.787 Y101.517 E86.95277
G1 X35.057 Y110.787 E88.08708
G1 X34.578 Y111.043 E88.13413
G1 X25.531 Y101.996 E89.24109
G1 X25.338 Y102.539 E89.29092
G1 X34.035 Y111.236 E90.35514
G1 X33.471 Y111.408 E90.40617
G1 X25.166 Y103.103 E91.42231
G1 X25.049 Y103.722 E91.47677
G1 X32.907 Y111.579 E92.43822
G1 X32.342 Y111.751 E92.48925
G1 X24.983 Y104.392 E93.38969
G1 X24.999 Y105.143 E93.45470
G1 X33.637 Y113.781 E94.51172
G1 X35.214 Y116.094 F10800.000
G1 X25.079 Y105.959 E95.75193 F900.000
G1 X25.388 Y107.004 E95.84623
G1 X37.340 Y118.956 E97.30866
G1 X34.098 Y119.393 F10800.000
G1 X63.191 Y148.486 E100.86846 F900.000
G1 X64.895 Y145.775 F10800.000
G1 X68.102 Y148.982 E101.26084 F900.000
G1 X68.644 Y150.259 F10800.000
G1 X62.215 Y143.831 E102.04748 F900.000
G1 X60.334 Y146.364 F10800.000
G1 X36.262 Y122.292 E104.99296 F900.000
G1 X39.804 Y122.155 F10800.000
G1 X28.100 Y110.451 E106.42500 F900.000
G1 X28.055 Y110.407 F10800.000
G1 X26.167 Y108.519 E106.65602 F900.000
G1 X29.263 Y112.351 F10800.000
G1 X43.860 Y126.947 E108.44202 F900.000
G1 X39.369 Y126.135 F10800.000
G1 X56.484 Y143.250 E110.53621 F900.000
G1 X58.769 Y141.120 F10800.000
G1 X71.803 Y154.155 E112.13106 F900.000
G1 X72.681 Y154.297 E112.20802
G1 X70.353 Y151.969 E112.49288
G1 X71.634 Y152.514 F10800.000
G1 X73.477 Y154.357 E112.71841 F900.000
G1 X74.147 Y154.291 E112.77667
G1 X72.546 Y152.690 E112.97263
G1 X73.319 Y152.727 E113.03959
G1 X74.798 Y154.206 E113.22060
G1 X75.362 Y154.035 E113.27163
G1 X73.974 Y152.647 E113.44147
G1 X74.573 Y152.510 E113.49463
G1 X75.927 Y153.863 E113.66022
G1 X76.410 Y153.611 E113.70742
G1 X75.139 Y152.340 E113.86300
G1 X75.616 Y152.081 E113.90994
G1 X76.890 Y153.355 E114.06587
G1 X77.330 Y153.059 E114.11174
G1 X76.093 Y151.822 E114.26312
G1 X76.512 Y151.506 E114.30858
G1 X77.734 Y152.728 E114.45809
G1 X78.124 Y152.381 E114.50318
G1 X76.886 Y151.143 E114.65466
G1 X77.259 Y150.781 E114.69968
G1 X78.469 Y151.991 E114.84773
G1 X78.800 Y151.587 E114.89296
G1 X77.559 Y150.345 E115.04492
G1 X77.829 Y149.880 E115.09148
G1 X79.095 Y151.145 E115.24634
G1 X79.351 Y150.666 E115.29339
G1 X78.099 Y149.414 E115.44649
G1 X78.255 Y148.834 E115.49850
G1 X79.601 Y150.180 E115.66320
G1 X79.772 Y149.615 E115.71423
G1 X78.406 Y148.250 E115.88132
G1 X78.470 Y147.578 E115.93970
G1 X79.943 Y149.051 E116.11994
G1 X80.026 Y148.398 E116.17692
G1 X78.456 Y146.828 E116.36903
G1 X78.271 Y145.907 E116.45028
G1 X80.091 Y147.728 E116.67305
G1 X80.028 Y146.928 E116.74244
G1 X77.740 Y144.641 E117.02233
G1 X79.511 Y144.940 F10800.000
G1 X66.931 Y132.359 E118.56165 F900.000
G1 X69.917 Y130.932 F10800.000
G1 X46.244 Y107.258 E121.45831 F900.000
G1 X43.558 Y108.987 F10800.000
G1 X32.642 Y98.071 E122.79401 F900.000
G1 X33.603 Y98.296 E122.87944
G1 X47.301 Y111.994 E124.55553
G1 X49.961 Y110.239 F10800.000
G1 X66.825 Y127.104 E126.61903 F900.000
G1 X64.022 Y128.715 F10800.000
G1 X78.171 Y142.864 E128.35021 F900.000
G1 X75.994 Y142.894 F10800.000
G1 X70.845 Y137.745 E128.98024 F900.000
G1 X72.422 Y140.058 F10800.000
G1 X74.725 Y142.361 E129.26200 F900.000
G1 X73.819 Y142.191 E129.34171
G1 X72.333 Y140.705 E129.52352
G1 X71.769 Y140.877 E129.57455
G1 X73.082 Y142.189 E129.73516
G1 X72.406 Y142.249 E129.79388
G1 X71.205 Y141.048 E129.94083
G1 X70.640 Y141.219 E129.99186
G1 X71.809 Y142.388 E130.13483
G1 X71.275 Y142.590 E130.18422
G1 X70.154 Y141.469 E130.32130
G1 X69.675 Y141.725 E130.36835
G1 X70.741 Y142.791 E130.49877
G1 X70.313 Y143.100 E130.54436
G1 X69.233 Y142.020 E130.67655
G1 X68.829 Y142.351 E130.72178
G1 X69.889 Y143.412 E130.85153
G1 X69.482 Y143.740 E130.89680
G1 X68.425 Y142.683 E131.02620
G1 X68.092 Y143.086 E131.07143
G1 X69.159 Y144.153 E131.20201
G1 X68.837 Y144.566 E131.24736
G1 X67.761 Y143.490 E131.37900
G1 X67.465 Y143.930 E131.42486
G1 X68.552 Y145.017 E131.55790
G1 X68.338 Y145.539 E131.60668
G1 X67.209 Y144.410 E131.74484
G1 X66.957 Y144.893 E131.79203
G1 X68.123 Y146.060 E131.93479
G1 X68.010 Y146.682 E131.98950
