; generated by Slic3r 1.2.9 on 2017-01-15 at 21:05:36

; external perimeters extrusion width = 0.40mm
; perimeters extrusion width = 0.56mm
; infill extrusion width = 0.31mm
; solid infill extrusion width = 0.56mm
; top infill extrusion width = 0.22mm

M107
M106 S256; Turn on fan to 100% power
M104 S141; turn on extruder temperature at S value
M140 S45; turn on bed temperature at S value
G28; home all axes
M84; disable motors
G1 Z15 F15000; have Z move to 20mm at 15000 mm/min
M190 S50; turn on bed temperature at S value and wait
M140 S55; turn on bed temperature at S value (printing temperature)
M109 S196; turn on extruder temperature at S value and wait (printing temperature)
M104 S195; turn on extruder temperature at S value
G1 Z0 F12000; move Z back to home
G21 ; set units to millimeters
G90 ; use absolute coordinates
M82 ; use absolute distances for extrusion
G92 E0
;Layer change
G1 E-6.00000 F1800.00000
G92 E0
G1 Z0.400 F10800.000
G1 X68.193 Y67.452 F10800.000
G1 E6.00000 F1800.00000
G1 X72.945 Y62.910 E6.19126 F900.000
G1 X73.708 Y62.284 E6.21998
G1 X79.085 Y58.517 E6.41100
G1 X79.911 Y58.025 E6.43899
G1 X85.778 Y55.094 E6.62981
G1 X86.999 Y54.630 E6.66780
G1 X87.160 Y54.587 E6.67265
G1 X89.228 Y54.375 E6.73314
G1 X89.408 Y54.385 E6.73837
G1 X90.948 Y54.661 E6.78391 F900.000
G1 X91.174 Y54.730 E6.79077
G1 X92.096 Y55.092 E6.81960
G1 X92.962 Y55.551 E6.84812
G1 X93.260 Y55.736 E6.85832
G1 X93.668 Y56.010 E6.87261
G1 X94.274 Y56.466 E6.89468
G1 X95.124 Y57.190 E6.92716
G1 X96.556 Y58.537 E6.98438
G1 X96.849 Y58.833 E6.99648
G1 X97.307 Y59.348 E7.01653
G1 X122.925 Y92.241 E8.22960
G1 X123.198 Y92.618 E8.24314
G1 X123.849 Y93.793 E8.28221
G1 X126.503 Y100.005 E8.47876
G1 X126.761 Y100.724 E8.50099
G1 X127.038 Y102.109 E8.54208
G1 X127.641 Y108.803 E8.73763
G1 X127.669 Y109.480 E8.75735
G1 X127.528 Y110.872 E8.79808
G1 X126.041 Y117.841 E9.00538
G1 X125.476 Y119.285 E9.05050
G1 X122.200 Y125.386 E9.25201
G1 X121.226 Y126.704 E9.29968
G1 X116.540 Y131.607 E9.49701
G1 X115.234 Y132.660 E9.54581
G1 X109.469 Y136.193 E9.74254
G1 X108.005 Y136.858 E9.78934
G1 X101.569 Y138.865 E9.98549
G1 X100.052 Y139.146 E10.03038
G1 X93.342 Y139.582 E10.22602
G1 X91.860 Y139.509 E10.26919
G1 X85.243 Y138.418 E10.46432
G1 X83.868 Y138.033 E10.50585
G1 X77.662 Y135.533 E10.70051
G1 X76.523 Y134.937 E10.73794
G1 X70.915 Y131.144 E10.93492
G1 X70.068 Y130.461 E10.96657
G1 X65.248 Y125.514 E11.16755
G1 X64.562 Y124.683 E11.19888
G1 X60.835 Y118.921 E11.39855
G1 X60.475 Y118.287 E11.41976
G1 X60.194 Y117.675 E11.43936
G1 X57.783 Y111.658 E11.62796
G1 X57.555 Y110.994 E11.64837
G1 X57.393 Y110.350 E11.66771
G1 X56.137 Y104.004 E11.85593
G1 X56.059 Y103.526 E11.87002
G1 X55.991 Y102.682 E11.89465
G1 X55.892 Y95.924 E12.09129
G1 X55.975 Y94.933 E12.12024
G1 X57.023 Y88.409 E12.31249
G1 X57.288 Y87.342 E12.34447
G1 X59.415 Y81.096 E12.53645
G1 X59.842 Y80.116 E12.56756
G1 X62.958 Y74.310 E12.75928
G1 X63.522 Y73.435 E12.78957
G1 X67.518 Y68.206 E12.98105
G1 X68.152 Y67.497 E13.00874
G1 E7.00874 F1800.00000
G92 E0
G1 X101.375 Y112.495 F10800.000
G1 E6.00000 F1800.00000
G1 X101.728 Y113.223 E6.02355 F900.000
G1 X102.374 Y114.871 E6.07506
G1 X102.800 Y116.515 E6.12445
G1 X103.003 Y118.098 E6.17091
G1 X102.990 Y119.626 E6.21536
G1 X102.766 Y121.054 E6.25741
G1 X102.243 Y122.840 E6.31155
G1 X101.592 Y124.524 E6.36409
G1 X100.891 Y125.793 E6.40627
G1 X99.810 Y127.302 E6.46028
G1 X97.400 Y127.731 E6.53151
G1 X95.055 Y127.910 E6.59994
G1 X92.678 Y127.858 E6.66912
G1 X91.031 Y127.687 E6.71730
G1 X90.930 Y127.181 E6.73231
G1 X91.408 Y126.922 E6.74815
G1 X92.766 Y126.051 E6.79509
G1 X94.061 Y124.977 E6.84401
G1 X95.383 Y123.661 E6.89831
G1 X96.244 Y122.568 E6.93878
G1 X96.977 Y121.287 E6.98173
G1 X97.483 Y119.983 E7.02243
G1 X97.843 Y118.512 E7.06648
G1 X98.082 Y116.815 E7.11635
G1 X98.133 Y115.264 E7.16150
G1 X97.964 Y113.416 E7.21550
G1 X98.496 Y113.355 E7.23107
G1 X99.805 Y113.086 E7.26996
G1 X101.319 Y112.516 E7.31702
G1 X101.740 Y112.332 F10800.000
G1 X100.251 Y112.369 F10800.000
G1 X99.662 Y112.590 E7.33533 F900.000
G1 X98.414 Y112.847 E7.37238
G1 X97.733 Y112.925 E7.39233
G1 X97.686 Y112.634 E7.40090
G1 X99.456 Y112.265 E7.45350
G1 X100.311 Y111.976 E7.47977
G1 X100.260 Y112.309 E7.48957
G1 X101.722 Y112.265 F10800.000
G1 X102.063 Y112.061 E7.50113 F900.000
G1 X103.099 Y111.264 E7.53916
G1 X104.195 Y110.094 E7.58580
G1 X104.845 Y110.688 E7.61142
G1 X105.366 Y111.319 E7.63522
G1 X106.164 Y112.469 E7.67593
G1 X106.975 Y113.731 E7.71959
G1 X107.593 Y115.065 E7.76237
G1 X108.004 Y116.106 E7.79492
G1 X108.203 Y117.118 E7.82494
G1 X108.328 Y118.328 E7.86034
G1 X108.331 Y120.293 E7.91751
G1 X108.244 Y121.862 E7.96323
G1 X107.906 Y123.574 E8.01401
G1 X105.922 Y124.870 E8.08292
G1 X103.906 Y125.907 E8.14892
G1 X101.887 Y126.703 E8.21206
G1 X101.168 Y126.934 E8.23401
G1 X100.879 Y126.541 E8.24821
G1 X101.811 Y124.993 E8.30079
G1 X102.380 Y123.665 E8.34281
G1 X103.022 Y121.665 E8.40393
G1 X103.265 Y120.614 E8.43533
G1 X103.416 Y119.186 E8.47711
G1 X103.371 Y117.677 E8.52103
G1 X103.119 Y116.089 E8.56782
G1 X102.591 Y114.272 E8.62286
G1 X101.746 Y112.320 E8.68477
G1 X101.534 Y111.915 F10800.000
G1 X100.953 Y111.194 F10800.000
G1 X101.195 Y109.635 E8.73065 F900.000
G1 X101.207 Y108.713 E8.75750
G1 X101.783 Y108.313 E8.77791
G1 X102.582 Y107.627 E8.80855
G1 X102.734 Y108.859 E8.84466
G1 X102.711 Y109.671 E8.86830
G1 X102.117 Y110.264 E8.89270
G1 X101.000 Y111.156 E8.93430
G1 X100.556 Y111.242 F10800.000
G1 X100.250 Y111.454 F10800.000
G1 X99.321 Y111.768 E8.96284 F900.000
G1 X97.743 Y112.097 E9.00974
G1 X98.686 Y110.796 E9.05648
G1 X98.988 Y110.203 E9.07583
G1 X99.273 Y109.299 E9.10343
G1 X99.947 Y109.183 E9.12333
G1 X100.850 Y108.928 E9.15062
G1 X100.748 Y110.031 E9.18284
G1 X100.567 Y110.726 E9.20373
G1 X100.274 Y111.399 E9.22511
G1 X100.282 Y111.853 F10800.000
G1 E3.22511 F1800.00000
G92 E0
G1 X103.087 Y108.296 F10800.000
G1 E6.00000 F1800.00000
G1 X102.968 Y107.799 E6.01488 F900.000
G1 X102.834 Y107.427 E6.02637
G1 X102.809 Y107.433 E6.02714
G1 X102.830 Y107.415 E6.02795
G1 X102.779 Y107.274 E6.03232
G1 X103.092 Y106.721 E6.05081
G1 X103.516 Y105.776 E6.08093
G1 X104.104 Y106.792 E6.11508
G1 X103.894 Y107.591 E6.13912
G1 X103.597 Y108.334 E6.16238
G1 X103.147 Y108.301 E6.17552
G1 X102.690 Y108.349 F10800.000
G1 X104.416 Y109.756 F10800.000
G1 X105.048 Y108.502 E6.21638 F900.000
G1 X105.519 Y107.029 E6.26137
G1 X107.249 Y107.992 E6.31899
G1 X109.133 Y109.105 E6.38266
G1 X110.413 Y110.066 E6.42923
G1 X111.297 Y110.960 E6.46579
G1 X111.982 Y111.928 E6.50032
G1 X112.622 Y113.183 E6.54131
G1 X113.288 Y115.006 E6.59777
G1 X113.729 Y116.910 E6.65462
G1 X112.525 Y118.843 E6.72088
G1 X111.180 Y120.558 E6.78430
G1 X109.649 Y122.127 E6.84808
G1 X108.479 Y123.165 E6.89358
G1 X108.674 Y121.564 E6.94049
G1 X108.735 Y119.741 E6.99357
G1 X108.709 Y117.984 E7.04470
G1 X108.537 Y116.683 E7.08287
G1 X108.442 Y116.197 E7.09728
G1 X108.163 Y115.385 E7.12227
G1 X107.712 Y114.334 E7.15554
G1 X106.963 Y112.933 E7.20174
G1 X105.893 Y111.370 E7.25688
G1 X105.196 Y110.480 E7.28976
G1 X104.460 Y109.796 E7.31898
G1 X104.077 Y109.543 F10800.000
G1 X105.556 Y106.596 F10800.000
G1 X105.568 Y105.401 E7.35375 F900.000
G1 X105.410 Y104.094 E7.39204
G1 X107.865 Y104.489 E7.46439
G1 X109.835 Y104.893 E7.52290
G1 X111.231 Y105.363 E7.56576
G1 X112.593 Y106.093 E7.61073
G1 X113.843 Y107.051 E7.65655
G1 X114.871 Y108.117 E7.69963
G1 X115.940 Y109.607 E7.75300
G1 X115.616 Y111.773 E7.81672
G1 X115.074 Y113.788 E7.87743
G1 X114.367 Y115.617 E7.93449
G1 X113.869 Y115.599 E7.94901
G1 X113.418 Y114.115 E7.99413
G1 X112.731 Y112.472 E8.04596
G1 X112.084 Y111.346 E8.08375
G1 X111.250 Y110.317 E8.12226
G1 X110.264 Y109.424 E8.16097
G1 X108.903 Y108.485 E8.20909
G1 X105.608 Y106.625 E8.31917
G1 X105.162 Y106.525 F10800.000
G1 X103.935 Y108.874 F10800.000
G1 X104.384 Y107.753 E8.35430 F900.000
G1 X104.655 Y106.718 E8.38543
G1 X103.584 Y104.868 E8.44764
G1 X103.606 Y104.620 E8.45487
G1 X103.534 Y103.805 E8.47867
G1 X103.323 Y103.015 E8.50246
G1 X102.977 Y102.274 E8.52626
G1 X102.529 Y101.634 E8.54898
G1 X101.932 Y101.027 E8.57374
G1 X101.424 Y100.671 E8.59180
G1 X101.557 Y100.429 E8.59984
G1 X102.353 Y100.758 E8.62490
G1 X103.196 Y101.439 E8.65644
G1 X103.949 Y102.207 E8.68772
G1 X104.460 Y103.125 E8.71830
G1 X104.899 Y104.152 E8.75079
G1 X105.053 Y105.429 E8.78823
G1 X105.039 Y106.841 E8.82930
G1 X104.571 Y108.307 E8.87407
G1 X103.878 Y109.680 E8.91882
G1 X102.752 Y110.882 E8.96674
G1 X101.774 Y111.635 E9.00267
G1 X101.423 Y111.844 E9.01454
G1 X101.259 Y111.607 E9.02292
G1 X102.461 Y110.648 E9.06765
G1 X103.219 Y109.890 E9.09883
G1 X103.250 Y108.824 E9.12988
G1 X103.875 Y108.869 E9.14811
G1 X102.113 Y107.304 F10800.000
G1 X101.598 Y107.819 E9.16929 F900.000
G1 X101.002 Y108.237 E9.19047
G1 X100.342 Y108.544 E9.21165
G1 X99.639 Y108.733 E9.23283
G1 X98.914 Y108.796 E9.25401
G1 X98.188 Y108.733 E9.27519
G1 X97.485 Y108.544 E9.29637
G1 X96.824 Y108.236 E9.31759
G1 X96.204 Y107.794 E9.33974
G1 X95.714 Y107.304 E9.35990
G1 X95.297 Y106.708 E9.38108
G1 X94.989 Y106.048 E9.40226
G1 X94.801 Y105.345 E9.42344
G1 X94.737 Y104.620 E9.44462
G1 X94.801 Y103.895 E9.46580
G1 X94.989 Y103.192 E9.48698
G1 X95.297 Y102.532 E9.50816
G1 X95.714 Y101.936 E9.52934
G1 X96.229 Y101.421 E9.55052
G1 X96.825 Y101.003 E9.57170
G1 X97.485 Y100.696 E9.59288
G1 X98.188 Y100.507 E9.61406
G1 X98.904 Y100.445 E9.63498 F900.000
G1 X99.638 Y100.507 E9.65641
G1 X100.342 Y100.696 E9.67760
G1 X101.002 Y101.003 E9.69878
G1 X101.599 Y101.422 E9.71999
G1 X102.133 Y101.964 E9.74214
G1 X102.530 Y102.532 E9.76230
G1 X102.838 Y103.192 E9.78348
G1 X103.026 Y103.895 E9.80466
G1 X103.090 Y104.620 E9.82584
G1 X103.026 Y105.346 E9.84706
G1 X102.823 Y106.080 E9.86921
G1 X102.530 Y106.708 E9.88937
G1 X102.147 Y107.255 E9.90880
G1 X102.238 Y107.684 F10800.000
G1 E3.90880 F1800.00000
G92 E0
G1 X96.665 Y108.766 F10800.000
G1 E6.00000 F1800.00000
G1 X95.896 Y109.517 E6.03129 F900.000
G1 X95.318 Y109.933 E6.05201
G1 X94.715 Y110.231 E6.07157
G1 X93.900 Y110.479 E6.09637
G1 X92.824 Y110.616 E6.12792
G1 X92.325 Y110.249 E6.14596
G1 X91.242 Y109.251 E6.18881
G1 X90.627 Y108.515 E6.21671
G1 X90.884 Y108.088 E6.23122
G1 X92.059 Y108.337 E6.26617
G1 X92.890 Y108.376 E6.29037
G1 X93.575 Y108.299 E6.31043
G1 X94.211 Y108.116 E6.32967
G1 X95.295 Y107.615 E6.36440
G1 X95.887 Y108.187 E6.38836
G1 X96.617 Y108.730 E6.41483
G1 X96.960 Y109.037 F10800.000
G1 X98.864 Y109.338 F10800.000
G1 X98.655 Y109.963 E6.43398 F900.000
G1 X98.376 Y110.549 E6.45286
G1 X98.021 Y111.059 E6.47095
G1 X97.533 Y111.563 E6.49136
G1 X96.919 Y112.023 E6.51367
G1 X95.489 Y111.798 E6.55578
G1 X94.145 Y111.347 E6.59703
G1 X94.156 Y110.850 E6.61150
G1 X95.141 Y110.480 E6.64211
G1 X95.538 Y110.265 E6.65527
G1 X96.200 Y109.775 E6.67921
G1 X97.036 Y108.925 E6.71392
G1 X97.852 Y109.176 E6.73875
G1 X98.805 Y109.329 E6.76683
G1 X99.250 Y109.445 F10800.000
G1 X97.546 Y113.448 F10800.000
G1 X97.673 Y114.333 E6.79284 F900.000
G1 X97.737 Y115.826 E6.83632
G1 X97.578 Y117.680 E6.89046
G1 X97.214 Y119.480 E6.94389
G1 X96.719 Y120.891 E6.98739
G1 X96.004 Y122.209 E7.03103
G1 X95.144 Y123.331 E7.07217
G1 X93.933 Y124.552 E7.12221
G1 X92.674 Y125.621 E7.17024
G1 X91.306 Y126.521 E7.21789
G1 X89.510 Y127.428 E7.27643
G1 X87.052 Y126.791 E7.35031
G1 X84.750 Y125.952 E7.42160
G1 X82.514 Y124.889 E7.49364
G1 X80.482 Y123.683 E7.56238
G1 X79.902 Y123.293 E7.58273
G1 X80.041 Y122.804 E7.59752
G1 X82.048 Y122.729 E7.65595
G1 X83.774 Y122.472 E7.70672
G1 X85.435 Y122.048 E7.75662
G1 X86.938 Y121.484 E7.80332
G1 X88.359 Y120.732 E7.85011
G1 X89.699 Y119.762 E7.89823
G1 X90.815 Y118.714 E7.94277
G1 X91.787 Y117.516 E7.98764
G1 X92.603 Y116.128 E8.03452
G1 X93.202 Y114.646 E8.08101
G1 X93.714 Y112.694 E8.13973
G1 X94.426 Y112.947 E8.16172
G1 X95.856 Y113.300 E8.20455
G1 X97.486 Y113.443 E8.25218
G1 X97.945 Y113.422 F10800.000
G1 X93.323 Y112.526 F10800.000
G1 X92.979 Y114.027 E8.29697 F900.000
G1 X92.458 Y115.497 E8.34236
G1 X91.742 Y116.863 E8.38722
G1 X90.878 Y118.043 E8.42977
G1 X89.854 Y119.099 E8.47256
G1 X88.569 Y120.117 E8.52025
G1 X87.115 Y120.965 E8.56923
G1 X85.658 Y121.556 E8.61498
G1 X83.732 Y122.073 E8.67301
G1 X82.002 Y122.333 E8.72390
G1 X80.237 Y122.399 E8.77531
G1 X78.676 Y122.395 E8.82072
G1 X76.669 Y120.664 E8.89783
G1 X74.891 Y118.821 E8.97234
G1 X73.278 Y116.811 E9.04732
G1 X71.837 Y114.639 E9.12316
G1 X71.373 Y113.842 E9.15000
G1 X71.721 Y113.462 E9.16498
G1 X73.303 Y114.206 E9.21585
G1 X74.984 Y114.836 E9.26806
G1 X76.534 Y115.203 E9.31442
G1 X78.462 Y115.472 E9.37107
G1 X80.389 Y115.528 E9.42715
G1 X82.146 Y115.372 E9.47845
G1 X83.541 Y115.046 E9.52015
G1 X84.765 Y114.550 E9.55858
G1 X86.300 Y113.669 E9.61006
G1 X87.383 Y112.848 E9.64961
G1 X88.354 Y111.881 E9.68949
G1 X89.209 Y110.799 E9.72960
G1 X89.806 Y109.769 E9.76425
G1 X90.677 Y110.672 E9.80074
G1 X91.837 Y111.631 E9.84453
G1 X93.271 Y112.495 E9.89326
G1 X93.701 Y112.657 F10800.000
G1 E3.89326 F1800.00000
G92 E0
G1 X95.034 Y107.292 F10800.000
G1 E6.00000 F1800.00000
G1 X94.375 Y107.627 E6.02148 F900.000
G1 X93.759 Y107.848 E6.04054
G1 X93.145 Y107.958 E6.05869
G1 X92.470 Y107.975 E6.07832
G1 X91.630 Y107.862 E6.10300
G1 X90.694 Y107.585 E6.13138
G1 X89.774 Y107.137 E6.16117
G1 X89.167 Y105.608 E6.20905
G1 X88.810 Y104.018 E6.25645
G1 X89.246 Y103.758 E6.27122
G1 X89.592 Y104.060 E6.28458
G1 X90.587 Y104.801 E6.32068
G1 X90.851 Y104.955 E6.32957
G1 X91.642 Y105.309 E6.35476
G1 X92.327 Y105.488 E6.37539
G1 X93.132 Y105.569 E6.39893
G1 X94.308 Y105.559 E6.43312
G1 X94.594 Y106.414 E6.45936
G1 X95.007 Y107.239 E6.48619
G1 X95.214 Y107.649 F10800.000
G1 X94.239 Y105.159 F10800.000
G1 X93.390 Y105.175 E6.51088 F900.000
G1 X92.499 Y105.114 E6.53687
G1 X91.801 Y104.944 E6.55778
G1 X91.174 Y104.677 E6.57760
G1 X90.501 Y104.260 E6.60064
G1 X89.440 Y103.390 E6.64056
G1 X88.711 Y102.573 E6.67241
G1 X88.844 Y100.972 E6.71916
G1 X89.344 Y98.740 E6.78573
G1 X90.137 Y100.229 E6.83481
G1 X90.804 Y101.135 E6.86754
G1 X91.137 Y101.502 E6.88197
G1 X92.171 Y102.423 E6.92224
G1 X93.022 Y102.965 E6.95162
G1 X94.335 Y103.573 E6.99370
G1 X94.245 Y104.326 E7.01578
G1 X94.239 Y105.099 E7.03829
G1 X94.243 Y105.559 F10800.000
G1 E1.03829 F1800.00000
G92 E0
G1 X89.998 Y108.563 F10800.000
G1 E6.00000 F1800.00000
G1 X90.869 Y109.606 E6.03953 F900.000
G1 X91.997 Y110.647 E6.08419
G1 X92.685 Y111.152 E6.10904
G1 X93.638 Y111.031 E6.13697
G1 X93.622 Y111.715 E6.15686
G1 X95.367 Y112.299 E6.21039
G1 X96.798 Y112.524 E6.25255
G1 X96.565 Y112.846 E6.26411
G1 X95.940 Y112.791 E6.28235
G1 X94.574 Y112.454 E6.32329
G1 X93.658 Y112.128 E6.35158
G1 X92.135 Y111.210 E6.40332
G1 X91.027 Y110.295 E6.44514
G1 X90.054 Y109.285 E6.48593
G1 X89.036 Y107.620 E6.54272
G1 X88.444 Y106.240 E6.58642
G1 X87.947 Y104.572 E6.63704
G1 X87.969 Y104.548 E6.63800
G1 X87.836 Y102.582 E6.69533
G1 X87.945 Y101.004 E6.74137
G1 X88.232 Y99.310 E6.79135
G1 X88.303 Y99.256 E6.79394
G1 X88.549 Y98.637 E6.81331
G1 X88.821 Y98.721 E6.82160
G1 X88.334 Y100.894 E6.88640
G1 X88.181 Y102.751 E6.94060
G1 X88.789 Y103.432 E6.96717
G1 X88.226 Y103.767 E6.98620
G1 X88.674 Y105.760 E7.04562
G1 X89.369 Y107.513 E7.10049
G1 X90.345 Y107.987 E7.13206
G1 X90.029 Y108.512 E7.14989
G1 E1.14989 F1800.00000
G92 E0
G1 X94.437 Y103.175 F10800.000
G1 E6.00000 F1800.00000
G1 X93.746 Y102.870 E6.02198 F900.000
G1 X92.747 Y102.343 E6.05485
G1 X91.952 Y101.728 E6.08409
G1 X90.995 Y100.747 E6.12396
G1 X90.511 Y100.076 E6.14803
G1 X90.037 Y99.171 E6.17776
G1 X89.686 Y98.119 E6.21002
