; generated by Slic3r 1.2.9 on 2017-01-16 at 08:31:16

; external perimeters extrusion width = 0.40mm
; perimeters extrusion width = 0.56mm
; infill extrusion width = 0.31mm
; solid infill extrusion width = 0.56mm
; top infill extrusion width = 0.22mm

M107
M106 S256; Turn on fan to 100% power
M104 S141; turn on extruder temperature at S value
M140 S45; turn on bed temperature at S value
G28; home all axes
M84; disable motors
G1 Z15 F15000; have Z move to 20mm at 15000 mm/min
M190 S50; turn on bed temperature at S value and wait
M140 S55; turn on bed temperature at S value (printing temperature)
M109 S199; turn on extruder temperature at S value and wait (printing temperature)
M104 S195; turn on extruder temperature at S value
G1 Z0 F12000; move Z back to home
G21 ; set units to millimeters
G90 ; use absolute coordinates
M82 ; use absolute distances for extrusion
G92 E0
;Layer change
G1 E-6.00000 F1800.00000
G92 E0
G1 Z0.400 F10800.000
G1 X57.133 Y33.371 F10800.000
G1 E6.00000 F1800.00000
G1 X58.052 Y31.954 E6.14442 F900.000
G1 X58.905 Y30.916 E6.25930
G1 X60.117 Y29.740 E6.40371
G1 X61.179 Y28.917 E6.51860
G1 X62.622 Y28.040 E6.66302
G1 X63.841 Y27.474 E6.77790
G1 X65.443 Y26.940 E6.92231
G1 X66.675 Y26.678 E7.03002
G1 X68.438 Y26.496 E7.18157
G1 X69.782 Y26.515 E7.29646 F900.000
G1 X71.457 Y26.729 E7.44087
G1 X72.763 Y27.047 E7.55575
G1 X74.288 Y27.598 E7.69443
G1 X75.399 Y28.141 E7.80019
G1 X76.119 Y28.543 E7.87066
G1 X81.039 Y31.771 E8.37383
G1 X81.796 Y32.287 E8.45220
G1 X86.885 Y36.000 E8.99078
G1 X92.077 Y40.178 E9.56059
G1 X97.327 Y44.851 E10.16164
G1 X102.079 Y49.524 E10.73145
G1 X106.356 Y54.148 E11.27002
G1 X110.646 Y59.247 E11.83984
G1 X114.685 Y64.548 E12.40965
G1 X118.612 Y70.268 E13.00290
G1 X122.039 Y75.823 E13.56100
G1 X122.419 Y76.554 E13.63146
G1 X122.929 Y77.681 E13.73722
G1 X123.436 Y79.222 E13.87591
G1 X123.716 Y80.536 E13.99079
G1 X123.880 Y82.217 E14.13520
G1 X123.861 Y83.560 E14.25010
G1 X123.647 Y85.236 E14.39451
G1 X123.349 Y86.460 E14.50222
G1 X122.748 Y88.127 E14.65376
G1 X122.147 Y89.329 E14.76865
G1 X121.228 Y90.746 E14.91306
G1 X120.375 Y91.784 E15.02794
G1 X119.163 Y92.960 E15.17236
G1 X118.101 Y93.783 E15.28725
G1 X116.658 Y94.660 E15.43166
G1 X115.439 Y95.226 E15.54654
G1 X113.837 Y95.760 E15.69096
G1 X112.522 Y96.040 E15.80584
G1 X110.842 Y96.204 E15.95026
G1 X109.498 Y96.185 E16.06514
G1 X107.823 Y95.971 E16.20955
G1 X106.517 Y95.653 E16.32443
G1 X104.992 Y95.102 E16.46310
G1 X103.881 Y94.559 E16.56888
G1 X103.161 Y94.157 E16.63935
G1 X102.851 Y93.961 E16.67072
G1 X97.708 Y90.570 E17.19746
G1 X92.106 Y86.477 E17.79070
G1 X86.925 Y82.286 E18.36051
G1 X82.220 Y78.098 E18.89909
G1 X77.456 Y73.438 E19.46890
G1 X72.682 Y68.278 E20.06995
G1 X68.634 Y63.453 E20.60852
G1 X64.595 Y58.152 E21.17834
G1 X60.668 Y52.432 E21.77158
G1 X57.429 Y47.192 E22.29831
G1 X57.241 Y46.877 E22.32969
G1 X56.861 Y46.146 E22.40015
G1 X56.351 Y45.019 E22.50591
G1 X55.844 Y43.478 E22.64460
G1 X55.564 Y42.164 E22.75949
G1 X55.400 Y40.483 E22.90390
G1 X55.419 Y39.140 E23.01878
G1 X55.633 Y37.464 E23.16320
G1 X55.951 Y36.159 E23.27809
G1 X56.532 Y34.573 E23.42249
G1 X57.106 Y33.425 E23.53224
G1 X57.593 Y33.601 F10800.000
G1 X58.449 Y32.281 E23.66682 F900.000
G1 X59.302 Y31.243 E23.78170
G1 X60.431 Y30.146 E23.91627
G1 X61.494 Y29.324 E24.03115
G1 X62.839 Y28.506 E24.16573
G1 X64.058 Y27.941 E24.28061
G1 X65.550 Y27.443 E24.41518
G1 X66.783 Y27.180 E24.52289
G1 X68.431 Y27.010 E24.66459
G1 X69.774 Y27.029 E24.77948 F900.000
G1 X71.336 Y27.228 E24.91405
G1 X72.641 Y27.546 E25.02893
G1 X74.062 Y28.060 E25.15815
G1 X75.174 Y28.603 E25.26391
G1 X75.844 Y28.977 E25.32958
G1 X80.757 Y32.200 E25.83195
G1 X81.493 Y32.703 E25.90819
G1 X86.581 Y36.415 E26.44677
G1 X91.754 Y40.578 E27.01445
G1 X96.719 Y44.986 E27.58213
G1 X101.701 Y49.873 E28.17892
G1 X105.979 Y54.497 E28.71750
G1 X110.253 Y59.578 E29.28518
G1 X114.275 Y64.859 E29.85286
G1 X118.178 Y70.543 E30.44238
G1 X121.596 Y76.085 E30.99915
G1 X121.951 Y76.766 E31.06481
G1 X122.461 Y77.893 E31.17057
G1 X122.933 Y79.329 E31.29981
G1 X123.213 Y80.643 E31.41469
G1 X123.366 Y82.209 E31.54926
G1 X123.346 Y83.553 E31.66415
G1 X123.147 Y85.114 E31.79871
G1 X122.849 Y86.338 E31.90641
G1 X122.288 Y87.897 E32.04812
G1 X121.687 Y89.099 E32.16301
G1 X120.831 Y90.419 E32.29758
G1 X119.978 Y91.457 E32.41246
G1 X118.849 Y92.554 E32.54703
G1 X117.786 Y93.376 E32.66192
G1 X116.441 Y94.194 E32.79648
G1 X115.223 Y94.759 E32.91137
G1 X113.729 Y95.257 E33.04594
G1 X112.415 Y95.537 E33.16083
G1 X110.849 Y95.690 E33.29540
G1 X109.506 Y95.671 E33.41028
G1 X107.944 Y95.472 E33.54485
G1 X106.639 Y95.154 E33.65973
G1 X105.218 Y94.640 E33.78895
G1 X104.106 Y94.097 E33.89472
G1 X103.436 Y93.723 E33.96038
G1 X103.131 Y93.530 E33.99123
G1 X97.996 Y90.144 E34.51716
G1 X92.428 Y86.077 E35.10668
G1 X87.266 Y81.902 E35.67436
G1 X82.561 Y77.714 E36.21294
G1 X77.768 Y73.023 E36.78640
G1 X73.076 Y67.948 E37.37742
G1 X69.027 Y63.122 E37.91599
G1 X65.005 Y57.841 E38.48367
G1 X61.102 Y52.157 E39.07319
G1 X57.868 Y46.925 E39.59912
G1 X57.684 Y46.615 E39.62997
G1 X57.329 Y45.934 E39.69563
G1 X56.819 Y44.807 E39.80139
G1 X56.347 Y43.371 E39.93062
G1 X56.067 Y42.057 E40.04551
G1 X55.914 Y40.491 E40.18008
G1 X55.934 Y39.147 E40.29496
G1 X56.133 Y37.586 E40.42953
G1 X56.451 Y36.281 E40.54442
G1 X56.992 Y34.803 E40.67898
G1 X57.566 Y33.655 E40.78873
G1 X58.053 Y33.831 F10800.000
G1 X58.847 Y32.607 E40.91346 F900.000
G1 X59.700 Y31.569 E41.02834
G1 X60.746 Y30.553 E41.15307
G1 X61.809 Y29.731 E41.26795
G1 X63.055 Y28.973 E41.39268
G1 X64.274 Y28.407 E41.50757
G1 X65.658 Y27.946 E41.63229
G1 X66.890 Y27.683 E41.74000
G1 X68.423 Y27.524 E41.87186
G1 X69.767 Y27.543 E41.98674 F900.000
G1 X71.214 Y27.728 E42.11147
G1 X72.519 Y28.046 E42.22635
G1 X73.837 Y28.522 E42.34612
G1 X74.948 Y29.065 E42.45188
G1 X75.570 Y29.412 E42.51274
G1 X80.474 Y32.630 E43.01431
G1 X81.190 Y33.118 E43.08843
G1 X86.278 Y36.831 E43.62700
G1 X91.431 Y40.978 E44.19255
G1 X96.377 Y45.370 E44.75811
G1 X101.324 Y50.223 E45.35064
G1 X105.601 Y54.846 E45.88921
G1 X109.859 Y59.908 E46.45477
G1 X113.866 Y65.170 E47.02032
G1 X117.744 Y70.818 E47.60611
G1 X121.154 Y76.347 E48.16155
G1 X121.482 Y76.978 E48.22241
G1 X121.993 Y78.105 E48.32817
G1 X122.430 Y79.436 E48.44795
G1 X122.710 Y80.750 E48.56283
G1 X122.852 Y82.202 E48.68755
G1 X122.832 Y83.545 E48.80245
G1 X122.648 Y84.992 E48.92717
G1 X122.350 Y86.216 E49.03487
G1 X121.828 Y87.667 E49.16673
G1 X121.227 Y88.869 E49.28162
G1 X120.433 Y90.093 E49.40634
G1 X119.580 Y91.131 E49.52122
G1 X118.534 Y92.147 E49.64595
G1 X117.471 Y92.970 E49.76084
G1 X116.225 Y93.727 E49.88556
G1 X115.006 Y94.293 E50.00044
G1 X113.622 Y94.754 E50.12517
G1 X112.308 Y95.034 E50.24006
G1 X110.857 Y95.176 E50.36478
G1 X109.513 Y95.157 E50.47967
G1 X108.066 Y94.972 E50.60439
G1 X106.761 Y94.654 E50.71927
G1 X105.443 Y94.178 E50.83903
G1 X104.332 Y93.635 E50.94481
G1 X103.710 Y93.288 E51.00567
G1 X103.411 Y93.098 E51.03598
G1 X98.283 Y89.718 E51.56111
G1 X92.751 Y85.677 E52.14690
G1 X87.849 Y81.722 E52.68548
G1 X82.903 Y77.330 E53.25103
G1 X78.132 Y72.660 E53.82195
G1 X73.470 Y67.617 E54.40912
G1 X69.421 Y62.792 E54.94770
G1 X65.414 Y57.530 E55.51325
G1 X61.536 Y51.882 E56.09904
G1 X58.307 Y46.658 E56.62417
G1 X58.126 Y46.353 E56.65449
G1 X57.798 Y45.722 E56.71534
G1 X57.287 Y44.595 E56.82110
G1 X56.850 Y43.264 E56.94088
G1 X56.570 Y41.950 E57.05577
G1 X56.428 Y40.498 E57.18049
G1 X56.448 Y39.155 E57.29537
G1 X56.632 Y37.708 E57.42010
G1 X56.950 Y36.402 E57.53499
G1 X57.452 Y35.033 E57.65971
G1 X58.026 Y33.885 E57.76946
G1 E51.76946 F1800.00000
G92 E0
G1 X112.849 Y79.025 F10800.000
G1 E6.00000 F1800.00000
G1 X113.746 Y79.830 E6.10311 F900.000
G1 X114.393 Y80.848 E6.20621
G1 X114.741 Y82.003 E6.30932
G1 X114.765 Y83.208 E6.41242
G1 X114.462 Y84.376 E6.51553
G1 X113.861 Y85.409 E6.61775
G1 X113.450 Y85.866 E6.67028
G1 X112.982 Y86.263 E6.72281
G1 X111.931 Y86.834 E6.82503
G1 X110.755 Y87.102 E6.92813
G1 X109.551 Y87.043 E7.03124
G1 X108.407 Y86.662 E7.13434
G1 X107.409 Y85.986 E7.23745
G1 X106.630 Y85.065 E7.34055
G1 X106.128 Y83.969 E7.44366
G1 X105.940 Y82.778 E7.54676
G1 X106.081 Y81.580 E7.64987
G1 X106.540 Y80.465 E7.75298
G1 X107.282 Y79.515 E7.85608
G1 X108.253 Y78.801 E7.95919
G1 X109.382 Y78.375 E8.06229
G1 X109.663 Y78.350 E8.08649
G1 X110.583 Y78.269 E8.16540 F900.000
G1 X111.768 Y78.491 E8.26850
G1 X112.795 Y78.998 E8.36648
G1 X113.217 Y78.867 F10800.000
G1 X109.593 Y77.003 F10800.000
G1 X108.572 Y77.282 E8.45700 F900.000
G1 X107.406 Y77.823 E8.56684
G1 X106.397 Y78.604 E8.67594
G1 X105.587 Y79.590 E8.78505
G1 X105.013 Y80.739 E8.89488
G1 X104.704 Y81.751 E8.98541
G1 X99.335 Y77.856 E9.55262
G1 X94.486 Y73.960 E10.08449
G1 X89.834 Y69.830 E10.61636
G1 X85.392 Y65.476 E11.14823
G1 X81.169 Y60.908 E11.68011
G1 X77.177 Y56.138 E12.21198
G1 X73.424 Y51.177 E12.74385
G1 X69.687 Y45.697 E13.31106
G1 X70.708 Y45.418 E13.40158
G1 X71.874 Y44.877 E13.51142
G1 X72.883 Y44.096 E13.62052
G1 X73.692 Y43.111 E13.72956
G1 X74.280 Y41.920 E13.84312
G1 X74.576 Y40.949 E13.92994
G1 X79.945 Y44.844 E14.49714
G1 X84.794 Y48.740 E15.02902
G1 X89.446 Y52.870 E15.56089
G1 X93.888 Y57.224 E16.09276
G1 X98.111 Y61.792 E16.62463
G1 X102.103 Y66.562 E17.15651
G1 X105.856 Y71.523 E17.68838
G1 X109.559 Y76.954 E18.25045
G1 X109.740 Y77.375 F10800.000
G1 X110.424 Y77.309 F10800.000
G1 X106.274 Y71.222 E18.88038 F900.000
G1 X102.506 Y66.241 E19.41442
G1 X98.497 Y61.452 E19.94846
G1 X94.257 Y56.866 E20.48250
G1 X89.797 Y52.494 E21.01654
G1 X85.126 Y48.347 E21.55057
G1 X80.257 Y44.435 E22.08461
G1 X74.294 Y40.109 E22.71454
G1 X73.800 Y41.730 E22.85942
G1 X73.257 Y42.830 E22.96435
G1 X72.522 Y43.725 E23.06335
G1 X71.605 Y44.435 E23.16255
G1 X70.531 Y44.933 E23.26374
G1 X68.856 Y45.391 E23.41222
G1 X73.006 Y51.478 E24.04215
G1 X76.774 Y56.459 E24.57619
G1 X80.783 Y61.248 E25.11023
G1 X85.023 Y65.834 E25.64426
G1 X89.483 Y70.206 E26.17830
G1 X94.154 Y74.353 E26.71234
G1 X99.023 Y78.265 E27.24638
G1 X104.986 Y82.591 E27.87631
G1 X105.272 Y81.653 E27.96017
G1 X105.548 Y81.711 E27.98429
G1 X105.421 Y82.788 E28.07704
G1 X105.631 Y84.119 E28.19223
G1 X106.191 Y85.344 E28.30743
G1 X107.131 Y86.454 E28.43182
G1 X106.954 Y86.654 E28.45467
G1 X102.394 Y83.651 E28.92157
G1 X97.337 Y79.961 E29.45679
G1 X92.466 Y76.031 E29.99198
G1 X87.790 Y71.869 E30.52718
G1 X83.322 Y67.486 E31.06238
G1 X79.071 Y62.892 E31.59758
G1 X75.048 Y58.097 E32.13278
G1 X71.262 Y53.113 E32.66794
G1 X67.609 Y47.774 E33.22107
G1 X64.452 Y42.651 E33.73560
G1 X63.999 Y41.652 E33.82940
G1 X63.757 Y40.513 E33.92891
G1 X63.774 Y39.353 E34.02811
G1 X64.049 Y38.226 E34.12730
G1 X64.567 Y37.189 E34.22650
G1 X65.304 Y36.292 E34.32569
G1 X66.221 Y35.582 E34.42489
G1 X67.273 Y35.094 E34.52408
G1 X68.408 Y34.853 E34.62328
G1 X69.537 Y34.869 E34.71981
G1 X70.701 Y35.146 E34.82210
G1 X71.684 Y35.627 E34.91570
G1 X76.886 Y39.049 E35.44815
G1 X81.943 Y42.739 E35.98335
G1 X86.814 Y46.669 E36.51855
G1 X91.490 Y50.831 E37.05375
G1 X95.958 Y55.214 E37.58894
G1 X100.209 Y59.808 E38.12414
G1 X104.232 Y64.603 E38.65934
G1 X108.018 Y69.588 E39.19454
G1 X111.559 Y74.749 E39.72974
G1 X114.422 Y79.390 E40.19601
G1 X114.217 Y79.562 E40.21886
G1 X113.140 Y78.595 E40.34257
G1 X111.932 Y77.999 E40.45777
G1 X110.608 Y77.750 E40.57296
G1 X109.527 Y77.846 E40.66572
G1 X109.478 Y77.568 E40.68984
G1 X110.366 Y77.325 E40.76858
G1 X112.828 Y75.827 F10800.000
G1 X115.283 Y79.807 E41.16847 F900.000
G1 X115.772 Y80.887 E41.26982
G1 X116.038 Y82.136 E41.37904
G1 X116.019 Y83.412 E41.48814
G1 X115.717 Y84.652 E41.59724
G1 X115.147 Y85.793 E41.70635
G1 X114.337 Y86.779 E41.81545
G1 X113.328 Y87.560 E41.92455
G1 X112.170 Y88.097 E42.03365
G1 X110.922 Y88.362 E42.14275
G1 X109.646 Y88.344 E42.25186
G1 X108.405 Y88.041 E42.36107
G1 X107.339 Y87.520 E42.46258
G1 X102.101 Y84.073 E42.99873
G1 X97.024 Y80.369 E43.53607
G1 X92.133 Y76.423 E44.07340
G1 X87.439 Y72.245 E44.61073
G1 X82.953 Y67.844 E45.14806
G1 X78.685 Y63.232 E45.68539
G1 X74.646 Y58.418 E46.22272
G1 X70.845 Y53.414 E46.76004
G1 X67.178 Y48.054 E47.31530
G1 X63.997 Y42.893 E47.83368
G1 X63.508 Y41.813 E47.93504
G1 X63.242 Y40.564 E48.04425
G1 X63.261 Y39.288 E48.15336
G1 X63.563 Y38.048 E48.26246
G1 X64.133 Y36.907 E48.37156
G1 X64.943 Y35.921 E48.48066
G1 X65.952 Y35.140 E48.58976
G1 X67.110 Y34.603 E48.69886
G1 X68.358 Y34.338 E48.80797
G1 X69.601 Y34.356 E48.91429
G1 X70.875 Y34.659 E49.02629 F900.000
G1 X71.940 Y35.179 E49.12757
G1 X77.179 Y38.627 E49.66388
G1 X82.256 Y42.331 E50.20121
G1 X87.147 Y46.277 E50.73854
G1 X91.841 Y50.455 E51.27587
G1 X96.327 Y54.856 E51.81320
G1 X100.595 Y59.468 E52.35053
G1 X104.634 Y64.282 E52.88786
G1 X108.435 Y69.286 E53.42519
G1 X111.990 Y74.469 E53.96252
G1 X112.796 Y75.776 E54.09381
G1 X112.638 Y76.179 F10800.000
G1 X112.791 Y77.804 F10800.000
G1 X113.329 Y78.293 E54.15593 F900.000
G1 X113.689 Y78.722 E54.20381
G1 X114.446 Y79.705 F10800.000
G1 X114.704 Y80.115 E54.29357 F900.000
G1 X114.936 Y80.545 E54.38411
G1 X115.148 Y81.092 E54.49275
G1 X115.345 Y81.858 E54.63926
G1 X115.391 Y82.199 E54.70316
G1 X115.387 Y83.331 E54.91288
G1 X115.111 Y84.429 E55.12268
G1 X115.018 Y84.658 E55.16843
G1 X114.598 Y85.437 E55.33234
G1 X114.339 Y85.803 E55.41541
G1 X113.893 Y86.321 E55.54219
G1 X113.361 Y86.752 E55.66897
G1 X112.988 Y87.000 E55.75204
G1 X112.197 Y87.398 E55.91595
G1 X111.966 Y87.484 E55.96169
G1 X110.860 Y87.728 E56.17149
G1 X109.729 Y87.699 E56.38122
G1 X109.388 Y87.643 E56.44511
G1 X108.629 Y87.424 E56.59163
G1 X108.088 Y87.196 E56.70026
G1 X107.661 Y86.948 E56.79188
G1 X107.267 Y86.689 E56.87918
G1 X106.306 Y85.901 F10800.000
G1 X105.883 Y85.524 E56.92766 F900.000
G1 X105.412 Y84.974 E56.98957
G1 X105.461 Y81.430 F10800.000
G1 X105.621 Y80.982 E57.07777 F900.000
G1 X106.026 Y80.108 E57.25607
G1 X106.131 Y79.942 E57.29245
G1 X106.840 Y79.060 E57.50224
G1 X107.743 Y78.377 E57.71204
G1 X107.912 Y78.277 E57.74842
G1 X108.797 Y77.898 E57.92672
G1 X109.249 Y77.751 E58.01490
G1 X109.831 Y75.660 F10800.000
G1 X111.748 Y77.576 E58.24922 F900.000
G1 X112.522 Y77.615 F10800.000
G1 X108.256 Y73.349 E58.77082 F900.000
G1 X109.198 Y72.086 F10800.000
G1 X101.788 Y64.675 E59.67683 F900.000
G1 X102.162 Y62.844 F10800.000
G1 X85.540 Y46.222 E61.70909 F900.000
G1 X83.873 Y46.761 F10800.000
G1 X76.298 Y39.185 E62.63528 F900.000
G1 X74.924 Y40.017 F10800.000
G1 X70.373 Y35.466 E63.19164 F900.000
G1 X71.999 Y36.357 F10800.000
G1 X77.602 Y41.960 E63.87665 F900.000
G1 X78.962 Y41.114 F10800.000
G1 X89.180 Y51.332 E65.12596 F900.000
G1 X94.029 Y53.976 F10800.000
G1 X96.081 Y56.028 E65.37679 F900.000
G1 X97.006 Y59.158 F10800.000
G1 X107.523 Y69.676 E66.66271 F900.000
G1 X106.681 Y71.039 F10800.000
G1 X112.111 Y76.469 E67.32666 F900.000
G1 X110.804 Y74.426 F10800.000
G1 X104.457 Y68.080 E68.10257 F900.000
G1 X105.200 Y66.617 F10800.000
G1 X81.735 Y43.152 E70.97144 F900.000
G1 X80.279 Y43.902 F10800.000
G1 X74.148 Y37.771 E71.72106 F900.000
G1 X74.025 Y39.853 F10800.000
G1 X69.409 Y35.237 E72.28547 F900.000
G1 X68.654 Y35.217 E72.35076
G1 X73.853 Y40.417 E72.98646
G1 X73.681 Y40.980 E73.03739
G1 X67.990 Y35.288 E73.73328
G1 X67.383 Y35.417 E73.78686
G1 X73.510 Y41.544 E74.53586
G1 X73.282 Y42.051 E74.58396
G1 X66.869 Y35.638 E75.36804
G1 X66.367 Y35.871 E75.41591
G1 X73.039 Y42.544 E76.23171
G1 X72.733 Y42.973 E76.27728
G1 X65.951 Y36.190 E77.10652
G1 X65.549 Y36.524 E77.15165
G1 X72.401 Y43.376 E77.98947
G1 X72.012 Y43.722 E78.03449
G1 X65.202 Y36.912 E78.86706
G1 X64.870 Y37.316 E78.91222
G1 X71.597 Y44.042 E79.73466
